/* XPM */
static char *empire_state_baseColor[] = {
/* columns rows colors chars-per-pixel */
"512 512 256 2 ",
"   c #000000",
".  c #090909",
"X  c #161718",
"o  c #0E1114",
"O  c #171C26",
"+  c #0F1729",
"@  c #1D222A",
"#  c #1C2635",
"$  c #1D3332",
"%  c #25262A",
"&  c #252B35",
"*  c #2B333A",
"=  c #35373A",
"-  c #36312B",
";  c #2A231D",
":  c #463934",
">  c #394434",
",  c #4D463C",
"<  c #61483F",
"1  c #2B3745",
"2  c #343B43",
"3  c #363D47",
"4  c #29344A",
"5  c #1F274A",
"6  c #3B444C",
"7  c #38434A",
"8  c #3B4552",
"9  c #3D4A54",
"0  c #3A4957",
"q  c #374A53",
"w  c #3E4D63",
"e  c #464849",
"r  c #554B46",
"t  c #5A544B",
"y  c #434C54",
"u  c #424D5A",
"i  c #484D55",
"p  c #44525C",
"a  c #4C545C",
"s  c #4A5357",
"d  c #545A5D",
"f  c #585859",
"g  c #524F4E",
"h  c #655C58",
"j  c #67564E",
"k  c #6B635D",
"l  c #67635B",
"z  c #74675C",
"x  c #6C6D57",
"c  c #414E64",
"v  c #4B5562",
"b  c #4D5A64",
"n  c #485667",
"m  c #545C63",
"M  c #5A5E63",
"N  c #535D6A",
"B  c #545A65",
"V  c #505E73",
"C  c #665D63",
"Z  c #5C6265",
"A  c #5C646B",
"S  c #56636A",
"D  c #5B6774",
"F  c #516472",
"G  c #636464",
"H  c #6B6563",
"J  c #6D6A64",
"K  c #62666A",
"L  c #646A6C",
"P  c #6B6B6C",
"I  c #6A6669",
"U  c #736B64",
"Y  c #746D6B",
"T  c #776B67",
"R  c #75716C",
"E  c #7B736C",
"W  c #7B7468",
"Q  c #646C73",
"!  c #6A6E72",
"~  c #636D7B",
"^  c #656A75",
"/  c #756E72",
"(  c #6C7274",
")  c #65717C",
"_  c #6B747B",
"`  c #6A767A",
"'  c #747474",
"]  c #7B7473",
"[  c #7D7A74",
"{  c #747A7C",
"}  c #7C7B7B",
"|  c #76767A",
" . c #6B726C",
".. c #5A625A",
"X. c #4D3B45",
"o. c #84776C",
"O. c #827673",
"+. c #837B74",
"@. c #8A7D74",
"#. c #837C7B",
"$. c #887C7A",
"%. c #8A746E",
"&. c #82685D",
"*. c #80157F",
"=. c #7B817C",
"-. c #5E877C",
";. c #8B8275",
":. c #85827C",
">. c #8B837C",
",. c #888579",
"<. c #95887B",
"1. c #958A76",
"2. c #A3927C",
"3. c #667282",
"4. c #6A7584",
"5. c #6D7984",
"6. c #6C7A8A",
"7. c #677889",
"8. c #737C84",
"9. c #737E8A",
"0. c #797D83",
"q. c #6A7A8D",
"w. c #577088",
"e. c #857D82",
"r. c #907D80",
"t. c #AE42B3",
"y. c #C036C5",
"u. c #7B8285",
"i. c #76818B",
"p. c #7B848B",
"a. c #798589",
"s. c #7E8993",
"d. c #7A8693",
"f. c #6F8591",
"g. c #7890AA",
"h. c #848383",
"j. c #8B8483",
"k. c #8D8A84",
"l. c #838A8D",
"z. c #8C8B8B",
"x. c #86868A",
"c. c #938B84",
"v. c #938D8B",
"b. c #978B85",
"n. c #95928C",
"m. c #9B938C",
"M. c #9B9386",
"N. c #838C94",
"B. c #868E96",
"V. c #958E92",
"C. c #8B9295",
"Z. c #86919A",
"A. c #8B959C",
"S. c #8E999E",
"D. c #869196",
"F. c #949393",
"G. c #9B9593",
"H. c #9D9A94",
"J. c #939A9D",
"K. c #9C9B9B",
"L. c #96969A",
"P. c #8C928C",
"I. c #A69889",
"U. c #A39B94",
"Y. c #A39D9B",
"T. c #A79B94",
"R. c #AF9B8B",
"E. c #9CA19B",
"W. c #B5A38C",
"Q. c #ACA294",
"!. c #A4A29C",
"~. c #ABA49B",
"^. c #A9A699",
"/. c #B4AA9C",
"(. c #BBAC9C",
"). c #B5A696",
"_. c #B4AA96",
"`. c #8E99A1",
"'. c #8B97A3",
"]. c #939CA3",
"[. c #969DA6",
"{. c #8899B0",
"}. c #A39DA1",
"|. c #9BA4AB",
" X c #98A2A7",
".X c #9AA7B4",
"XX c #92A5B6",
"oX c #A4A4A3",
"OX c #A9A9A7",
"+X c #B5ACA4",
"@X c #B9B3A8",
"#X c #A4ADB5",
"$X c #AAB3B8",
"%X c #B7B9B7",
"&X c #AEB1AC",
"*X c #C2AD98",
"=X c #C6B49C",
"-X c #D1BA9D",
";X c #C3B4A4",
":X c #CCBBA4",
">X c #C4BAAC",
",X c #CCBCAB",
"<X c #C5B6A8",
"1X c #D2BDA8",
"2X c #C7BDB4",
"3X c #CBB8AB",
"4X c #BBC1BC",
"5X c #9FC2B7",
"6X c #CDC1AC",
"7X c #D4C3AD",
"8X c #DAC4AD",
"9X c #D7C5AA",
"0X c #CDC3B3",
"qX c #C8C4BA",
"wX c #D4C5B3",
"eX c #DAC6B3",
"rX c #D5CAB4",
"tX c #DBCAB5",
"yX c #D5CBBB",
"uX c #DBCCBB",
"iX c #D5C6B9",
"pX c #DCD1BD",
"aX c #D8D1BA",
"sX c #CFD0BF",
"dX c #E1CDB9",
"fX c #E2D2BD",
"gX c #E1C6AB",
"hX c #D1C09E",
"jX c #99AEC4",
"kX c #AAB8C6",
"lX c #B3BDC6",
"zX c #A8B7CA",
"xX c #839EC3",
"cX c #BAC3C7",
"vX c #BCC9D5",
"bX c #C7C8C6",
"nX c #DCCEC1",
"mX c #D3CCC5",
"MX c #DDD2C3",
"NX c #D7D3CB",
"BX c #D7D8D7",
"VX c #C8D0D5",
"CX c #E2D3C3",
"ZX c #E4D8C8",
"AX c #E2D6CC",
"SX c #E8E5D9",
"DX c #D3DBE3",
"FX c #DCE3E7",
"GX c #E7EAEA",
"HX c #E8EEF1",
"JX c #EBF2F3",
"KX c #FFFFFF",
"LX c #F4F6F6",
"PX c #F1F2EC",
"IX c #DDE1DB",
"UX c #C3BEC1",
/* pixels */
"MXMXfXMX>Xv.m.G.G.OX}.Y.+XT.^.rXZXuXZX0X+XnXAXqX+X+XqXIXNX@X!.&XIXAX2X+XnXCXMXpX@X@XNXBX@XU.OXmXMX6X@XuXZXZXfXfX1.r , g ] c.M.c.;.<.<.Y [ T E ).dXdXfXfXI.W [ E T b.r.C E U W /.tX9X1XuXI.l T H l M.+.l z o./.NXMXMXMX0XT.&XbX%XY.G.$.%.%.<.<XdXeXdXiXU.b.Y.m.G.H.G.!.H.m.Q.<.k.m.v.Q.rXtXtXwX).$.b.v.m.m.v.c.v.j.~.uXpXrXuXiXt                   - yX(.=X;XQ.r.k.j.c./.1X1XwX0X).H.@X+XT.m.m.OX@XE.H.H.G.~.U.W.,XtX1X7X;Xm.T.+XV.+X3X3X:X6XW.j , o.=X-X:X:X1X).>.c.z.' k.H.>.v.,.o.W.6X-X-X-XR.o.,.#.+.m.n.:.k.;.;._.9XhXhX6X2.W #.[ >.Y.e.( } Y c.<XdXgXeXeXeX8X6X=X6X@Xo.x x o.;XtX7X7XyXT.U k H V.}.e.C I O.OX;.H H T T.0X6X6X6XQ.;.c.j.v.+X*X*X<X=XPXKXKXKXKXKXKXKXKXKXKXKXKXKXKXKXKXKXKXKXKXKXKXKXKXKXKXKXKXKXKXKXKXKXKXKXKXKXKXKXKXKXKXKXKXKXKXKXKXKXKXKXKXKXKXKXKXKXKXKXKXKXKXKXKXKXKXKXKXKXKXKXKXKXKXKXKXKXKXKXKXKXKXKXKXKXKXKXKXKXKXKXKXKXKXKXKXKXKXKXKXKXKXKXKXKXKXKXKXKXKXKXKXKXKXKXKXKXKXKXKXKXKXKXKXKXKXKXKXKXKXKXKXKXKXKXKXKXKXKXKXKXKXKXKXKXKXKXKXKXKXKXKXKXKXKXKXKXKXKXKXKXKXKXKXKXKXKXKXKXKXKXKXKXKXKXKXKXKXKXKXKXKXKXKXKXKXKXKXKXKXKXKXKXKXKX",
"NXpXaXpX>X<.>.>.:.~.T.@.b.b.R.rXZXaXAXyXb.M.G.:.Y.Y.<.n.M.m.!.m.G.Y.Y.+XuXCXMXpX(.I.~.T.H.Y.!.!.^.!.^.MXZXZXZXtX1.r , t | j.z.<.[ M.c.] $.} o.).eXdXtXiXI.R #.E T G.b.H #.H U /.rX9X8XtXI.h } ] h n.+.l W o.Q.ZXMXyXpX6XQ.%XmX2X~.U.%.H &.@.<XdXdXuXwX~.2XMXqX~.H.@XmXqX@XH.!.mXmX@X).iXrXtXtX/.Q.iXqXOXI.T.2XbX@X^.yXuXwXuXmXt     .             - rX*X*X<XT.o.R | #.).iX2X1X,XT.[ ' R k.G.j.' ' =.L.v.[ E E M.,XwXwX7X+X$./ T %.T.2X3X6X6XQ.j , o._.=X=X-X1X_.j.k.z.} v.U.j.$.:.+.W.9X1X9X1XQ.o.:.#.O.Y.n.=.>.=.,.(.9XhX9X1XI.+.:.E >.Y.h.{ } E <.,XeX1X1X:X:X9X6X:X6X@X;.J l o.(.iX1XwXyXU.U T H r.}.O.I I O.~.c.U U R T.0X6X0X6XQ.;.j.k.c.OX<X=X<X;XLXKXKXKXKXKXKXKXKXKXKXKXKXKXKXKXKXKXKXKXKXKXKXKXKXKXKXKXKXKXKXKXKXKXKXKXKXKXKXKXKXKXKXKXKXKXKXKXKXKXKXKXKXKXKXKXKXKXKXKXKXKXKXKXKXKXKXKXKXKXKXKXKXKXKXKXKXKXKXKXKXKXKXKXKXKXKXKXKXKXKXKXKXKXKXKXKXKXKXKXKXKXKXKXKXKXKXKXKXKXKXKXKXKXKXKXKXKXKXKXKXKXKXKXKXKXKXKXKXKXKXKXKXKXKXKXKXKXKXKXKXKXKXKXKXKXKXKXKXKXKXKXKXKXKXKXKXKXKXKXKXKXKXKXKXKXKXKXKXKXKXKXKXKXKXKXKXKXKXKXKXKXKXKXKXKXKXKXKXKXKXKXKXKXKXKX",
"MXaXaXfX<X;.E E +.!.m.E @.;.I.aXZXnXMXiXc.O.E U T.U.k k k >.Y.:.Y #.O.~.pXpXMXMX/.T o.U +.T.k.T [ +.U.nXCXtXfXrX<., X.g / $.$.:.#.b.G.$.r.j.r.+XeXeXeXwXQ.+.:.$.] G.m.O.>.E +./.uX1X8XtXT.R } #.U G.;.W +.+.^.MXyXyXMX6X2.:.,.$.m.m.T j j %.;XdXuXdXwXM.<.M.<.n.G.k.m.n.M.!.<.H.~.m.T.yXeXeXtX(.I.).~.H.m.T.Y.OXU.~.yXrX7XuXyXt .                 - rX*X*X:X).o.R [ #./.wX1XwXwXQ.W R J $.G.:.R  .' n.z.Y E E M.0XrXrX8X@XO.U T ] ~.2XiXrXrXW.j , %.*X=X:X:X1X).$.O./ e.v.V.E H L E _.7X7X7X6XQ. .H H _ Y.V.J J x ,.@X6X9X9XrXU.T I H #.Y.x.P I J <.,XeX1X6X:X,XrX7XrXyX@X,.W W [ +XiXwX7XyXU.W E Y j.Y.e./ O.O.~.k.] [ o.Q.6X6X:X6XQ.W E ] :.+X1X1X,X+XPXKXKXKXKXKXKXKXKXKXKXKXKXKXKXKXKXKXKXKXKXKXKXKXKXKXKXKXKXKXKXKXKXKXKXKXKXKXKXKXKXKXKXKXKXKXKXKXKXKXKXKXKXKXKXKXKXKXKXKXKXKXKXKXKXKXKXKXKXKXKXKXKXKXKXKXKXKXKXKXKXKXKXKXKXKXKXKXKXKXKXKXKXKXKXKXKXKXKXKXKXKXKXKXKXKXKXKXKXKXKXKXKXKXKXKXKXKXKXKXKXKXKXKXKXKXKXKXKXKXKXKXKXKXKXKXKXKXKXKXKXKXKXKXKXKXKXKXKXKXKXKXKXKXKXKXKXKXKXKXKXKXKXKXKXKXKXKXKXKXKXKXKXKXKXKXKXKXKXKXKXKXKXKXKXKXKXKXKXKXKXKXKXKXKXKX",
"ZXpXaXaX>X;.+.@.$.Y.U.r.M.b.Q.tXCXMXCXmXb.>.:.E Y.U.R R W k.T.j.$.b.$./.uXuXCXuX(.%.%.%.%.T.b.E +.@.R.aXpXpXpXrX<.r X.g / [ h.k.>.b.G.j.e.r.$.).eX1XeXtX~.#.$.$.r.U.M.O.E [ ;.Q.eX8XeXuXQ.] [ [ [ G.,.[ ;.o.Q.pXrXuXZXwX;.l k U b.b.%.H T %.;XuXeXeXwX<.z o.l :.H.k U k o.Q.o.J ] +.T.tXrXwXiXQ.@.,.+.j.m.>.+.@.,.~.nXuXtXuXyXf                   % eX=X-X6XQ.W R | } ~.2X1X1X1XU.[ E R h.G.h.| [ | F.k./ O.o.m.,XrX7X7X+X$./ E O.T.0XwX6X6XW.j , %.*X-X1X1X1X).O./ / / V.c.H h Z / ).iX1XwX0XU.l f d P [.V.f f f ;.@XwX6XrXwXI.C M h +.Y.z.! I Y b.,XtXgXtXeX7X7X,XwXyX@X1.[ [ [ +XiX,X6XwXR.o.o.E v.Y.e.O.] r.Y.<.[ h.+.Q.7X:X:X>X/.,.$.@.$.+X1X:X:X+XLXKXKXKXKXKXKXKXKXKXKXKXKXKXKXKXKXKXKXKXKXKXKXKXKXKXKXKXKXKXKXKXKXKXKXKXKXKXKXKXKXKXKXKXKXKXKXKXKXKXKXKXKXKXKXKXKXKXKXKXKXKXKXKXKXKXKXKXKXKXKXKXKXKXKXKXKXKXKXKXKXKXKXKXKXKXKXKXKXKXKXKXKXKXKXKXKXKXKXKXKXKXKXKXKXKXKXKXKXKXKXKXKXKXKXKXKXKXKXKXKXKXKXKXKXKXKXKXKXKXKXKXKXKXKXKXKXKXKXKXKXKXKXKXKXKXKXKXKXKXKXKXKXKXKXKXKXKXKXKXKXKXKXKXKXKXKXKXKXKXKXKXKXKXKXKXKXKXKXKXKXKXKXKXKXKXKXKXKXKXKXKXKXKXKXKX",
"ZXCXCXCX>Xc.c.k.V.OX}.r.c.M.Q.aXZXZXAXyXm.c.<.$.~.!.>.>.;.c.!.c.r.r.k.).nXuXuXnX/.@.r.$.b.T.m.$.>.$.~.MXZXZXZXfXb., : f ' #.,.,.>.b.m.r.#.#.$.).eXdXtXrXT.:.+.O.r.Y.m.v.P.n.<./.fX8XgXuXT.O.| ] E U.,.R W W R.sXyXyXnX7Xb.U T Y b.b.O.T T @.;XdXdXuXwXb.W +.R >.G.R U k +.~.+.[ :.@.I.yXtXtXtX).@.c.>.k.m.r.$.h.<.Q.yXfXuXfXyXf                   - dX=X:X1XoX/ P P ] ).wX9X9X1XI.E Y R j.V.#.J J ] V.V.Y / T I.2XeX7XwX+X] Y T O.T.0X0X6XwX_.j , o.=X:X1X1X1X).j X.e f v.v.E ( ! } OXwX,X1X6XU.} } 0.e.}.G.I K Q ,.@XrX9XrX6XI./ L I @.K. XOX%X%X^.6XtXpX8X6X6X7X1X,X1X;X@.R J [ +X0X,X1XwXU.W T / r.L.e./ / O.}.v.j.j.O.R.1X1X:X>XQ.] R R +./.-X:X<X+XJXKXKXKXKXKXKXKXKXKXKXKXKXKXKXKXKXKXKXKXKXKXKXKXKXKXKXKXKXKXKXKXKXKXKXKXKXKXKXKXKXKXKXKXKXKXKXKXKXKXKXKXKXKXKXKXKXKXKXKXKXKXKXKXKXKXKXKXKXKXKXKXKXKXKXKXKXKXKXKXKXKXKXKXKXKXKXKXKXKXKXKXKXKXKXKXKXKXKXKXKXKXKXKXKXKXKXKXKXKXKXKXKXKXKXKXKXKXKXKXKXKXKXKXKXKXKXKXKXKXKXKXKXKXKXKXKXKXKXKXKXKXKXKXKXKXKXKXKXKXKXKXKXKXKXKXKXKXKXKXKXKXKXKXKXKXKXKXKXKXKXKXKXKXKXKXKXKXKXKXKXKXKXKXKXKXKXKXKXKXKXKXKXKXKXKX",
"ZXZXAXSXqXc.v.V.r.%XG.r.V.M.~.7XCXMXMXiXm.>.j.k.~.!.c.c.<.G.!.v.j.v.j./.CXiXdXuX*X<.r.b.b.~.I.>.<.>.~.MXZXCXCXtX1., r t / } c.c.k.M.U.>.z.j.b.(.eX8XeXrX~.Q.%X@X~.T.}.2XNXmX@X/.wX1XeXeXT.@.$.h.:.m.c.k.H.M.+XaXiXyXyX>X<.Y $.] v.Y.j.O.o.1.,XCXfXCXuXb.o.@.E k.G.[ R U $.~.+.[ @.:.T.nXpXuXuX(.;.>.@.k.I.b.>.#.>.!.qXrXeXMXyXt                   - 1X;X1XiX+X/ C G R ~.1X3X1X1XI.T H J j.V.[ f l / V.z.C h Y b.2X1X1X1X+X} C C ' ~.iXwX9XwXW.x r E ;X-X1X1X1XR.z : : j v.m.>.x.e.k.).1X:X>X>X!.k.L.K.V.}.G.$.e.:.M.@XrXhX9X9XQ.$.x.j.v.!.L.[.&X!.Q.>XeX8XrX7X7XrX7X,X7X+XE h l  ./.yX7X9XqXm.H h B e.[.| B M / }.z.j.x.T T.1X1X7X,XQ.U l l [ (.6X:X,X(.PXKXKXKXKXKXKXKXKXKXKXKXKXKXKXKXKXKXKXKXKXKXKXKXKXKXKXKXKXKXKXKXKXKXKXKXKXKXKXKXKXKXKXKXKXKXKXKXKXKXKXKXKXKXKXKXKXKXKXKXKXKXKXKXKXKXKXKXKXKXKXKXKXKXKXKXKXKXKXKXKXKXKXKXKXKXKXKXKXKXKXKXKXKXKXKXKXKXKXKXKXKXKXKXKXKXKXKXKXKXKXKXKXKXKXKXKXKXKXKXKXKXKXKXKXKXKXKXKXKXKXKXKXKXKXKXKXKXKXKXKXKXKXKXKXKXKXKXKXKXKXKXKXKXKXKXKXKXKXKXKXKXKXKXKXKXKXKXKXKXKXKXKXKXKXKXKXKXKXKXKXKXKXKXKXKXKXKXKXKXKXKXKXKXKXKX",
"AXZXAXAXUXr.j.v.V.OXG.x.b.r.U.wXpXuXMXqXM.>.>.@.~.!.:.k.<.m.T.v.r.j.b./.uXuXCXuX).r.b.x.v.}.U.j.j.>.T.MXZXCXCXiX<.t e t Y +.:.[ E <.n.+.O.] @.).eX8X8XtXT.c.U.G.v.T.m.M.m.G.c._.uX8XeXeXQ.o.#.:.E H.k.M.Q.U.@XpXiXuXAX1XM.O.$.e.V.Y.c./ R <.@XnXuXnXiXM.E E E v.G.$.] ] j.~.$.E +.:.I.uXuXuXdX(.o.o.Y :.G.<.] E #.!.iXrXrXpXyXt   .               & iX<X1X2X~./ K I E T.>X:X:X>XI.J I I $.M.j.F.].L.L.e.K C Y v.2X2X3X1X+Xe.I I ] Y.iXiX7XwX).j , o.=XhX1X1X1X).%.T T Y v.M.,.:.#.+.Q.1X1X1X1XR.#.#.#.$.U.m.+.#.=.,.hX9XhXgX9X2.O.O.} >.Y.z.' ' R <.>XdXtXeX7X6XwX7X,X,X(.o.h f R ~.wX7X1XqXU.H C M e.[.| B f / }.V.e.r.%.I.1X1X1X,XQ.U l l [ +X9X-X,X+XPXKXKXKXKXKXKXKXKXKXKXKXKXKXKXKXKXKXKXKXKXKXKXKXKXKXKXKXKXKXKXKXKXKXKXKXKXKXKXKXKXKXKXKXKXKXKXKXKXKXKXKXKXKXKXKXKXKXKXKXKXKXKXKXKXKXKXKXKXKXKXKXKXKXKXKXKXKXKXKXKXKXKXKXKXKXKXKXKXKXKXKXKXKXKXKXKXKXKXKXKXKXKXKXKXKXKXKXKXKXKXKXKXKXKXKXKXKXKXKXKXKXKXKXKXKXKXKXKXKXKXKXKXKXKXKXKXKXKXKXKXKXKXKXKXKXKXKXKXKXKXKXKXKXKXKXKXKXKXKXKXKXKXKXKXKXKXKXKXKXKXKXKXKXKXKXKXKXKXKXKXKXKXKXKXKXKXKXKXKXKXKXKXKXKXKX",
"ZXZXCXAX3XY.+X@X+XOX~.+X2X+X/.wXpXyXMXiXI.k.b.j.~.~.T.+XOX~.Y.m.j.r.b./.uXuXdXnX;XT.2X2X@X}.oX%XbX@X+XnXAXCXCXrX1., : r R j.,.;.W <.b.U T H E R.8X9X9XrXQ.W Y T T M.c.k J k z Q.dXeX8XfXT.k h g l G.;.j l W U.yXyXuXAXeXb.] ] } V.Y.G.v.c.b.@XtXiXuXiXm.E U U v.G.}.&X@XT.Y.:.R } +.I.tXuXuXdX(.;.>.j.c.m.>.:.:.,.T.nXfXuXfXyXh                   - nX<X,X,X+Xr.#.0.r.Q.:X:X:X,XU.#.e.e.k.U.G.OXOXK.L.V.0.#.$.U.2X1X3X1X+Xr.#.#.j.~.2X1X6X9X).j , o.*X=X-X-X1X).@.$.r.] v.n.>.P.j.@.W.9X1XhX9XR.+.@.+.$.T.M.@.>.,.1.=X9XgX9X9X2.+.e.O.$.Y.x.| } E <.,XfXgXeX7XwXiX1X:X1X(.>.E ' =.+X0X7X9X0XU.] #.} V.}.e./ 0.e.OXj.' O.E R.1X1X1X2X~.#.[ [ h.@X9X:X3X+XPXKXKXKXKXKXKXKXKXKXKXKXKXKXKXKXKXKXKXKXKXKXKXKXKXKXKXKXKXKXKXKXKXKXKXKXKXKXKXKXKXKXKXKXKXKXKXKXKXKXKXKXKXKXKXKXKXKXKXKXKXKXKXKXKXKXKXKXKXKXKXKXKXKXKXKXKXKXKXKXKXKXKXKXKXKXKXKXKXKXKXKXKXKXKXKXKXKXKXKXKXKXKXKXKXKXKXKXKXKXKXKXKXKXKXKXKXKXKXKXKXKXKXKXKXKXKXKXKXKXKXKXKXKXKXKXKXKXKXKXKXKXKXKXKXKXKXKXKXKXKXKXKXKXKXKXKXKXKXKXKXKXKXKXKXKXKXKXKXKXKXKXKXKXKXKXKXKXKXKXKXKXKXKXKXKXKXKXKXKXKXKXKXKXKXKX",
"ZXfXtXfX;X1.<.c.>.~.m.<.I.b.R.rXZXMXMXyXM.>.>.;.Y.~.m.!.I.U.T.m.r.r.$.).uXuXdXuX;XM.!.^.U.oX~.T.+XQ.~.yXCXCXCXtX<.< : t ] $.@.W W <.b.T U U W W.8X9X8X8XQ.W k U T m.b.h U H W ~.pXtX8XfXR.l f g t G.+.h z %.R.CXnXnXCX,XM.[ #.$.V.!.%XmXyX+X@XuXiXrX2XU.E T Y c.Y.%XmXmX+XY.k.#.j.>.U.yXpXgXdX(.I.2X2XOXH.m.@X4X/./.sXtXuXuXiXf   .               % tX<X,X2X+XO./ ] #.T.>X:X:X>XT.} } / $.M.O.P / / F.V./ ] ] b.,X,X>X9X/.+.Y R [ U.,X,X1X9X_.j , W *X*X=XhX-X2.%.O.] | L.G.h.j.@.@.W.9XhXhX=XW.;.@.+.$.T.I.$.r.} >.<XfXgXfX9XW.$.e.#.r.}.z.| } ] M.3XeX1X1X:X1XrX7X1X1X;X$.] ' [ +XwX,X7XwXR.o.] E v.G.#.] O.$.}.%.g f h I.1X1X,X6XQ.[ E ] ,.@X9X:X6X/.PXKXKXKXKXKXKXKXKXKXKXKXKXKXKXKXKXKXKXKXKXKXKXKXKXKXKXKXKXKXKXKXKXKXKXKXKXKXKXKXKXKXKXKXKXKXKXKXKXKXKXKXKXKXKXKXKXKXKXKXKXKXKXKXKXKXKXKXKXKXKXKXKXKXKXKXKXKXKXKXKXKXKXKXKXKXKXKXKXKXKXKXKXKXKXKXKXKXKXKXKXKXKXKXKXKXKXKXKXKXKXKXKXKXKXKXKXKXKXKXKXKXKXKXKXKXKXKXKXKXKXKXKXKXKXKXKXKXKXKXKXKXKXKXKXKXKXKXKXKXKXKXKXKXKXKXKXKXKXKXKXKXKXKXKXKXKXKXKXKXKXKXKXKXKXKXKXKXKXKXKXKXKXKXKXKXKXKXKXKXKXKXKXKXKXKX",
"SXCXtXpX>X@.o.E [ +Xn.+.;.@.Q.aXZXMXZXsX<.W ;.z T.U.U E U ,.T.>.o.$.+.).nXuXCXdX/.o.W z E ~.m.H o.+.T.uXZXZXfXwXM.r : h ] j.+.R +.<.m.O.k J +._.8X8X9X8XW.E j t ] I.m.T r t E ^.MXtXtXfXQ.z t t t H.,.k h z ).CXfXiXuX7XM.R ] R n.U.n.k.n.b.(.uXrXuXiXI.T T Y k.G.G.Y.H.T.Y.>.,.k.k.I.tXuXtXtX=X2.~.!.L.G.I.!.^.H.Q.0XrXuXCXiXg                   - rX<X,X1X~.} ] 0.e.T.1X:X:X>XU.] / / $.b.O.I I Y V.e.Y O.E b.,X,X:X1X/.E l U W m.>X:X:X9XW.j , W *X=X-XhXhX_.O.C I ! V.B./ C H E Q.7X6X6X6XU.E R / } L.v./ ' ' j.@XtXtX9X9XQ./ _ / >.}.j.P ' E b.,XeX1X1X:XwXrXeXwXtX<X@.U J ' +XiX7X1X7XI.z T T r.U.O.C H E ).$.T O.o.T.gX1X1X,XQ.+.[ ] k.+X6X:X7X@XLXKXKXKXKXKXKXKXKXKXKXKXKXKXKXKXKXKXKXKXKXKXKXKXKXKXKXKXKXKXKXKXKXKXKXKXKXKXKXKXKXKXKXKXKXKXKXKXKXKXKXKXKXKXKXKXKXKXKXKXKXKXKXKXKXKXKXKXKXKXKXKXKXKXKXKXKXKXKXKXKXKXKXKXKXKXKXKXKXKXKXKXKXKXKXKXKXKXKXKXKXKXKXKXKXKXKXKXKXKXKXKXKXKXKXKXKXKXKXKXKXKXKXKXKXKXKXKXKXKXKXKXKXKXKXKXKXKXKXKXKXKXKXKXKXKXKXKXKXKXKXKXKXKXKXKXKXKXKXKXKXKXKXKXKXKXKXKXKXKXKXKXKXKXKXKXKXKXKXKXKXKXKXKXKXKXKXKXKXKXKXKXKXKXKXKX",
"AXZXCXnX>X;.W E O.~.m.+.+.$.Q.aXZXMXZXMX<.W U T T.T.R k l <.~.j.U T +.).MXCXCXCX+X%.E z o.~.m.T O.@.I.uXZXZXpXyXM.t X.f / j.:.W +.1.b.@.U W +.W.9X8X8X7XQ.;.k k ] m.b.E f k +.~.aXdXdXfXW.z t t f M.,.W h o./.ZXMXnXMX0Xc.k k h k.m.E W o.+.(.uXuXuX2Xb.W W U $.H. .J k E ~.@.R :.:.I.rXeX8XaX*Xo.+.;.,.m.,.[ +.:.T.yXuXtXuXiXt                   - yX<X,XiX~.O.] } $.Q.7X7X:X6XT.] ' / e.m.+.T I / V.j./ O.E b.,X7X:X7X(.E H U W H.,X1X:X1XW.j r E *X:X6X9X6X^.I C C ^ A.A.K B M R ^.rX7X6X0XH.P Z Z | }.V.K Z K 0.@XyX6XrXwXm.K G G @.}.j.G f l <.>XgXeX7X1X1XrXeX7XeX<X$.E Y [ ^.wX,X6X7XR.o.O.o.v.Y.O.I / } T.b./ e.E Q.1X1X:X,XT.+.#.+.r.+X9X:X6X/.PXKXKXKXKXKXKXKXKXKXKXKXKXKXKXKXKXKXKXKXKXKXKXKXKXKXKXKXKXKXKXKXKXKXKXKXKXKXKXKXKXKXKXKXKXKXKXKXKXKXKXKXKXKXKXKXKXKXKXKXKXKXKXKXKXKXKXKXKXKXKXKXKXKXKXKXKXKXKXKXKXKXKXKXKXKXKXKXKXKXKXKXKXKXKXKXKXKXKXKXKXKXKXKXKXKXKXKXKXKXKXKXKXKXKXKXKXKXKXKXKXKXKXKXKXKXKXKXKXKXKXKXKXKXKXKXKXKXKXKXKXKXKXKXKXKXKXKXKXKXKXKXKXKXKXKXKXKXKXKXKXKXKXKXKXKXKXKXKXKXKXKXKXKXKXKXKXKXKXKXKXKXKXKXKXKXKXKXKXKXKXKXKXKXKXKX",
"AXZXZXnX>X<.T U @.OXU.o.o.j./.yXZXpXZXMX<.k t U Y.T.U r t <.T.b.h r o.+XCXCXCXZX;X<.W k :.~.I.W T >.T.nXCXCXZXuXI.r : f ' :.<.,.o.,.b.O.:.[ W R.8X9X9X8XI.W o.,.T b.b.E @.] W ~.uXtXtXfXQ.U l f h n.;.T W +./.ZXMXuXpXwX2.z z x >.m.@.E o.;.+XuXdXtX1XT.o.T k :.m.J x l o.Y.o.H +.;.I.rXtX8X9X(.;.,.,.,.H.b.,.>.,.~.yXdXtXuXnXf                   % iX<X1XiXT.] ! / ] ).7X9X7X,XT.] / / h.M.+.Y T O.V.z.H U T m.6X6X6X9X+X+.E O.,.U.2X7X1X1XI.j , %.=X<X:X6X0X^./ I ^ / L.V./ ^ K [ _.wXwXwX0X!.+.| ] 0.[.G./ ! / x.@XrX9X6X0Xm./ _ / <.oXx.P  .R c.>XtX8X7X1X0XwX7XwXiX;X$.O.} ,.OX0X:X9XwXU.W Y / z.L.} ! / ] }.k.P ' R R.7X,X,X1X~.+.[ E $.;X9X6X6X(.LXKXKXKXKXKXKXKXKXKXKXKXKXKXKXKXKXKXKXKXKXKXKXKXKXKXKXKXKXKXKXKXKXKXKXKXKXKXKXKXKXKXKXKXKXKXKXKXKXKXKXKXKXKXKXKXKXKXKXKXKXKXKXKXKXKXKXKXKXKXKXKXKXKXKXKXKXKXKXKXKXKXKXKXKXKXKXKXKXKXKXKXKXKXKXKXKXKXKXKXKXKXKXKXKXKXKXKXKXKXKXKXKXKXKXKXKXKXKXKXKXKXKXKXKXKXKXKXKXKXKXKXKXKXKXKXKXKXKXKXKXKXKXKXKXKXKXKXKXKXKXKXKXKXKXKXKXKXKXKXKXKXKXKXKXKXKXKXKXKXKXKXKXKXKXKXKXKXKXKXKXKXKXKXKXKXKXKXKXKXKXKXKXKXKXKX",
"SXAXCXuX>Xj.o.] $.~.m.O.@.j.Q.yXZXMXZXaX<.W z U H.T.E l l ;.T.c.H h @./.pXfXpXnX;X@.o.U @.!.m.R T @.T.uXMXMXfXyXM.r X.f ] :.c.<.;.c.M.@.j.h.:.).tX8X8XeXQ.W ;.:.E M.M.[ ,.#.O.).pXuXeXfXW.k  .l j G.:.z [ o.I.MXMXnXMX0XI.W z z b.U.,.z z <.;XwXuXuXqXQ.z r l ;.m.W t t E Q.:.j l o.I.rXrX9X9X(.1.o.;.c.U.M.>.:.<.~.wXeXeXuXuXf                   - tX;X3XiX~.] C I O.Q.7X:X:X2XU.Y C Y :.m.O.I I O.L.r.C C H b.,X6X1XiX+X+.T / [ !.6X,X7X1XI.j , o.=X=X:X6X6XQ.#.j.0.0.L.G.#.} | #.(.rX9X8XrX^.#.j.j.v.}.G.e.v.x.v.@X7X9X9X9XR.e.e.j.V.oXz.u.h.,.M.>XtXwX7X6X6XrXtXtXeX;X@.Y / :.OXyX8X8XmX!.U C I e.[.4.C G ' OXe.M G U T.wX7XwX2X~.[ P H } @X8X:X6X@XPXKXKXKXKXKXKXKXKXKXKXKXKXKXKXKXKXKXKXKXKXKXKXKXKXKXKXKXKXKXKXKXKXKXKXKXKXKXKXKXKXKXKXKXKXKXKXKXKXKXKXKXKXKXKXKXKXKXKXKXKXKXKXKXKXKXKXKXKXKXKXKXKXKXKXKXKXKXKXKXKXKXKXKXKXKXKXKXKXKXKXKXKXKXKXKXKXKXKXKXKXKXKXKXKXKXKXKXKXKXKXKXKXKXKXKXKXKXKXKXKXKXKXKXKXKXKXKXKXKXKXKXKXKXKXKXKXKXKXKXKXKXKXKXKXKXKXKXKXKXKXKXKXKXKXKXKXKXKXKXKXKXKXKXKXKXKXKXKXKXKXKXKXKXKXKXKXKXKXKXKXKXKXKXKXKXKXKXKXKXKXKXKXKXKXKX",
"BXAXnXMX,X;.$.:.+.~.m.c.m.c.I.iXMXZXMXsX<.+.,.J H.!.+.#.W ,.T.k.O.$.+.).aXtXrXuX+X@.#.o.+.T.n.E @.;.T.mXAXCXAXnXM.< : f / #.P.<.<.M.m.:.,.,.;._.8XtXtXrX_.H.&X@XOXT.m.$.:.#.$.Q.tXtXgXdXQ.W W R J M.k.n.M.,.(.MXMXuXMXrX2.W W z <.m.,.E o.;.@XuXwXtXrXT.z r l ,.G.R t t W T.;.k W +.I.rXtX9XtX(.1.;.,.v.U.c.#.#.k.Q.2XuXeXiXiXf   .               % uX<X3X,X~.] / ! } T.6X:X1X,XU.Y I ! j.m.$.Y / 0.].r.I I T b.2XwX1X1X+XO.I / [ U.,X,X:X1XR.t , o.(.=X:X6X6XQ.W [ $.] v.M.o.[ [ @.).9X-X9X7XR.+.:.:.$.T.b.E O.O.$.=X8X9XhX9XR.O.#.+.k.Y.z.' |  .<.<XtX8X7X7X7XuXrXwXeX@X@.Y Y [ +XuXeXeXsXI. .C ! e.}.0.K C } OXe.M K J T.yXwX0XiX!.J C G #.@X7X:X6X(.PXKXKXKXKXKXKXKXKXKXKXKXKXKXKXKXKXKXKXKXKXKXKXKXKXKXKXKXKXKXKXKXKXKXKXKXKXKXKXKXKXKXKXKXKXKXKXKXKXKXKXKXKXKXKXKXKXKXKXKXKXKXKXKXKXKXKXKXKXKXKXKXKXKXKXKXKXKXKXKXKXKXKXKXKXKXKXKXKXKXKXKXKXKXKXKXKXKXKXKXKXKXKXKXKXKXKXKXKXKXKXKXKXKXKXKXKXKXKXKXKXKXKXKXKXKXKXKXKXKXKXKXKXKXKXKXKXKXKXKXKXKXKXKXKXKXKXKXKXKXKXKXKXKXKXKXKXKXKXKXKXKXKXKXKXKXKXKXKXKXKXKXKXKXKXKXKXKXKXKXKXKXKXKXKXKXKXKXKXKXKXKXKXKXKXKX",
"mXnXCXAX>X<.k.c.k.!.H.c.M.b.T.iXZXMXMXyXb.<.b.+.U.!.:.v.:.c.U.v.j.v.<._.MXfXCXCX;X,.<.:.:.^.M.+.c.$.U.nXCXZXZXyX<., , h Y } v.M.c.c.m.m.n.n.b._.8X8X9X7XQ.Q.2X%X@XY.m.+.#.E $.~.iXgXeXwX).Q.qXqX%XH.M.+XsX6XqXSXMXMXpXwX1.W >.E ,.m.<.;.;.;.+XnXnXdXiXI.E U z ,.G.[ R k [ T.+.E k.;.I.pXaXdXfX(.o.1.<.k.m.>.+.<.c.T.yXdXeXiXiXh                   % iX3X1X2X~.k.z.z.c.Q.:X:X1X,XT.e.r.e.v.m.k.h.e.e.[.B.0.z.r.G.2X1X1XwX+Xe.0.e.$.!.2XwX6X9XW.j , W =XhXhX6X9X_.o.$.j.[ b.m.:.@.@.@.).1X-X9X:X_.1.c.b.k.T.b.o.o.o.1.*XtX9XgXgX2.o.,.>.>.T.j.E #.W <.;XdX8X8X1X8XtXrX6XrX@X;.Y Y $.+XiXtX8XrX~.,.x.e.V.[.e.e.e.h.oXV.e.h.[ Q.iX7XwX0X~.,.h.$.k.@XwX7X,X/.PXKXKXKXKXKXKXKXKXKXKXKXKXKXKXKXKXKXKXKXKXKXKXKXKXKXKXKXKXKXKXKXKXKXKXKXKXKXKXKXKXKXKXKXKXKXKXKXKXKXKXKXKXKXKXKXKXKXKXKXKXKXKXKXKXKXKXKXKXKXKXKXKXKXKXKXKXKXKXKXKXKXKXKXKXKXKXKXKXKXKXKXKXKXKXKXKXKXKXKXKXKXKXKXKXKXKXKXKXKXKXKXKXKXKXKXKXKXKXKXKXKXKXKXKXKXKXKXKXKXKXKXKXKXKXKXKXKXKXKXKXKXKXKXKXKXKXKXKXKXKXKXKXKXKXKXKXKXKXKXKXKXKXKXKXKXKXKXKXKXKXKXKXKXKXKXKXKXKXKXKXKXKXKXKXKXKXKXKXKXKXKXKXKXKXKX",
"nXMXyXnX2Xj.>.c.v.~.G.c.v.b.T.wXZXMXMXyXM.m.T.c.U.Y.:.k.>.c.H.v.j.j.<.^.aXCXpXpX;X<.c.c.v.!.m.k.M.k.I.iXZXMXuXyX<.r , f ] Y.qXqX@XM.U.2XmXbX+X_.rX8XtXtX^.!.qXqX&XY.U.~.&X+XT.).iX1XeXeX).^.4X%X2Xm.k.^.qX@X@XNXMXMXpXwXM.E >.] c.G.k.,.$.;.;XCXdXCXyXI.;.@.E c.G.[ :.E +.!.>.+.c.>.U.pXpXpXfX;X;.1.<.:.U.<.+.k.k.T.uXfXdX1X2Xj                   - uX3X2X1XY.$.| [ #.Q.:X6X,X,XT.O.| ' $.m.:.! ! ' L.z.Y / Y M.2X1X,X1X;XO.z H E T.,X,X6X7XW.j , W W.=X(.=X6XW.@.O.] / V.G.#.O.O.%.*X1X-X1X:XR.@.+.@.$.T.v.T R T ;.;XtXgXdX8XR.o.@.+.,.Y.j.} [ ,.<.(.9X=X=X;X1XeXrXwXwX@X,.Y Y O.+XiXiXrXaXT.+.r.0.B.}.e.| ] e.}.v.| 0.[ Q.wX1X6XwX^.+.+.$.j.@X7X,X,X(.PXKXKXKXKXKXKXKXKXKXKXKXKXKXKXKXKXKXKXKXKXKXKXKXKXKXKXKXKXKXKXKXKXKXKXKXKXKXKXKXKXKXKXKXKXKXKXKXKXKXKXKXKXKXKXKXKXKXKXKXKXKXKXKXKXKXKXKXKXKXKXKXKXKXKXKXKXKXKXKXKXKXKXKXKXKXKXKXKXKXKXKXKXKXKXKXKXKXKXKXKXKXKXKXKXKXKXKXKXKXKXKXKXKXKXKXKXKXKXKXKXKXKXKXKXKXKXKXKXKXKXKXKXKXKXKXKXKXKXKXKXKXKXKXKXKXKXKXKXKXKXKXKXKXKXKXKXKXKXKXKXKXKXKXKXKXKXKXKXKXKXKXKXKXKXKXKXKXKXKXKXKXKXKXKXKXKXKXKXKXKXKXKXKXKXKX",
"NXAXnXMX@X<.k.,.v.Y.G.v.b.m.T.iXCXnXnXiXI.j.<.>.U.Y.#.#.@.n.U.n.V.V.b.Q.uXuXtXaX;X1.>.n.n.!.m.:.>.>.H.nXZXNXAXMX<.r e h R P.^.^.H.<.I.~.&X&XQ./.uXtXtXtX/.T.@X%XoXT.U.OX2XqX~.~.uX1X8XeX(.~.qXsX@XH.b.OX6X4X4XMXmXnXCXdXm.] ] #.n.F.j.] ] $.;XnXCXCXiXT.$.$.#.v.G.e.] O.r.Y.b.#.$.$.U.iXCXpXCX@X@.@.+.$.H.c.$.$.>.T.2XfXdXiX2Xt   .               % uX;X1X1X~.O.T E $.T.1X,X:X,XU.T R U +.v.O.k l H V.j.U Y T b.,XwX1X1X).%.k z W R.6X6X1X9XW.j , R (.=X-X3X:X).T g g C r.r.I C C &.+X3X:X,X6XU.Y I I e.K.L.r.e.j.V.<XiXwXdXuXm.l f f E U.oX@X2X@XQ.@X6X6X:X3X1XeX1X,X0X@X;.[ R #.+XiX1XdXiXU.W e./ r.L.} R R [ }.j.Y | E R.7X1X7XwXT.W E E k.;XwX,X6X@XPXKXKXKXKXKXKXKXKXKXKXKXKXKXKXKXKXKXKXKXKXKXKXKXKXKXKXKXKXKXKXKXKXKXKXKXKXKXKXKXKXKXKXKXKXKXKXKXKXKXKXKXKXKXKXKXKXKXKXKXKXKXKXKXKXKXKXKXKXKXKXKXKXKXKXKXKXKXKXKXKXKXKXKXKXKXKXKXKXKXKXKXKXKXKXKXKXKXKXKXKXKXKXKXKXKXKXKXKXKXKXKXKXKXKXKXKXKXKXKXKXKXKXKXKXKXKXKXKXKXKXKXKXKXKXKXKXKXKXKXKXKXKXKXKXKXKXKXKXKXKXKXKXKXKXKXKXKXKXKXKXKXKXKXKXKXKXKXKXKXKXKXKXKXKXKXKXKXKXKXKXKXKXKXKXKXKXKXKXKXKXKXKXKXKXKX",
"BXMXMXMX2XoX2XqX%XOX}.2XNXUX+X1XCXnXnXmXT./.@XOX!.Y.V.L.F.m.!.OXmXAX3X+XrXpXaXtX@XI.+XOX!.~.!.~.+X~.~.yXZXMXMXyX<.r , f P | ,.[ W ,.b.E #.} [ R.tXeX8XiXQ.E R E ] v.c.R :.[ o.T.eX9X1XdXQ.T  .U T M.:.P =.=.2.NXCXiXCXnXm./ / / V.F.h.[ | r.@XnXuXtXmXT.%.O.] v.Y.e./ ] j.Y.j.e.e.r.U.iXuXtXMX<X$.[ ' $.U.k.#.O.,.T.iXpXeXtX2Xt                   - uX:X,XwXR.O.T / %.R.,X:X,X,XI.E R U $.m.O.U I Y V.j.' O.W b.>X1X:X1X+XO.T T R T.6X,X6X7X).j , W =X1X1X1X1X).&.g C C r.}.C i i I +X1X1X,X0X!.V.K.K.`.}.oXoX$X&XoX+XnX1XeX2Xm.f g g R K.K.oX$XOX!.>XrX9XrX1X2XuXiXwXyX@X;.] E O.+X2X3X9XiXR.o.e.O.B.Y.#.] E ] Y.c.' [ E T.7X1X:X,XQ.+.[ +.>.+XwX1X6X(.PXKXKXKXKXKXKXKXKXKXKXKXKXKXKXKXKXKXKXKXKXKXKXKXKXKXKXKXKXKXKXKXKXKXKXKXKXKXKXKXKXKXKXKXKXKXKXKXKXKXKXKXKXKXKXKXKXKXKXKXKXKXKXKXKXKXKXKXKXKXKXKXKXKXKXKXKXKXKXKXKXKXKXKXKXKXKXKXKXKXKXKXKXKXKXKXKXKXKXKXKXKXKXKXKXKXKXKXKXKXKXKXKXKXKXKXKXKXKXKXKXKXKXKXKXKXKXKXKXKXKXKXKXKXKXKXKXKXKXKXKXKXKXKXKXKXKXKXKXKXKXKXKXKXKXKXKXKXKXKXKXKXKXKXKXKXKXKXKXKXKXKXKXKXKXKXKXKXKXKXKXKXKXKXKXKXKXKXKXKXKXKXKXKXKXKX",
"AXAXZXAX2XT.+X%XOXT.}.+X2X+XT.wXCXnXnXiXT.+X2X@X~.Y.OX@X<X~.Y.OXUXUX;X).pXfXpXtX<X_.mXNX%X~.oXqXNX2X+XyXAXMXfXiXb., , h U [ j.@.[ >.c.O.:.#.E R.8X8X8XeXQ.T E Y T b.r.k E E T R.rX9X9XdXR.l l h t m.$.j z o.<.MXpXuXnXnXI.e.e.V.V.Y.+XbXUX+X2XCXuXtXnXT.U H H j.G.e.| ] r.Y.b.] } +.I.rXtXiXnX;X$.[ / #.Y.v.} [ :.T.wXpXeXwXwXt                   % uX=X<X1X~.O.H I O.~.1X1X3X,XT.E Y T $.G.O.I G / L.x.P Y Y m.>X1X:X6X+X+.Y Y R !.>X,X6X6XW.j , W *X=X1X3X2X(.$.r.r.e.[.}.e.^ / O.+X2X1X0X>X^.OX2XUX@X}.}.&X%X%XoX@X2XiXdX1X).Y.}.K.U.}.}.%XUX@X^.@XrXrXwX,XwXdXuXeXyX@X:.R Y O.+XiX1X:XwXI.W / / V.G.[ I I E }.b.! ' E Q.7X1X6X6XQ.E Y ] r.+XwX,X,X(.PXKXKXKXKXKXKXKXKXKXKXKXKXKXKXKXKXKXKXKXKXKXKXKXKXKXKXKXKXKXKXKXKXKXKXKXKXKXKXKXKXKXKXKXKXKXKXKXKXKXKXKXKXKXKXKXKXKXKXKXKXKXKXKXKXKXKXKXKXKXKXKXKXKXKXKXKXKXKXKXKXKXKXKXKXKXKXKXKXKXKXKXKXKXKXKXKXKXKXKXKXKXKXKXKXKXKXKXKXKXKXKXKXKXKXKXKXKXKXKXKXKXKXKXKXKXKXKXKXKXKXKXKXKXKXKXKXKXKXKXKXKXKXKXKXKXKXKXKXKXKXKXKXKXKXKXKXKXKXKXKXKXKXKXKXKXKXKXKXKXKXKXKXKXKXKXKXKXKXKXKXKXKXKXKXKXKXKXKXKXKXKXKXKXKXKX",
"NXMXMXMX2X<.o.o.%.~.m.$.%.%.M.1XCXuXCX1X<.o.@.E m.T.O.] E $.T.b.T O.O.Q.fXdXtXtX;X1.[ o.>.U.m.+.c.>.U.aXCXfXfXiX<.r : h T ] :.#.+.k.m.$.k.j.;.Q.eXgXtXtX_.+.+.] Y k.b.R [ [ [ R.tX8X8XtXW.U U k h b.$.H O.W <.pXpXuXnXnX~.}.+X+XY.Y.&XmXbX+X+XnXuXtXnXT.z h H r.Y.e.r.$.$.oXb.#.:.:.U.rXdXwXnX@X$.O.E #.Y.v.e.#.,.T.wXuXeX1XiXf   .               - rX_.*X<XQ.O.H C E Q.2X2X1X1XU.T C C $.V.} Z K | L.l./ Y T H.6XwX7X9X+X/ C I [ U.;X@X=X6X_.j , E *X-X=X-X1X).T j f C r.}.r.r.e.r.(.eX9X9X6XQ.m.Y.Y.T.}.Y.U.Y.T.T.<XdX1XgX1XR.I.Y.G.H.Y.G.[.}.H.Q.;X6X7X7X1X1XuXwX1XiX(.@.Y H O.+XiXwXeXrXU.z C I x.K.] G l ] }.r.H J H Q.wX7X7XwX^.R H Y $.@XeX,X:X(.LXKXKXKXKXKXKXKXKXKXKXKXKXKXKXKXg % KXKXKXKXKXKXKXKXKXKXKXKXKXKXKXKXKXKXKXKXKXKXKXKXKXKXKXKXKXKXKXKXKXKXKXKXKXKXKXKXKXKXKXKXKXKXKXKXKXKXKXKXKXKXKXKXKXKXKXKXKXKXKXKXKXKXKXKXKXKXKXKXKXKXKXKXKXKXKXKXKXKXKXKXKXKXKXKXKXKXKXKXKXKXKXKXKXKXKXKXKXKXKXKXKXKXKXKXKXKXKXKXKXKXKXKXKXKXKXKXKXKXKXKXKXKXKXKXKXKXKXKXKXKXKXKXKXKXKXKXKXKXKXKXKXKXKXKXKXKXKXKXKXKXKXKXKXKXKXKXKXKXKXKXKXKXKXKXKXKXKXKXKXKXKXKXKXKX",
"ZXMXfXZX,X,.+.+.$.Y.I.$.@.@.I.7XfXeXnXwX<.T E U M.Y.Y H h O.T.c.C T &.Q.uXtXrXiX(.%.T H E U.v.U [ W c.yXCXnXCXyX<., , f J Y [ ' [ c.G.@.E [ :.R.8X8XtXeXQ.+.] ' O.v.M.#.,.<.,.^.uXeXeXtX^.o.=.[ R m.h./ [ U b.CXfXaXaXrXm.H O.U >.H.$.O./ $.@XuXdXeX1XI.z C z r.G.O.C C O.Y.b.Y ] o.I.6XaXtXuX*X$.+.O.+.Y.b.O.O.:.T.,XtX7XtXuXf   .               - iX(.*X;XQ.@.| e.O.~.2X1X2X1XI.I C I r.G.} K K 4.V.[.}.&XoX~.>X0X7X9X@X}.OX$XE.!.@X;X=X6XW.l , &.*X-X-X9X9XW.@.%.$.] n.m.<.j.V.$.*X1X-X-X-XW.%.+.o.@.U.b.E E o.<.*XeX9XgX1XR.+.@.:.>.Y.j./ / R <.<XaXgXeX1X1XtXwXwXrX@X;.J J O.+XiXiXrXrXU.U C I r.[.} K I [ }.e.I K J ^.iXwX7X0X^.R G H #.@XwX:X,X(.PXKXKXKXKXKXKXKXKXKXKXKXKXKXLXKX-   KXKXKXKXKXKXKXKXKXKXKXKXKXKXKXKXKXKXKXKXKXKXKXKXKXKXKXKXKXKXKXKXKXKXKXKXKXKXKXKXKXKXKXKXKXKXKXKXKXKXKXKXKXKXKXKXKXKXKXKXKXKXKXKXKXKXKXKXKXKXKXKXKXKXKXKXKXKXKXKXKXKXKXKXKXKXKXKXKXKXKXKXKXKXKXKXKXKXKXKXKXKXKXKXKXKXKXKXKXKXKXKXKXKXKXKXKXKXKXKXKXKXKXKXKXKXKXKXKXKXKXKXKXKXKXKXKXKXKXKXKXKXKXKXKXKXKXKXKXKXKXKXKXKXKXKXKXKXKXKXKXKXKXKXKXKXKXKXKXKXKXKXKXKXKXKXKXKX",
"NXMXMXMX2Xj.@.#.:.~.m.j.>.>.U.wXCXnXCXuXM.@.@.Y G.}.O.Y T #.Y.V./ O.O.T.uXuXpXuX;X@.] [ +.Y.G.' +.E b.qXnXCXCXmXn., , h J R :.:.#.k.m.>.#.j.>.I.:X9X6X7XQ.+.E R #.v.Y.OX%X%X+X^.6XwX9XrX_.:.| ' [ H.x./ ] R M.fXaXpXuXrX<.f k h +.m.+.Y h T +XuX7XeXnXT.z z h O.m.T h j T T.%.C Y T 2.6XtX9XuX;X@.%.O.+.T.b.O.O.:.T.2XrXeXtXuXh                   % wX).*X;X~.j.r.r.b.+XeX2XeX2XT.E / / e.G.z.e.e.x.V.}.&X%X+XT.>XwX7X6X+X@XBXIX%XOX>X;X=X6XW.j , o.W.hX-X9X9X_.;.M.M.O.n.U.n.H.V.<.).1X-X1X<XR.;.,.>.;.T.M.$.$.#.<.(.7X-X9X1XR.;.n.<.,.G.e./ r.+.<.>XrX1X1X1X1XtXwXwXrX@X;.R R $.+XiX1X9X0XQ.U T / r.[.{ P I [ oXx.! ! P ~.rX7X6X0X^.R I Y e.@X7X:X,X/.PXKXKXKXKXKXKXKXKXKXKXKXKXKXKXKX= . KXKXKXKXKXKXKXKXKXKXKXKXKXKXKXKXKXKXKXKXKXKXKXKXKXKXKXKXKXKXKXKXKXKXKXKXKXKXKXKXKXKXKXKXKXKXKXKXKXKXKXKXKXKXKXKXKXKXKXKXKXKXKXKXKXKXKXKXKXKXKXKXKXKXKXKXKXKXKXKXKXKXKXKXKXKXKXKXKXKXKXKXKXKXKXKXKXKXKXKXKXKXKXKXKXKXKXKXKXKXKXKXKXKXKXKXKXKXKXKXKXKXKXKXKXKXKXKXKXKXKXKXKXKXKXKXKXKXKXKXKXKXKXKXKXKXKXKXKXKXKXKXKXKXKXKXKXKXKXKXKXKXKXKXKXKXKXKXKXKXKXKXKXKXKXKXKXKX",
"NXnXZXAX0Xb.,.h.j.Y.G.k.k.k.I.0XCXuXnXmXI.j.M.$.U.}.h.e.$.k.}.V.#.$.@.Q.pXpXpXpX;Xj.$.$.j.Y.Y.$.$.+.m.yXMXAXZXMXM., > t  .H.qXbX%XL.H.@XqXbX&X_.:X6X6X6X/.^.qXbX@XK.G.%XcXqX&X^.6X6X7X0X/.!.&XOX!.L.z.K.oX~._.6XrXtXtXtXM.T / T >.m.k.+.Y O.+XfX8XtXnXT.%.E z $.G.+.U H T T.>.E ] o.I.6XtXgXaX;X;.@.+.+.Y.v.[ [ :.T.,XtXeXuXnXh                   - mX*X*X*X~.%.O.e.r.~.iX1X1X2XT./ Y / O.G.$.! | ] V.z./ / E M.>XwX9X7X+X>.$.:.>.U.;X;X=X1XW.f , =.*X=X=X=XhXW.>.$.$.} v.F.k.h.r.$.).1X1X:X:XR.@.j.$.$.U.m.[ :.[ <.;X7X6X9X:XQ.c.F.n.b.U.k.] ] E <.;X1X1X:X-X3XtXrXwXrX@X:.Y T O.OX0X6X6X6X!.W ^ / '.}.[ J J [ oXr.I P z ).8X:X,XwX~.E Y U >.;X7X:X:X(.JXKXKXKXKXKXKXKXKXKXKXKXKXKXKXKX=   KXKXKXKXKXKXKXKXKXKXKXKXKXKXKXKXKXKXKXKXKXKXKXKXKXKXKXKXKXKXKXKXKXKXKXKXKXKXKXKXKXKXKXKXKXKXKXKXKXKXKXKXKXKXKXKXKXKXKXKXKXKXKXKXKXKXKXKXKXKXKXKXKXKXKXKXKXKXKXKXKXKXKXKXKXKXKXKXKXKXKXKXKXKXKXKXKXKXKXKXKXKXKXKXKXKXKXKXKXKXKXKXKXKXKXKXKXKXKXKXKXKXKXKXKXKXKXKXKXKXKXKXKXKXKXKXKXKXKXKXKXKXKXKXKXKXKXKXKXKXKXKXKXKXKXKXKXKXKXKXKXKXKXKXKXKXKXKXKXKXKXKXKXKXKXKXKXKX",
"NXCXZXAX2Xc.k.k.k.K.G.n.F.n.U.0XAXuXnXqXM.$.b.j.Y.Y.e.#.O.v.}.V.' ' :.^.mXMXMXMX;Xj.+.$.v.oXG.O.#.O.U.mXMXCXZXsXM.r , t Y F.&X%XOXm.!./.%X4X/.^.:X6X:X6X/./.qXbX2XG.U.%XbXmX&X/.6XrX7X7X/.+XbXmXqXL.V.%XNXsX4XwXaXaXuXuXI.O.] E M.m.k.$./ $.;XuXtXdXuXT.%.O.] b.Y.:.] R O.T.b.] [ +.I.wXtXaXfX;Xj.$.+.:.~.G.G.Y.U.T.,XuXeXuXpXf   .               - 2X*X*X;XT.O.O./ r.~.3XiX1X1XT.E H H O.V.[ P I ! L.e.I U U b.>XwX9X9X(.E U U W I.;X=X:X1XR.j , o.*X=X6X6X6XQ.#./ / 0.F.F./ I I ] +XwXgX1X,XU.J f f / [.n.l ....,.@X0X7X7X>XQ.&XbXqX+XY.h.Y I Y <.<XwX1X1X<X1XrXrX7XrX@X+.E R O./.wX9X9XwXI.E O./ r.G.R R R +.T.j.H } E T.8X1X:X1X/.o.+.+.j.+X9X:X1X+XPXKXKXKXKXKXKXKXKXKXKXKXKXKXLXKX-   KXKXKXKXKXKXKXKXKXKXKXKXKXKXKXKXKXKXKXKXKXKXKXKXKXKXKXKXKXKXKXKXKXKXKXKXKXKXKXKXKXKXKXKXKXKXKXKXKXKXKXKXKXKXKXKXKXKXKXKXKXKXKXKXKXKXKXKXKXKXKXKXKXKXKXKXKXKXKXKXKXKXKXKXKXKXKXKXKXKXKXKXKXKXKXKXKXKXKXKXKXKXKXKXKXKXKXKXKXKXKXKXKXKXKXKXKXKXKXKXKXKXKXKXKXKXKXKXKXKXKXKXKXKXKXKXKXKXKXKXKXKXKXKXKXKXKXKXKXKXKXKXKXKXKXKXKXKXKXKXKXKXKXKXKXKXKXKXKXKXKXKXKXKXKXKXKXKX",
"MXZXnXMX2XOXmXbX%XoXY.%XmX2XOX7XAXyXMX2Xm.v.m.v.Y.Y.OXUX2XOX}.}.+X&X}.~.nXCXuXMX<Xj.O.] k.oXoXY.OX~.~.iXNXCXCXmXM.r , t x { k.h.+.k.m.[ } :.E I.6X1X:X6XQ.E +.#.' k.v.[ [ [ ' Q.7XeX9XwX^.[ =.=.| n.j.e.j.b.I.nXpXaXfXyXI.] / [ m.H.h.] T $.+XMXtX9XyX!.W U R k.H.#.J J | T.b.Y W =.I.6XtXrXnX<X>.T H #.!.E.4XBXqXOX0XaX9XrXuXh                   % rX<X1X1XY.%.O.O.#.~.1X1X1X1XT.R U U +.M.] J U / L.j.Y E E b.3X,X1X1X*X%.T W o.T.1X1X:X7XW.j , W (.6X6X6X6XOXG.&X#X|.[.V.P M K ] +XuXuXuXqX!.h.h.x.N.[.F.} } =.n.@XrX6X9X6X^.OX4X4XE.L.u.Z f G j.>XrX8X8X8X8XdXeXwXrX@X;.E ] ] ~.1XwX7XwXQ.E e./ x.G.#.U U :.Y.$.Y ' E T.wX:X:X>XQ.[ +.$.c.+X6X-X6X/.PXKXKXKXKXKXKXKXKXKXKXKXKXKXKXKX=   KXKXKXKXKXKXKXKXKXKXKXKXKXKXKXKXKXKXKXKXKXKXKXKXKXKXKXKXKXKXKXKXKXKXKXKXKXKXKXKXKXKXKXKXKXKXKXKXKXKXKXKXKXKXKXKXKXKXKXKXKXKXKXKXKXKXKXKXKXKXKXKXKXKXKXKXKXKXKXKXKXKXKXKXKXKXKXKXKXKXKXKXKXKXKXKXKXKXKXKXKXKXKXKXKXKXKXKXKXKXKXKXKXKXKXKXKXKXKXKXKXKXKXKXKXKXKXKXKXKXKXKXKXKXKXKXKXKXKXKXKXKXKXKXKXKXKXKXKXKXKXKXKXKXKXKXKXKXKXKXKXKXKXKXKXKXKXKXKXKXKXKXKXKXKXKXKXKX",
"NXZXnXyX2XT.2X2X&X~.Y.@XbX2X+XwXuXnXMXiX~.<XqX@XOX}.%XNXmX+X}.OXNXIXmX+XyXtXaXpX3XY.2X2X+X~.OXmXAXmX+X0XnXuXnXwXM., , f H =.v.v.[ j.n.E #.#.W I.6X1X1X7XQ.T +.,.H $.j.Y [ R x U.6XrX7X8XR.x U J t k.$.h / Y ,.uXCXuXMXyXT.OX2X%X!.H.oX2X&X}.&XyXrXaXyXOXU.^.OXK.K.L.oXoXK.E.Y.[.^.H.E.6XyXrXnX@XM.v.j.v.K.E.&X%X&X!.0XaXrXrXnXh                   - tX=X1X2X/.O./ Y o.).1X3X,X2XT.[ R R e.m.$.J P ' V.V./ / Y I.3X,X:X1X+X@.Y Y ] ~.2XiX7X9XQ.j , W _.=X:X6X6X/.oXbXVX%X[.V.] / / $.).eX1X1XwX^.OXVXVX&XY.oX%XmXsX+X(.6XhX6X:X^.&XbX4X&XK.L.z.V.v.m.>XrX6X1X9X1XrXtXrXuX@X@.R U [ +XiX1X7X0XU.W ] / x.L.L.!.!.U.L.Y.oX#XQ.T.,X:X:X,XQ.Y Y / e.@X9X<X>X(.PXKXKXKXKXKXKXKXKXKXKXKXKXKXLXKX=   KXKXKXKXKXKXKXKXKXKXKXKXKXKXKXKXKXKXKXKXKXKXKXKXKXKXKXKXKXKXKXKXKXKXKXKXKXKXKXKXKXKXKXKXKXKXKXKXKXKXKXKXKXKXKXKXKXKXKXKXKXKXKXKXKXKXKXKXKXKXKXKXKXKXKXKXKXKXKXKXKXKXKXKXKXKXKXKXKXKXKXKXKXKXKXKXKXKXKXKXKXKXKXKXKXKXKXKXKXKXKXKXKXKXKXKXKXKXKXKXKXKXKXKXKXKXKXKXKXKXKXKXKXKXKXKXKXKXKXKXKXKXKXKXKXKXKXKXKXKXKXKXKXKXKXKXKXKXKXKXKXKXKXKXKXKXKXKXKXKXKXKXKXKXKXKXKXKX",
"MXMXMXZX,X;.+.+.+.U.G.$.O.$.b.1XCXuXnXiXM.@.>.O.I.U.$.O.O.j.}.G.$.$.;.T.yXpXaXpX;Xb.v.M.b.~.H.c.G.c.M.0XnXtXuXiXM.r , f k #.k.:.O.j.m.$.k.$.E R.eX8X8XtX).+.$.j.O.b.b.O.>.o.W I.eXtXgXfXW.U R W j <.:.H O.E <.wXpXpXAXiXT.%XbXUXoXE.OXVXbX&X@XmXrXrXsX@X@XBXbXOX[.&XbXbX%XoXoX2XBX%X^.6XaXwXuX@X+XmXbX&X!.E.4XNX4X^.qXpXtXpXpXl                   - uX;X1X1X~.] I ^ #.OX1X1X3X2XY./ ! ! x.V.} ^ I | L.e.Y C Y m.<X:X-X9X(.] k h E U.2XwX1XwXW.l , o.W.*X=X=X6X_.m.H.K.L.G.V.%./ / O._.1X:X=X:XR.b.H.n.n.!.K.G.K.H.M.(.1X-X-X:XI.c.E.!.M.G.V.V.G.m.H.>XrX:X-X=X:XiXiXrXyX@X+.C C O.+XnX1X9XyXU.H C K e.F.OXsXbXOXG.}.bXbX%XQ.wXwX,X0X~.J G G O.@X9X6X;X@XLXKXKXKXKXKXKXKXKXKXKXKXKXKXLXKX-   KXKXKXKXKXKXKXKXKXKXKXKXKXKXKXKXKXKXKXKXKXKXKXKXKXKXKXKXKXKXKXKXKXKXKXKXKXKXKXKXKXKXKXKXKXKXKXKXKXKXKXKXKXKXKXKXKXKXKXKXKXKXKXKXKXKXKXKXKXKXKXKXKXKXKXKXKXKXKXKXKXKXKXKXKXKXKXKXKXKXKXKXKXKXKXKXKXKXKXKXKXKXKXKXKXKXKXKXKXKXKXKXKXKXKXKXKXKXKXKXKXKXKXKXKXKXKXKXKXKXKXKXKXKXKXKXKXKXKXKXKXKXKXKXKXKXKXKXKXKXKXKXKXKXKXKXKXKXKXKXKXKXKXKXKXKXKXKXKXKXKXKXKXKXKXKXKXKX",
"NXpXCXZX0X>.U E E U.b.%.o.o.<.1XCXfXdXiX2.z &.h b.U.Y h z O.T.r.H U U T.uXtXtXtX;X%.k k U U.v.l U U M.uXCXCXeXiXM.< , j k Y R Y ] >.m.c.k.j.<.Q.eXdXgXuX).>.#.#.$.m.T.OX%X@X^./.tXpXgXfX(.U.OX^.G.!.k.Y ] ] b.0XyXuXuXiXI.Y / T c.G.$.O.E O.(.MXrXrXwXQ.T o.O.c.U.v.$.O.@.T.M.j.z.>.I.6XrX8XeX+Xb.b.M.b.^.n.P.H.n.Q.0XuXtXtXMXl   .               % uX=X:X1X~.] I I O.~.3X1X:X3XT.#./ _ x.V.#./ ! } L.z./ Y O.m.<X1X<X:X(.k.,.k.k.T.2X2X1X1X_.j , o.-XhX-X9X9XW.;.j.j.#.V.I.$.$.+.+.W.1X-X-X-XI.o.;.=.;.H.z.[ :.[ 1.(.1X9X1X:XI.W =.W ,.G.r./ ] E 1.;X8X9X1X-X1XeXwXwXyX+X+.U I e.+XnX2XrXyXU.H C I V.F.oX4X@XOXG.[.%XlXOXQ.wX1X6X0XQ.H G l $.+XhX=X=X/.PXKXKXKXKXKXKXKXKXKXKXKXKXKXKXKX=   KXKXKXKXKXKXKXKXKXKXKXKXKXKXKXKXKXKXKXKXKXKXKXKXKXKXKXKXKXKXKXKXKXKXKXKXKXKXKXKXKXKXKXKXKXKXKXKXKXKXKXKXKXKXKXKXKXKXKXKXKXKXKXKXKXKXKXKXKXKXKXKXKXKXKXKXKXKXKXKXKXKXKXKXKXKXKXKXKXKXKXKXKXKXKXKXKXKXKXKXKXKXKXKXKXKXKXKXKXKXKXKXKXKXKXKXKXKXKXKXKXKXKXKXKXKXKXKXKXKXKXKXKXKXKXKXKXKXKXKXKXKXKXKXKXKXKXKXKXKXKXKXKXKXKXKXKXKXKXKXKXKXKXKXKXKXKXKXKXKXKXKXKXKXKXKXKXKX",
"NXCXnXAX2Xc.+.O.$.Y.m.$.$.%.m.1XfXuXuXnXI.O.O.H v.Y.] Y E [ U.c./ O.O.R.uXpXrXCX;X@.O.T R U.n.T T E M.yXnXdXdXiXM., , h h ' =.[ [ j.F.e.| | #.T.uXeXeXiX+X+.Y / / v.}.%XNXVX%X/.rXaXpXtX+X&XbXVX4XE.h.( / Y >.>XrX7XrXtX<.z k h +.I.E U j z /.CXuXuXdXQ.z h k %.G.E h j H m.>.U U U M.:XrXrX8X;X;.R W E !.k.R R [ U.0XuXeXuXMXH   .               % tX=X<X6X~./ I ^ e.T.3X1X3X1X~.V.V.V.V.G.n.U.G.V.Y.V.j.k.r.T.>X9X:X1X(.H.@XOXU.^.>X,X-X7XW.j , &.*X-X-X-XgX*Xb.I.U.$.V.I.b.v.,.;.W.-X-X-X=XR.;.k.j.r.H.n.:.:.,.M.(.9X-X9X1XI.W [ W ,.H.k.O.e.[ <.;XrXhXhX-X1XwXwX0XwX+X:.Y Y O.+XiX1XiXnXU.P I P z.L.!.4X%X^.L.Y.$X%X~.Q.iX7X,X0X^.R R Y h.@X9X<X<X(.LXKXKXKXKXKXKXKXKXKXKXKXKXKXKXKX- . KXKXKXKXKXKXKXKXKXKXKXKXKXKXKXKXKXKXKXKXKXKXKXKXKXKXKXKXKXKXKXKXKXKXKXKXKXKXKXKXKXKXKXKXKXKXKXKXKXKXKXKXKXKXKXKXKXKXKXKXKXKXKXKXKXKXKXKXKXKXKXKXKXKXKXKXKXKXKXKXKXKXKXKXKXKXKXKXKXKXKXKXKXKXKXKXKXKXKXKXKXKXKXKXKXKXKXKXKXKXKXKXKXKXKXKXKXKXKXKXKXKXKXKXKXKXKXKXKXKXKXKXKXKXKXKXKXKXKXKXKXKXKXKXKXKXKXKXKXKXKXKXKXKXKXKXKXKXKXKXKXKXKXKXKXKXKXKXKXKXKXKXKXKXKXKXKXKX",
"NXMXnXnX2Xc.#.#.e.}.G.e.#.e.m.1XCXnXnXmXG.$.$.} G.L.r.' [ r.}.V.#.$.$.T.uXuXuXuX<Xc.:.j.k.!.U.j.>.,.M.6XuXuXnXtXM., e f K L.qXqX@XH.F.r.e.j.<.T.wXeXwXwX/.:.] ] $.V.Y.&X2XUXOXQ.yXrX7XuX/.^.4X4X5XH.k.F.K.!.Q.>XrX7XtXuXI.U T H ,.H.#.O.H o./.AXnXdXnXY.o.o.T $.G.#.H H T m.b./ | E M.6XrX6XtX@X>.@.:.[ H.<.W [ [ G.0XpXrXtXAXH                   - yX=X=X6X~.' ^ / O.}.3X1X-X1XT.O.O./ e.V.,.E ] O.V.v./ $.+.b.;X6X<X1X_.;.U U [ U.2X1X6X6XR.j , &.*X=X-X-X1X(.j.e.e.e.G.G.$.O.} +.).1X-X1X3XR.>.$.e.r.Y.m.[ [ +.<.*X9X-X-X:XR.,.=.,.1.m.k.O.] E <.(.6XhXhX-X:XwXuXwX0X@X:.Y Y e.+XiX1X1XiXT.T H P x.F.=.[ [ ,.Y.x.' #.] Q.rX1X,XwXQ.R Y U j.@X9X:X:X/.PXKXKXKXKXKXKXKXKXKXKXKXKXKXLXKX=   KXKXKXKXKXKXKXKXKXKXKXKXKXKXKXKXKXKXKXKXKXKXKXKXKXKXKXKXKXKXKXKXKXKXKXKXKXKXKXKXKXKXKXKXKXKXKXKXKXKXKXKXKXKXKXKXKXKXKXKXKXKXKXKXKXKXKXKXKXKXKXKXKXKXKXKXKXKXKXKXKXKXKXKXKXKXKXKXKXKXKXKXKXKXKXKXKXKXKXKXKXKXKXKXKXKXKXKXKXKXKXKXKXKXKXKXKXKXKXKXKXKXKXKXKXKXKXKXKXKXKXKXKXKXKXKXKXKXKXKXKXKXKXKXKXKXKXKXKXKXKXKXKXKXKXKXKXKXKXKXKXKXKXKXKXKXKXKXKXKXKXKXKXKXKXKXKXKX",
"NXCXCXAX2Xk.E [ e.Y.G.r.r.V.T.1XAXnXCXmXm.O.] ] G.Y.#.Y ] $.Y.V.e.r.,.R.yXuXiXyX>XT.%X%X&X^.E.%XqX@X/.qXsXpXCXuXI.r , f G G.%X@X+Xm.m.U.Y.Y.m.T.eXdXgXtX+Xm.~.OXL.U.T.@XVXNX@X/.6X7X7XeX(.+XbXNX6XH.v.%XmXmX>XrXrXtXtXeX2.T R J k.H.#.[ T O.*XAXnXnXnX+X>.$.] j.G.e.Y Y O.Y.v.' } [ G.6XwX7XiX;Xc.E R +.K.,.R [ [ m.0XuXdXuXMXH                   % rX=X=X6X/.} / / e.).1X1X-X3XT.Y I I #.c.] H k T M.j.E T W b.@X7X9X6X_.W l W o.T.6X7X9X9X2.j , o.(.:X1X1X1XQ.Y C C | V.V.Y C G E ).1X-X=X3XT.H k I e.}.v.H k z ;.*X9X9X-X-X^.&XqXqX^.U.j.' ' ] <.@X9X6X-X=X1XeXtX1XwX(.,.[ ] O.+XiXeX1XnXT.T Y / h.F.=.U R =.U.j.' ' R Q.1X1X:X,XQ.o.+.E >.@X9X=X<X(.PXKXKXKXKXKXKXKXKXKXKXKXKXKXKXKX=   KXKXKXKXKXKXKXKXKXKXKXKXKXKXKXKXKXKXKXKXKXKXKXKXKXKXKXKXKXKXKXKXKXKXKXKXKXKXKXKXKXKXKXKXKXKXKXKXKXKXKXKXKXKXKXKXKXKXKXKXKXKXKXKXKXKXKXKXKXKXKXKXKXKXKXKXKXKXKXKXKXKXKXKXKXKXKXKXKXKXKXKXKXKXKXKXKXKXKXKXKXKXKXKXKXKXKXKXKXKXKXKXKXKXKXKXKXKXKXKXKXKXKXKXKXKXKXKXKXKXKXKXKXKXKXKXKXKXKXKXKXKXKXKXKXKXKXKXKXKXKXKXKXKXKXKXKXKXKXKXKXKXKXKXKXKXKXKXKXKXKXKXKXKXKXKXKXKX",
"NXCXCXAX2Xc.+.h.j.Y.}.%XbX%X+X1XCXCXCX2XI.>.k.$.H.K.:.#.$.b.Y.G.j.j.k.T.iXrXwXtX<X~.bXqX%XE.E.%XqX4X^.qXMXMXMXaXI.r X.f h ] ,.;.E ,.m.@.$.h.O.I.1X8XeXeX).@.:.b.O.v.V.+.$.$.#.U.,X7X8X8X(.;.,.,.=.M.j.} c.k.M.0XrX8XdXeXI.I I J z.K.} Y C O.+XCXnXCXMX+X$.E Y e.G.} G C Y G.k.H P ( M.0XrXiXmX@X$.h f  .Y.k.l l h M.0XfXtXuXMXH   .               - uX=X:X6X~.[ e./ O.).1X-X1X1XT.T C I #.M.+.U T / V.j.[ O.E M.<X6X-X<X/.,.x R [ T.2XwX9X9XW.j , o.;X1XwXiX1XQ.#.| 4.0.L.V.#.} 0.j.~.1X:X3X<XT.O.' ] e.Y.v.h h h >.*X1X1X9X<XQ.&X%X%X!.E.h.K I J k.<XrX7X6X1X9XwXeXwX0X@X;.[ +.e.}.iX1X1XnXI.Y O./ z.M.W [ U o.T.:.] ' U W.:X:X=X:XQ.o.+.E >.(.9X6X3X+XPXKXKXKXKXKXKXKXKXKXKXKXKXKXLXKX=   KXKXKXKXKXKXKXKXKXKXKXKXKXKXKXKXKXKXKXKXKXKXKXKXKXKXKXKXKXKXKXKXKXKXKXKXKXKXKXKXKXKXKXKXKXKXKXKXKXKXKXKXKXKXKXKXKXKXKXKXKXKXKXKXKXKXKXKXKXKXKXKXKXKXKXKXKXKXKXKXKXKXKXKXKXKXKXKXKXKXKXKXKXKXKXKXKXKXKXKXKXKXKXKXKXKXKXKXKXKXKXKXKXKXKXKXKXKXKXKXKXKXKXKXKXKXKXKXKXKXKXKXKXKXKXKXKXKXKXKXKXKXKXKXKXKXKXKXKXKXKXKXKXKXKXKXKXKXKXKXKXKXKXKXKXKXKXKXKXKXKXKXKXKXKXKXKXKX",
"NXAXCXAX0XU.U.^.~.!.Y.&XmX2X+X1XfXtXnXyX+X@XmX2X!.!.&XqXbX@XY.OXUXmX2X+XrXiXwXyX<X+XNXVX%X!.OX4XmXsX/.0XMXMXCXpXm.r , h h [ j.;.o.;.M.o.>.h.W I.1X9X9XeX).W [ @.U j.b.H U R U I.7X8X8XeX/.z J J t ,.:.l / O.;.wXtXwXtXtXI.^.%XOX!.L.L.@X~.T.@XnXnXuXAX+Xm.Y.G.G.G.F.F.F.F.G.G.V.L.V.U.0XaXaXpX@Xb.j.$.:.H.c.[ :.[ m.0XCXtXuXMXJ   .               - yX=X1X2X~.O.| | $.^.6X6X9X6XQ.c.F.V.n.n.+.R J [ G.z.] / O.b.3X,X:X7X/.+.k J +.~.0XwX1XwXR.j r o.).=X-X-X6X/.+XbXVX%X}.G.@XbXcXOX/.6X9X6X:XQ.@XbXmX%X}.G.O.r.#.b.;X1X1X9X:X^.&XcXcXOXL.F.L.[.F.G.@XwX1X1X1X1X9XrX6XrX+X>.] / $.+X0X6X9XwXm.U H Y z.F.' / J } Y.$.P ! Y T.:X=X;X2XT./ P I #.@X1X=X<X/.PXKXKXKXKXKXKXKXKXKXKXKXKXKXKXKX=   KXKXKXKXKXKXKXKXKXKXKXKXKXKXKXKXKXKXKXKXKXKXKXKXKXKXKXKXKXKXKXKXKXKXKXKXKXKXKXKXKXKXKXKXKXKXKXKXKXKXKXKXKXKXKXKXKXKXKXKXKXKXKXKXKXKXKXKXKXKXKXKXKXKXKXKXKXKXKXKXKXKXKXKXKXKXKXKXKXKXKXKXKXKXKXKXKXKXKXKXKXKXKXKXKXKXKXKXKXKXKXKXKXKXKXKXKXKXKXKXKXKXKXKXKXKXKXKXKXKXKXKXKXKXKXKXKXKXKXKXKXKXKXKXKXKXKXKXKXKXKXKXKXKXKXKXKXKXKXKXKXKXKXKXKXKXKXKXKXKXKXKXKXKXKXKXKXKX",
"MXMXMXCX>Xb.:.:.:.H.n.>.:.:.M.,XfXuXMXiXm.@.:.@.v.G.<.:.@.j.Y.G.r.V.V.).yXpXuXuX,Xb.U.L.m.Y.E.n.U.U.!.qXZXZXCXuXM.r r h H [ :.+.o.;.M.%.@.,.o.U.eX8X8XrX_.+.+.k.T j.G.E E E U I.iXtXgXtX_.W R R x ,.j.P O.] <.0X6XwXpXtXR.%XBXbXoXU.OXNXmX+X/.iXuX2X2X+X@XmXbX+XH.OXmXbX%XY.oX2XNXbX+X0XfXpXMX@X+XNXBX2XY.!.qXBXmX^.@XtXwXuXMXH                   % tX=X:X3X+Xe./ ( :._.9X:X-X6X/.OXlX%X!.F.}  .P { F.F.z.V.c.U.>XwX:X9X/.+.H J ] T.iX,X1X1XW.k r o.W.*X*X=X6X(.m.^.!.L.G.G.H.Y.E.m._.6X6XhX6XQ.M.m.F.F.}.b.H h C $.(.eX9X1X>XQ.n.E.^.I.H.V.v.Y.G.M.;X6X1X1X1X1XwXrXsX0X@X} P C } +XqXwX7XbXG.h r f e.F.| I L } [.e.K ^ T Q.7X:X:X0XY.G f C [ OX-X_._.Q.PXKXKXKXKXKXKXKXKXKXKXKXKXKXKXKX=   KXKXKXKXKXKXLXKXLXKXLXKXKXKXKXLXKXKXKXKXLXKXKXKXLXKXKXKXLXKXKXKXLXKXKXKXLXKXKXLXKXKXKXKXLXKXKXLXKXKXKXKXKXKXLXKXKXKXKXLXKXKXLXKXLXKXLXKXKXKXKXLXKXKXKXKXKXKXKXKXKXKXKXKXKXKXKXKXKXKXKXKXKXKXKXKXKXKXKXKXKXKXKXKXKXKXKXKXKXKXKXKXKXKXKXKXKXKXKXKXKXKXKXKXKXKXKXKXKXKXKXKXKXKXKXKXKXKXKXKXKXKXKXKXKXKXKXKXKXKXKXKXKXKXKXKXKXKXKXKXKXKXKXKXKXKXKXKXKXKXKXKXKXKXKXKXKXKX",
"NXnXuXMX>X,.E E R G.m.] ] [ <.1XfXuXnXiXM.U h h ,.m.R f h T G.r.C T z T.pXCXMXnX3X>.H C E G.n.U H T b.wXZXdXdXwX<.< , f C [ n.M.<.c.M.:.:.j.>.R.7XeX8XrX/.:.:.h.$.m.G.$.:.:.+.Q.iXgXgXdX;X@.#.,.=.P.k.:.x.$.v.yXaXrXuXuXI.U Y T k.Y.:.$.o.+./.uXuX1XnX~.$.b.r.j.H.k.j.j.j.H.M.j.v.M.I.0XfXtXaX;XI.U.M.H.G.M.U.G.!.m.<XrX7XeXCXk                   % wX=X:X,X).V.oX#X!./.<XhX6X6XY.oX$X&XE.F.L.|.OX[.`.[.&X%X+X~.>XwX7X6X+XH.!.OXG.OXiX,X2X1X).j , o.*XhX-X9X1X).@.+.[ } v.b.o.E [ o.W.hXhX=X=XI.@.o.+.$.m.b.%.o.+.1.(.8X9XgX1XI.=.;.o.;.T.>.Y E U 1.=X7X7X1X1X1XrXrX0X0X@Xc.x.V.v.@XyXwX7XiXU.h g f j.L.| I G #.Y.$.C K T Q.8X-X:X2X~.j.j.j.k./.*X_.(.W.PXKXKXKXKXKXKXKXKXKXKXKXKXKXLXKX=   X X o X X X X X X o X X X X o X X X o X X X o X X X o X X X o X X X o X X X o X X X o X X X o X X X X X o o X X X X o X X X X X X X X X X X X X X   Y.KXLXKXKXKXKXKXKXKXKXKXKXKXKXKXKXKXKXKXKXKXKXKXKXKXKXKXKXKXKXKXKXKXKXKXKXKXKXKXKXKXKXKXKXKXKXKXKXKXKXKXKXKXKXKXKXKXKXKXKXKXKXKXKXKXKXKXKXKXKXKXKXKXKXKXKXKXKXKXKXKXKXKXKXKXKXKXKXKXKXKXKXKXKXKXKXKXKXKXKXKXKXKX",
"MXMXnXMX,Xb.:.#.} G.G.h.#.#.b.:XCXuXnXiXM.E ] U j.H.:.R T / Y.V./ / T I.uXCXuXuX;X$.o.T ] G.G.E o.%.b.2XdXdXeXwXI.r X.f h U =.[ ,.,.n.[ I L ' I.wXtX7XrX^.o.R ' #.V.G.[ Y E E U.iXrXeXrX(.+.Y Y W n.k.' ' Y k.yXMXMXMXMXI.h j t @.U.E U h l /.ZXuXdXMX+XE E t ] G.} k l z b.>.H / E c.6XtXtXtX;X$.%.E +.I.n.E [ [ M.2XCXeXwXnXH   .               - tX=X:X,X~.}.$X%X X^.6XhX6X>XQ.oX%X&XE.H.Y.&X%XoXL.L.OX@XoXT.<X1X1X9X+XY.@X>X!./.>X7XeX1XR.h , W (.-X:X9X1X(.<.k.j.h.m.M.$.:.:.;.W.6XhXhX=XW.;.;.$.j.T.b.$.b.<.b.(.8X9X1X1XI.,.,.j.j.G.v.e.e.[ <.;X7X:X1X:X:X7XrXwXrX/.~.2X%X}.@XyX6X7XiXY.+.r.e.F.G.} I I #.}.r.I I Y Q.1X1X:X2X/.Y.2X%XU.Q.*XW.=X_.JXKXKXKXKXKXKXKXKXKXKXKXKXKXLXKX:                                                                                                                                                   .   L.KXKXKXKXKXKXKXKXKXKXKXKXKXKXKXKXKXKXKXKXKXKXKXKXKXKXKXKXKXKXKXKXKXKXKXKXKXKXKXKXKXKXKXKXKXKXKXKXKXKXKXKXKXKXKXKXKXKXKXKXKXKXKXKXKXKXKXKXKXKXKXKXKXKXKXKXKXKXKXKXKXKXKXKXKXKXKXKXKXKXKXKXKXKXKXKXKXKXKXKXKXKXKX",
"NXuXnXCX2Xv.] / #.K.G.$.] ' b.,XMXuXMXmXm.O.[ O.L.Y.:.[ E #.Y.U.O.e.%.G.2XCXyXuX3X<.+.O.$.Y.G.] O.O.b.0XCXfXdXuXI.r r g C V.%X4X&XJ.H.OX%X%XoXQ.6XwX7XyX+XH.OX&XOXY.F.#./ ' [ U.wXuXeXtX+X@.Y  .' V.z.z.K.V.}.mXqXyXpXyXI.h T h $.U.[ E h z /.uXrXuXnX~.o.o.h E n.:.H l H M.b.J ' Y 1.6XaXaXtX=X<.>.>.#.!.m.O.h.[ U.0XMXeXwXZXJ   .               - eX*X:X1X~.O./ ] +.).6X1X:X1XR.E R W #.m.O.U E ] G.j./ O.o.b.3XeX1X1X*X$.o.E [ Q.,X:X=X1XW.l , W W.=X=XhX1X/.<.=.} } G.m.O.] R =.W.9X9X9X6XQ.o.E [ r.Y.m.[ :.[ c./.7X:X9X1XT.=.} } k.K.V.| ] [ c.@X6X*X*X*X=X6X8X6X6X(.c.>.$.r.~.1XwX9XwXT.O.$.e.V.G.] Y Y #.Y.$.H ! T Q.1X-X-X1X).O.#.$.>.Q.*X_.(.).PXKXKXKXKXKXKXKXKXKXKXKXKXKXKXKX=                                                                         .                                                                         .   L.KXLXKXKXKXKXKXKXKXKXKXKXKXKXKXKXKXKXKXKXKXKXKXKXKXKXKXKXKXKXKXKXKXKXKXKXKXKXKXKXKXKXKXKXKXKXKXKXKXKXKXKXKXKXKXKXKXKXKXKXKXKXKXKXKXKXKXKXKXKXKXKXKXKXKXKXKXKXKXKXKXKXKXKXKXKXKXKXKXKXKXKXKXKXKXKXKXKXKXKXKXKXKX",
"NXnXNXAX2Xr.H U | G.L./ H Y v.1XMXuXMXmXm.T Y E G.Y.| J U +.Y.V./ O.O.T.iXdXuXuX;X>.] ] j.Y.G.] [ +.M.wXnXuXfXuXI.r r t C G.%XqX&XM.E.$XbXbX&X/.wX8X7XwX(.~.qXNX%XY.F.r.#.$.$.T.wXrX1XtX@Xj.e.e.#.v.G.%XNXAXbXnXyXrXyXyXI.Y Y J v.K.K.+X~.G.^.aXyXyXiX+XI.~.U.m.G.G.H.G.n.m.G.n.L.n.U.6X9X9XtX@Xc.$.#.@.U.M.+.#.E m.0XpXtXpXMXJ                   % wX=X=X1X~.O./ / O.).1X:X1X1XI.W J H #.G.[ C H / L.r.Y / o.m.3X1X:X1X+XO.k U W U.(.=X=X9X_.j , o._.=X-XhX,XW.E f M P F.v.H C l W ^.9X6X:X6XM.H G G ' Y.v.G H l :.+XwX,X1X,XU.k l G } L.x.C M k <.(.6X=X-X=X-X9X6X6X9X+X,.+.] $.+X1XeX6X0XT.o.$.O.c.G.#.' Y #.Y.@.Y / W I.-X-X;X,X~.E ] ] >./.*X_.(.).LXKXKXKXKXKXKXKXKXKXKXKXKXKXKXKXI % = = = = = = = = = = - = = = = = = = = = = = = = = = = = = = = = = = = X                                                                             L.KXKXKXKXKXKXKXKXKXKXKXKXKXKXKXKXKXKXKXKXKXKXKXKXKXKXKXKXKXKXKXKXKXKXKXKXKXKXKXKXKXKXKXKXKXKXKXKXKXKXKXKXKXKXKXKXKXKXKXKXKXKXKXKXKXKXKXKXKXKXKXKXKXKXKXKXKXKXKXKXKXKXKXKXKXKXKXKXKXKXKXKXKXKXKXKXKXKXKXKXKXKXKX",
"NXnXNXMX2XT.OX%XOX}.[.}.OXoXT.,XMXpXMXqXY.Y.OX!.L.L.H.E.K.U.Y.G.r.G.G.T.iXfXtXuX3X>. .' z.Y.E.L.Y.!.T.2XnXuXCXpXI.r , r h ] >.,.o.;.M.o.@.k.o.I.9X8X8XeX_.@.>.>.+.b.m.O.E O.O.T.2XeXeXdX+X%./ ' Y k.j.#.<.b.I.2XmXyXtXrXI.P I P z.oX&XVXNX%X/.mXyXyXMX+X@XNXNX&XK.&XbXBX%X!.oX4XNX4X_.hXaXaXaX@X,.l f R G.c.U k H M.,XrXtXuXMXJ   .               - tX=X*X1XT.O./ ' #.Q.:X:X:X:XU.E W P $.G.#.I I _ V.e./ / ] b.<X7X1X7X@X@.T U E Q.,X7X1X9XW.j , o.=XhX9X9X1X).U f d ^ V.V.I M Z R Q.6X@X6X6Xm.l f M ! }.v.h C M [ +XwX1X1X2Xb.G h G [ K.x.M f l ,.@X9X9X1X:X:X6X9X7X6X+X<.O.| %.+XiX1X1X1XT.+.#.$.v.G.e.' / $.Y.$./ ' E R.6X-X-X2X~.] / O.$./.=X*X;XQ.PXKXKXKXKXKXKXKXKXKXKXKXKXKXKXKXKXKXKXKXKXKXKXKXKXKXKXKXKXKXKXKXKXKXKXKXKXKXKXKXKXKXKXKXKXKXKXKXKXKXKXLXKX[   .                                                                     .   K.KXKXKXKXKXKXKXKXKXKXKXKXKXKXKXKXKXKXKXKXKXKXKXKXKXKXKXKXKXKXKXKXKXKXKXKXKXKXKXKXKXKXKXKXKXKXKXKXKXKXKXKXKXKXKXKXKXKXKXKXKXKXKXKXKXKXKXKXKXKXKXKXKXKXKXKXKXKXKXKXKXKXKXKXKXKXKXKXKXKXKXKXKXKXKXKXKXKXKXKXKXKXKX",
"NXaXyXyX@XOX2XVXUX}.}.UXBXbX+X>XMXmXMXyX+X0XBXmXOX!.%XBXNX%X!.OXNXBXnX).uXfXuXuX<XT.&X&XOXoXOX%XNXbX+X3XnXuXuXrXM.t r t I #.M.<.W ;.M.o.#.,.T I.eX8X9XtX/.E E +.U $.m.Y E O.T I.1XdX1XeX;XT I I f j.:.h k T >.2XMX0XwXiXI.] R R z.F.oX2X4X/.^.ZXyXuXMXOXoX%X%X[.L.[.%X%X&XK.K.oX$XOX^.4XaXtXaX4Xn.:.[ :.H.v.k h H v.>XiX7XrXMXR                   % tX*X*X:X~.O./ ' #./.:X1X6X6XU.R R Y e.L.e.^ I ' L.z.Y / E b.>X,X1X1X/.@.U H E Q.,X1X1X1XI.j , W *XhX-X1X6XQ.E h K ! B.V.I C G ' ^.6X6X6X6XM.G C C / K.V.G h k :.+XyXiXiX2Xb.C d Z } }.h.G M l 1.4X9X1X1X1X1X9X6X6XwX+XO.Y Y O.+X2X:X1X2XU.E Y Y z.G.} Y P } K.$.K P Y R.:X=X=X,XT.Y I I @.+XhX=X;X).PXKXKXKXKXKXKXKXKXKXKXKXKXKXKXKXKXKXLXKXKXKXKXLXKXKXLXKXLXKXKXLXKXKXKXKXKXKXLXKXLXKXKXLXKXKXLXKXLXKXKXLXKX|   .                                                                     .   K.KXLXKXKXKXKXKXKXKXKXKXKXKXKXKXKXKXKXKXKXKXKXKXKXKXKXKXKXKXKXKXKXKXKXKXKXKXKXKXKXKXKXKXKXKXKXKXKXKXKXKXKXKXKXKXKXKXKXKXKXKXKXKXKXKXKXKXKXKXKXKXKXKXKXKXKXKXKXKXKXKXKXKXKXKXKXKXKXKXKXKXKXKXKXKXKXKXKXKXKXKXKXKX",
"NXMXuXuX>Xb.>.:.j.G.U.j.j.j.I.,XCXiXCX2XT.b.b.c.m.G.V.v.c.c.Y.L.G.Y.M.U.rXpXyXuX<Xb.Y.~.Y.K.!.H.^.Q.U.4XwXrXtXwXI.r r g G :.,.,.;.,.n.#.:.h.+.I.wXtX8XuX(.R +.j.Y k.U.O.+.#.E I.iXeXeXdX*X/ P Y t :.k.T E o.<.0XyX,XrXwXR.OX2X%XoXE.^.bXmX@X_.aXrXaXMX&XOXmXVX&XK.OXVXbX%XE.!.4XBX4X^.6XaXyXpX%XOXbXNX%X~.m.V.G.v.T.2XwXwXeXZXU                   % tX=X=X6XQ.O.' ' #.~.,X7X,X,XU.W J P :.F.#.I I / `.x._ / E m.2X7X7X9X+X+.k k R U.<X:X:X7XW.j , W _.=X-X1X:XW.E G ^ / V.v.T *.I [ (.1X:X:X3XI.R J G ' K.v.H I Y $.;X1XeXgX1XR.H G H #.K.h.G I U <.@XwX6X9X1X1X9X7X6X0X/.[ ..h ] OX2X1XwXqXm.h f h x.K./ C K | Y.O.K C J R.6X:X1X2XY.C f C #.@X=X=X<X(.PXKXKXKXKXKXKXKXKXKXKXKXKXKXKXKXKXKXKXKXKXKXKXKXKXKXKXKXKXKXKXKXKXKXKXKXKXKXKXKXKXKXKXKXKXKXKXKXKXKXKXKXKX|   .                                                                         L.KXLXKXKXKXKXKXKXKXKXKXKXKXKXKXKXKXKXKXKXKXKXKXKXKXKXKXKXKXKXKXKXKXKXKXKXKXKXKXKXKXKXKXKXKXKXKXKXKXKXKXKXKXKXKXKXKXKXKXKXKXKXKXKXKXKXKXKXKXKXKXKXKXKXKXKXKXKXKXKXKXKXKXKXKXKXKXKXKXKXKXKXKXKXKXKXKXKXKXKXKXKXKX",
"mXdXdXfX,X1.T E E b.U.O.E T j.1XCXdXCXnXb.T U h j.V.] h l Y G.j.C U U M.rXpXuXuX3X$.H Y ] m.m.Y U U 2.0XpXtXfXpXI.t r r h [ =.=.=.k.H.=.| [ } I.7XtXeXrX+X@.[ } ] v.G.r.$.:.+.U.1XdXgXdX*X$.$.j.] j.k.E o.W <.qXyX0XrX6XI.+.,.[ c.E.,.n.,.,.^.MXrXrXyX+X;.G.k.n.H.z.P.n.n.H.m.k.J.G.M.,XfXfXuX>XH.^.~.T.Y.I.T.~.T.Y.@XwXwXrXZXH                   % tX*X=X=XQ.+.' ' :.^.,X6X,X0XU.U L J h.K.0.L ^ 0.L.x./ Y T I.,X7X,X9X+X%.l l W I.<X-X-X6XW.j , ;.=X-X1X1X1X*X@.#.e.e.V.b.o.%.' o.W.1X1X1X,XI.[ #.#.#.G.m.o.:.+.b.+X1X1X1X1Xr.E E E ;.G.c.] $.o.<.=X6X-X:X9X6X7XwX6XsX@X[ Z C | +X2X1X7X2XG.H f C x.L./ B C | L.e.C B G Q.6X:X<XwXY.C G f [ +XhX=X<X/.LXKXKXKXKXKXKXKXKXKXKXKXKXKXKXKXKXKXKXKXKXKXKXKXKXKXKXKXKXKXKXKXKXKXKXKXKXKXKXKXKXKXKXKXKXKXKXKXKXKXKXLXKX[                                                                         .   K.KXLXKXKXKXKXKXKXKXKXKXKXKXKXKXKXKXKXKXKXKXKXKXKXKXKXKXKXKXKXKXKXKXKXKXKXKXKXKXKXKXKXKXKXKXKXKXKXKXKXKXKXKXKXKXKXKXKXKXKXKXKXKXKXKXKXKXKXKXKXKXKXKXKXKXKXKXKXKXKXKXKXKXKXKXKXKXKXKXKXKXKXKXKXKXKXKXKXKXKXKXKXKX",
"mXtXdXCX,Xb.o.o.O.m.U.$.$.O.b.3XCXnXAXuXI.O.%.E j.G.[ P J R K.j.I [ W M.0XpXtXuX<X@.%.E o.H.m.U U W <.0XpXfXdXaXI.r r g G } n.k.,.P.n.=.L P R m.wXwX7XwX/.c.n.n.G.G.V.$.[ +.+.I.1XgX1X1X*X@.$.r.r.v.b.E U T ;.0XuXiXiX7XI.l h r [ m. .W k x Q.MXtXtXaX(.k x j W U.O.h h l b.<.k =. .<.1XdXdXdX<Xc.O.O.O.m.V.+.+.] M.<XiX7X7XMXU                   - 9X*X*X-XQ.[ ] ' #.^.,X7X:X6XI.R U P h.Y.e./ / e.K.V./ Y R M.>X1X1X7X+X+.z k W U.<X=X=X1XR.j , ;.=XhX-X9X1XW.;.>.r.e.b.b.%.%.] %.W.1X-X9X:XI.;.<.k.$.U.b.@.k.>.b.*X1X1X1X-XR.:.>.+.1.I.V.$.j.o.<.=XhX=XhX<X:X6X0XwX0X+X} H G } +XiX,X1X0XK.U C I k.K./ C C e.L.#.C C k Q.,X;X<X1XT.H k h } @X=X=X=X/.PXKXKXKXKXKXKXKXKXKXKXKXKXKXKXKXKXKXKXKXKXKXKXKXKXKXKXKXKXKXKXKXKXKXKXKXKXKXKXKXKXKXKXKXKXKXKXKXKXKXKXLXKX|   .                                                                         L.KXKXKXKXKXKXKXKXKXKXKXKXKXKXKXKXKXKXKXKXKXKXKXKXKXKXKXKXKXKXKXKXKXKXKXKXKXKXKXKXKXKXKXKXKXKXKXKXKXKXKXKXKXKXKXKXKXKXKXKXKXKXKXKXKXKXKXKXKXKXKXKXKXKXKXKXKXKXKXKXKXKXKXKXKXKXKXKXKXKXKXKXKXKXKXKXKXKXKXKXKXKXKX",
"mXuXfXZX0XM.+.} $.G.L.j.r.#.v.1XCXMXnXyXI.%.:.' j.Y.h.} } :.Y.v./ O.E m.wXyXrXiX<Xb.%.O.$.U.G.E [ W c.6XpXtXtXtX2.t r g I k.&X%XOXP.F.F.K.H.n.U.,X7X7XiX/.U.&X%XOXY.m.V.L.G.m.T.1X1X1XgX+XM.T.T.U.U.j.E o.E <.wXuXtXrXrXI.Y U f } H.R [ W k ~.uXuXaXCX(.z z x W I.@.h h x b.I.U :.W <.,XdXgXuX,Xb.$.$.%.m.m.+.#.+.H.>XiX7XwXMXH   .               % 9X_._.-XQ.W Y ' +.Q.,X1X1X,XI.R Y P $.G.[ Y / / F.j./ E T b.,XwX1X7X+X@.U U W U.:X<X=X9XW.j , =._.-X-X-X-XR.%.E T &.b.b.&.&.z %.*X-X-X-X1XR.%.+.o.$.T.b.@.c.<.1.*X1X1X1XgXR.z T z %.T.r.T T z 1._.-X=X=X(.-X6X7X6XwX@X+.U Y O.+X,X1X:XqXU.R U Y v.Y.e.C C r.Y.j.C ! W U.6X<X;X2XT.T E Y $.@XhX(.(.Q.PXKXKXKXKXKXKXKXKXKXKXKXKXKXKXKXKXKXKXKXKXKXKXKXKXKXKXKXKXKXKXKXKXKXKXKXKXKXKXKXKXKXKXKXKXKXKXKXKXKXKXKXKX|                                                                         .   L.KXKXKXKXKXKXKXKXKXKXKXKXKXKXKXKXKXKXKXKXKXKXKXKXKXKXKXKXKXKXKXKXKXKXKXKXKXKXKXKXKXKXKXKXKXKXKXKXKXKXKXKXKXKXKXKXKXKXKXKXKXKXKXKXKXKXKXKXKXKXKXKXKXKXKXKXKXKXKXKXKXKXKXKXKXKXKXKXKXKXKXKXKXKXKXKXKXKXKXKXKXKXKX",
"MXaXMXBXqXz.' / 0.L.L.e.' / z.3XMXaXNXqXm.;.:.#.F.K.P.L.K.G.Y.V.] e.O.I.wXMXuXnX<X>.T U $.U.H.E E o.M.6XaXeXrXyXI.t , r I v.&X@XOXv.G.@XbXbX@XQ.1X1X1X1X@XT.%X2X@XY.U.OXqXbX@XQ.>X9X1X1X(.R.@X@X+XY.b.b.U.M.I.yXuXyXtXiXI.E ' Y j.G.j.k.+.E /.uXnXnXnX;X%.+.o.$.Y.j.E ] ] m.m.' } ' 1.>XeX8XtX>Xb.O.O.$.G.m.+.#.[ m.>XtXrXuXMXH   .               % 7X_.(.:XQ.] ] ] $.).7X1X:X:XI.o.R T $.H.+.E / [ G.c.Y E O.I.2X1X1X9X;X$.o.O.;.U.>X=X=X9XW.j , o.W.hX-X-X1XR.j : : j r.2.< < < &.).gXgX1X2XT.R P P ] Y.n.[ P.h.,./.qX1X1X3Xr.< : : &.R.&.- - : &.W.-X-X-X=X:X6X7XwX0X(.,.W +.$.~.3X<X1X2XT.%.+.$.m.T.%.e.%.r.T.>.O.O.O.T.:X:X:X3XQ.%.%.%.b.+X:X*X*XQ.PXKXKXKXKXKXKXKXKXKXKXKXKXKXKXKXKXKXKXKXKXKXKXKXKXKXKXKXKXKXKXKXKXKXKXKXKXKXKXKXKXKXKXKXKXKXKXKXKXKXKXLXKX}   .                                                                     .   K.KXKXKXKXKXKXKXKXKXKXKXKXKXKXKXKXKXKXKXKXKXKXKXKXKXKXKXKXKXKXKXKXKXKXKXKXKXKXKXKXKXKXKXKXKXKXKXKXKXKXKXKXKXKXKXKXKXKXKXKXKXKXKXKXKXKXKXKXKXKXKXKXKXKXKXKXKXKXKXKXKXKXKXKXKXKXKXKXKXKXKXKXKXKXKXKXKXKXKXKXKXKXKX",
"NXmXNXMX2Xv.' ' e.`.V.0._ / k.>XsXyXaXsXH.=.:.=.n.L.L.P.v.V.}.V.| O.O.G.yXCXMXCX3Xc.[ [ k.K.F.R R E b.>XuXuXCXpXI.j r r f [ k.>.,.>.M.j.$.k.@.b.1X9X1XtX(.,.k.c.j.b.n.j.k.k.>.I.7X1X1XgXW.o.h h h j.>.U k k @.,XtXtXtX7XR.E Y P x.Y.j.e.E R /.mXuXiXAX@XO.E ] h.[.x./ ! | V.}.OX&X&XI.6XtXrXyX2Xn.E Y [ m.U.G.Y.n.H.2XuXtXrXuXH                   % tX=X=X:X).] R R +.Q.,X-X-X3XI.o.E E j.G.$.' / O.G.j.R [ o.M.3X1X:X1X(.$.E ] E T.,X6X:X9XW.j , o.=XhX1X-XgXR.j : : < 2.r.< < : &.W.gX8XdX0XU.I G I ] U.n.J R R =./.0X3X1X1X@.< : : &.R.&.: - : &.-XhX-X9X:X-X6XwX6X6X@X,.[ [ $.+X3X3X=X3XT.&.O.E r.I.O.O.&.r.T.b.%.%.%.R.:X=X*X:XR.%.%.%.$.;X<X*X;X~.PXKXKXKXKXKXKXKXKXKXKXKXKXKXKXKXKXKXKXKXKXKXKXKXKXKXKXKXKXKXKXKXKXKXKXKXKXKXKXKXKXKXKXKXKXKXKXKXKXKXKXLXKX}                                                                         .   K.KXLXKXKXKXKXKXKXKXKXKXKXKXKXKXKXKXKXKXKXKXKXKXKXKXKXKXKXKXKXKXKXKXKXKXKXKXKXKXKXKXKXKXKXKXKXKXKXKXKXKXKXKXKXKXKXKXKXKXKXKXKXKXKXKXKXKXKXKXKXKXKXKXKXKXKXKXKXKXKXKXKXKXKXKXKXKXKXKXKXKXKXKXKXKXKXKXKXKXKXKXKXKX",
"mXnXyXmX2XV.e.j.z.L.[.r.V.j.m.>XnXuXMXsXQ.1.M.v.F.K.!.&XOXG.}.V.e.z.r.T.iXAXnXCX3XT.%X4X%XOXK.k.G.n.G.>XiXuXtXnXI.t r r l #.m.m.;.;.b.o.+.>.W I.1X1X9X7X(.W T O.T $.n.Y ' [ U M.1X9X1X9X*X&.k z j $.>.k o.%.;.,XuXiXtXeXR.k.v.F.G.K.k.K.G.M.OXyXnXiXMX&X[ ] | e.K.z.z.x.j.F.K.OX4X%XE.6XCXpXpX0Xv.R Y ] G.Y.oX&X%X^.qXaXuXwXuXH                   - tX=X=XhX).O.' / #.Q.:X:X;X,XY./ Y P e.U.| I P | L.h.L R E b.;X,X3X,X+X] j l W T.0X1X6X9XW.x , =.=XhX-X-X1XR.j ; - : r.r.< ; ; < W.gX8XeXiX!.#.h.j.r.Y.c.+.>.=.,.+XrX1X1X1X%.: ; : &.2.&.; ; : &._.-X=X*X*X=X:X9X6X6X/.,.U H / ~.,X<X:X1XI.j : < %.R.j < : &.I.&.X.< j I.-X=X*X-XR.j < : &.+X:X*X;X).PXKXKXKXKXKXKXKXKXKXKXKXKXKXKXKXKXKXKXKXKXKXKXKXKXKXKXKXKXKXKXKXKXKXKXKXKXKXKXKXKXKXKXKXKXKXKXKXKXKXKXKXKX|   .                                                                         L.KXKXKXKXKXKXKXKXKXKXKXKXKXKXKXKXKXKXKXKXKXKXKXKXKXKXKXKXKXKXKXKXKXKXKXKXKXKXKXKXKXKXKXKXKXKXKXKXKXKXKXKXKXKXKXKXKXKXKXKXKXKXKXKXKXKXKXKXKXKXKXKXKXKXKXKXKXKXKXKXKXKXKXKXKXKXKXKXKXKXKXKXKXKXKXKXKXKXKXKXKXKXKX",
"mXuXuXuX3Xb.O.$.r.V.K.r.#.#.b.3XuXiXuXiXI.:.@.O.v.Y.v.k.c.j.}.L.0.$.+.m.iXCXnXCX2XI.!.oXK.K.L.h.j.j.M.<XuXwXwXrXI.j r e l +.P.M.;.,.I.@.$.k.T I.1X8X8XeX(.o.Y [ E >.G.E [ [ W M.1XeX8XeX;XO.H ' h 0.k.Y +.@.,.2XNXuXnXyXQ.+XqXqXOXL.oXBXIX%X+XmXyXuXmX@XU.%X&XY.K.oX4XmX%XK.!.&XbX%X^.6XuXuXuX2Xm.h.#.e.V.Y.+XqX%X/.4XpXuXuXCXU               .   - rX_.(.=XQ.O./ _ $.Q.<X:X:X1XT./ C I e.U./ C M / L.x.J Y U c.<X,X3X1X).E g t H T.wX1X1X1X2.x , ;._.=X-X-X1XR.j - : < %.%.< : : &.W.8X8XwX0XT.[ #.#.$.T.M.W [ E ,./.wXgXgX1X2.&.< *.&.R.&.X.X., o.*XhX=X=X*X:X7X7X6XrX/.E h h E +XwX,X1X1X2.: - - %.r.X.; - j I.z ; ; : I.=X=X*X=XI.: - ; z *X=X*X;X).PXKXKXKXKXKXKXKXKXKXKXKXKXKXKXKXKXKXKXKXKXKXKXKXKXKXKXKXKXKXKXKXKXKXKXKXKXKXKXKXKXKXKXKXKXKXKXKXKXKXKXLXKX|                                                                         .   K.KXLXKXKXKXKXKXKXKXKXKXKXKXKXKXKXKXKXKXKXKXKXKXKXKXKXKXKXKXKXKXKXKXKXKXKXKXKXKXKXKXKXKXKXKXKXKXKXKXKXKXKXKXKXKXKXKXKXKXKXKXKXKXKXKXKXKXKXKXKXKXKXKXKXKXKXKXKXKXKXKXKXKXKXKXKXKXKXKXKXKXKXKXKXKXKXKXKXKXKXKXKXKX",
"mXrXuXMX,X>.E E T v.U.O.T T $.3XeXwXrX7XM.T T z r.K.E h h z U.c.C T z b.1XdXdXfX3X@.T T o.m.m.k k U ,.,XfXtXfXpX~.j e e C ' h.:.=.,.G.:.e.h.+.I.2XdXgXuX@X;.$.O.} j.Y.O.] [ [ M.rXtXtXpX<X,.R | | k.z.:.,.+.c.2XMXMXnXyXQ.#.:.#.k.L.v.V.G.j.+XiXuXuXnX+X>.c.n.v.K.n.P.n.n.n.U.F.oXU.G.6XfXtXuX2Xm.#.#.#.m.T.U.oXY.Y.2XnXdXdXAXY                   - 7X_.*X=XQ.+./ ! #.Q.:X:X-X>XU.Y P Y j.K.[ G M / }.z.I I T m.3X2X3X1X+XO.h k Y T.wXwX1X1XT.j r @.=X=X-X-X1XR.&.O.} / b.v.O.%.o.+.W.9X9X6X0XI.J x z T m.b.T ] [ ,.(.6X9X-X=XI.&.%.%.@.I.r.O.%.T <.=X6XhX1X-X:X7X6X:X6X(.W k H E +X2X1X1XwX<.: ; : r.R.< ; : h b.&.; : , 2.=X=X*X=XR.: - ; &.*X*X*X*X).LXLXLXLXKXKXKXKXKXKXKXKXKXKXKXKXKXKXKXKXKXKXKXKXKXKXKXKXKXKXKXKXKXKXKXKXKXKXKXKXKXKXKXKXKXKXKXKXKXKXKXKXKX[   .                                                                         K.KXKXKXKXKXKXKXKXKXKXKXKXKXKXKXKXKXKXKXKXKXKXKXKXKXKXKXKXKXKXKXKXKXKXKXKXKXKXKXKXKXKXKXKXKXKXKXKXKXKXKXKXKXKXKXKXKXKXKXKXKXKXKXKXKXKXKXKXKXKXKXKXKXKXKXKXKXKXKXKXKXKXKXKXKXKXKXKXKXKXKXKXKXKXKXKXKXKXKXKXKXKXKX",
"mXyXnXMX2X<.E E O.v.V.O.O.O.$.2XnXtXaXwXI.T E Y r.G.O.k k U H.c.T T z b.iXCXdXdX:X@.T T Y U.m.H k U <.>XuXfXCXuXT.t r r C I J ' W ;.G.#./ [ ] I.1X1X1XuX+X$.] #.O.v.m.] H H W m.wXrX8XtX@X:.I J | z.v.:.:.[ c.0XAXuXnXnXR.h j t +.G.] C h h ~.uXuXtXuX+XT k l R K.[ l f k n.m.k I ' ,.6XdXtXuX2XM.[ ] O.m.V.O./ O.m.3XnXiXwXCXU   .               - 9X*X*X-X).E / P O.~.:X-X-X6XU.W I I ,.U.| C C / }.z.I C T M.3X7X1X1X+X%.h h U U.,XwX1X1XR.j , ;.=X-X-X-X1X).$.O.' | v.m.$.:.,.;.W.6X9X9X6XI.J J C E Y.b.] O.=.<.(.6X1X1X:XI.%.%.@.@.m.b.O.O.%.<._.6XhX1X-X:X7X:X;X>X/.,.R Y ] T.,X1X,X1X2.: ; : r.r.j ; ; z R.&.; ; , 2.hX*X*X3XR.: - ; &.R.3X*X+X).LXLXKXKXKXKXKXKXKXKXKXKXKXKXKXKXKXKXKXKXKXKXKXKXKXKXKXKXKXKXKXKXKXKXKXKXKXKXKXKXKXKXKXKXKXKXKXKXKXKXKXLXKX|                                                                         .   L.KXLXKXKXKXKXKXKXKXKXKXKXKXKXKXKXKXKXKXKXKXKXKXKXKXKXKXKXKXKXKXKXKXKXKXKXKXKXKXKXKXKXKXKXKXKXKXKXKXKXKXKXKXKXKXKXKXKXKXKXKXKXKXKXKXKXKXKXKXKXKXKXKXKXKXKXKXKXKXKXKXKXKXKXKXKXKXKXKXKXKXKXKXKXKXKXKXKXKXKXKXKXKX",
"sXyXyXMX2Xc.O.O.#.G.K.$.#.] j.1XCXnXCXuXR.>.v.r.v.G.,.R W W !.n./ O.O.m.wXCXdXCX3X<.] O.$.G.G.] ] E b.2XuXuXtXyXR.j X.r h / #.:.:.<.G.#./ ] E I.1X1X1XwX(.+.R ] [ k.K.n.n.n.n.M.>X7X7XrX@X<.h.h.h.v.n.j.m.m.T.0XMXyXyXuXW.U k h O.G.O.Y T U T.yXiXeXuX(.T T k E U.+.H C k c.U.k Y E ;.8XdXgXpX2Xm.+.%.O.b.V.O.O.O.G.2XnXeX1XnXH                   % 7X_.*X;X).[ ' ' #.~.:X-X-X<XT.] E ' k.U.[ Y I ' Y.k.T T &.M.:X,X-X1X+X%.Y ] o.Q.0X1X7X7XR.j , ;.=X=X-X-X=XT.O.' P ' v.v.O.:.=.;.Q.7X9X9X6XI.R J P / Y.V./ ] W ,._.6X-X6X:XM.T | %.r.Y.b.] e.$.,._.=X=X=X*X-X7X6X6X6X/.,.W Y %.OX,X,X-X,XI.h < j r.).&.j h $.R.%.h j z W.=X_.*X3XR.j j j %.+X*X*X3X(.PXKXKXKXKXKXKXKXKXKXKXKXKXKXKXKXKXKXKXKXKXKXKXKXKXKXKXKXKXKXKXKXKXKXKXKXKXKXKXKXKXKXKXKXKXKXKXKXKXKXKXKXKX}   .                                                                     .   K.KXKXKXKXKXKXKXKXKXKXKXKXKXKXKXKXKXKXKXKXKXKXKXKXKXKXKXKXKXKXKXKXKXKXKXKXKXKXKXKXKXKXKXKXKXKXKXKXKXKXKXKXKXKXKXKXKXKXKXKXKXKXKXKXKXKXKXKXKXKXKXKXKXKXKXKXKXKXKXKXKXKXKXKXKXKXKXKXKXKXKXKXKXKXKXKXKXKXKXKXKXKXKX",
"mXaXMXNX2X$.T Y ] G.G.[ I I >.3XCXnXfXyXT.j.Y.}.K.L.=. .J =.!.v./ / ] m.0XuXuXuX3Xc.] #.e.Y.G.#.@.E c.6XnXpXrXiXI.t e X.C x.@X2X@XG.M.#.' [ +.I.,X8X1XwX@X@.] [ #.j.U.+XNXBX4X_.>X7X6X7X@X@XBXIXBXOXF.@XNXNXqXiXyXuXtXiXW.R U H e.K.e.] [ ] ).yXuXwXCX@XW W R ,.G.k.:.$.,.n.U.Y ' ] <.wXdXdXuX6Xm.c.V.j.I.G.$.$.O.b.2XnXdXnXCXU   .               % wX*X*X;X).#.#.e.,.).=X-X=X>XT.:.z.$.v.U.$.#.#.$.U.c.;.;.@.I.=X1X=X:X+Xb.$.j.>.Q.0X7X1X6XW.j , o.=X=X-X:X1XR.o.I K / C.V./ ' ' [ _.wX6X9X6X!.J k H Y G.c.I C G ,./.wX6X7X:XM.I C C $.[.x.0.}.Y.n.(.6X1X:X-X1X9X6X<X6X/.<.=.:.r.+X,X,X3X3XI.$.%.%.r.T.r.r.%.c.T.r.%.%.%.W.=X-X*X3XR.&.%.%.r.).*X;X*X(.PXKXKXKXKXKXKXKXKXKXKXKXKXKXKXKXKXKXKXKXKXKXKXKXKXKXKXKXKXKXKXKXKXKXKXKXKXKXKXKXKXKXKXKXKXKXKXKXKXKXKXLXKX}                                                                             L.KXLXKXKXKXKXKXKXKXKXKXKXKXKXKXKXKXKXKXKXKXKXKXKXKXKXKXKXKXKXKXKXKXKXKXKXKXKXKXKXKXKXKXKXKXKXKXKXKXKXKXKXKXKXKXKXKXKXKXKXKXKXKXKXKXKXKXKXKXKXKXKXKXKXKXKXKXKXKXKXKXKXKXKXKXKXKXKXKXKXKXKXKXKXKXKXKXKXKXKXKXKXKX",
"NXnXMXMX2Xv.O.O.h.L.K.v.h.0.v.3XMXuXyXyXU.>.z.F.L.L.h.' [ ,.K.z.I I Y I.0XnXyXuX<X<.Y / e.}.L./ R R b.2XMXMXtX0Xb.t r e f } z.<.k.,.m.#.T [ R b.7X8X9X7X/.+.R [ Y :.m.k.<.c.,.H.6X7X7X7X(.n.n.K.v.v.v.c.H.T.U.0XnXiXtXiXQ.E Y J j.}.h.[ ' [ ~.yXaXrXnX;Xo.H k >.L.OXmXAX2XY.T.C P T @.1XfXdXuX0X+XqXmX%XoXm.O.T Y b.2XuXuXeXCXU   .               ; :XW.*X=X(.#.e.| $.R.<X=X=X;XR.:.r.e.v.Y.$.#.+.} H.c.:.;.o.2.;X:X:X-X+Xb.$.r.:.T.,X1X:X1XR.h r ;.*X=X-X-X>XQ.R G K ! F.V.Y K G ] /.wX7X7X0XI.H C C / }.V.A C l #.+XwX6X6X>Xn.K K K e.[.e.) V.k.<./.wX1X1X-X1X9X7X6X<X/.,.} #.j.~.,X1X:X,XT.%.r.r.r.}.e.e.#.c.~.$.%.e.E R.=X=X*X*XT.O./ T $.).(.*X*X(.PXKXKXKXKXKXKXKXKXKXKXKXKXKXKXKXKXKXKXKXKXKXKXKXKXKXKXKXKXKXKXKXKXKXKXKXKXKXKXKXKXKXKXKXKXKXKXKXKXKXKXLXKX{   .                                                                     .   K.KXKXKXKXKXKXKXKXKXKXKXKXKXKXKXKXKXKXKXKXKXKXKXKXKXKXKXKXKXKXKXKXKXKXKXKXKXKXKXKXKXKXKXKXKXKXKXKXKXKXKXKXKXKXKXKXKXKXKXKXKXKXKXKXKXKXKXKXKXKXKXKXKXKXKXKXKXKXKXKXKXKXKXKXKXKXKXKXKXKXKXKXKXKXKXKXKXKXKXKXKXKXKX",
"mXAXnXiX2X+XUXNX2XoXoXlXBXVX@X3XCXuXpXrX/.@XbXbXOXK.&XqXqX&X}.V./ / / G.iXyXyXuX3X<.' ] #.L.G.[ [ ] c.0XMXnXyXwXI.j : r h [ k.>.E :.m.O.' :.W 2.7XtX9XrX(.;.U [ U :.M.Y  .=.U <.6XrX8XdX(.U g t r +.k.l l U +.<XnXyXwXwXW.Y I I j.[.e.' ' R ~.yXaXrXuX@Xo.k h [ Y.G.%XUX&XY.U.O.u.$.c.,XdXtXpX@X^.4X4X%X!.m.+.] [ v.2XnXuXwXCXH                   % :X*X=X=X/.+./ ! O.T.=X*X*X<XT.} | / v.Y.0./  .} }.z.R R W c.<X1X1X3X+Xr.T &.] ~.wX7X1X1XI.j r 1.=X-X6X6X:XQ.R G Z ^ V.V./ K K ] /.wXwXwXwXT.H Z G / K.r.K K G #./.0X6X6X>XM.C Z C | }.B.M G G ,.+X3X-X:X;X-X-X6X6X>X+X[ H H O.Q.>X1X:X,XI.T &.C r.}.| C C } }.$.H ^ Y I.=X_.*X3XY./ C C r.).(.;X(.R.PXKXKXKXKXKXKXKXKXKXKXKXKXKXKXKXKXKXKXKXKXKXKXKXKXKXKXKXKXKXKXKXKXKXKXKXKXKXKXKXKXKXKXKXKXKXKXKXKXKXKXKXKX[                                                                         .   L.KXLXKXKXKXKXKXKXKXKXKXKXKXKXKXKXKXKXKXKXKXKXKXKXKXKXKXKXKXKXKXKXKXKXKXKXKXKXKXKXKXKXKXKXKXKXKXKXKXKXKXKXKXKXKXKXKXKXKXKXKXKXKXKXKXKXKXKXKXKXKXKXKXKXKXKXKXKXKXKXKXKXKXKXKXKXKXKXKXKXKXKXKXKXKXKXKXKXKXKXKXKXKX",
"mXMXnXmX2XU.Y.Y.H.L.F.L.Y.K.U.<XnXiXpX0XQ.~.@XOXK.E.E./.OX!.Y.k./ / E m.iXuXtXuX>Xb.r.j.j.K.K.j.m.k.m.2XMXCXCXiXI.j : r h Y >.>.o.o.n.+.O.h.E M.1X8X9XrX@XW W :.Y +.c.W W ,.x b.6XtX9X8X@XW f l g [ k.l z o.@.@XiXwXwXeXW.O./ / j.}.e.[ [ E ~.yXaXtXnX@X+.] Y h.Y.Y.VXbX%X}.U.%XVXbXT.<XuXuXuXqXOX4XbX%X X!.@XbXqXOX@XMXyXtXMXU                   % 1X_.=X:X~.o.Y K ] R.=X*X*X<XU.Y C I c.Y.e.I K 0.}.B.! H  .n.<X2X2X3X+X%.C C E Q.0XwX9X9XR.j j M.=X-X-X9X6XW.R J I P v.V.T I J E _.rX7X7XwXT.T H C E Y.z.C Y T ;./.6X=X6X;X<.z I Y O.L.e.K C I <.*X1X:X=X:X:X-X:X7XwX+X[ h h E ).2X<X<X2Xm.I C A B.[.! B i 0.}.e.C B Y U._.*X*X;XK.C C f r.+X*X;X;XT.GXKXKXKXKXKXKXKXKXKXKXKXKXKXKXKXKXKXKXKXKXKXKXKXKXKXKXKXKXKXKXKXKXKXKXKXKXKXKXKXKXKXKXKXKXKXKXKXKXKXKXLXKX|   .                                                                         L.KXKXKXKXKXKXKXKXKXKXKXKXKXKXKXKXKXKXKXKXKXKXKXKXKXKXKXKXKXKXKXKXKXKXKXKXKXKXKXKXKXKXKXKXKXKXKXKXKXKXKXKXKXKXKXKXKXKXKXKXKXKXKXKXKXKXKXKXKXKXKXKXKXKXKXKXKXKXKXKXKXKXKXKXKXKXKXKXKXKXKXKXKXKXKXKXKXKXKXKXKXKXKX",
"mXyXnXCX2X>.T U E F.m.R J J $.<XiX7XrX,XI.U H Y h.H.[ ..l W F.j.I Y U M.0XyXiXtX<X@.H Y E G.G.T R R >.,XCXfXrX6XI.h : r h / #.>.;.:.m.>.$.j.o.M.7X9X9X9X(.o.E E U >.M.W W =.U 2.6X8X9X8X=Xo.l l h @.k.U U o.1.;XiXwXeXeX).T T C r.}.e./ O.o.Q.eXtXtXuX%Xj.v.x.z.[.L.OX+X[.Y.}.}.$X+XU.2XCXtXaXqX^.OX&XoXE.E.^.%X%X!.>XmXtXrXuXJ   .               % 1XW.*X;X~.E I K ] T.;X=X*X*XI./ ! I z.}.} K C | }.V./ Y E M.;X<X;X3X+XO.T C R ).wXwX6X6XI.j h W.=X-X-X-X6XW.o. ./ Y v.b.O.O.o.+.^.6X6X7X1XR.E E T / G.v./ O.E ,./.6X=X6X<XI.] O.O.$.Y.V.0.} [ c.=X1X1X1X1X:X:X:X2X2XOX[ h h ] ~.3X;X=X>XG.C B C B.[.! B K e.[.e.B C I I.=X*X(.*XG.C f f O.}.*X(.*XR.PXKXKXKXKXKXKXKXKXKXKXKXKXKXKXKXKXKXKXKXKXKXKXKXKXKXKXKXKXKXKXKXKXKXKXKXKXKXKXKXKXKXKXKXKXKXKXKXKXKXKXLXKX}                                                                         .   F.KXKXKXKXKXKXKXKXKXKXKXKXKXKXKXKXKXKXKXKXKXKXKXKXKXKXKXKXKXKXKXKXKXKXKXKXKXKXKXKXKXKXKXKXKXKXKXKXKXKXKXKXKXKXKXKXKXKXKXKXKXKXKXKXKXKXKXKXKXKXKXKXKXKXKXKXKXKXKXKXKXKXKXKXKXKXKXKXKXKXKXKXKXKXKXKXKXKXKXKXKXKXKX",
"yXrXsXMX,X<.U H T b.n.W T T @.*X7X6XrX7X2.T U h $.U.E h x U m.j.C H T b.,XrXeXeX<X%.z k U v.M.h k z ;.6XCXtXwX,XR.h : r h Y $.#.o.+.m.@.[ [ W I.:X9X9XrX(.M.Q.OXY.U.I.$.E T W M.1X1X1XeX=X@.U Y Y k.n.+.] E <.>XaXuXpXtX).T h t O.G.] k k k I.wXwX7XuX+XR l j R Y.#.h h h v.T.C J z o.:XtX8XeX6XM.U E W c.U.E E T b.3XnXiXwXMXJ                   - 3XR.(.;XT.%.U k W I.>X3X*X;XI.E U J k.oX#.K Z ' Y.v.r.O.&.r.*X*X=X*X}.r.&.C o.Q.6X0X6X=X2.j x W.hX-X-X6X9XW.W R  .R F.M.E ] ] ;.Q.6X6X9X:XI.T T H T U.c.W O.E <./.,X:X:X;XI.] #.%.$.Y.G.e.r.:.<.=X1X:X-X:X:XhX(.=X=X^.W l h O.T.;X3X3X3Xr.T C I V.L./ K I e.}.e.C G Y M.=X*X(.(.G.l j C r.T.*XW.*XT.LXLXKXKXKXKXKXKXKXKXKXKXKXKXKXKXKXKXKXKXKXKXKXKXKXKXKXKXKXKXKXKXKXKXKXKXKXKXKXKXKXKXKXKXKXKXKXKXKXKXKXKXKX[   .                                                                         K.KXKXKXKXKXKXKXKXKXKXKXKXKXKXKXKXKXKXKXKXKXKXKXKXKXKXKXKXKXKXKXKXKXKXKXKXKXKXKXKXKXKXKXKXKXKXKXKXKXKXKXKXKXKXKXKXKXKXKXKXKXKXKXKXKXKXKXKXKXKXKXKXKXKXKXKXKXKXKXKXKXKXKXKXKXKXKXKXKXKXKXKXKXKXKXKXKXKXKXKXKXKXKX",
"mXrXaXpX>X>.U z U c.m.E T T $.;XrXrXrX9XI.T z U $.m.o.l l z I.j.T T &.b.1XrXeXeX<X;.z U T v.m.U z z @.>XtX8X8X7XU.j : r h P [ [ W :.n.#.R  .W <.wXeXrXrX@X^.qXNXbXOXV.} P Y R c.2XuXgXwX<X:.P ( P h.F.} | [ >.>XaXrXtXeXW.z j r E m.E l k h U.0XwXwXuX(.W j j R U.+.h h j b.T.j l x o.hXgX8XeX:X1.U W T <.m.R R o.b.3XnXtXwXpXU   .               % @XR.).(.).T.Q.I.I.W.(.(.*XW.Q.Q.Q.U.H.!.oX~.Y.Y.T.Y.).).~.).).*X*X*X*X+X+X3X).).:X,X:X=X2.j &._.=X=X-X-X:XQ.W J J  .F.m.E E E o._.9X9X9X6XI.z k k T T.b.U o.o.@._.6X-X3X=Xb.T %.o.@.Y.V.e.e.,.<.*X-X=X=X=X=X=XhX6X4X;X@X@X@X(.(.*X*X*X;X(.R.).T.T.T.}.OX~.Y.T.~.~.~.T.I.W.*XW.W.Q.R.T.R.R.).W.).(.T.PXLXKXKXKXKXKXKXKXKXKXKXKXKXKXKXKXKXKXKXKXKXKXKXKXKXKXKXKXKXKXKXKXKXKXKXKXKXKXKXKXKXKXKXKXKXKXKXKXKXKXLXKX|                                                                         .   L.KXKXKXKXKXKXKXKXKXKXKXKXKXKXKXKXKXKXKXKXKXKXKXKXKXKXKXKXKXKXKXKXKXKXKXKXKXKXKXKXKXKXKXKXKXKXKXKXKXKXKXKXKXKXKXKXKXKXKXKXKXKXKXKXKXKXKXKXKXKXKXKXKXKXKXKXKXKXKXKXKXKXKXKXKXKXKXKXKXKXKXKXKXKXKXKXKXKXKXKXKXKXKX",
"yXiXaXMX,X<.E W O.V.T.$.O.e.r.;XtXiXrXwXI./ ' Y j.L.:.R R +.L.V./ / O.b.2XtXwXiX,X$.Y ] ] G.G.T T T ;.:X8X8X9XwXQ.j : e M / h.:.:.:.m.Y.&X%XoX!.,XuXwXyX@XH.%X4X%XoXF.G.!.OXK.T.2XuXtXuX;Xc.x.z.k.z.n.V.K.^.^.6XwX6XwX1XW.T h t E H.[ k U z U.0XiXwXuX(.W x l R G.#.H h h v.U.h G J ;.6XdXtXdX7XM.U W W c.G.E E ] r.3XnXiXrXfX .  .           .   % *XI.R.R.(.3X1X<X=X_.*X*XW.*X=X1X,X;X^.Q.<X2X3X<X~.*X3X3X3X*X*XW.*X*X3X1XgXgX1X-X1X6XhX=X2.j ;.(.=XhX6X9X7X_.E U  .Y n.M.o.E W =.W.6X1X1X<XI.z z k z b.1.&.%.o.%.).:X-X=X=X2.&.%.%.%.T.b.O.e.;.2.*X6X-X=X=X=X=XhXhXhX:X9XrX9X3X(.).*X*X*X*X3X3X*XQ.R.(.;X3X+XQ.(.(.hX:X*XW.2.W.W.W.=X;X*XR.).*XW.*XT.GXKXKXKXKXKXKXKXKXKXKXKXKXKXKXKXKXKXKXKXKXKXKXKXKXKXKXKXKXKXKXKXKXKXKXKXKXKXKXKXKXKXKXKXKXKXKXKXKXKXKXKXKX}   .                                                                     .   F.KXLXKXKXKXKXKXKXKXKXKXKXKXKXKXKXKXKXKXKXKXKXKXKXKXKXKXKXKXKXKXKXKXKXKXKXKXKXKXKXKXKXKXKXKXKXKXKXKXKXKXKXKXKXKXKXKXKXKXKXKXKXKXKXKXKXKXKXKXKXKXKXKXKXKXKXKXKXKXKXKXKXKXKXKXKXKXKXKXKXKXKXKXKXKXKXKXKXKXKXKXKXKX",
"mXuXuXMX2X<.R J O.V.L.O./ O.b.;XiXuXuXrXI.O.#.] j.K.!.%X@X+X}.j.C I T m.0XtXrXyX,X;.I P ' F.G.! U T ;.,XCXuXeXrXI.j : r h $.OX%X&Xn.m.oX%X%X+XQ.,XtX7XrX>X!.2XbX2XoXU.OX2XVX%X/.,XdX1XgX3XOX2XmXqX~.m.oXqXqX4X0XwX6XwXtX).E Y C :.H.:.E E W I.wXeX9XuX@Xo.U l [ Y.h.Y Y P V.m.H R ' ;.6XdXdXpXqXH.W =.W v.Y.#.O.O.r.3X2XwXrXpXU                   % ;XR.W.*X).W.W._.*XW.*X*X*X*X*X)._.(._._.).*X).*X(.*XW.*X*X*X*X*X*X*X-X*X*X*X=X=X=X=X-XhX2.z ;.(.6X6X9XrX7XQ.E  . .' n.c.T T x W Q.hX-X=X:XI.z j l T R.1.&.%.&.@.(.<X=X=X=XR.T &.&.@.I.b.r.r.+.M.=X7X9X6X6X=X=X*XW.=X*X_.W.*X*X(.*X*X*X*X*X*X*X*XW.W.).*X*X*XW._.W.W.W.W.*X*X*X_.W.R.R.(.*X*XW.W.*XT.GXKXKXKXKXKXKXKXKXKXKXKXKXKXKXKXKXKXKXKXKXKXKXKXKXKXKXKXKXKXKXKXKXKXKXKXKXKXKXKXKXKXKXKXKXKXKXKXKXKXKXLXKX}                                                                         .   L.KXKXKXKXKXKXKXKXKXKXKXKXKXKXKXKXKXKXKXKXKXKXKXKXKXKXKXKXKXKXKXKXKXKXKXKXKXKXKXKXKXKXKXKXKXKXKXKXKXKXKXKXKXKXKXKXKXKXKXKXKXKXKXKXKXKXKXKXKXKXKXKXKXKXKXKXKXKXKXKXKXKXKXKXKXKXKXKXKXKXKXKXKXKXKXKXKXKXKXKXKXKXKX",
"mXiXpXMXqXk.=.;.e.V.L.F.!.H.T.<XnXtXaXwXI.E ] ' z.L.OX4XqX+XY.c.C h C m.3XnXtXyX3X>._ | 0.L.J./ J ' >.>XAXMXnXrXW.x , , g ' k.>.,.,.M.:.#.h.[ <.6X9X9X8X@X,.>.k.:.j.U.j.,.k.:.M.,XeX8XgX;X<.:.v.1.b.b.#.c.M.M.;XuXrXpXuX).E Y P h.K.:.+.@.@.R.7XeX1XuX;X>.E U #.Y.e.Y H I G.G.Y ( R ,.6XtXeXaX0XG.J Y Y c.Y.Y Y T $.3XnXrXrXpXx                 . % (.R.2.W.W.W.W.W.W.W.*X-XW.*X*X*X*XW.(.=X(.*X*X*X*X*X-X*XW.*X*X*X*X*X*X*XW.*X*X*X*X*X=X=X2.z 2.hX6X6X9XaXrX_.m.!.E.K.H.c.z h z o.).9X9X9X1XR.z j j z I.1.< < j o.(.3X1X1X1X@.j < < &.).T.}.}.+XR.=X9X6X:X6X=XW.*X*X*X*XW.*X*X*X*X*X*X*X*X*X).*X*X*X*X*X*X*X*X(.).*XW.W.W.W.*X*X*X2.2.W.).*X).W.W.(.I.PXKXKXKXKXKXKXKXKXKXKXKXKXKXKXKXKXKXKXKXKXKXKXKXKXKXKXKXKXKXKXKXKXKXKXKXKXKXKXKXKXKXKXKXKXKXKXKXKXKXKXLXKX{   .                                                                         K.KXLXKXKXKXKXKXKXKXKXKXKXKXKXKXKXKXKXKXKXKXKXKXKXKXKXKXKXKXKXKXKXKXKXKXKXKXKXKXKXKXKXKXKXKXKXKXKXKXKXKXKXKXKXKXKXKXKXKXKXKXKXKXKXKXKXKXKXKXKXKXKXKXKXKXKXKXKXKXKXKXKXKXKXKXKXKXKXKXKXKXKXKXKXKXKXKXKXKXKXKXKXKX",
"mXyXpXNX6X^.4XNX2X}.H.%XBXmX+X<XuXiXrXwXI.+.#.$.v.G.^.qXbX@XY.L.G.}.T.T.2XuXwXwX3XT.%XUX$X}.}.oX%X%XoX>XNXnXnXrX2.j , , f ' k.>.W o.M.E E [ U M.:X6X9X6X(.;.U [ R $.m.O.[ ,.U <.>X9X1X1X*Xo.z E h @.c.U H T ;.@XaXyXuXrX).:.} 0.k.Y.$.E %.%.R.1XeX8XuX+X+.U H [ K.h.0.h.#.G.K.j.C.P.k.>XpX7XuX0XI.h.[ $.n.G.T C h $.3XnXrXwXpXR   .               ; +XR.*XW.W.W.W.W._.W.2.2.2.W.W.*X*X*X*X=X*XW.).*X*X*X*X*X*X*X*XW.*X*XW.W.*X*X*X*X=X=X;X=X2.%.W.hX6XwX9X9X7XQ.U.&X+XoXU.M.b.Y.U.<._.eX1X7X1XR.j j h z M.%.: : : T ;X1X1XeX1X%.: : : &.r.).3X3X+XT.*X1X1X9X6X(.W.*XW.*X*X*X*X*X_.W.*X_.).).*X*X*X*X*X*X*X).*X).(.*X*X*X*X*XR.W.2.W.2.*XR.W.R.R.W.R.T.V.HXKXKXKXKXKXKXKXKXKXKXKXKXKXKXKXKXKXKXKXKXKXKXKXKXKXKXKXKXKXKXKXKXKXKXKXKXKXKXKXKXKXKXKXKXKXKXKXKXKXKXKXKX[                                                                         .   L.KXKXKXKXKXKXKXKXKXKXKXKXKXKXKXKXKXKXKXKXKXKXKXKXKXKXKXKXKXKXKXKXKXKXKXKXKXKXKXKXKXKXKXKXKXKXKXKXKXKXKXKXKXKXKXKXKXKXKXKXKXKXKXKXKXKXKXKXKXKXKXKXKXKXKXKXKXKXKXKXKXKXKXKXKXKXKXKXKXKXKXKXKXKXKXKXKXKXKXKXKXKXKX",
"NXaXaXaXqXH.M.E.F.F.H.n.H.H.m.;XuXwXyXwXI.;.>.} j.K.G.!.^.!.Y.L.}.}.}.T.,XyXwXwX3XI.oX&X}.Y.Y.K.&X+XT.>XAXCXdXrXQ.x > , h [ j.>.E +.m.o.E [ E <.:X8X8XwX@X;.W =.E #.m.+.[ ,.E <.,XeX9X8X;X%.U +.z o.j.T U W o._.tXtXnXdX+XOX%X2X+XY.O.r : j I.1XeX9XiX@X>.T H #.Y.Y.%XmX%X}.H.%XbXbX^.<XuXdXrX0X^.%XmX%XY.H.' Y T $.;XyXrX7XpXU                   % UX+X3X3XgX-X@X=X(.=X-X*XW.=X1X-X*X=X*X=X*X*X=X3X1X=X*X=X-X=X*X-X*X*X-X-X-X-X:X1X1X=X=X(.R.=X9XtXaXfXpXfXfX;XM.H.K.L.Y.R.I.~.OXI.;XZXfXZXfXW.z < , j I.@.: : : &.3XCXAXCXdXR.< : : &.).r.I &.T <.;XdXdXtXtX7X-X:X-X*X*XW.*X<X3X1X*X*X;X3X;X;X*X*X3X:X=X*X;X*X<X<X1X:X-X3X_._.W._.=X*XR.T.).).W.R.).}.HXKXKXKXKXKXKXKXKXKXKXKXKXKXKXKXKXKXKXKXKXKXKXKXKXKXKXKXKXKXKXKXKXKXKXKXKXKXKXKXKXKXKXKXKXKXKXKXKXKXKXLXKX|   .                                                                         K.KXKXKXKXKXKXKXKXKXKXKXKXKXKXKXKXKXKXKXKXKXKXKXKXKXKXKXKXKXKXKXKXKXKXKXKXKXKXKXKXKXKXKXKXKXKXKXKXKXKXKXKXKXKXKXKXKXKXKXKXKXKXKXKXKXKXKXKXKXKXKXKXKXKXKXKXKXKXKXKXKXKXKXKXKXKXKXKXKXKXKXKXKXKXKXKXKXKXKXKXKXKXKX",
"NXuXrXuX@X1.W J R c.G.[ R R ;.<XtXtXpXwXM.W E J #.G.[ l x  .G.k./ T &.V.,XiX0XwX<X@.T T E v.m.U T z ;.>XCXtXdXtXW.t > , h / ' R R $.M.O.+.=.W M.wXgX8XrX=X;.U R Y :.G.#.R [ E M.7XdXgXdX,X;.U E U @.v.E R W ;.@XuXwXnXnX(.j.k.v.v.Y.%.r j h R.wXrX8XuX;XW j t E L.V.G.L.G.U.U.H. X!.M.>XtXrXrX0XU.H.oXU.H.T.:.$.j.b.>XuXtXwXCXU   .               . - - % - - ; ; % - ; - - % - - - ; ; - - ; - - ; ; - ; ; ; ; ; ; ; - ; - ; - - % % ; ; ; ; - - - - - - - - % ; % % ; % % ; % ; % % - - - : ; X . . . ; ; X . X ; - - : - - ; ; . . ; ; ; X X X ; - - - - - - - % - ; ; ; ; % - - % ; % % ; ; ; X ; - ; ; - - - ; ; % - ; ; ; ; ; ; ; ; ; O ; ; ; % X BXKXKXKXKXKXKXKXKXKXKXKXKXKXKXKXKXKXKXKXKXKXKXKXKXKXKXKXKXKXKXKXKXKXKXKXKXKXKXKXKXKXKXKXKXKXKXKXKXKXKXLXKX}                                                                         .   L.KXLXKXKXKXKXKXKXKXKXKXKXKXKXKXKXKXKXKXKXKXKXKXKXKXKXKXKXKXKXKXKXKXKXKXKXKXKXKXKXKXKXKXKXKXKXKXKXKXKXKXKXKXKXKXKXKXKXKXKXKXKXKXKXKXKXKXKXKXKXKXKXKXKXKXKXKXKXKXKXKXKXKXKXKXKXKXKXKXKXKXKXKXKXKXKXKXKXKXKXKXKXKX",
"mXuXtXuX,X1.T T T v.G.O.O.O.r.;XuXtXaXrXM.O.O./ #.H.[ h l U F.j.Y / T b.>XwXwXiX3X@.z U U b.b.U k z ;.,XCXdXdXpX/.j = r f l G f k +.n.[ H I J <.6XtX7X6X@X;.k J Y $.L.[ h I R c.0XtX7XrX;X>.U P Y j.V./ I H E @XpXuXpXCX).T j f o.m.$.T &.T I.eXnXuXuX;X%.z h o.U.$.h l G k.T.J ( R :.:XdX8XdXwXm.W E U c.U.E +.@.;.3XnXuX6XMXJ   .                                                                                                                                                                                             . .                                                                                                                 .   BXKXKXKXKXKXKXKXKXKXKXKXKXKXKXKXKXKXKXKXKXKXKXKXKXKXKXKXKXKXKXKXKXKXKXKXKXKXKXKXKXKXKXKXKXKXKXKXKXKXKXLXKX[                                                                         .   L.KXLXKXKXKXKXKXKXKXKXKXKXKXKXKXKXKXKXKXKXKXKXKXKXKXKXKXKXKXKXKXKXKXKXKXKXKXKXKXKXKXKXKXKXKXKXKXKXKXKXKXKXKXKXKXKXKXKXKXKXKXKXKXKXKXKXKXKXKXKXKXKXKXKXKXKXKXKXKXKXKXKXKXKXKXKXKXKXKXKXKXKXKXKXKXKXKXKXKXKXKXKXKX",
"2X1X1XnX2Xb.E E O.V.G.r.$.$.j.;XaXyXpXrXI.$.e.O.r.L.:.U J ] G.k.] ] E b.0XpXuXyX,X>.T E E b.m.T U U >.>XCXCXfXaXQ.t : e M { L.F.F.P.F.n.L.E.n.m.>X7X,X7X@X,.[ } } c.K.h.' ' [ n.6XwX7XtX<Xc.j.h.h.v.z.0.e.0.c.@XyXrXuXiX).T h h o.b.%.T T z R.2XnXuXCX;X%.z z T U.$.H h h j.U.U Y Y E 6XdXdXtXwXm.W #.E c.U.[ +.j.c.>XiXiXwXMXU                                                                                                                                                                                                                                                                         .                                   .           BXKXKXKXKXKXKXKXKXKXKXKXKXKXKXKXKXKXKXKXKXKXKXKXKXKXKXKXKXKXKXKXKXKXKXKXKXKXKXKXKXKXKXKXKXKXKXKXKXKXKXKXKX|   .                                                                         K.KXLXKXKXKXKXKXKXKXKXKXKXKXKXKXKXKXKXKXKXKXKXKXKXKXKXKXKXKXKXKXKXKXKXKXKXKXKXKXKXKXKXKXKXKXKXKXKXKXKXKXKXKXKXKXKXKXKXKXKXKXKXKXKXKXKXKXKXKXKXKXKXKXKXKXKXKXKXKXKXKXKXKXKXKXKXKXKXKXKXKXKXKXKXKXKXKXKXKXKXKXKXKX",
"nXiXwXnX,Xb.R U ] G.G./ I Y b.;XnXyXnXyXT.O.e.O.x.Y.k.] [ [ G.z.e.e.$.U.0XuXuXuX1Xc.Y #.#.V.L.' Y Y j.@XnXnXMXmX/.t = g M z.bXbX4XE.F.&XbXbX4XQ.;X7X6X0X@X!.%XbX%XoXK.OXbXVX@X^.0XpXeXeX,XOX%XbXUXoXV.OXbXbX2X0XuXrXeXuX).O.I I O.G.$.T ] o.I.yXnXpXCX@X;.W U O.G.j.T C k c.m.E ] / +.3XeX1XwX0XT.+.j.O.v.Y.[ ,.:.,.@XMXwX7XCXT                     . . .     . .   . . . . . .     . . . . . . . . . . .   . . . . . . . . . . . .   . .   . . . . . . . . . .   .   .   . . . . . . . . . . .   . . . . . . . . . . . . . . . . . .     . .   . o o . .   . . . . .   . . . . .   .     . .                                                           BXKXKXKXKXKXKXKXKXKXKXKXKXKXKXKXKXKXKXKXKXKXKXKXKXKXKXKXKXKXKXKXKXKXKXKXKXKXKXKXKXKXKXKXKXKXKXKXKXKXKXLXKX[   .                                                                     .   L.KXKXKXKXKXKXKXKXKXKXKXKXKXKXKXKXKXKXKXKXKXKXKXKXKXKXKXKXKXKXKXKXKXKXKXKXKXKXKXKXKXKXKXKXKXKXKXKXKXKXKXKXKXKXKXKXKXKXKXKXKXKXKXKXKXKXKXKXKXKXKXKXKXKXKXKXKXKXKXKXKXKXKXKXKXKXKXKXKXKXKXKXKXKXKXKXKXKXKXKXKXKXKX",
"mXnXmXnX>Xk.[ =.e.L.V.e./ | j.;XnXyXMXiXI.O.O./ x.}.k.R W :.H.L.}.+XoX~.6XyXuXtX3X<.P ' } V.V.I l G j.2XNXNXmXaX_.j : r f | k.c.,.,.n.k.v.n.,.I.:X9X9X7X(.<.m.H.m.b.U.c.m.Y.M.I.6XgX8XtX:XM.m.!.m.n.k.v.U.T.Q.@XwXwXtXuX+XO./ I e.].e./ | +.U.qXuXuXCX>X@.T k ] Y.r./ I Y n.H.E / Y @.<XtXeXrX0XM.H G H k.!.R J  .,.@XuXtX1XfXT                   ; o.E b.T W R o.U M.>X(.I.2.;.W z 1.I.*XR.&.%.&.@.%.j j z I.3X3X1X1X6X6X7X=XW h U h j.M.T T T x 2.=X1X1X1XR.&.o.W o.<.o.U T k @.(.,X:X6X(.o.z E z $.I.+.%.;.o.I.<X=X<X<X:X@X;X).&.j x +.<.U z o.2XZXNX2X+XwX@X*X).2.1.&.&.%.&.&.o.1.z r h =                                                           BXKXKXKXKXKXKXKXKXKXKXKXKXKXKXKXKXKXKXKXKXKXKXKXKXKXKXKXKXKXKXKXKXKXKXKXKXKXKXKXKXKXKXKXKXKXKXKXKXKXKXLXKX|                                                                             L.KXKXKXKXKXKXKXKXKXKXKXKXKXKXKXKXKXKXKXKXKXKXKXKXKXKXKXKXKXKXKXKXKXKXKXKXKXKXKXKXKXKXKXKXKXKXKXKXKXKXKXKXKXKXKXKXKXKXKXKXKXKXKXKXKXKXKXKXKXKXKXKXKXKXKXKXKXKXKXKXKXKXKXKXKXKXKXKXKXKXKXKXKXKXKXKXKXKXKXKXKXKXKX",
"mXnXyXMX@X^.4XqX%X!.K.%XbX2XOX3XuXiXnXtXT.%.r.| V.}.}.&X@X^.H.H.OX2X&XY.6XrXyXrX3Xb./ ] #.V.K.L.oXY.T.@XMXMXnXaX^.j , , f ] $.@.W ;.m.#.@.k.W <.1X9X1X9X<X;.W >.O.$.m.] R [ U <.,X7X1X8X;X;.U J h ] v.] T E @./.7X7XrXuX(.,.| [ x.}.z.] [ :.U.0XnXnXmX;X$.O./ e.L.r.0./ ] V.G.$.' } ,.@XaX8XaXqXn. .....k.!.R f ..E @XMXtX1XfXW   .               X z &.W.(.m.] o.U U.6X6XQ.2.&.z j <.Q.:XI.&.%.&.m.$.j z &.R.eX1X1X8X8X6XrX6X;.z / H v.U.R U U z R.>X-X3X3XR.&.&.&.%.I.;.U E U ,.@X,X;X>X(.@.W o.U $.T.%.%.@.%.Q.6X0X6X3X3X,X,X;X%.%.&.>.j.U k z R.3X@XnXSXSX9X*X*XR.*X).&.&.j 1.).T.H , g =                                                           BXKXKXKXKXKXKXKXKXKXKXKXKXKXKXKXKXKXKXKXKXKXKXKXKXKXKXKXKXKXKXKXKXKXKXKXKXKXKXKXKXKXKXKXKXKXKXKXKXKXKXKXKX}   .                                                                     .   K.KXKXKXKXKXKXKXKXKXKXKXKXKXKXKXKXKXKXKXKXKXKXKXKXKXKXKXKXKXKXKXKXKXKXKXKXKXKXKXKXKXKXKXKXKXKXKXKXKXKXKXKXKXKXKXKXKXKXKXKXKXKXKXKXKXKXKXKXKXKXKXKXKXKXKXKXKXKXKXKXKXKXKXKXKXKXKXKXKXKXKXKXKXKXKXKXKXKXKXKXKXKXKX",
"mXtXuXNX<X!._.&XY.H.n.!.@X@X~.<XyXuXuXiXT.$.e.e.r.}.OX2X4X^.E.E.&XUX@X~.6XrXrXrX3Xb.| r.e.V.Y.&XbXbX+X>XAXyXMXMX/.t > , h ] j.;.W ;.M.$.$.k.[ <.1X9X1XrX;X,.+.k.] #.T.] [ >.R c.>XeX1XeX;X@.U ' h E v.} ] $.@./.rXrXrXrX+X/.bXmX+XY.!.qXNX@X/.6X2X1XnX%X+X%X2XOX}.}.lXUX%X}.}.&XcX%X!.6XaXaXaXqXE.&X4X&XH.H.~.@X%XU.@XpXyX7XdXU                   ; z z (.<Xv.l h l Q.6X(.W.2.h < x $.R.,X1.< < : $.&.: j j *XeX1X,X:X,X6X6X(.=.H Y ! v.m.k h U U I.6X<X3X3Xr.&.j < &.I.@.H z U >.@X6X6X3X*Xo.T T T c.T.< < < &.W.,X6X:X3X-X3X-X*X%.r.%.<.%.: : : 2.<Xb.>.rXW.&.I.*XR.*XR.< ; : o.W.I.h - e -                                                           BXKXKXKXKXKXKXKXKXKXKXKXKXKXKXKXKXKXKXKXKXKXKXKXKXKXKXKXKXKXKXKXKXKXKXKXKXKXKXKXKXKXKXKXKXKXKXKXKXKXKXLXKX}                                                                         .   K.KXLXKXKXKXKXKXKXKXKXKXKXKXKXKXKXKXKXKXKXKXKXKXKXKXKXKXKXKXKXKXKXKXKXKXKXKXKXKXKXKXKXKXKXKXKXKXKXKXKXKXKXKXKXKXKXKXKXKXKXKXKXKXKXKXKXKXKXKXKXKXKXKXKXKXKXKXKXKXKXKXKXKXKXKXKXKXKXKXKXKXKXKXKXKXKXKXKXKXKXKXKXKX",
"bXwXyXyX>Xn.E E [ n.m.[ O.] r.;XiXwXtX0XG.O.O.T e.}.e.I R +.V.V.| #.O.m.2XuXtXuX3X<.Y } / v.G.] [ [ k.2XnXnXpXaX/.j : e h ] $.$.[ :.M.$.e.k.| <.1XtX7XtX<X>.[ ,.] #.Y.#.E :.E b.0XfXgXdX:X;.] [ x ] F.O.O.+.@._.uXtXeXuX*XM.H.m.v.H.n.L.^.U.Q.0XnXdXnX+XT.~.}.}.Y.V.}.%XOXY.T.oX&X&XU.@XrXaXaX0XQ.OX%X/.!.K.~.2X%X!.+XyXwXiXCXT                   ; R.Q._.;Xv.g r f ^.rX(.Q.gXtX=Xc.m.@X3X1.: - ; %.z ; : < ).1X3XwX1XwX6X6X@XW h f C V.m.l t f J ^.6X9XgXeXr.< : < &.R.%.h j k b.,X6XwXeX;X%.j z j <.T.: : : j ).1X1X3X-X3X-X-X*X&.< < &.%.: ; : <.,X1.j +.%.o.R.*XR.).R.< - : %.W.I.C = : %                                                           BXKXKXKXKXKXKXKXKXKXKXKXKXKXKXKXKXKXKXKXKXKXKXKXKXKXKXKXKXKXKXKXKXKXKXKXKXKXKXKXKXKXKXKXKXKXKXKXKXKXKXLXKX|   .                                                                     .   L.KXKXKXKXKXKXKXKXKXKXKXKXKXKXKXKXKXKXKXKXKXKXKXKXKXKXKXKXKXKXKXKXKXKXKXKXKXKXKXKXKXKXKXKXKXKXKXKXKXKXKXKXKXKXKXKXKXKXKXKXKXKXKXKXKXKXKXKXKXKXKXKXKXKXKXKXKXKXKXKXKXKXKXKXKXKXKXKXKXKXKXKXKXKXKXKXKXKXKXKXKXKXKX",
"iX0XwX0X>Xc.W R R n.G.E o.O.$.*X7X7XrX0XI.T O.I e.K.] T T T V.V./ / &.m.,XuXyXiX1X<.H ] I v.G.Y O.O.@.@XuXCXCXNX/.j - r h / O.O.W ,.H.j.$.x.:.c.3XwXrXtX@X>.} } #.j.L.r.} #.#.M.6XuXeXeX>X;./ $.R :.v.e.r.@.;.@XfXiX1XeX+XT ..j Y m.:.x E W M.wXnXdXnX<X%.T H / Y.j.T I Y b.m.E ' ' ;.(.8X8X8X6XI.W [ R c.T.] } [ ,.+XiX1X7XfXE   .               X @.T.(.+Xv.O.<.;./.wX(.(.PXPXSX).U.).=X<.: ; - %.&.; : r (.iX1XwX,X1X0XrX/.E C C Y V.H.h 2 , x ^.wXwXgXgX2.j < < &.R.&.< < j @.3XwX7XgX*X%.&.r.%.b.R.< : : j R.3X1X:X1X1X1X1X*X< ; : &.&.: - : 2.,XW.z j &.W.:X*XR.*XR.< ; : o.W.I.z = = X                                                       .   BXKXKXKXKXKXKXKXKXKXKXKXKXKXKXKXKXKXKXKXKXKXKXKXKXKXKXKXKXKXKXKXKXKXKXKXKXKXKXKXKXKXKXKXKXKXKXKXKXKXKXKXKX|                                                                             K.KXLXKXKXKXKXKXKXKXKXKXKXKXKXKXKXKXKXKXKXKXKXKXKXKXKXKXKXKXKXKXKXKXKXKXKXKXKXKXKXKXKXKXKXKXKXKXKXKXKXKXKXKXKXKXKXKXKXKXKXKXKXKXKXKXKXKXKXKXKXKXKXKXKXKXKXKXKXKXKXKXKXKXKXKXKXKXKXKXKXKXKXKXKXKXKXKXKXKXKXKXKXKX",
"qXwXwXiX2XM.%.E ] V.Y.O.O.O.@.;XwX7XwX6XI.o.+.R r.L.#.R R o.G.r./ O.%.V.3XnXdXdX,X<.H T T v.V.T E +.@.@XCXuXCXnX+Xt > e h / E T J +.G.$.[ } [ M.<X7X,X6X<X>.J R / j.L.$.Y ] +.c.,XdX9XeX,X>.Y ' E k.F.#.#.O.j.;XuXwXwXwX+XT k l W n.@. .o.R I.qXdXeXnX<X@.z k W m.k.U k k ,.m.W Y E %.;XgXgXuX1XM.U :.U b.T.O.+.#.,.@XwXwX:XCXE   .               X j <.*X~.V.b.U.<.;X,X;X;XuX,X~.$.r.).-X%.: : X.%.&.: : &.).1X1X1X2X1XwX0X/.:./ Y | G.V.r : e l _.wX6X7X1X@.j < < %.).&.: < < $.1X1X1XdX;X&.z %.%.b.R.< : : j R.3X1X1X1X1X:X:XW.j : : T O.: : : 2.3X3XW.2.*X*X=X*XR.W.W.j : , %.W.I.j % ; o                                                           BXKXKXKXKXKXKXKXKXKXKXKXKXKXKXKXKXKXKXKXKXKXKXKXKXKXKXKXKXKXKXKXKXKXKXKXKXKXKXKXKXKXKXKXKXKXKXKXKXKXKXKXKX|                                                                             K.KXKXKXKXKXKXKXKXKXKXKXKXKXKXKXKXKXKXKXKXKXKXKXKXKXKXKXKXKXKXKXKXKXKXKXKXKXKXKXKXKXKXKXKXKXKXKXKXKXKXKXKXKXKXKXKXKXKXKXKXKXKXKXKXKXKXKXKXKXKXKXKXKXKXKXKXKXKXKXKXKXKXKXKXKXKXKXKXKXKXKXKXKXKXKXKXKXKXKXKXKXKXKX",
"iXeXuXnX2Xb.O.] O.G.G.O.O.O.r.*XeX7XrXwXI.,.@.] e.Y.:.] E $.L.r./ O.%.G.3XCXuXnX3X<.T $.Y V.Y.O.>.@.>.;XCXdXCXpX/.t : r h I Y T R @.G.r.e.:.:.M.<X1X1X7X@X>.R [ O.>.Y.j./ $.+.M.,XeXeXdX,Xc.E ] [ ,.V.#.O.$.b.+XuXtXuXuX*XE U H R n.,.E +.o.M.,XnX1XnX@X;.z x U H.r.E R W k.m.E ] O.@.=X1XeXeX7XQ.W >.U j.T.] $.#.:.@XyXwX7XCXE                   o T <.;X;Xj.z z o.+X1X3X;XR.%.%.@.T.;X*X%.&.j &.r.%.C j %.;X3X1X1X1X1X6X0X^.;./ / / G.U.T H h o.(.wX7XwX,X$.z &.j %.~.%.h &.C b.,X1X1X1X;X&.z %.&.b.T.k j z &.R.3X<X<X,X1X:X=X*X&.j z +.$.k j j I.3X;X=X*X-X*X*X-X2.*X).W z H 1.W.;.< - ; o                                                           BXKXKXKXKXKXKXKXKXKXKXKXKXKXKXKXKXKXKXKXKXKXKXKXKXKXKXKXKXKXKXKXKXKXKXKXKXKXKXKXKXKXKXKXKXKXKXKXKXKXKXLXKX[   .                                                                     .   L.KXLXKXKXKXKXKXKXKXKXKXKXKXKXKXKXKXKXKXKXKXKXKXKXKXKXKXKXKXKXKXKXKXKXKXKXKXKXKXKXKXKXKXKXKXKXKXKXKXKXKXKXKXKXKXKXKXKXKXKXKXKXKXKXKXKXKXKXKXKXKXKXKXKXKXKXKXKXKXKXKXKXKXKXKXKXKXKXKXKXKXKXKXKXKXKXKXKXKXKXKXKXKX",
"mXeXiXnX2Xc.E U ] V.K.#./ / r.;XwXwX7XwXI.o.E / c.Y.#.J T O.K.V./ / O.T.,XuXwXtX<X<.] r.#.G.Y.#.+.+.>.@XnXuXCXCX/.t = r f C h t j W H.c.j.F.k.m.:X1X1X7X;Xb.:.z.k.j.~.j.:.c.>.M.,XrXgXdX>X<.:.k.h.j.G.j.V.Y.m.@XuXiXiXiX+X%.k G [ K.v.+.>.;.I.,XdXwXuX<X<.E U +.}.z.O.0.[ n.U.#.#.O.$.<XdXeX8X0XU.+.>.>.c.T.@.$.:.#.@XmXiX7XZXE                   X &.b.;X+Xr.O.o.;.(.:X<X*XI.1.@.@.b.W.*X%.j &.&.r.%.&.z %.;X3X<X:X:X1X6X6XQ.o.$.e.O.m.I.>.$.O.;.(.6X9XwX2Xb.Y %.T r.T.o.T %.C c.6X,X6X1X(.&.T %.T r.U.W :.%.%.T.3X<X=X3X:X=X=X).&.z h W ;.U h k R.3X;X*X=X*X*X*X*XW.W.).W I H 1.@Xo.z o.h ;                                                           BXKXKXKXKXKXKXKXKXKXKXKXKXKXKXKXKXKXKXKXKXKXKXKXKXKXKXKXKXKXKXKXKXKXKXKXKXKXKXKXKXKXKXKXKXKXKXKXKXKXKXLXKX{                                                                         .   K.KXKXKXKXKXKXKXKXKXKXKXKXKXKXKXKXKXKXKXKXKXKXKXKXKXKXKXKXKXKXKXKXKXKXKXKXKXKXKXKXKXKXKXKXKXKXKXKXKXKXKXKXKXKXKXKXKXKXKXKXKXKXKXKXKXKXKXKXKXKXKXKXKXKXKXKXKXKXKXKXKXKXKXKXKXKXKXKXKXKXKXKXKXKXKXKXKXKXKXKXKXKXKX",
"mXwXuXuX2Xc.E Y O.L.V./ / I r.*XwX7XwX7XT.E Y / x.}.$.I I [ }.V.I C C r.>XiXwX1X<Xb.| O.] V.Y.| R ] k.>XMXtXMXpX_.j : , j Y ] o.W W M.#.+.j.+.<.:X9X1X1X;X,.E @.+.$.T.+.E #.E M.,X8X1XeX:X<.R [ E $.L.#.O.j.<.+XuX1XuXiX;XO.I H } Y.k.+.$.,.I.,X1XeXeX>Xj.E Y #.}.r./ / R F.G.$.} } @.;XeXeXwX0XM.[ P.+X~.}.$./ ] [ @XiXwX8XCXE   .               o U I.;X~.@.T T ;.+X:X=X=XR.1.&.%.2.(.*X%.&.&.&.r.%.%.&.$.3X3X:X1X1X1X1X:XQ.o.$.#.} T.b.T T T ;.@XwX6X1X2X<.&.r.T #.T.T T T k <.:X=X=X<X).o.Y / T V.L.' } ] o.R.1X1X1X3X;X;X<X).T j h =.} j t j m.3X*X*X*X-X*X*X*X2.)./.T H K <.<X_.1.;.z -                                                           BXKXKXKXKXKXKXKXKXKXKXKXKXKXKXKXKXKXKXKXKXKXKXKXKXKXKXKXKXKXKXKXKXKXKXKXKXKXKXKXKXKXKXKXKXKXKXKXKXKXKXLXKX}   .                                                                         L.KXLXKXKXKXKXKXKXKXKXKXKXKXKXKXKXKXKXKXKXKXKXKXKXKXKXKXKXKXKXKXKXKXKXKXKXKXKXKXKXKXKXKXKXKXKXKXKXKXKXKXKXKXKXKXKXKXKXKXKXKXKXKXKXKXKXKXKXKXKXKXKXKXKXKXKXKXKXKXKXKXKXKXKXKXKXKXKXKXKXKXKXKXKXKXKXKXKXKXKXKXKXKX",
"qX6XyXaX0XQ.+X%X+XoXL.e.e.] >.(.wX,XwXwXT.@.r.] x.}.r.Y Y } [.C.| _ ] I.>XyXwXrX<XI.r.V.z.L.K.e.} #.v.@XNXnXMXyX_.t , , h O.b.b.,.;.c.:.#.k.[ <.=X1X-X:X=X<.+.:.O.$.T.O.W :.W 1.;XrXhX9X1X@.T } Y ] n.' ] $.;._.uXwXdXiX;Xb.:.=.j.L.k.R O.@.U.2XtXwXiX3Xj.T z O.G.V./ I / r.[.e./ ' @.+XeX8XwXiXI.J P V.L.}.0.I I ' %XwX>X1XfXE   .               o j m.*XT.O.k h ;.;X<XhX(.=XW.2.W._.(.W.&.< : j c.M.I.m.T.;X3X=X1X3X:X3X3XI.z r < C Y.V.| _ _ k.@XrXwX1X3X&.< j X.T }.] / H H M.,X=X=X3X)./ / ' Y v.L.( ' R +.).3X1X;X;X;X*X-XQ.z h h :.} e : X.I.;X*X*X*X*X*X*X*X2.W./.R G G :.W.I.o.o.;.:                                                           BXKXKXKXKXKXKXKXKXKXKXKXKXKXKXKXKXKXKXKXKXKXKXKXKXKXKXKXKXKXKXKXKXKXKXKXKXKXKXKXKXKXKXKXKXKXKXKXKXKXKXKXKX[   .                                                                     .   K.KXKXKXKXKXKXKXKXKXKXKXKXKXKXKXKXKXKXKXKXKXKXKXKXKXKXKXKXKXKXKXKXKXKXKXKXKXKXKXKXKXKXKXKXKXKXKXKXKXKXKXKXKXKXKXKXKXKXKXKXKXKXKXKXKXKXKXKXKXKXKXKXKXKXKXKXKXKXKXKXKXKXKXKXKXKXKXKXKXKXKXKXKXKXKXKXKXKXKXKXKXKXKX",
"yXrXyXyX2XG.H.!.V.L.L.e.| / b.(.wXwXiXrXQ.k.V.e.V.}.e./ | #.L.F.e.e.r.b.>XrXrXwX:XR.G.}.Y.K.Y.$.:.:.n.>XCXnXMXMX(.j > , f O.j.r.:.;.M.;.@.,.o.2.1X9X9X7X<X<.;.>.@.>.U.@.E ;.=.,.6XtX9X8X8Xr.&.r.T +.m.[ [ =.,._.dXdXiXdX;XU.OX&XoX!.v.} $.r.I.wXpXeXnX3X<.T C O.Y.G.e.e.e.V.Y.e.} #.>.;XwX8X1X2X!.:.$.k.m.OXL.V.k.k.+XyXwX7XfXE                   . j I.*X}.I j j >.;X;X4X=X=X=X-X-X_.(.R.&.: ; r n.E.^.T.T.3X3X1X:X1X1X1X1Xb.: - - C }.z.| 5.' z.@X0X6X1X3Xz - - ; C +X| Y I I m.2XwX7X1X+X/ I P T V.V.L K I ] Q.:X-X*X:X:X=X=XQ.o./ / z.0.C C C I.@X*X=X*X*X*X*XW.2.2.^.R Z G o.W.I.&.o.o.-                                                       .   BXKXKXKXKXKXKXKXKXKXKXKXKXKXKXKXKXKXKXKXKXKXKXKXKXKXKXKXKXKXKXKXKXKXKXKXKXKXKXKXKXKXKXKXKXKXKXKXKXKXKXLXKX|                                                                         .   L.KXLXKXKXKXKXKXKXKXKXKXKXKXKXKXKXKXKXKXKXKXKXKXKXKXKXKXKXKXKXKXKXKXKXKXKXKXKXKXKXKXKXKXKXKXKXKXKXKXKXKXKXKXKXKXKXKXKXKXKXKXKXKXKXKXKXKXKXKXKXKXKXKXKXKXKXKXKXKXKXKXKXKXKXKXKXKXKXKXKXKXKXKXKXKXKXKXKXKXKXKXKXKX",
"NXaXuXMX6Xb.U U U v.G.] / / @.(.iXtXfXdXR.o.Y C [ U.O.h k Y n.b.T T o.<.<XuX9XwX3X@.H T H b.U.T T U @.;XuXuXfXpX/.t - e h Y e./ ' +.m.<.@.h.@.b.1XgXeXeX0X<.U ] ] #.Y.$.R [ [ <.0XtXeXtX3Xr./ e.<.<.H.h.,.:.:./.wXeXdXuX;X$.[ } $.Y.v.E O.$.T.1XCXtXdX1X@.j r z m.v.%.O.| V.Y.$.[ #.@.*X8X1XtXiXI.:.j.j.V.Y.v.r.:.>.+XpXuX7XCXo.  .               . t T.).U./ H j c.0X@X(.=X(.=X=X=X*X=XW.< - : j G.E.OX!.~.,X3X:X:X3X1X1X2Xb.< : - C G.r.0.0./ j.@XiX1X1X3Xz : : ; T #X0.| / / G.qX2X1X2X+X] ! _ ] V.L.! I P +.~.3X:X:X-X=X*X=XW.j j M 0.e.0.| Y T.<X=X;X=X*X*X=X_.*XW.^.R l G +.).I.%.o.z ;                                                           BXKXKXKXKXKXKXKXKXKXKXKXKXKXKXKXKXKXKXKXKXKXKXKXKXKXKXKXKXKXKXKXKXKXKXKXKXKXKXKXKXKXKXKXKXKXKXKXKXKXKXKXKX[   .                                                                         L.KXKXKXKXKXKXKXKXKXKXKXKXKXKXKXKXKXKXKXKXKXKXKXKXKXKXKXKXKXKXKXKXKXKXKXKXKXKXKXKXKXKXKXKXKXKXKXKXKXKXKXKXKXKXKXKXKXKXKXKXKXKXKXKXKXKXKXKXKXKXKXKXKXKXKXKXKXKXKXKXKXKXKXKXKXKXKXKXKXKXKXKXKXKXKXKXKXKXKXKXKXKXKX",
"yXeXuXuX>X<.T Y T V.m.[ $.+.;.@XrXfXfXdXT.o.R I ] m.O.z H J v.c.E %.&.<.3XuXwXwX3X@.z U C r.G.Y U T @.@XtXuXuXMX+Xj - r C C I C P +.G.G.m.F.z.m.,XuXrXrXqX>.G G K #.}.} M H  .k.qXuXrXuX2Xr.O.r.<.b.m.j.z.k.<./.uXwXuXnX+XE h j H U.r.C H %.M.uXZXfXfX1X1.&.T &.I.>.H H k r.I.O.[ [ o.;XdXeXeX1XT.o.[ ] r.T.O.z U R /.aX7X7XfX;.                  X @.R.).b.O.%.x M.6X;X=X(.=X(.=X=X(.=XR.< ; ; t c.n.m.c.T.3X1X:X:X3X1XeX2Xr.- ; ; h Y.V.| 0.| j.2XiX1XiX3Xj ; - ; C OXe.e.| | G.2X3X,X1X+X/ C I T j.B./ ! Y +.).:X1X1X<X*X*X-XI.t - : C I f X.t m.@X:X3X=X=X*X*X(.2.W./.:.R E ;.W.I.@.;.@.-                                                           BXKXKXKXKXKXKXKXKXKXKXKXKXKXKXKXKXKXKXKXKXKXKXKXKXKXKXKXKXKXKXKXKXKXKXKXKXKXKXKXKXKXKXKXKXKXKXKXKXKXKXLXKX|                                                                         .   F.KXKXKXKXKXKXKXKXKXKXKXKXKXKXKXKXKXKXKXKXKXKXKXKXKXKXKXKXKXKXKXKXKXKXKXKXKXKXKXKXKXKXKXKXKXKXKXKXKXKXKXKXKXKXKXKXKXKXKXKXKXKXKXKXKXKXKXKXKXKXKXKXKXKXKXKXKXKXKXKXKXKXKXKXKXKXKXKXKXKXKXKXKXKXKXKXKXKXKXKXKXKXKX",
"qXwXrXsX,XM.] O.O.G.G.e.e.} >.;XuXfXCXdXT.@.[  .#.K.:.R R | n.n.O.%.O.m.2XCXuXuX3X<.P ] Y j.F.] ' R >.@XnXnXdXnX+Xt : X.C / L.}.K.V.Y.Y.2XlX+XY.2XuXrXyXqXk.} | } z.K.e.' ( } z.qXyXwXdX1Xb.%.O.&.$.m.v.OX&X^.;XtXrXuXyX+XE U h Y Y.r.I R E M.yXCXaXpX,X1.%.o.o.v.j.H T T $.m.%.e.$.+.(.dXgXeXwXI.] O.+.j.U.O.o.:.;._.rX9X6XfX;.                  % 6XW._.R.1.2.2.*X-X=X*X=X=X*X=X=X(.=XR.z j : j z j t W R.6X:X:X:X:X,X7X,X<.t h r U Y.$.} e.' j.(.:X,X>X(.z r C X.%.V.} [ h.E <.6X6X6X<XI. .l R T j.h./ x.} o.T.;X-X:X:X=X*X*X(.2.x x j x j W $.+X;X*X=X*X=X*X*X=X2.2.-XW._._.).R.1.1.1.1.:                                                           BXKXKXKXKXKXKXKXKXKXKXKXKXKXKXKXKXKXKXKXKXKXKXKXKXKXKXKXKXKXKXKXKXKXKXKXKXKXKXKXKXKXKXKXKXKXKXKXKXKXKXLXKX}   .                                                                         K.KXKXKXKXKXKXKXKXKXKXKXKXKXKXKXKXKXKXKXKXKXKXKXKXKXKXKXKXKXKXKXKXKXKXKXKXKXKXKXKXKXKXKXKXKXKXKXKXKXKXKXKXKXKXKXKXKXKXKXKXKXKXKXKXKXKXKXKXKXKXKXKXKXKXKXKXKXKXKXKXKXKXKXKXKXKXKXKXKXKXKXKXKXKXKXKXKXKXKXKXKXKXKX",
"qXwXyXpX2Xv.] E [ G.G.#./ ] j.;XnXdXdXiXT.@.:.{ x.K.n.v.V.z.K.c.] E %.m.2XMXnXnX2X<./ [ ' V.L.[ [ E >.<XnXnXCXNX+Xf : e f e.OX#XOXG.T.Y.2XlX%XT.6XuXrXuX2XH.&X%X%X}.G.}.%XqX%X!.,XpX8XdXeX%.< : : o.T.Y.%XqX6X,XpXwXuXMX@X+.T P } K.V.e.k.,.m.qXpXrXuX2Xb.@.+.o.G.v.O.O.O.v.}.r.e.$.@.=XdX8XeXuXT.[ $.$.b.T.>.O.E :.^.sXrX7XZX;.  .               ; :XW._._.*X-X=X*X*X=X*X;X;X=X=X=X(.(.;X<X).1.%.U ;.I.(.(.<X<X:X<X;X:X,X<XI.o.Q.,.<.U.:.h.Y.+.U.+X:X:X,X;Xb.%.T.%.b.G.+.,.M.=.Q.@X-X-X-XW.;.,.M.@.m.n.} v.k.1.*X:X:X:X:X=X=X=X<X;X=XW.o.;.I._.;X*X*X=X=X*X=X*X*X_._.2.*X*X*X_.W.I.2.%.;.%.-   .                                                       BXKXKXKXKXKXKXKXKXKXKXKXKXKXKXKXKXKXKXKXKXKXKXKXKXKXKXKXKXKXKXKXKXKXKXKXKXKXKXKXKXKXKXKXKXKXKXKXKXKXKXKXKX}                                                                         .   K.KXKXKXKXKXKXKXKXKXKXKXKXKXKXKXKXKXKXKXKXKXKXKXKXKXKXKXKXKXKXKXKXKXKXKXKXKXKXKXKXKXKXKXKXKXKXKXKXKXKXKXKXKXKXKXKXKXKXKXKXKXKXKXKXKXKXKXKXKXKXKXKXKXKXKXKXKXKXKXKXKXKXKXKXKXKXKXKXKXKXKXKXKXKXKXKXKXKXKXKXKXKXKX",
"qX0XaXNX2Xm.:.r.j.Y.L.| ' / :.;XiXeXuXiX~.G.oX[.E. X!.OX%XOXY.n.r.j.>.T.2XnXnXuX,X<.L ! R z.L./ G U >.@XnXuXnXnX^.t X.e f / e.#./ $.U.j.>.v.j.b.1XgXtXgX6Xb.:.<.j.c.T.c.c.n.;.2.:X8XgXgXgX@.j j j %.U.$.k.n.M.@XpXtXuXpX@X+.R R } K.oX&X4X4X^.qXsXaXsX>X>.H h / Y.V.P I Y V.G.e.' R +.+XtXwXrXiXI.J C I e.Y.$.C J [ /.rXrX8XZXo.                  % =XW.W.2.-X-X*X*X*X-X(.=X*X*X=X;X(.*X*X3X(.Q.2.;.R.Q.(.*X;X:X1X:X:X:X,X;XR.I.U.Q.Q.U.~.!.OXT.(.6X<X-X:X(.).T.Q.!.T.T.!.^.^.^.6X<X-X=XhX_.I.^.^._.Q.^.&X!.^._.;X3X-X=X=X3X<X<X*X=X=X2.2.2.2.*X*X*X*X<X=X*X*X*XhXW.2.=XW.*XW.*XW.R.2.%.1.;.-                                                       .   BXKXKXKXKXKXKXKXKXKXKXKXKXKXKXKXKXKXKXKXKXKXKXKXKXKXKXKXKXKXKXKXKXKXKXKXKXKXKXKXKXKXKXKXKXKXKXKXKXKXKXLXKX|   .                                                                         F.KXLXKXKXKXKXKXKXKXKXKXKXKXKXKXKXKXKXKXKXKXKXKXKXKXKXKXKXKXKXKXKXKXKXKXKXKXKXKXKXKXKXKXKXKXKXKXKXKXKXKXKXKXKXKXKXKXKXKXKXKXKXKXKXKXKXKXKXKXKXKXKXKXKXKXKXKXKXKXKXKXKXKXKXKXKXKXKXKXKXKXKXKXKXKXKXKXKXKXKXKXKXKX",
"qX0XyXMX2X~.&XmX%XoXK.}.%X%X~.@XuXwXuXiX).@XBXbX&XE.oXqXbX%XoXG.n.T.T.T.3XmXuXnX0XU.oX&X&XK.L.C.E.H.T.@XnXuXuXnXQ.j - , t ' j.v.j.>.M.o.+.M.%.1.1XdXgX8X:X;.W @.O.@.I.+.W ;.W ;.-XgXhXgX1X%.&.%.z O.M.R J :.;.^.fXfXdXuX@X<.z.v.C.E.J.J.|.^.!.%XaXrXwX@Xk.I h / L.V.' P / V.G.O.Y P [ (.tX7XiXiXU.I f C e.Y.e.f f R /.yXwX7XZXo.  .               ; -XW.2.*X*XW.*X*X*X*X*X*X(.*X=X=X*X*X*X*X/.(.Q.2.).W.(.*X<X<X:X=X:X:X:X(.Q.;X>X@XQ.H.+X2X2X<X(.=X=X:X:X/./.>X>X/.R.T.@X2X2X>X/.6X:X=X=X_._.4X@X=XQ._.2XqXqX@X=X-X3X=X=X;X:X3X;X=X=XW.W.2.2.W.W.*X*X*X*X*XW.*XW.-X2.2.W.*X*X*XW.2.1.o.<.;.-                                                           BXKXKXKXKXKXKXKXKXKXKXKXKXKXKXKXKXKXKXKXKXKXKXKXKXKXKXKXKXKXKXKXKXKXKXKXKXKXKXKXKXKXKXKXKXKXKXKXKXKXKXLXKX|                                                                         .   L.KXKXKXKXKXKXKXKXKXKXKXKXKXKXKXKXKXKXKXKXKXKXKXKXKXKXKXKXKXKXKXKXKXKXKXKXKXKXKXKXKXKXKXKXKXKXKXKXKXKXKXKXKXKXKXKXKXKXKXKXKXKXKXKXKXKXKXKXKXKXKXKXKXKXKXKXKXKXKXKXKXKXKXKXKXKXKXKXKXKXKXKXKXKXKXKXKXKXKXKXKXKXKX",
"qXrXyXMXqXM.m.Y.G.L.L.F.}.K.H.@XuXuXuXwX^.G.OXE.L.K.m.!.oXK.Y.j.k h h b.3XnXiXCXwXI.}.&XOXK.K.}.%XOXT.@XMXMXMXpX_.j : , f W e.j.:.@.m.>.;.v.+.1.1XgXtXtX,X;.o.:.+.$.Q.;.W ,.W ,.=X9XhX9X9X@.U E j T M.' R ,.>./.uXwXeXuX;XT.UXbX&XoXoX&XbX@X~.0XCXdXuX%XU.H.H.H.K.E.&XqX%X!.U.^.%X#X!.@XtXuXnXqX!.P Z H x.[.e.' ' | OXyXwX6XfXo.                  - =XW.2.*X*X*X*X*X*X*X_.(.*X*X=X=X(.*X(.(.(.(.R.2.R.W.*X*X;X=X=X;X:X:X<X(.I.R.;X~.T.U.^.@X;X_.=XhXhXhX=X_.I./.@X/.I.Q.^.@X+X+X;X3X3X-X=XR.I.@X@X_.Q.^.@X@X/.(.;X=X=X=X=X<X:X;X*X*X_._.R.2.W._.*XW.=X*X*X*X*X*X*X2.2.2.W.-X*X2.W.2.1.+.<.>.-                                                           BXKXKXKXKXKXKXKXKXKXKXKXKXKXKXKXKXKXKXKXKXKXKXKXKXKXKXKXKXKXKXKXKXKXKXKXKXKXKXKXKXKXKXKXKXKXKXKXKXKXKXKXKX|                                                                         .   K.KXLXKXKXKXKXKXKXKXKXKXKXKXKXKXKXKXKXKXKXKXKXKXKXKXKXKXKXKXKXKXKXKXKXKXKXKXKXKXKXKXKXKXKXKXKXKXKXKXKXKXKXKXKXKXKXKXKXKXKXKXKXKXKXKXKXKXKXKXKXKXKXKXKXKXKXKXKXKXKXKXKXKXKXKXKXKXKXKXKXKXKXKXKXKXKXKXKXKXKXKXKXKX",
"sXsXqXMX0Xc.R T Y G.G.[ } / @.(.tXrXeXwXR.E Y G } E.] l k ' n.j.U h T <.3XCXuXnX,X<.Y / Y j.H.' J U o./.mXpXpXpX/.t - , f R #./ ' $.U.$.o.[ ' <.1XeXeXrX0X<.' [ ] h.!.m.H.!.M.M.4XaX9X9X1XM.n.Y.I.b.c.#. .[ ;./.dXeX1XiX;Xj.j.z.z. XL.x.z.G.T.iXCXdXfX0Xm.n.P.P.E.H.F.!.H.H.U.G.oX}.H.@XuXfXuXiX!.Y G I j.Y.G.m.M.c.(.iX9X6XfX[   .               ; =X2.2.2.W._.=X*X*X*X*X*X(.=X=X*X*X*X(.=X@X(.2.2.R.2.*X-X<X*X=X=X:X:X:X(.2.I.>X@XQ.Q.+X<XW.W.=X(.=X=X=XQ.I._.6X@XI.!.&X@XQ./.;X=X=X=X=XW.I.=X0X&X^.^.@X/.I.@X;X;X;X=X=X<X=X*X_.*X*X_.R.R.W.W.*X(.*X=X=X*X*X*X=XW.2.2.W.*X*X*XW.I.2.;.+.@.-                                                           BXKXKXKXKXKXKXKXKXKXKXKXKXKXKXKXKXKXKXKXKXKXKXKXKXKXKXKXKXKXKXKXKXKXKXKXKXKXKXKXKXKXKXKXKXKXKXKXKXKXKXLXKX[   .                                                                         L.KXKXKXKXKXKXKXKXKXKXKXKXKXKXKXKXKXKXKXKXKXKXKXKXKXKXKXKXKXKXKXKXKXKXKXKXKXKXKXKXKXKXKXKXKXKXKXKXKXKXKXKXKXKXKXKXKXKXKXKXKXKXKXKXKXKXKXKXKXKXKXKXKXKXKXKXKXKXKXKXKXKXKXKXKXKXKXKXKXKXKXKXKXKXKXKXKXKXKXKXKXKXKX",
"qXrXyXpX0Xb.E R T v.V.$.#.[ >.(.tXtXeX7XU.W E I #.G.] z H J c.k.T %.%.<.3XnXdXdXwX<.T E U v.m.Y k x W @XaXaXpXMX@Xf = r f I Y I I O.Y.O.U L J k.,XiXwXiXqXk.K I I e.H.OXcXmXcX^.@XaXwXrXwXU.&XbXqX@XF.| Z l x /.ZXuXCXnX;XO.h h U H.k.h H W <.wXfXdXfX0X<.z z z m.c.U U z >.m.o.U W o.(.dXgXuXuX~.+.E +.c.M.;.@.<.;.).wXrX9XaXW   .               ; hX2.2.*X_._._.*X*X_._.(._.*X=X*X_.=X=X_.)./.2.2.R.R.W.*X-X=X=X*X(.=X=X_.2.M.,X>XQ.~.@X,X2.W.hX=X-X<X@XQ.I._.6X@X^.E.@X+XQ.(.*X*X=X=X=XW.2.(.0X@X!.^.4X_.Q./.*X*X=X<X-X=X;X(.).(._.W.2.W.W.).(.(.*X*X*X*X).W.2.*X2.2.*X*XW.2.W.2.2.;.@.>.%                                                           BXKXKXKXKXKXKXKXKXKXKXKXKXKXKXKXKXKXKXKXKXKXKXKXKXKXKXKXKXKXKXKXKXKXKXKXKXKXKXKXKXKXKXKXKXKXKXKXKXKXKXLXKX{                                                                         .   K.KXKXKXKXKXKXKXKXKXKXKXKXKXKXKXKXKXKXKXKXKXKXKXKXKXKXKXKXKXKXKXKXKXKXKXKXKXKXKXKXKXKXKXKXKXKXKXKXKXKXKXKXKXKXKXKXKXKXKXKXKXKXKXKXKXKXKXKXKXKXKXKXKXKXKXKXKXKXKXKXKXKXKXKXKXKXKXKXKXKXKXKXKXKXKXKXKXKXKXKXKXKXKX",
"rXwXrXuX2Xb.o.E ] m.H.:.#.[ <.;XpXtXfXfXR.o.+.Y $.U.$.T U R n.n.O.@.o.I.3XCXdXuX7X<.E / Y v.G.R R U +.@XyXpXpXpX@Xt : e f I / I I } Y.e.I ! Y c.2XuXwXuX2Xk.Y P P e.!.E.&X@X&XE.>XaXrXuXrXm.OX%X&X!.L.h.u.k.P.+XMXiXdXnX3X%.h k T T.<.h T T <.wXdXdXaX0X1.U U J n.n.R U H >.m.;.E [ o.(.uXdXfXuXT.+.,.:.M.G.>.$.>.>./.iX9X6XfX=.                . ; -X2.2.W.W.W.*X_.=XW.*X*XW.*X*X=X*X(.=X=X*X*X2.I.R.I.W.*X*X=X=X=X=X=X=X_.2.I.<X@XQ.Q.+X<XR.W.@X=X=X;X=XW.I./.6X+XQ.^.@X+XR._.*X3X=X*X*XR.1.(.0X+X^./.6X(.R.(.+X=X(.*X*X*X(.*X*X*X*XW.R.R.).W._.(.(.*X*X*X*XW.=X2.2.2.2.*X2.*XW.R.;.U <.>.-                                           .               BXKXKXKXKXKXKXKXKXKXKXKXKXKXKXKXKXKXKXKXKXKXKXKXKXKXKXKXKXKXKXKXKXKXKXKXKXKXKXKXKXKXKXKXKXKXKXKXKXKXKXKXKX}   .                                                                     .   L.KXLXKXKXKXKXKXKXKXKXKXKXKXKXKXKXKXKXKXKXKXKXKXKXKXKXKXKXKXKXKXKXKXKXKXKXKXKXKXKXKXKXKXKXKXKXKXKXKXKXKXKXKXKXKXKXKXKXKXKXKXKXKXKXKXKXKXKXKXKXKXKXKXKXKXKXKXKXKXKXKXKXKXKXKXKXKXKXKXKXKXKXKXKXKXKXKXKXKXKXKXKXKX",
"qXeXwXuX0Xc.Y R / G.L.} } ] j.;XnXfXuXeX~.$.} / j.[.r./ / | K.V.#.] O.T.2XnXnXnXwXc.] [ ' V.L.] / ] :.@XnXuXCXMX/.t - e f I Y R E [ H.h.P Y R b.6XtXwXrX0Xc.] [ [ j.Y.OXqXBX4X^.0XaXrXrXwXQ.%XbXqXOXF.Y.bXmXqX@XaXrXrXyX>X@.Y Y ] Y.v.R E o.b.,XiX1XiX2Xj.E W Y P.G.k.k.:.k.m.>.:.#.+.(.eXwXwXiX~.:.h.#.k.H.k.h.j.:./.uXiXwXZX;.                  ; *X2.2.W.W.W.2.W.*XW.W.W.W.*X*X*XW.W.*X;X*X(.2.2.R.I.2.*X*X*X=X(.*X*X(.W.1.2.(.~.I.I.+X@XW.W.=X=X=X=X(.W.2.W.(.^.1.H._.(.W._.*X=X*X*XW.R.2.).-XW.R.).<X+XR.).*XW.*XW.W.-X*X*X*X_._.W.R.2.W.*X_.*X(.*X*X(._.(.*X2.2.2.W.W.W.W.I.W.1.x ;.>.;                                                           BXKXKXKXKXKXKXKXKXKXKXKXKXKXKXKXKXKXKXKXKXKXKXKXKXKXKXKXKXKXKXKXKXKXKXKXKXKXKXKXKXKXKXKXKXKXKXKXKXKXKXKXKX[   .                                                                         L.KXLXKXKXKXKXKXKXKXKXKXKXKXKXKXKXKXKXKXKXKXKXKXKXKXKXKXKXKXKXKXKXKXKXKXKXKXKXKXKXKXKXKXKXKXKXKXKXKXKXKXKXKXKXKXKXKXKXKXKXKXKXKXKXKXKXKXKXKXKXKXKXKXKXKXKXKXKXKXKXKXKXKXKXKXKXKXKXKXKXKXKXKXKXKXKXKXKXKXKXKXKXKX",
"iXwXyXMXiXk.U J P L.J./ I K $.+XiXuXuXuXT.O.' ! x.}.#.I I | L.x./ I / V.2XmXuXiX6X<.Y R ] G.L.] I U :.@XMXuXpXaX/.f : , t Y +.@.E o.M.:.R [ E <.7XgX9XtX6X<.[ +.] :.T.c.,.G.<.M.6XrX8XtX0XM.k.F.k.n.v.j.V.H.H.+X6XaXrXrX<Xo.g f H !.F.l l W b.2XiXiXnX2XU.Y.!.F.H.!.&XVXqXOXG.[ l ..U ).tXuXiXiXY.J l G h.H.u.H G R OXtXrXwXfXW   .               % (.2.2.R.W.W.*X_.=X2.W.W.).*X*XW.).*X;X;X;X).<.2.I.2.2.*X*X-X=X*X*X*X_.R.;.I.Q.I.<.<.I.W.W.W.=X=X;X*X*XR.2.W._.2.,.1.Q._._.W.*X*X*X*X*X2.I.W.*XR.<.M.).(.).(.*X*X*X*X*X*XW.-X*X*X).W.R.I.W._.W.*X*X_.*X_.W.R.R.2.1.2.I.W.R.R.2.1.;.j k o.X                                                       .   BXKXKXKXKXKXKXKXKXKXKXKXKXKXKXKXKXKXKXKXKXKXKXKXKXKXKXKXKXKXKXKXKXKXKXKXKXKXKXKXKXKXKXKXKXKXKXKXKXKXKXLXKX|                                                                         .   K.KXLXKXKXKXKXKXKXKXKXKXKXKXKXKXKXKXKXKXKXKXKXKXKXKXKXKXKXKXKXKXKXKXKXKXKXKXKXKXKXKXKXKXKXKXKXKXKXKXKXKXKXKXKXKXKXKXKXKXKXKXKXKXKXKXKXKXKXKXKXKXKXKXKXKXKXKXKXKXKXKXKXKXKXKXKXKXKXKXKXKXKXKXKXKXKXKXKXKXKXKXKXKX",
"qXrXyXMXqXM.[ [ e.G.L.j.e.#.b.;XrXtXdXuXT.] [ / x.}.$.Y I O.G.V.] / ] m.2XmXiXeX1XI.~.+X}.}.}.V.oX!.U.@XnXpXfXpX_...: , t ] c.b.,.;.m.,.>.n.>.<.6XdXgXdX,X1.+.c.+.@.T.:.R >.W ,.6XdXtXdXwX1.H [ k W m./ R :.o.Q.rX9XtXpX>X:.G H ! K.V.Y J [ m.,XuXnXnX2X^.&X@XOXE.].OX%X%XOXH.=.P  .o.Q.uXuXuXnXT.G g h } L.{ f f Y oXyXrX6XaX=.                  ; _.2.2.I.W.W._._._.2.I.R.R.W.W.W.*X*X;X*X*X).@.2.R.I.*X*XW.*X_.W.W.*XW.R.1.R.R.R.b.2.R.Q.(.=X*X*X*X*XW.2.2.*X(._.2.W.(.(.=X*X*X*X*X*XW.2.2.W.*XR.2.W.).=X=X*XW.W.W.W.W.W.W.W.(.(.W.W.I.2.W.R.I.W.*XW.W.R.R.2.2.2.1.@.R.W.I.I.I.2.;.r J ,.;                                                           BXKXKXKXKXKXKXKXKXKXKXKXKXKXKXKXKXKXKXKXKXKXKXKXKXKXKXKXKXKXKXKXKXKXKXKXKXKXKXKXKXKXKXKXKXKXKXKXKXKXKXLXKX[   .                                                                         L.KXKXKXKXKXKXKXKXKXKXKXKXKXKXKXKXKXKXKXKXKXKXKXKXKXKXKXKXKXKXKXKXKXKXKXKXKXKXKXKXKXKXKXKXKXKXKXKXKXKXKXKXKXKXKXKXKXKXKXKXKXKXKXKXKXKXKXKXKXKXKXKXKXKXKXKXKXKXKXKXKXKXKXKXKXKXKXKXKXKXKXKXKXKXKXKXKXKXKXKXKXKXKX",
"qXtXuXyX2XU.I.OXU.G.U.T.OX+XU.;XtXeXdXuXR.+.#.| x.Y.r.Y / ] m.v.O.O.$.m.3XuXuXdX1XQ.@XbX2X~.}.+XmXsX+X@XpXuXtXaX_.j = , f [ b.V.,.;.M.c.j.m.;.<.9XdXgXdX0X<.>.G.k.>.!.>.;.c.[ <.6XtX8X8XrX<.J #.U W I.] E c.;.W.tXrXtXpX<XT.qXbX%XoX}.&XbX2X+X2XnX1X1X2XE.4X4X%X!. X&XbX%XOXH.oXbX%XOX@XuXCXuXmX@XoX%X%X~.H.H. XOXH.+XyXrX0XpXW   .               ; W.1.2.I.I.I.W.=XW.2.2.2.I.2.W.W.).).*X*X;XW.@.R.W.2.W.W.*XW.W.W.W.W.W.2.1.2.R.R.I.R.R.W._._.W.(.*X*XW.1.2.W.W._.W._.(._._._.W.W.*XW.W.2.R.W.W.W.W.W.).).).W.W.W.W.W.W.2.W.W.W.W.R.W.2.2.W.W.R.W.W.R.2.2.<.2.2.1.1.@.2.R.I.I.2.).I.z k.k.;                                                           BXKXKXKXKXKXKXKXKXKXKXKXKXKXKXKXKXKXKXKXKXKXKXKXKXKXKXKXKXKXKXKXKXKXKXKXKXKXKXKXKXKXKXKXKXKXKXKXKXKXKXKXKX|                                                                         .   L.KXKXKXKXKXKXKXKXKXKXKXKXKXKXKXKXKXKXKXKXKXKXKXKXKXKXKXKXKXKXKXKXKXKXKXKXKXKXKXKXKXKXKXKXKXKXKXKXKXKXKXKXKXKXKXKXKXKXKXKXKXKXKXKXKXKXKXKXKXKXKXKXKXKXKXKXKXKXKXKXKXKXKXKXKXKXKXKXKXKXKXKXKXKXKXKXKXKXKXKXKXKXKX",
"0XiXiXuX2X<.R E Y m.m.@.@.O.;.(.rXtXtXrXR.R R J #.K.+.H Y ] V.v./ T E b.3XnXuXeX1X2.[ +.' v.m.#.:.:.>./.pXtXtXaX_.t , e f / / &.W =.G.r./ / ] c.7XdXgXuX2Xb.Y O.] $.~.$.] @.W ,.6X9XeX8XwXb.H ' z O.Y.e.E %.o.Q.uXtXrXuX3Xb.n.L.F.K.L.v.!.U.T.,XiXiXtX2XM.^.^.E.K.L.K.oXY.H.G.U.oX!.m.(.tXuXuXiX+XY.@X%X!.U.!.&X@XY.+XtXaX9XfXW   .               % R.<.I.I.I.W.W._.W.I.2.2.W.W.W.R.W.*X*X*XW.R.@.2.2.2.2.2.W.W.2.2.2.2.2.R.1.1.2.I.2.2.2.R.R.*X).).*XR.W.2.2.W.W.W.W.W.hXW._.hX*X*X*XW.R.2.2.W.W.2.W.2.R.W.W.W.W.W.2.2.2.2.2.2.2.R.2.R.2.1.R.W.R.R.2.2.1.1.1.1.@.<.2.%.1.I.2.2.2.1.<.U E >.;                                                           BXKXKXKXKXKXKXKXKXKXKXKXKXKXKXKXKXKXKXKXKXKXKXKXKXKXKXKXKXKXKXKXKXKXKXKXKXKXKXKXKXKXKXKXKXKXKXKXKXKXKXLXKX}   .                                                                     .   K.KXKXKXKXKXKXKXKXKXKXKXKXKXKXKXKXKXKXKXKXKXKXKXKXKXKXKXKXKXKXKXKXKXKXKXKXKXKXKXKXKXKXKXKXKXKXKXKXKXKXKXKXKXKXKXKXKXKXKXKXKXKXKXKXKXKXKXKXKXKXKXKXKXKXKXKXKXKXKXKXKXKXKXKXKXKXKXKXKXKXKXKXKXKXKXKXKXKXKXKXKXKXKX",
"qXwXwXyX2Xc.U U k b.m.@.@.o.o._.tXtXtXtXI.R R C / G.O.h H / b.j.T Y T b.3XnXwXuX1X1.l k h k.F.Y U H W (.aXaXpXMX&Xt : e f C C C k E L.O.C C H >.2XdXwXuX2Xb.h f h | oX#.f h k ;.6XrX7X1XwX<.h s g E V./ h h h I.eXwXeXuX3Xo.f h H H.n.k U z b.0XuXtXuX0X1.J l J n.n.P R J #.H.+.+.:.,./.tXdXeXiX~.] J R :.m.:.E E +./.wX9XhXfXW                   X c.%.@.<.2.2.R.W.W.I.2.2.2.2.R.2.2.W.*XW.R.<.%.2.1.@.2.2.2.2.2.2.2.2.2.R.%.2.I.2.2.I.R.2.2.W.W.W.W.R.W.*X2.2.2.2.2.2.2.2.2.2.2.W.2.2.R.2.2.2.2.2.2.2.2.R.2.W.W.2.W.2.2.2.2.2.2.2.2.2.2.2.2.R.R.R.2.I.2.1.2.2.2.2.@.z z o.z j h l J t U <.%                                                           BXKXKXKXKXKXKXKXKXKXKXKXKXKXKXKXKXKXKXKXKXKXKXKXKXKXKXKXKXKXKXKXKXKXKXKXKXKXKXKXKXKXKXKXKXKXKXKXKXKXKXLXKX}                                                                         .   K.KXLXKXKXKXKXKXKXKXKXKXKXKXKXKXKXKXKXKXKXKXKXKXKXKXKXKXKXKXKXKXKXKXKXKXKXKXKXKXKXKXKXKXKXKXKXKXKXKXKXKXKXKXKXKXKXKXKXKXKXKXKXKXKXKXKXKXKXKXKXKXKXKXKXKXKXKXKXKXKXKXKXKXKXKXKXKXKXKXKXKXKXKXKXKXKXKXKXKXKXKXKXKX",
"0XwX0XyX0Xc.R E E b.m.#.>.+.;._.tXeXtXtXU.E } I 0.K.:.] / ] V.z.O.O.O.m.2XCXfXuX7X<.Y Y Y j.G.| E Y +.@XaXpXfXpX+Xh = : f O.}.@X^.m.G.G.}.oXY.m.1XuXwXrX2Xm.F.K.}.Y.Y.$.J P U :.6XyXrXtX0XM.#.z.k.c.G.r.V.G.m.(.1XuXuXuX<X+.h h C U.n.U R T b.wXfXuXfX0XM.U k k b.m.Y E U +.U.@.:.,.;.).gXdXuXtXQ.E E E ,.m.,.+.+.;._.wXrX6XtX=.                  X h t j &.o.o.;.1.2.2.R.W.R.I.R.2.2.2.W.R.2.<.%.2.2.@.2.2.W.2.2.W.W.W.2.2.1.2.W.R.R.R.W.W.W.W.W.2.2.W.2.2.1.2.2.2.2.2.2.2.2.2.W.W.2.W.2.1.%.2.2.R.2.W.2.2.2.W.R.W.W.W.2.2.2.2.2.1.2.R.I.2.I.2.2.R.R.2.I.R.R.^.Q.I.<.j r x z z z G U l T o.;                                                           BXKXKXKXKXKXKXKXKXKXKXKXKXKXKXKXKXKXKXKXKXKXKXKXKXKXKXKXKXKXKXKXKXKXKXKXKXKXKXKXKXKXKXKXKXKXKXKXKXKXKXKXKX|   .                                                                         L.KXKXKXKXKXKXKXKXKXKXKXKXKXKXKXKXKXKXKXKXKXKXKXKXKXKXKXKXKXKXKXKXKXKXKXKXKXKXKXKXKXKXKXKXKXKXKXKXKXKXKXKXKXKXKXKXKXKXKXKXKXKXKXKXKXKXKXKXKXKXKXKXKXKXKXKXKXKXKXKXKXKXKXKXKXKXKXKXKXKXKXKXKXKXKXKXKXKXKXKXKXKXKX",
"0X0X0XyX0Xb.k H U v.G.O.O.E ;.(.uXdXrXrXQ.E [ P e.Y.$.E Y #.V.V.O.T O.m.2XAXMXfX7XM.Y / Y v.G.} ' E >.@XuXuXfXpX/.h = r h / j.,.<.:.m.Y.UXVX2X~.,XtXeXiXiXU.2XVXUXOXY.K.&X%X&XY.@XaXrXuXiX!.%XVXbX&XL.r.G.T.T.+XnXiXuXnX3X@.h U U T.m.E E W I.,XdXuXfXrX<.o.U R m.H.] ] T >.T.j.>.,.@.Q.dXdXuXuX~.+.R ] :.n.k.[ W ;.Q.aXaX9XpX=.  .               X ' C z j j z z %.2.I.I.2.2.2.2.1.2.1.1.1.<.1.%.2.@.@.1.1.1.2.1.2.1.2.2.1.%.2.W.W.R.R.R.2.W.W.2.W.R.2.2.1.;.1.I.1.1.1.I.2.2.2.W.2.W.W.W.2.%.2.2.2.%.%.&.%.2.@.2.2.2.2.2.2.&.1.%.%.%.<.2.1.<.;.%.1.1.%.1.1.1.1.o.U o.j z 1.;.;.+.Y [ z T z ;                                                       .   BXKXKXKXKXKXKXKXKXKXKXKXKXKXKXKXKXKXKXKXKXKXKXKXKXKXKXKXKXKXKXKXKXKXKXKXKXKXKXKXKXKXKXKXKXKXKXKXKXKXKXLXKX|                                                                         .   K.KXLXKXKXKXKXKXKXKXKXKXKXKXKXKXKXKXKXKXKXKXKXKXKXKXKXKXKXKXKXKXKXKXKXKXKXKXKXKXKXKXKXKXKXKXKXKXKXKXKXKXKXKXKXKXKXKXKXKXKXKXKXKXKXKXKXKXKXKXKXKXKXKXKXKXKXKXKXKXKXKXKXKXKXKXKXKXKXKXKXKXKXKXKXKXKXKXKXKXKXKXKXKX",
"qXtXyXMXqX<.Y R [ V.F./ G I ;./.tXuXeXuXU.U G H h.K.] f f I z.r./ I / b.2XmXnXyXwX<.Y Y H V.G./ C f #.@XnXCXnXuX_.t , , t z l j j T M.j.,.k.,.1.6X9X9XrX6XM.,.n.,.,.!.z.h.k.v.n.6XpX9XdXyXm.j.V.,.P.L.Y j j h R.gXeXuXuX6XE C / / }.V.Y j.$.T.2XCXdXdXiXV.H C I V.L.C C C e.Y.0.I / / ~.uXtXuXyXOXH.OX&X XP.S.E.}.G.+XiXyX7XZX;.  .               ; `.c.I.<.b.I.I.I.2.2.;.1.2.1.1.;.1.2.<.<.;.@.%.%.@.;.1.1.2.2.2.2.1.2.2.2.%.2.2.2.;.;.n.I._._.R.2.W.2.2.W.1.2.Q.,.P.J.F.n.I.Q.2.2.2.2.2.2.2.2.I.z : : : &.2.2.2.2.2.2.2.2.1.2.2.2.2.%.x < < j 2.2.2.I.<.@.2.&.j t j x ;.1.1.1.;.+.[ W z h ;                                                           BXKXKXKXKXKXKXKXKXKXKXKXKXKXKXKXKXKXKXKXKXKXKXKXKXKXKXKXKXKXKXKXKXKXKXKXKXKXKXKXKXKXKXKXKXKXKXKXKXKXKXKXKX[   .                                                                         K.KXLXKXKXKXKXKXKXKXKXKXKXKXKXKXKXKXKXKXKXKXKXKXKXKXKXKXKXKXKXKXKXKXKXKXKXKXKXKXKXKXKXKXKXKXKXKXKXKXKXKXKXKXKXKXKXKXKXKXKXKXKXKXKXKXKXKXKXKXKXKXKXKXKXKXKXKXKXKXKXKXKXKXKXKXKXKXKXKXKXKXKXKXKXKXKXKXKXKXKXKXKXKX",
"0XwXwXnX2XU.&X%X&XoXL.L.OXoXm.(.yXuXuXiXQ.G.oX}.K.[.G.G.Y.K.L.z./ I / m.2XMXyXaX0XT.Y.OXoXY.G.h.k.k.M.@XMXnXpXrX_.x - , t E b.I.2.;.I.;.,.P.=.;.9XfX9XgXwXM.o.m.;.;.T.>.+.<.@.1.6XfX9XtXeXb.T $.x U m.' Y +.%.R.gX1XeXuX6X+.f C I }.G.C Y U M.2XdXuXnXnXj.C t f L.L.C i f e.Y./ g h H ).rX7XwX0X+XY.%X%XOXE.E.&X@XoX~.0X0X6XfXW                   O J.c.I.<.<.2.2.2.2.2.1.2.2.2.;.%.2.R.R.~.j.I o.%.:.U.).).W.W._.I.R.2.2.2.1.1.2.1.W k m.(.Q._._.W.*X2.W.2.%.2.I.;.m.E.H.P.^._._.2.2.2.2.2.1.1.2.< : ; : &.W.2.W.2.2.2.2.1.1.W.W.R.2.1.&.< - < 2.2.2.R.b.2.R.;XwXuX<X<.;.1.1.1.;.%.E U T h ;                                                           BXKXKXKXKXKXKXKXKXKXKXKXKXKXKXKXKXKXKXKXKXKXKXKXKXKXKXKXKXKXKXKXKXKXKXKXKXKXKXKXKXKXKXKXKXKXKXKXKXKXKXLXKX|                                                                         .   L.KXKXKXKXKXKXKXKXKXKXKXKXKXKXKXKXKXKXKXKXKXKXKXKXKXKXKXKXKXKXKXKXKXKXKXKXKXKXKXKXKXKXKXKXKXKXKXKXKXKXKXKXKXKXKXKXKXKXKXKXKXKXKXKXKXKXKXKXKXKXKXKXKXKXKXKXKXKXKXKXKXKXKXKXKXKXKXKXKXKXKXKXKXKXKXKXKXKXKXKXKXKXKX",
">X:X0XyX0X^.+X%X&XY.G.Y.%X%XU.@XuXeXeX1XQ./.2X%XOXH.^.2XbX%X}.C.e.e.r.m.>XaXyXrX6XQ.%XqX4XE.H.OXbXqXOX@XnXuXMXfX_.j : , f +.b.U.<.:.m.k.k.P.,.;.6XgX8XdX6XM.;.m.:.;.T.<.,.m.;.<.6XaX9XaXwX<.T r.E R G.[ E j.%.W.dXeXtXuX6X:.l J / Y.G.C k z m.qXnXdXnX2Xb.H h I L.G.G h h e.Y.O.H Y T ).rXeXrXrX+XE.4X4XOXH.E.|.&XOXoXiXwX6XfX=.                  O n.<.<.1.1.2.2.2.2.2.2.2.2.1.&.;.1.I.Q.~.} h h C O.T.W.W.I.W.I.2.R.2.2.2.1.1.R.x , , t ;.)._.W.W.2.2.2.2.%.2.I.,.G.!.H.P.Q.I.2.2.2.2.2.2.1.2.I.r : : : &.2.W.2.2.2.2.2.%.1.2.R.2.R.*X-Xz - < 1.W.2.2.2.@.b.1XSXSXyXM.;.1.1.1.1.+.o.E T z %                                                           BXKXKXKXKXKXKXKXKXKXKXKXKXKXKXKXKXKXKXKXKXKXKXKXKXKXKXKXKXKXKXKXKXKXKXKXKXKXKXKXKXKXKXKXKXKXKXKXKXKXKXKXKX}   .                                                                     .   K.KXKXKXKXKXKXKXKXKXKXKXKXKXKXKXKXKXKXKXKXKXKXKXKXKXKXKXKXKXKXKXKXKXKXKXKXKXKXKXKXKXKXKXKXKXKXKXKXKXKXKXKXKXKXKXKXKXKXKXKXKXKXKXKXKXKXKXKXKXKXKXKXKXKXKXKXKXKXKXKXKXKXKXKXKXKXKXKXKXKXKXKXKXKXKXKXKXKXKXKXKXKXKX",
"qX,XrXyX0Xc.o.E R n.n.#.+.[ ;.(.wXwXtXtXQ.[ [  .r.G.:.W R [ z.V.| ] $.b.3XnXuXuXwXM.:.k.:.v.F.r.+.#.<.+XnXuXnXnX(.h = e f R $.@.o.o.H.j.} } [ 1.6XaXtXtXrXM.] j.] $.~.c.] $.+.<.6X9X6XaXtX<.T %.U o.~.#.} h.E T.uXuXfXnX6X:.H J Y U.H.U H H I.iXnXuXnX2Xb.T H H G.Y.H H C r.U.$./ ' O.).tXeX8XrX/.H.^.OXE.H.H.OX@XY.~.iXuX6XfXW   .               ; L.<.1.2.2.2.2.W.2.2.2.1.2.1.&.;.2.2.T.~.[ h H h E R.W.2.I.W.W.W.R.2.W.2.;.;.I.l - = - z @XW.W.R.2.W.2.2.%.2.I.;.M.^.M.2.Q.2.2._.2.hX2.1.1.2.2.r ; - : &.2.2.2.2.2.2.2.1.&.2.2.I.R.2.&.< : < 2.2.2.2.@.@.<.+XyXpX@X2.1.2.<.1.1.;.+.o.o.z %                                                           BXKXKXKXKXKXKXKXKXKXKXKXKXKXKXKXKXKXKXKXKXKXKXKXKXKXKXKXKXKXKXKXKXKXKXKXKXKXKXKXKXKXKXKXKXKXKXKXKXKXKXLXKX}                                                                         .   K.KXLXKXKXKXKXKXKXKXKXKXKXKXKXKXKXKXKXKXKXKXKXKXKXKXKXKXKXKXKXKXKXKXKXKXKXKXKXKXKXKXKXKXKXKXKXKXKXKXKXKXKXKXKXKXKXKXKXKXKXKXKXKXKXKXKXKXKXKXKXKXKXKXKXKXKXKXKXKXKXKXKXKXKXKXKXKXKXKXKXKXKXKXKXKXKXKXKXKXKXKXKXKX",
"wXeXiXuX,X<.T T h b.m.] [ ] @.(.iXuXdX1X~.O.[ H } H.o.U k U v.v./ O.&.r.3XdXtXuXwX<.H Y U j.V.E H T %.*XnXeXnXnX@Xl - e C C C h k O.U.r.l G J ,.6XdX8XrX0Xn.U Y H e.OXe.h C k >.>XaXrX9XuX<.h h h %.K.P. X!.E./.aXrXtXnX,X@.x k h !.M.l l x M.0XCXdXnXiXI.T o.Y m.L.U C h r.Y.%.U Y E /.tXeXrXrX_.[ J Y =.H.k. .Y #.T.1X6X9XfXW   .               ; H.c.<.2.<.2.2.2.W.W.2.2.1.;.&.;.1.1.I.Q.[ l t x =.M.I.2.2.R.R.R.R.R.2.2.;.1.I.W j r j ;.)._._.2.W.2.2.2.1.2.Q.o.z l W ,.W.R._.2.W.W.2.2.1.2.W.&.&.< &.2.2.2.2.2.2.2.2.1.&.2.I.R.R.1.&.z &.@.R.R.2.2.2.@.2.2.M.I.<.%.@.1.1.2.1.o.o.o.W l %                                                           BXKXKXKXKXKXKXKXKXKXKXKXKXKXKXKXKXKXKXKXKXKXKXKXKXKXKXKXKXKXKXKXKXKXKXKXKXKXKXKXKXKXKXKXKXKXKXKXKXKXKXLXKX{   .                                                                         L.KXLXKXKXKXKXKXKXKXKXKXKXKXKXKXKXKXKXKXKXKXKXKXKXKXKXKXKXKXKXKXKXKXKXKXKXKXKXKXKXKXKXKXKXKXKXKXKXKXKXKXKXKXKXKXKXKXKXKXKXKXKXKXKXKXKXKXKXKXKXKXKXKXKXKXKXKXKXKXKXKXKXKXKXKXKXKXKXKXKXKXKXKXKXKXKXKXKXKXKXKXKXKX",
"0X7XiXiX2Xb.&.O.T V.G.O.e.#.;.+XuXuXnXdXI.O.} J } H.+.T T E V.V.| O.e.r.3XfXeXtX1Xb.E O.I b.G.O.T Y O.+XnXiXdXnX@Xj - e f / v.b.b.j.V.v.P.F.n.M.=XaX8XtXiXc.J I I ] oX0.M f f @.6XaXaXaXeXb.&.%.%.$.H.F.&X%X&X&XsXrXtXCX3Xo.J H l H.k.l J l <.0XnXnXCXiXb.T O.H v.G.H h h $.T.@.E [ [ ).tXdXtXuX/.E ] [ ,.G.=. .Y ] T.2XwX6XfXo.                  @ E.M.2.<.<.<.2.2.W.2.2.2.1.;.x 1.2.2.Q./.M.<.;.1.2.I.I.2.2.I.R.R.I.2.2.1.;.1.Q.I.M.,.<.2.R._.W.W.2.2.2.2.o.2.Q.R.M.;.M.R._.W.2._.2.W.2.2.1.2.W.W.2.%.2.W.W.2.2.2.2.*X2.1.1.2.2.I.R.R.R.2.2.R.2.W.2.2.@.2.R.R.I.I.I.@.%.1.%.1.@.o.o.o.W l %                                                       .   BXKXKXKXKXKXKXKXKXKXKXKXKXKXKXKXKXKXKXKXKXKXKXKXKXKXKXKXKXKXKXKXKXKXKXKXKXKXKXKXKXKXKXKXKXKXKXKXKXKXKXKXKX[                                                                         .   K.KXLXKXKXKXKXKXKXKXKXKXKXKXKXKXKXKXKXKXKXKXKXKXKXKXKXKXKXKXKXKXKXKXKXKXKXKXKXKXKXKXKXKXKXKXKXKXKXKXKXKXKXKXKXKXKXKXKXKXKXKXKXKXKXKXKXKXKXKXKXKXKXKXKXKXKXKXKXKXKXKXKXKXKXKXKXKXKXKXKXKXKXKXKXKXKXKXKXKXKXKXKXKX",
"0X,XwXtXiXb.] E / G.G.] [ / @.@XnXdXnXnXT.O.[ P k.Y.#.T T ] V.V.O.#.+.b.,XCXtXpXeXb.O.} / v.G.] ] E @.@XuXnXCXnX(.j - e f T <.I.U.<.U.T.4XbX4XQ.=X6X9X6X,Xv.I Y I O.OXe.G Y J ;.6XaX9XtX1XI.z z h $.H.H.4X4X4X@XyXwXiXuX1Xj.Y J k !.G.J R k c.qXnXuXuXiXb.o.+.U v.H.P Y P #.U.:.] e.[ ).rXdXeXuX+X[ [ } j.G.:. ./ $.T.0XrX6XfX=.  .               O !.1.<.<.1.<.2.I.I.2.1.1.1.;.x &.2.2.I.Q.I.I.,.<.I.I.I.2.2.I.I.2.2.2.2.1.;.1.I.I.M.<.M.2.W.W.W.2.2.2.2.1.&.2.I.I.I.;.<.I.R.2.2.2.2.2.2.2.=.2.2.R.2.2.2.2.2.2.2.W.2.2.2.2.1.2.2.R.R.2.1.1.1.2.2.R.2.2.2.2.2.2.2.I.1.1.%.1.@.%.%.@.@.;.W l %                                                           BXKXKXKXKXKXKXKXKXKXKXKXKXKXKXKXKXKXKXKXKXKXKXKXKXKXKXKXKXKXKXKXKXKXKXKXKXKXKXKXKXKXKXKXKXKXKXKXKXKXKXLXKX|   .                                                                         L.KXKXKXKXKXKXKXKXKXKXKXKXKXKXKXKXKXKXKXKXKXKXKXKXKXKXKXKXKXKXKXKXKXKXKXKXKXKXKXKXKXKXKXKXKXKXKXKXKXKXKXKXKXKXKXKXKXKXKXKXKXKXKXKXKXKXKXKXKXKXKXKXKXKXKXKXKXKXKXKXKXKXKXKXKXKXKXKXKXKXKXKXKXKXKXKXKXKXKXKXKXKXKX",
"rX7X0X0XiXc.h C ! F.F.P M M +.@XnXiXiXiXT.T I C e.K.+.h f Y V.v.P I U c.>XMXaXuXwXM.' Y Y z.L.' l k E +XnXuXdXdX_.l - , g k j t t z I.c.n.E.M.M.;X9X6XwX0Xc.T ' / #.oXj.P E W ;.<XaX9X9XgX<.X.X.: %.H.,.E.E.^.@XyXtXdXdX1X$.l I  .!.G.J l l M.0XnXiXfXqX<.R H k m.K.H G h $.Y.@.H ' Y ).rXtXeXtX+X[ I I #.Y.h.J U O.T.wXtX6XfXW                   @ ^.M.<.1.<.<.2.M.2.2.2.2.1.1.;.;.2.2.R.R.<.2.;.;.1.2.I.2.2.I.I.I.2.2.2.1.W 1.I.I.I.1.2.I.W.W.W.W.2.2.2.1.&.1.I.2.1.%.1.1.R.2.*X2.W.2.2.2.=.1.2.@.%.2.2.2.2.%.2.2.2.2.2.2.%.2.I.2.2.1.%.%.%.1.R.R.2.2.%.%.2.2.1.2.1.%.%.@.%.%.1.&.%.&.U h %                                                           BXKXKXKXKXKXKXKXKXKXKXKXKXKXKXKXKXKXKXKXKXKXKXKXKXKXKXKXKXKXKXKXKXKXKXKXKXKXKXKXKXKXKXKXKXKXKXKXKXKXKXLXKX}                                                                         .   L.KXKXKXKXKXKXKXKXKXKXKXKXKXKXKXKXKXKXKXKXKXKXKXKXKXKXKXKXKXKXKXKXKXKXKXKXKXKXKXKXKXKXKXKXKXKXKXKXKXKXKXKXKXKXKXKXKXKXKXKXKXKXKXKXKXKXKXKXKXKXKXKXKXKXKXKXKXKXKXKXKXKXKXKXKXKXKXKXKXKXKXKXKXKXKXKXKXKXKXKXKXKXKX",
"qX0X0XsXqX>.=.:.k.L.C.u.u.u.c.(.iXiXtXtXT.:.h.h.C.Y.>.@.:.,.F.F.e.e.e.v.<XpXaXyXwXb.! Y K z.L.e.' [ >./.MXuXrXrX(.x , , r E m.I.2.;.m.>.:.n.:.>.,XdX9XtXwXM.+.c.r.$.T.k.+.c.%.>.,XdX9XtXfXI.z r.&.z G.O.J [ E Q.pXpXtXdX1X+.f f K Y.F.l f l c.2XnXwXaXwX,.x f f n.E.f f g O.Y.] f M k ~.tXeXeXuX^.H r g Y Y.#.f f H I.2XwX:XfX[                   O !.1.;.1.1.<.1.<.2.I.2.I.M.;.o.;.1.1.1.2.1.@.o.1.1.1.1.@.1.I.I.b.2.2.1.;.W ;.2.<.2.%.1.2.2.R.2.2.2.2.2.;.z 1.1.1.%.&.1.1.2.1.2.2.2.2.2.1.&.@.@.2.@.%.1.@.2.%.2.W.2.2.2.1.%.1.2.2.2.1.&.;.%.%.%.2.1.%.%.1.2.2.1.1.<.%.;.1.@.<.@.T E o.Y I &                                                           BXKXKXKXKXKXKXKXKXKXKXKXKXKXKXKXKXKXKXKXKXKXKXKXKXKXKXKXKXKXKXKXKXKXKXKXKXKXKXKXKXKXKXKXKXKXKXKXKXKXKXKXKX[   .                                                                     .   K.KXLXKXKXKXKXKXKXKXKXKXKXKXKXKXKXKXKXKXKXKXKXKXKXKXKXKXKXKXKXKXKXKXKXKXKXKXKXKXKXKXKXKXKXKXKXKXKXKXKXKXKXKXKXKXKXKXKXKXKXKXKXKXKXKXKXKXKXKXKXKXKXKXKXKXKXKXKXKXKXKXKXKXKXKXKXKXKXKXKXKXKXKXKXKXKXKXKXKXKXKXKXKX",
"0XrX6XsX0XT.%XsX%XK.H.OXbX4X^.@XiXtXuXiXQ.+X4X%XoXH.^.qXbX%XE.E.UXVX2XOX>XpXpXfXyXb.| | / z.Y.oX2X%X+X/.yXuXuXrX@Xj - > g ] Y.T.<.o.m.j.,.K.:.;.,XdX9XtX1XI.@.m.>.$.T.<.$.I.@.<.:XtX9XgXeX1.T b.%.z G.O.H #.o.W.eX8X9X7X>XM.}.}.K.oX[.oX%X+X^.>XnXrXaXqXG.^.&X!.K.K.z.P.z.F.!.} Y ! R ^.iXwXwXqX@Xk.V.L.L.L.h.l j H T.2X7X6XfXW   .               % H.;.;.b.<.1.I.I.I.I.b.b.M.<.&.%.%.o.;.1.1.1.1.1.1.@.1.@.2.2.2.2.I.b.2.o.W ;.@.1.2.1.1.1.2.R.I.I.2.I.M.1.z o.%.;.1.%.%.1.%.1.2.I.2.2.2.2.&.1.R.@.2.2.1.1.%.2.2.2.R.2.R.1.%.1.@.<.1.o.W &.%.@.%.<.2.%.%.%.2.2.I.I.I.@.@.<.<.<.<.o.E E I | 7                                                           BXKXKXKXKXKXKXKXKXKXKXKXKXKXKXKXKXKXKXKXKXKXKXKXKXKXKXKXKXKXKXKXKXKXKXKXKXKXKXKXKXKXKXKXKXKXKXKXKXKXKXLXKX|                                                                         .   L.KXKXKXKXKXKXKXKXKXKXKXKXKXKXKXKXKXKXKXKXKXKXKXKXKXKXKXKXKXKXKXKXKXKXKXKXKXKXKXKXKXKXKXKXKXKXKXKXKXKXKXKXKXKXKXKXKXKXKXKXKXKXKXKXKXKXKXKXKXKXKXKXKXKXKXKXKXKXKXKXKXKXKXKXKXKXKXKXKXKXKXKXKXKXKXKXKXKXKXKXKXKXKX",
"0X6X6XaX0Xc.@.@.:.n.n.,.:.>.<.(.uXtXrX7XW.>.P.,.k.m.<.;.j.j.F.L.r.V.m.m.>XfXuXdXeXI.| O.] V.Y.v.H.m.M.@XnXdXuXuX(.l : e f / r.$.O.$.Y.j.} h.[ 1.,XgX9XtXwXM.o.,.+.$.T.c.%.$.%.<.:XtX9X9XwXm.%.r.O.O.G.e.Y $.E R.1X1X7XwX>XI.&X%XOX!.E.!.qX+X^.:XrXtXaX0XG.qXsX&XH.E.oX%X%XoX!.n.OX&XF./.0XrXaXwX@X^.bXqXOXH.z.} r.r.T.1XtX7XfXW                     X X o X X X o X X X X X X o o o o X o X o X X X X o o X X X X X o X X o . X X X X X . X X X X X X X X o . X o o o X . X X X X X X X X o o X X X ; . o X o X X X X ; X X o X o . o o . X X . X X X X X X X . X X X X o o X X X o o . o o .                                                       .   BXKXKXKXKXKXKXKXKXKXKXKXKXKXKXKXKXKXKXKXKXKXKXKXKXKXKXKXKXKXKXKXKXKXKXKXKXKXKXKXKXKXKXKXKXKXKXKXKXKXKXKXKX}   .                                                                         K.KXKXKXKXKXKXKXKXKXKXKXKXKXKXKXKXKXKXKXKXKXKXKXKXKXKXKXKXKXKXKXKXKXKXKXKXKXKXKXKXKXKXKXKXKXKXKXKXKXKXKXKXKXKXKXKXKXKXKXKXKXKXKXKXKXKXKXKXKXKXKXKXKXKXKXKXKXKXKXKXKXKXKXKXKXKXKXKXKXKXKXKXKXKXKXKXKXKXKXKXKXKXKX",
"0XwXrXpX1Xb.T T l c.m.[ T W E ).uXwXtXtXU.W [ J :.H.[ l z T v.V.O.O.%.@.<XuXtXuX1Xb.T E C j.G./ z U o.(.dXtXdXtX@Xh - , f C Z f h ] K.e.C G G @.,XtXwXpX0XH.oX&X&XY.}.r.C h h $.@XpXwXtXuXM.P I C O.V.0.M G l R.nXdXwXdX1X;.k U U Y.H.J +.E b.wXrX8XgXrX<.o.+.o.c.!.=.:.R :.~.<.[ k.@.Q.rX8X9X8X/.o.:.:.<.G.n.:.e.r.T.iXaXrXZXW                                                                                                                               .                                     . .                                   .                   .                                                                                         BXKXKXKXKXKXKXKXKXKXKXKXKXKXKXKXKXKXKXKXKXKXKXKXKXKXKXKXKXKXKXKXKXKXKXKXKXKXKXKXKXKXKXKXKXKXKXKXKXKXKXLXKX}                                                                         .   K.KXLXKXKXKXKXKXKXKXKXKXKXKXKXKXKXKXKXKXKXKXKXKXKXKXKXKXKXKXKXKXKXKXKXKXKXKXKXKXKXKXKXKXKXKXKXKXKXKXKXKXKXKXKXKXKXKXKXKXKXKXKXKXKXKXKXKXKXKXKXKXKXKXKXKXKXKXKXKXKXKXKXKXKXKXKXKXKXKXKXKXKXKXKXKXKXKXKXKXKXKXKXKX",
"6X7XwXrX1XM.o.T z b.M.E O.O.o.+XdXeXdXuXR.W =.P } L.$.Y T T V.V.$.$.@.<.3XCXtXuX1Xb.T o.H $.U.#.E E +.(.pXuXtXrX;Xj - : t G K G K | L.r.I P P >.6XrXwXtXrXH.&X%X%XOXL.z.] | } :.(.pXrXrXpXn.] { ] x.P.=.L L x Q.CXnXtXMX0X@.k T H Y.v.H >.o.$.1X7XtXdXwXc.z W x c.Y.k R H +.T.>.U [ W I.8X8XgXtX(.W W W o.I.k.' ] #.T.1XnX1XfXo.                    .     .   .   .   . . .   . .   .     . .   .     . .     . . .   . .     . . .   . .   .     .   . .   . . .   .     .   . . . .   .   .   . . . .                         .                                                                                                             .         BXKXKXKXKXKXKXKXKXKXKXKXKXKXKXKXKXKXKXKXKXKXKXKXKXKXKXKXKXKXKXKXKXKXKXKXKXKXKXKXKXKXKXKXKXKXKXKXKXKXKXLXKX{   .                                                                         L.KXLXKXKXKXKXKXKXKXKXKXKXKXKXKXKXKXKXKXKXKXKXKXKXKXKXKXKXKXKXKXKXKXKXKXKXKXKXKXKXKXKXKXKXKXKXKXKXKXKXKXKXKXKXKXKXKXKXKXKXKXKXKXKXKXKXKXKXKXKXKXKXKXKXKXKXKXKXKXKXKXKXKXKXKXKXKXKXKXKXKXKXKXKXKXKXKXKXKXKXKXKXKX",
"6X7XwXaX,Xb.o.T U m.G.} ' R @.+XnXiXeXuXQ.E :.R e.K.r.[ ] e.V.V.n.2.b.M.2XMXnXMXwXm.E E T v.G.#.[ ] @.+XCXuXtXuX(.h - , t P h.e.} #.Y.v.>.v.j.<.:XtXtXeX0XU.4XmXbX+XH.oXUXBXbX!.4XaXtXtXrX_.&XbXbX+XE.P.&X4X4X4XnX1XuXyXqX,.H E U Y.Y.Y j.] <.2XuXtXdX1XM.@.o.T b.Y.E @.U @.T.:.U [ W R.tX8X8X8X_.;.=.;.,.R.k.] ] #.T.2XnX3XfXo.                                                                                                                                                                                                                                                                                                                        BXKXKXKXKXKXKXKXKXKXKXKXKXKXKXKXKXKXKXKXKXKXKXKXKXKXKXKXKXKXKXKXKXKXKXKXKXKXKXKXKXKXKXKXKXKXKXKXKXKXKXKXKX[                                                                         .   K.KXLXKXKXKXKXKXKXKXKXKXKXKXKXKXKXKXKXKXKXKXKXKXKXKXKXKXKXKXKXKXKXKXKXKXKXKXKXKXKXKXKXKXKXKXKXKXKXKXKXKXKXKXKXKXKXKXKXKXKXKXKXKXKXKXKXKXKXKXKXKXKXKXKXKXKXKXKXKXKXKXKXKXKXKXKXKXKXKXKXKXKXKXKXKXKXKXKXKXKXKXKXKX",
"0X6XwXaX0X>.h f G F.F.I f d E +XuXeXtXtXT.;.k.j.V.K.$.H I | G.}.OX4X%X^.2XMXaXaX6XM.H H C j.L.Y h C E @XMXpXuXuX;Xj - = e P } } } +.m.c.$.k.:.<.:XtXrX9X6Xm.U.!.E.G.Y.H.H.^.!.M.@XaX8XaXrXU.H.oX!.M.F.k.E.OXE._.nXtXuXnXqX<.G G Y G.G.I H U c.2XuXwXtXiXb.T z H V.oXY I H #.Y.$.U  .U T.tXrXwXrX@XW  . .[ !.k.R / O.T.nXeX2XCXE   .             . z.h.h.z.h.h.h.z.h.h.h.h.h.j.h.h.h.h.h.z.h.h.h.j.h.h.h.z.h.h.h.j.h.h.h.z.h.h.h.h.h.j.h.h.h.h.h.z.h.h.h.h.h.h.h.h.h.h.h.x.k.h.h.h.h.k.h.h.h.h.h.j.h.F.-                                                                                                                                                 BXKXKXKXKXKXKXKXKXKXKXKXKXKXKXKXKXKXKXKXKXKXKXKXKXKXKXKXKXKXKXKXKXKXKXKXKXKXKXKXKXKXKXKXKXKXKXKXKXKXKXLXKX|   .                                                                     .   L.KXKXKXKXKXKXKXKXKXKXKXKXKXKXKXKXKXKXKXKXKXKXKXKXKXKXKXKXKXKXKXKXKXKXKXKXKXKXKXKXKXKXKXKXKXKXKXKXKXKXKXKXKXKXKXKXKXKXKXKXKXKXKXKXKXKXKXKXKXKXKXKXKXKXKXKXKXKXKXKXKXKXKXKXKXKXKXKXKXKXKXKXKXKXKXKXKXKXKXKXKXKXKX",
"qX0X0XmXqXv.[ | } F.J.0.0.| >.+XnXuXuXtXQ.M.!.K.L.K.h.] ' { V.G.E.&XOX^.@XMXsXaX6Xb.] Y / x.L.e./ / :.+XMXpXaXuX>Xl : , g E v.F.v.$.I.,.%.v.[ 1.:X8X9XrXwXM.R R R +.H.k.,.n.=.,.6XfX9X8XfX<.C O.k U H.=...[ W Q.uXuXuXnX0X>.f f Z }.V.M e g ,.@XrX7XiXiXv.t g f z.}.G d d } oX} f Z G U.yXrXrXyX@Xl g e  .K.u.f f C m.1XnX1XdX%.                X KXKXKXKXKXKXKXKXKXKXKXKXKXKXKXKXKXKXKXKXKXKXKXKXKXKXKXKXKXKXKXKXKXKXKXKXKXKXKXKXKXKXKXKXKXKXKXKXKXKXKXKXKXKXKXKXKXKXKXKXKXKXKXKXKXKXKXKXKXKXKXKXLXKXf                                                                                                                                                 BXKXKXKXKXKXKXKXKXKXKXKXKXKXKXKXKXKXKXKXKXKXKXKXKXKXKXKXKXKXKXKXKXKXKXKXKXKXKXKXKXKXKXKXKXKXKXKXKXKXKXLXKX}                                                                         .   L.KXKXKXKXKXKXKXKXKXKXKXKXKXKXKXKXKXKXKXKXKXKXKXKXKXKXKXKXKXKXKXKXKXKXKXKXKXKXKXKXKXKXKXKXKXKXKXKXKXKXKXKXKXKXKXKXKXKXKXKXKXKXKXKXKXKXKXKXKXKXKXKXKXKXKXKXKXKXKXKXKXKXKXKXKXKXKXKXKXKXKXKXKXKXKXKXKXKXKXKXKXKXKX",
"qXyXyXmX2XY.&XbX%X[.J.OXlX%XY.<XuXuXdXdX^.Q.@X%XoXL.G.Y. XK.J.J.&XmX4X^.>XMXuXuX1X~.&XUX&XoX}.OXbX2X+X@XyXMXMXyX;Xl - > g [ Y.H.j.+.U.@.@.n.[ 1.:X8X9X8XrXM.W [ E [ T.k.j.M.+.,.;XdX9XgXdX2.k $.z T V.#.J #.+.T.iXdXuXCX2Xc.( ' | oXL.u.h.h.G.4XwX6XrXqXF.#.} 0.L.[.h.l.B.V. Xe.' _ ! U.mXtXwXnX+Xh.} u.z.K.j...h H T.iXtX6XgXW                 X KXLXLXKXLXKXLXKXLXKXLXKXLXKXLXKXLXKXLXKXKXLXLXLXKXLXKXLXKXLXKXKXLXLXKXLXKXLXKXKXKXLXKXKXLXKXLXKXLXKXLXLXKXLXKXKXLXKXLXKXLXKXLXKXLXKXLXKXKXLXLXLXJXKXd   .                                                                                                                                             BXKXKXKXKXKXKXKXKXKXKXKXKXKXKXKXKXKXKXKXKXKXKXKXKXKXKXKXKXKXKXKXKXKXKXKXKXKXKXKXKXKXKXKXKXKXKXKXKXKXKXKXKX|   .                                                                     .   L.KXLXKXKXKXKXKXKXKXKXKXKXKXKXKXKXKXKXKXKXKXKXKXKXKXKXKXKXKXKXKXKXKXKXKXKXKXKXKXKXKXKXKXKXKXKXKXKXKXKXKXKXKXKXKXKXKXKXKXKXKXKXKXKXKXKXKXKXKXKXKXKXKXKXKXKXKXKXKXKXKXKXKXKXKXKXKXKXKXKXKXKXKXKXKXKXKXKXKXKXKXKXKX",
"qXrXiXyX2Xm.$.r.r.V.V.k.V.v.k.+XnXuXdXuX^.<.H.P.V.K.j.$.h.h.F.G.n.G.m.M.2XyXiXnX1XT.L.Y.K.K.[.G.}.K.H.@XNXpXuXyX@Xl : , g Y =.:.[ O.T.<.;.:.W ,.>XtXtXtXrXM.W +.] O.Y.M.M.V.n.<.;XeX1XgX1XI.%.O.&.O.m.O./ #.E R.eXdXdXnXwXM.h.j.e. XE.n.L.V.H.>X6XrXrX0XY.oXOXOXoX XoX%X%X}.Y.j.h.x.} !.iXeXiXyX@XU.&X%XOXK.z.P / ] I.iXtX9XaXW   .             X KXKXKXKXKXKXKXKXKXKXKXKXKXKXKXKXKXKXKXKXKXKXKXKXKXKXKXKXKXKXKXKXKXKXKXKXKXKXKXKXKXKXKXKXKXKXKXKXKXKXKXKXKXKXKXKXKXKXKXKXKXKXKXKXKXKXKXKXKXKXKXKXKXKXl                                                                                                                                             .   BXKXKXKXKXKXKXKXKXKXKXKXKXKXKXKXKXKXKXKXKXKXKXKXKXKXKXKXKXKXKXKXKXKXKXKXKXKXKXKXKXKXKXKXKXKXKXKXKXKXKXLXKX|                                                                         .   L.KXKXKXKXKXKXKXKXKXKXKXKXKXKXKXKXKXKXKXKXKXKXKXKXKXKXKXKXKXKXKXKXKXKXKXKXKXKXKXKXKXKXKXKXKXKXKXKXKXKXKXKXKXKXKXKXKXKXKXKXKXKXKXKXKXKXKXKXKXKXKXKXKXKXKXKXKXKXKXKXKXKXKXKXKXKXKXKXKXKXKXKXKXKXKXKXKXKXKXKXKXKXKX",
"wX9XeXtX1Xb.T z H v.G.O.E Y O.@XuXuXdXuXQ.U '  .} F.#.Y / / P.v.Y T E >.>XCXuXeX1XI.U H I j.G.} ! / +.+XMXpXuXuX@Xl - , f M M M h J m.>.k L J ,.6XtX9XtXrXm.l l l ] Y.!.%XqX2X^.;XrX1XgXeXI.k l h / Y.#.G h l I.iXnXtXaX0X<.H U H Y.L.Y Y T <.3XaX7X8XwXM.@.$.+.v.Y.#.} #.j.Y.,.E } E T.eXdXeXuX/.o.+.@.:.T.k.J / / U.2XuX6XpX=.                X KXKXKXKXKXKXKXKXKXKXKXKXKXKXKXKXKXKXKXKXKXKXKXKXKXKXKXKXKXKXKXKXKXKXKXKXKXKXKXKXKXKXKXKXKXKXKXKXKXKXKXKXKXKXKXKXKXKXKXKXKXKXKXKXKXKXKXKXKXKXKXKXLXKXf                                                                                                                                                 BXKXKXKXKXKXKXKXKXKXKXKXKXKXKXKXKXKXKXKXKXKXKXKXKXKXKXKXKXKXKXKXKXKXKXKXKXKXKXKXKXKXKXKXKXKXKXKXKXKXKXLXKX|   .                                                                         K.KXKXKXKXKXKXKXKXKXKXKXKXKXKXKXKXKXKXKXKXKXKXKXKXKXKXKXKXKXKXKXKXKXKXKXKXKXKXKXKXKXKXKXKXKXKXKXKXKXKXKXKXKXKXKXKXKXKXKXKXKXKXKXKXKXKXKXKXKXKXKXKXKXKXKXKXKXKXKXKXKXKXKXKXKXKXKXKXKXKXKXKXKXKXKXKXKXKXKXKXKXKXKX",
"6X1X8XeX1Xb.T &.T c.b.$.O.O.%.*XuXeXuXuXR.E [ R e.G.e.] } } v.n.O.o.o.,.,XCXnXdX1Xb.Y Y Y e.G.} R ] E +XMXuXrXuX;Xj - , f J { ( ! | F.j.R  . .,.>XrX6XtXqXc.H Z H } L.E.&X%X$XH.+XuXwXtXyXM.l l C #.L.0.K G G Q.uXuXwXsXqX,.h k C V.U.Y Y &.$.<XrX9XgXwXI.T E z <.U.R T U +.U.@.E #.W I.8X8X8XtX(.W U z E T.k.J T o.I.iXrX7XfXW   .             X KXKXKXKXKXKXKXKXKXKXKXKXKXKXKXKXKXKXKXKXKXKXKXKXKXKXKXKXKXKXKXKXKXKXKXKXKXKXKXKXKXKXKXKXKXKXKXKXKXKXKXKXKXKXKXKXKXKXKXKXKXKXKXKXKXKXKXKXKXKXKXKXKXKXG   .                                                                                                                                             BXKXKXKXKXKXKXKXKXKXKXKXKXKXKXKXKXKXKXKXKXKXKXKXKXKXKXKXKXKXKXKXKXKXKXKXKXKXKXKXKXKXKXKXKXKXKXKXKXKXKXKXKX[                                                                         .   K.KXLXKXKXKXKXKXKXKXKXKXKXKXKXKXKXKXKXKXKXKXKXKXKXKXKXKXKXKXKXKXKXKXKXKXKXKXKXKXKXKXKXKXKXKXKXKXKXKXKXKXKXKXKXKXKXKXKXKXKXKXKXKXKXKXKXKXKXKXKXKXKXKXKXKXKXKXKXKXKXKXKXKXKXKXKXKXKXKXKXKXKXKXKXKXKXKXKXKXKXKXKXKX",
"6X1X7XwX3XI.$.O.T V.m.$.] ] O.+XnXeXdXnX~.+.[ ' e.K.r.O.] #.G.V.#.@.+.<.@XnXuXnXrXI.E R T c.U.O.] ] +.(.uXuXtXuX<Xj - , f } $XbXvXOXC.K.%XbX4X!.6XaX7XrX0X!.^.&X&XoXY.E.$XUX3X*X@XaXrXrX6X_.OX4X%XOXK.F.OX#XOX@XiXyXyXaXqX<.k H U m.}.O.T &.<.,X9X9X9X7XI.%.%.o.b.H.o.O.R $.T.;.@.,.W I.9X9XeXgX(.o.U W O.T.$.H T E I.2XrX6XfXW   .             X KXKXKXKXKXKXKXKXKXKXKXKXKXKXKXKXKXKXKXKXKXKXKXKXKXKXKXKXKXKXKXKXKXKXKXKXKXKXKXKXKXKXKXKXKXKXKXKXKXKXKXKXKXKXKXKXKXKXKXKXKXKXKXKXKXKXKXKXKXKXKXKXLXKXh                                                                                                                                                 BXKXKXKXKXKXKXKXKXKXKXKXKXKXKXKXKXKXKXKXKXKXKXKXKXKXKXKXKXKXKXKXKXKXKXKXKXKXKXKXKXKXKXKXKXKXKXKXKXKXKXLXKX[   .                                                                     .   F.KXKXKXKXKXKXKXKXKXKXKXKXKXKXKXKXKXKXKXKXKXKXKXKXKXKXKXKXKXKXKXKXKXKXKXKXKXKXKXKXKXKXKXKXKXKXKXKXKXKXKXKXKXKXKXKXKXKXKXKXKXKXKXKXKXKXKXKXKXKXKXKXKXKXKXKXKXKXKXKXKXKXKXKXKXKXKXKXKXKXKXKXKXKXKXKXKXKXKXKXKXKXKX",
"0X7XiXyX2XG.$.Y Y L.G.| P K O.@XnXiXdXdXQ.o.[ ' x.K.e.H I / V.v.' Y E c.0XMXyXnX0XM.H l H j.V.' h U @.+XuXuXfXuX@Xx - e g ' H.E.H.c.m.v.H.oX^.M.@X8X8XrXwXM.!.OXOXU.U.H.Y.~.~.W.<XaX9XrXaX_.Q.%X+XY.F.F.OX&XOX(.wXrXaXuX,Xc.H H T G.V./ Y C j.3X7X9X9X0XM.o.E Y n.Y.' [ Y j.Y.:.E | Y R.7X7XwX1X@XW J J #.Y.j.U T E T.2XeX6XfXo.                X KXKXKXKXKXKXKXKXKXKXKXKXKXKXKXKXKXKXKXKXKXKXKXKXKXKXKXKXKXKXKXKXKXKXKXKXKXKXKXKXKXKXKXKXKXKXKXKXKXKXKXKXKXKXKXKXKXKXKXKXKXKXKXKXKXKXKXKXKXKXKXKXLXKXM   .                                                                                                                                             BXKXKXKXKXKXKXKXKXKXKXKXKXKXKXKXKXKXKXKXKXKXKXKXKXKXKXKXKXKXKXKXKXKXKXKXKXKXKXKXKXKXKXKXKXKXKXKXKXKXKXKXKXh.  X X X X X X X X X X X X X X X X X X o X X X X X X X o X X X X X o X X X   oXKXKXKXKXKXKXKXKXKXKXKXKXKXKXKXKXKXKXKXKXKXKXKXKXKXKXKXKXKXKXKXKXKXKXKXKXKXKXKXKXKXKXKXKXKXKXKXKXKXKXKXKXKXKXKXKXKXKXKXKXKXKXKXKXKXKXKXKXKXKXKXKXKXKXKXKXKXKXKXKXKXKXKXKXKXKXKXKXKXKXKXKXKXKXKXKXKXKXKXKXKXKXKX",
"qXiXyXnX2Xv.#.0.e.].L./ M C E +XiXeXdXnXQ.Y Y I h.}.#.C f ! F.F.Y I T >.>XnXeXeX7XM.P I P z.F.0.I / $.@XnXnXfXuX;Xk : , f ] n.<.;.;.M.<.+.j.E ;.=X9X9XtXwXM.;.:.#.@.m.k.O.>.%.@.=X8X8X9X6XI.W [ E E G.#.! [ %.T.1XdXtXfXiXc.C M I L.}.I f f r.@XiX7XtXyXn.J g h x.E.I Z f } K.h.I I Y U.wXuX1XnX@XU f f ! }.e.M j k I.2XeX7XfXW   .             X KXKXKXKXKXKXKXKXKXKXKXKXKXKXKXKXKXKXKXKXKXKXKXKXKXKXKXKXKXKXKXKXKXKXKXKXKXKXKXKXKXKXKXKXKXKXKXKXKXKXKXKXKXKXKXKXKXKXKXKXKXKXKXKXKXKXKXKXKXKXKXKXKXKXf                                                                                                                                                 BXKXKXKXKXKXKXKXKXKXKXKXKXKXKXKXKXKXKXKXKXKXKXKXKXKXKXKXKXKXKXKXKXKXKXKXKXKXKXKXKXKXKXKXKXKXKXKXKXKXKXKXKXKXLXKXKXKXKXKXKXLXKXKXKXKXKXKXKXKXKXKXKXKXKXLXKXKXKXKXKXKXKXKXKXKXKXKXKXKXKXKXKXKXKXKXKXKXKXKXKXKXKXKXKXKXKXKXKXKXKXKXKXKXKXKXKXKXKXKXKXKXKXKXKXKXKXKXKXKXKXKXKXKXKXKXKXKXKXKXKXKXKXKXKXKXKXKXKXKXKXKXKXKXKXKXKXKXKXKXKXKXKXKXKXKXKXKXKXKXKXKXKXKXKXKXKXKXKXKXKXKXKXKXKXKXKXKXKXKXKXKXKXKXKXKX",
"0X0XwXmX2XY.2XbX2X}.L.e.h.$.>.;XdXeXdXuX).<.k.x.z.Y.z.$.h.p.F.F.x.h.$.v.>XmXuXdX7XQ.&XbX%X XK.oX%X@XOX@XnXCXdXpX@Xk - e t =.G.k.,.W M.k.:.G.[ @.:XtX9X8XwXM.[ c.j.O.T.<.@.b.&.2.;XrXtXrXaXM.J h.T T H.e.Y e.%.T.dXdXeXuX1X<.M f C [.[.I C f r.2XqX0XtXqXL.z.z.V.L.E.p.x.u.P.E.F.K. XL.!.2XuXuXnX@X:.} } e.}.x.G C I I.iXrX9XgXW                 X KXKXKXKXKXKXKXKXKXKXKXKXKXKXKXKXKXKXKXKXKXKXKXKXKXKXKXKXKXKXKXKXKXKXKXKXKXKXKXKXKXKXKXKXKXKXKXKXKXKXKXKXKXKXKXKXKXKXKXKXKXKXKXKXKXKXKXKXKXKXKXKXLXKXG                                                                                                                                             .   BXKXKXKXKXKXKXKXKXKXKXKXKXKXKXKXKXKXKXKXKXKXKXKXKXKXKXKXKXKXKXKXKXKXKXKXKXKXKXKXKXKXKXKXKXKXKXKXKXKXKXKXKXKXKXKXKXKXKXKXKXKXKXKXKXKXKXKXKXKXKXKXKXKXKXKXKXKXKXKXKXKXKXKXKXKXKXKXKXKXKXKXKXKXKXKXKXKXKXKXKXKXKXKXKXKXKXKXKXKXKXKXKXKXKXKXKXKXKXKXKXKXKXKXKXKXKXKXKXKXKXKXKXKXKXKXKXKXKXKXKXKXKXKXKXKXKXKXKXKXKXKXKXKXKXKXKXKXKXKXKXKXKXKXKXKXKXKXKXKXKXKXKXKXKXKXKXKXKXKXKXKXKXKXKXKXKXKXKXKXKXKXKXKXKXKX",
"0XrXuXaX2XU.H.!.U.n.H.G.!.!.b.2XnXeXuXuX_.M.!.!.K.Y.m.Y.E.L.H.L.G.Y.m.U.2XnXnXnX8XT.Y.&XOXK.L.}.%X@X~.+XMXpXpXpX;Xl : , g ' h.,.[ W L.z.h.k.E ;.:XdXtX8XrXU.o.j.$.$.Y.<.%.b.&.%.<XgXtXtXpXI.' x.O.O.m.:.} j.+.Q.tXtXeXdX3Xb.' ' / }.[./ I C r.<XwX0XeX0X~.%XBXbXOXK.OXbXbX&X!.E.qXVX%X^.,XwXiXtX/.+XNXBX%XH.E.&X%X+XY.2XiX1XfXW                 X KXKXKXKXKXKXKXKXKXKXKXKXKXKXKXKXKXKXKXKXKXKXKXKXKXKXKXKXKXKXKXKXKXKXKXKXKXKXKXKXKXKXKXKXKXKXKXKXKXKXKXKXKXKXKXKXKXKXKXKXKXKXKXKXKXKXKXKXKXKXKXKXLXKXf                                                                                                                                                 BXKXKXKXKXKXKXKXKXKXKXKXKXKXKXKXKXKXKXKXKXKXKXKXKXKXKXKXKXKXKXKXKXKXKXKXKXKXKXKXKXKXKXKXKXKXKXKXKXKXKXKXKXKXKXKXKXKXKXKXKXKXKXKXKXKXKXKXKXKXKXKXKXKXKXKXKXKXKXKXKXKXKXKXKXKXKXKXKXKXKXKXKXKXKXKXKXKXKXKXKXKXKXKXKXKXKXKXKXKXKXKXKXKXKXKXKXKXKXKXKXKXKXKXKXKXKXKXKXKXKXKXKXKXKXKXKXKXKXKXKXKXKXKXKXKXKXKXKXKXKXKXKXKXKXKXKXKXKXKXKXKXKXKXKXKXKXKXKXKXKXKXKXKXKXKXKXKXKXKXKXKXKXKXKXKXKXKXKXKXKXKXKXKXKXKX",
"wX8XrXwX,XM.W W R c.H.[ W W O.+XnXwXeXuX^.R [ ' h.G.;.E E E k.M.O.O.o.j.3XCXuXuXeXI.] E T j.Y.} / / >./.MXuXuXrX<Xh - X.f I J f ..R L.e.M G l ;.<XtX9XtXiXM.k C H ] T.@.j : < &.:XfXdXdXuXG.r.z.j.>.E.h.h.j.$.Q.yXtXeXuX0XM.E O./ G.Y.H H H >.3XwX1XeX2XU.<.n.<.F.H.P.n.n.n.H.c.n.F.>.Q.6XrX9X7X/.k.m.H.P.U.F.L.oXY.T.3XiX1XtXW                 o KXKXKXKXKXKXKXKXKXKXKXKXKXKXKXKXKXKXKXKXKXKXKXKXKXKXKXKXKXKXKXKXKXKXKXKXKXKXKXKXKXKXKXKXKXKXKXKXKXKXKXKXKXKXKXKXKXKXKXKXKXKXKXKXKXKXKXKXKXKXKXKXLXKXf   .                                                                                                                                             BXKXKXKXKXKXKXKXKXKXKXKXKXKXKXKXKXKXKXKXKXKXKXKXKXKXKXKXKXKXKXKXKXKXKXKXKXKXKXKXKXKXKXKXKXKXKXKXKXKXKXKXKXKXKXKXKXKXKXKXKXKXKXKXKXKXKXKXKXKXKXKXKXKXKXKXKXKXKXKXKXKXKXKXKXKXKXKXKXKXKXKXKXKXKXKXKXKXKXKXKXKXKXKXKXKXKXKXKXKXKXKXKXKXKXKXKXKXKXKXKXKXKXKXKXKXKXKXKXKXKXKXKXKXKXKXKXKXKXKXKXKXKXKXKXKXKXKXKXKXKXKXKXKXKXKXKXKXKXKXKXKXKXKXKXKXKXKXKXKXKXKXKXKXKXKXKXKXKXKXKXKXKXKXKXKXKXKXKXKXKXKXKXKXKXKX",
"0XtX8XiX6XI.o.,.E j.Y./ [ ] +.@XnX2XrXtXR. .[ ' #.G.>.U U R c.M.o.O.o.r.2XnXmXuX1XI.] O./ c.Y.O.] ] o.+XpXtXtXeX;Xl : : f I G M ..J G.h.M C ..W >XrX6XrXrXc.J G G ' ~.%.: ; : &.=XdXtXtXMXU.] e.$.,.L.k.=.' E Q.rXrXaXMX0X<.U W T m.U.I z T $.<X7X1X8X1XI.o.W U <.H.E W J :.m.;.W [ W M.7X9X9X7X@XW W W E H.k.[ / E T.1XwX1XuXW   .             X KXKXKXKXKXKXKXKXKXKXKXKXKXKXKXKXKXKXKXKXKXKXKXKXKXKXKXKXKXKXKXKXKXKXKXKXKXKXKXKXKXKXKXKXKXKXKXKXKXKXKXKXKXKXKXKXKXKXKXKXKXKXKXKXKXKXKXKXKXKXKXKXLXKXC                                                                                                                                                 BXKXKXKXKXKXKXKXKXKXKXKXKXKXKXKXKXKXKXKXKXKXKXKXKXKXKXKXKXKXKXKXKXKXKXKXKXKXKXKXKXKXKXKXKXKXKXKXKXKXKXKXKXKXKXKXKXKXKXKXKXKXKXKXKXKXKXKXKXKXKXKXKXKXKXKXKXKXKXKXKXKXKXKXKXKXKXKXKXKXKXKXKXKXKXKXKXKXKXKXKXKXKXKXKXKXKXKXKXKXKXKXKXKXKXKXKXKXKXKXKXKXKXKXKXKXKXKXKXKXKXKXKXKXKXKXKXKXKXKXKXKXKXKXKXKXKXKXKXKXKXKXKXKXKXKXKXKXKXKXKXKXKXKXKXKXKXKXKXKXKXKXKXKXKXKXKXKXKXKXKXKXKXKXKXKXKXKXKXKXKXKXKXKXKXKX",
"6XeXrXtX,Xm.[ +.O.V.Y.O.[ +.$.@XnXCXpXuXW.=.:.[ h.K.<.=.;.>.n.M.$.j.$.b.<XMXnXCXwXI.O.$.#.v.L.j.$.$.$./.pXaXtXpX3Xh - e h | Y.+X&XH.L.C.&X%X&XU.<XwXrXrXqXE.!.&X&XK.~.%.: ; : &.*XdX9XrXyXQ.[ } [ :.F.F.oXOX&X@XyXrXtXyX0Xc.W E E b.I.T T T $.<XeX8XgX1XI.;.+.o.c.U.[ #.[ <.T.k.+.=.:.I.:XtXeXeX(.;.=.[ ,.U.n.[ O.$.T.iXuX1XfXW                 X KXLXLXLXLXKXLXKXLXKXLXLXKXLXKXKXLXKXLXKXLXKXLXKXLXKXLXLXKXLXKXKXLXKXLXLXKXLXKXKXLXKXLXKXLXKXLXKXLXKXLXLXKXLXKXKXLXKXLXLXKXLXKXKXLXKXLXLXKXKXLXKXPXKXf   .                                                                                                                                             BXKXKXKXKXKXKXKXKXKXKXKXKXKXKXKXKXKXKXKXKXKXKXKXKXKXKXKXKXKXKXKXKXKXKXKXKXKXKXKXKXKXKXKXKXKXKXKXKXKXKXKXKXKXKXKXKXKXKXKXKXKXKXKXKXKXKXKXKXKXKXKXKXKXKXKXKXKXKXKXKXKXKXKXKXKXKXKXKXKXKXKXKXKXKXKXKXKXKXKXKXKXKXKXKXKXKXKXKXKXKXKXKXKXKXKXKXKXKXKXKXKXKXKXKXKXKXKXKXKXKXKXKXKXKXKXKXKXKXKXKXKXKXKXKXKXKXKXKXKXKXKXKXKXKXKXKXKXKXKXKXKXKXKXKXKXKXKXKXKXKXKXKXKXKXKXKXKXKXKXKXKXKXKXKXKXKXKXKXKXKXKXKXKXKXKX",
"2XiX3XnX2Xm./ Y / V.}.e./ / r.>XAXnXCXnX/.OXqXqXOXH.H.@X@X/.!.M.+X2X+X~.>XnXMXCX,XU.@.] } n.Y.j.R +.>.@XaXrXuXpX<Xj - : g ' n.G.n.,.H.n.G.L.H.c.(.aXrXrX6XH.H.E.OXK.T.%.: : : &.*XeX1X1XrXQ.:.j.h.<.G.F.OX%X+X@XtXtXiXuX0XI.$.r.r.G.Y./ I I r.>XnXuXfXwXI.+.] E v.Y.} ' Y :.Y.k.[ [ [ I.,XuXdXwX+X$.O.[ #.Y.M.O.o.o.I.2XtX6XfXE                 X KXKXKXKXKXKXKXKXKXKXKXKXKXKXKXKXKXKXKXKXKXKXKXKXKXKXKXKXKXKXKXKXKXKXKXKXKXKXKXKXKXKXKXKXKXKXKXKXKXKXKXKXKXKXKXKXKXKXKXKXKXKXKXKXKXKXKXKXKXKXKXKXLXKXl   .                                                                                                                                             BXKXKXKXKXKXKXKXKXKXKXKXKXKXKXKXKXKXKXKXKXKXKXKXKXKXKXKXKXKXKXKXKXKXKXKXKXKXKXKXKXKXKXKXKXKXKXKXKXKXKXKXKXKXKXKXKXKXKXKXKXKXKXKXKXKXKXKXKXKXKXKXKXKXKXKXKXKXKXKXKXKXKXKXKXKXKXKXKXKXKXKXKXKXKXKXKXKXKXKXKXKXKXKXKXKXKXKXKXKXKXKXKXKXKXKXKXKXKXKXKXKXKXKXKXKXKXKXKXKXKXKXKXKXKXKXKXKXKXKXKXKXKXKXKXKXKXKXKXKXKXKXKXKXKXKXKXKXKXKXKXKXKXKXKXKXKXKXKXKXKXKXKXKXKXKXKXKXKXKXKXKXKXKXKXKXKXKXKXKXKXKXKXKXKXKX",
"iX1X2XmX2XG./ C / V.}.e.I C O.+XnX2XeXdX~.~.%X4X&XE.U.&X4XOX!.E.oX2X%X~.>XMXyXaXwXT.] G J k.K.} G H :./.mXwXrXpX<Xl , e g R :.,.;.W m.k.Y [ ' ;.=X8XhX8X6XI.W =.O.$.T.j.z &.z @.;XgX1X1XrXR.R [ R ] G.:. .} +.W.tXuXdXdX,XT.&X%X&XoX].I C C $.>XmXiXiXmXm.H f f h.K.! f d #.[.e.G h H v.1XtX1XwX@X] h f ' Y.h.G f G m.2XpX9XfXW   .             . H G H G G G l G G G G G G G H G l G G G G G G G G G G G G G G G G G G G G G H G l G G G G G G G G G G G G G G G G G G G G G H G l G G G G G G G Z P %                                                                                                                                             .   BXKXKXKXKXKXKXKXKXKXKXKXKXKXKXKXKXKXKXKXKXKXKXKXKXKXKXKXKXKXKXKXKXKXKXKXKXKXKXKXKXKXKXKXKXKXKXKXKXKXKXKXKXKXKXKXKXKXKXKXKXKXKXKXKXKXKXKXKXKXKXKXKXKXKXKXKXKXKXKXKXKXKXKXKXKXKXKXKXKXKXKXKXKXKXKXKXKXKXKXKXKXKXKXKXKXKXKXKXKXKXKXKXKXKXKXKXKXKXKXKXKXKXKXKXKXKXKXKXKXKXKXKXKXKXKXKXKXKXKXKXKXKXKXKXKXKXKXKXKXKXKXKXKXKXKXKXKXKXKXKXKXKXKXKXKXKXKXKXKXKXKXKXKXKXKXKXKXKXKXKXKXKXKXKXKXKXKXKXKXKXKXKXKXKXKX",
"mXnXnXCXCX+Xv.m.G.L.}.Y.}.~.m.+XdXCXnXAX>X@XNXNX2XOXOXyXNXmX+X!.%XAXNX>X@XMXCXpXuX/.>XNXmXOX!.OXmXmX<X@XfXZXCXfXrXo.r : f +.P.M.<.+.b.,.T $.U o.>XfXfXfXaXM.W ;.E T m.$.H %.U +.<XdXeXgXrXb.l / k H M.] l W +.@XMXZXpXCX,XU.%XUX%XT.m.O.O.T b.2XuXwXuX0XM.j.b.b.L.G.v.G.v.m.U.$.#.c.>.).tXiXeXwXR.;.$.,.v.m.k.j.j.,.+XMXpXrXuX2X=                                                                                                                                                                                                                                                                                                                       BXKXKXKXKXKXKXKXKXKXKXKXKXKXKXKXKXKXKXKXKXKXKXKXKXKXKXKXKXKXKXKXKXKXKXKXKXKXKXKXKXKXKXKXKXKXKXKXKXKXKXKXKXKXKXKXKXKXKXKXKXKXKXKXKXKXKXKXKXKXKXKXKXKXKXKXKXKXKXKXKXKXKXKXKXKXKXKXKXKXKXKXKXKXKXKXKXKXKXKXKXKXKXKXKXKXKXKXKXKXKXKXKXKXKXKXKXKXKXKXKXKXKXKXKXKXKXKXKXKXKXKXKXKXKXKXKXKXKXKXKXKXKXKXKXKXKXKXKXKXKXKXKXKXKXKXKXKXKXKXKXKXKXKXKXKXKXKXKXKXKXKXKXKXKXKXKXKXKXKXKXKXKXKXKXKXKXKXKXKXKXKXKXKXKXKX",
"mXMXpXuXuX+Xb.j.j.j.+XU.j.I.M.).uXCXnXAXiXM.T.T.b.~.^.M.^.!.m.!.Y.~.OX~.@XMXMXMXuX).!.+X+XT.^.^.+X@XQ.;XZXZXZXZXrX;., e t #.k.n.>.+.M.c.E :.E o.(.tXgXdXrX1.U =.Y T T.$.H O.k T +XuX1X1XtX<.f :.J k M.W k W +./.AXuXyXpX>X~.UXmX2X}.G.%.&.&.2.3XdXdXuX,X~.iXAX2XU.H.2XmXqX+Xm.~.mXsX+X+XiXtXtXeXQ._.mX2X}.I.Y.2XqX^.+XuXuXeXtX0X,                     .   .     . .   .       .   .     . .   .     . .   .     . .   .       .   .     . .   .     . .   .     . .   .       .   .     .   .   .                                                                                                                                                       BXKXKXKXKXKXKXKXKXKXKXKXKXKXKXKXKXKXKXKXKXKXKXKXKXKXKXKXKXKXKXKXKXKXKXKXKXKXKXKXKXKXKXKXKXKXKXKXKXKXKXKXKXKXKXKXKXKXKXKXKXKXKXKXKXKXKXKXKXKXKXKXKXKXKXKXKXKXKXKXKXKXKXKXKXKXKXKXKXKXKXKXKXKXKXKXKXKXKXKXKXKXKXKXKXKXKXKXKXKXKXKXKXKXKXKXKXKXKXKXKXKXKXKXKXKXKXKXKXKXKXKXKXKXKXKXKXKXKXKXKXKXKXKXKXKXKXKXKXKXKXKXKXKXKXKXKXKXKXKXKXKXKXKXKXKXKXKXKXKXKXKXKXKXKXKXKXKXKXKXKXKXKXKXKXKXKXKXKXKXKXKXKXKXKXKX",
"bXMXtXtXpX(.;.W W ;.~.c.T @.;.W.pXCXMXZX0X@.O.W Y OXm.l k x n.!.+.Y $.$.+XMXpXfXnXR.&.O.H @.T.$.E O.@.).nXCXdXCX,X+., X.t ] e.e.>.;.v.b.r.j.$.j.;XdXeXeXwXI.[ h.[ O.T.b.O.r.R @.;XtX1XeXeXM.Y e.+.Y m.[ E o.+./.MXyXuXMX:Xc.k.n.k.U.b.z r j @.1XdXdXdX2X<.I.U.M.m.G.M.!.U.m.T.M.OX+XU.).yXeXrXeX).U.@XOXT.m.T.@X&XT./.yXrX7XuXiX=                     .     .                       .                       .                                                                                                                                                                                                                                           BXKXKXKXKXKXKXKXKXKXKXKXKXKXKXKXKXKXKXKXKXKXKXKXKXKXKXKXKXKXKXKXKXKXKXKXKXKXKXKXKXKXKXKXKXKXKXKXKXKXKXKXKXKXKXKXKXKXKXKXKXKXKXKXKXKXKXKXKXKXKXKXKXKXKXKXKXKXKXKXKXKXKXKXKXKXKXKXKXKXKXKXKXKXKXKXKXKXKXKXKXKXKXKXKXKXKXKXKXKXKXKXKXKXKXKXKXKXKXKXKXKXKXKXKXKXKXKXKXKXKXKXKXKXKXKXKXKXKXKXKXKXKXKXKXKXKXKXKXKXKXKXKXKXKXKXKXKXKXKXKXKXKXKXKXKXKXKXKXKXKXKXKXKXKXKXKXKXKXKXKXKXKXKXKXKXKXKXKXKXKXKXKXKXKXKX",
"mXAXpXaXtX@X+.o.+.,.OXb.@.M.<._.tXCXMXZX0X>.>.@.o.Y.m.U R U c.Y.r.$.j.$.+XdXpXCXnXT.O.$.%.@.T.b.E O.;.~.CXdXdXdXwX+.r : h / } j.k.:.c.G.j.e.$.b.*XiX1XeX0XU.#.:.e.r.Y.b.O.] [ :.(.tX8XeXuXI.' ] [ +.H.+.+.o.;./.MXyXpXZX,Xo.h k Y b.b.T T &.<.3XdX1XuX1X@.T W k k.M.x W l >.Q.W U [ @.~.uXiXwXwXR.@.;.+.j.m.>.@.#.k.OXnXuXeXuX0X:         .   &XGXBXBXIXIXBXBXBXBXIXIXIXBXBXIXIXIXIXBXBXBXIXIXIXBXBXIXIXIXIXBXBXBXIXBXLXH                                                                                                                                                                                                                               BXKXKXKXKXKXKXKXKXKXKXKXKXKXKXKXKXKXKXKXKXKXKXKXKXKXKXKXKXKXKXKXKXKXKXKXKXKXKXKXKXKXKXKXKXKXKXKXKXKXKXKXKXKXKXKXKXKXKXKXKXKXKXKXKXKXKXKXKXKXKXKXKXKXKXKXKXKXKXKXKXKXKXKXKXKXKXKXKXKXKXKXKXKXKXKXKXKXKXKXKXKXKXKXKXKXKXKXKXKXKXKXKXKXKXKXKXKXKXKXKXKXKXKXKXKXKXKXKXKXKXKXKXKXKXKXKXKXKXKXKXKXKXKXKXKXKXKXKXKXKXKXKXKXKXKXKXKXKXKXKXKXKXKXKXKXKXKXKXKXKXKXKXKXKXKXKXKXKXKXKXKXKXKXKXKXKXKXKXKXKXKXKXKXKXKX",
"nXSXfXfXAX@Xj.j.k.v.OXY.j.b.M.^.fXZXZXAXqXM.j.:.:.OXU.+.:.+.M.T.x.r.j.<.+XpXuXaXiX).@.r.%.r.OXb.O.@.>./.ZXZXZXZXwX+., e M ] [ r.,.>.c.m.r.e.} r.*XeXdXeXwXI.#.[ O.r.Y.b.,.h.<.<.@XuX8XdXeXI.Y [ E [ U.@.R E o./.yXyXuXMX,X;.U T Y b.b.E &.T <.,XdXuXnX,X;.E +.U k.n.J J h <.T.E [ #.@.~.uXtXtXrXR.;.c.>.c.m.r.#.,.k./.uXuXuXyXiX=             bXKXKXKXKXKXKXKXKXKXKXKXKXKXKXKXKXKXKXKXKXKXKXKXKXKXKXKXKXKXKXKXKXKXKXLXKX'                                                                                                                                                                                                                           .   BXKXKXKXKXKXKXKXKXKXKXKXKXKXKXKXKXKXKXKXKXKXKXKXKXKXKXKXKXKXKXKXKXKXKXKXKXKXKXKXKXKXKXKXKXKXKXKXKXKXKXKXKXKXKXKXKXKXKXKXKXKXKXKXKXKXKXKXKXKXKXKXKXKXKXKXKXKXKXKXKXKXKXKXKXKXKXKXKXKXKXKXKXKXKXKXKXKXKXKXKXKXKXKXKXKXKXKXKXKXKXKXKXKXKXKXKXKXKXKXKXKXKXKXKXKXKXKXKXKXKXKXKXKXKXKXKXKXKXKXKXKXKXKXKXKXKXKXKXKXKXKXKXKXKXKXKXKXKXKXKXKXKXKXKXKXKXKXKXKXKXKXKXKXKXKXKXKXKXKXKXKXKXKXKXKXKXKXKXKXKXKXKXKXKXKX",
"qXZXZXAXAX<Xc.V.F.G.@XV.c.m.m./.wXZXpXAX2Xb.<.c.<.~.U.c.c.b.U.Y.v.v.j.c.@XfXuXuXdX).$.j.b.V.~.m.:.k.>.+XZXZXCXCX0X+., : f ] #.k.c.k.m.m.r.k.j.b.;XeXeXeX0XQ.U.@X+X}.Y.~.qXmXmX^.(.wX8XgXeXI.#.} :.:.H.,.>.M.M.+XaXqXyXrX<X$.E O.O.m.U.#.O.O.<.1XCXfXCXiX<.o.+.E n.n.[ R U k.~.+.[ #.;.).nXuXdXuXQ.;.,.+.c.I.k.#.h.<.~.yXtXrXnXiX,         .   VXKXLXKXKXKXKXKXKXLXKXKXKXKXKXKXKXKXKXKXKXLXKXKXKXKXKXKXKXKXKXKXKXKXKXLXKX|   .                                                                                                                                                                                                                           BXKXKXKXKXKXKXKXKXKXKXKXKXKXKXKXKXKXKXKXKXKXKXKXKXKXKXKXKXKXKXKXKXKXKXKXKXKXKXKXKXKXKXKXKXKXKXKXKXKXKXKXKXKXKXKXKXKXKXKXKXKXKXKXKXKXKXKXKXKXKXKXKXKXKXKXKXKXKXKXKXKXKXKXKXKXKXKXKXKXKXKXKXKXKXKXKXKXKXKXKXKXKXKXKXKXKXKXKXKXKXKXKXKXKXKXKXKXKXKXKXKXKXKXKXKXKXKXKXKXKXKXKXKXKXKXKXKXKXKXKXKXKXKXKXKXKXKXKXKXKXKXKXKXKXKXKXKXKXKXKXKXKXKXKXKXKXKXKXKXKXKXKXKXKXKXKXKXKXKXKXKXKXKXKXKXKXKXKXKXKXKXKXKXKXKX",
"mXZXZXAXAX3Xr.j.r.V.+Xv.j.r.r.Y.rXMXpXMX2Xb.<.,.:.OXU.:.,.>.m.Y.v.r.$.b.(.fXfXCXiXQ.@.r.k.b.~.m.:.>.>.~.AXZXCXfX7X;., e f / O.$.;.W c.n.@.#.[ ;.+XdXgXtXwXT.m.^.Y.U.T.m.U.oX~.M.(.rX7XeXrXI.+.:.:.[ H.c.U./.~.<XMXqXuXpX:Xc.O.$.e.G.Y.j.R R c.0XCXuXnX2Xb.o.E ] n.G.$.] E v.~.$.] #.$.).uXuXdXuXW.o.E R >.m.>.[ [ :.~.yXrXtXpX0X:             mXKXKXKXKXKXKXKXKXKXKXKXKXKXKXKXKXKXKXKXKXKXKXKXKXKXKXKXKXKXKXKXKXKXKXKXKX'   .                                                                                                                                                                                                                           BXKXKXKXKXKXKXKXKXKXKXKXKXKXKXKXKXKXKXKXKXKXKXKXKXKXKXKXKXKXKXKXKXKXKXKXKXKXKXKXKXKXKXKXKXKXKXKXKXKXKXKXKXKXKXKXKXKXKXKXKXKXKXKXKXKXKXKXKXKXKXKXKXKXKXKXKXKXKXKXKXKXKXKXKXKXKXKXKXKXKXKXKXKXKXKXKXKXKXKXKXKXKXKXKXKXKXKXKXKXKXKXKXKXKXKXKXKXKXKXKXKXKXKXKXKXKXKXKXKXKXKXKXKXKXKXKXKXKXKXKXKXKXKXKXKXKXKXKXKXKXKXKXKXKXKXKXKXKXKXKXKXKXKXKXKXKXKXKXKXKXKXKXKXKXKXKXKXKXKXKXKXKXKXKXKXKXKXKXKXKXKXKXKXKXKX",
"qXZXCXCXAX@XT.@X%XOX~.oX@X2XOX/.tXpXyXMX0XM.b.b.j./.!.U.+X~.~.Y.v.r.b.b.+XfXuXfXdX+X).2X@XoXoXoX%X2X/.+XMXAXCXCXwXo., , t O.>.>.o.W M.<.T U H o.(.1X8X9X7XI.U W T Y I.>.H J k W (.fX8XeXfXM.h l t U H.E l z o.~.pXyXpXAX7Xc./ ] $.L.Y.v.k.:.M.@XiXuXuX2Xj.E U E n.G.L.+XY.G.T.$.E +.+.Q.uXuXdXuX).%.;.:.v.M.>.o.+.>./.MXfXuXuXwX2   .     .   bXKXKXKXKXKXKXKXKXKXKXKXKXKXKXKXKXKXKXKXKXKXKXKXKXKXKXKXKXKXKXKXKXKXKXLXKX'                                                                                                                                                                                                                               BXKXKXKXKXKXKXKXKXKXKXKXKXKXKXKXKXKXKXKXKXKXKXKXKXKXKXKXKXKXKXKXKXKXKXKXKXKXKXKXKXKXKXKXKXKXKXKXKXKXKXKXKXKXKXKXKXKXKXKXKXKXKXKXKXKXKXKXKXKXKXKXKXKXKXKXKXKXKXKXKXKXKXKXKXKXKXKXKXKXKXKXKXKXKXKXKXKXKXKXKXKXKXKXKXKXKXKXKXKXKXKXKXKXKXKXKXKXKXKXKXKXKXKXKXKXKXKXKXKXKXKXKXKXKXKXKXKXKXKXKXKXKXKXKXKXKXKXKXKXKXKXKXKXKXKXKXKXKXKXKXKXKXKXKXKXKXKXKXKXKXKXKXKXKXKXKXKXKXKXKXKXKXKXKXKXKXKXKXKXKXKXKXKXKXKX",
"sXZXfXfXpX(.<.M.V.v.+XM.M.I.I.).aXMXMXAX2Xc.;.,.$.~.!.H.oXT.U.~.v.b.r.b.+XuXuXuXtX/.I.&X+X!.~.!.@X@XOX/.nXZXCXCX6X;.< : t } :.+.W W c.<.U U U o.*X8X9X9XwXI.x U T E U.$.l J k E @XtXeXdXfXI.j f g f U.W j z o.).CXnXnXnX,Xk.] #.e.F.OX%XmXqX/.<XtXrXtXiXb.T T E n.Y.%XNXmXOXT.$.} j.$.Q.uXdXdXdX_.T.>X%X!.m.H.@X@X^.@XyXuXuXfXqX,             VXKXKXKXKXKXKXKXKXKXKXKXKXKXKXKXKXKXKXKXKXKXKXKXKXKXKXKXKXKXKXKXKXKXKXLXKX'                                                                                                                                                                                                                               BXKXKXKXKXKXKXKXKXKXKXKXKXKXKXKXKXKXKXKXKXKXKXKXKXKXKXKXKXKXKXKXKXKXKXKXKXKXKXKXKXKXKXKXKXKXKXKXKXKXKXKXKXKXKXKXKXKXKXKXKXKXKXKXKXKXKXKXKXKXKXKXKXKXKXKXKXKXKXKXKXKXKXKXKXKXKXKXKXKXKXKXKXKXKXKXKXKXKXKXKXKXKXKXKXKXKXKXKXKXKXKXKXKXKXKXKXKXKXKXKXKXKXKXKXKXKXKXKXKXKXKXKXKXKXKXKXKXKXKXKXKXKXKXKXKXKXKXKXKXKXKXKXKXKXKXKXKXKXKXKXKXKXKXKXKXKXKXKXKXKXKXKXKXKXKXKXKXKXKXKXKXKXKXKXKXKXKXKXKXKXKXKXKXKXKX",
"bXSXdXrXpX@Xo.E T $.OX<.+.@.;.Q.pXZXCXAX0X;.;.o.T /.M.T o.W <.T.$.O.@.@.+XfXdXnXnXR.o.[ U +.OXb.U O.@.).nXCXCXCX6X;.r : C O.k.E E @.c.b.E H k ;.(.8XgX8X7XI.W t h O.I.b.l r h [ @XpXtXtXdXb.l t g h m.;.l k o.(.AXuXuXuX,X<.' O.[ G.U.G.H.I.M.<XuXyXnX2Xb.T T E v.G.Y.OX}.~.T.>.h.k.j.~.dXeXuXeX_.I.+XOXH.G.m.OX+XH.^.rXrXuXnX2X=         .   mXKXKXKXKXKXKXKXKXKXKXKXKXKXKXKXKXKXKXKXKXKXKXKXKXKXKXKXKXKXKXKXKXKXKXLXKX'   .                                                                                                                                                                                                           .               BXKXKXKXKXKXKXKXKXKXKXKXKXKXKXKXKXKXKXKXKXKXKXKXKXKXKXKXKXKXKXKXKXKXKXKXKXKXKXKXKXKXKXKXKXKXKXKXKXKXKXKXKXKXKXKXKXKXKXKXKXKXKXKXKXKXKXKXKXKXKXKXKXKXKXKXKXKXKXKXKXKXKXKXKXKXKXKXKXKXKXKXKXKXKXKXKXKXKXKXKXKXKXKXKXKXKXKXKXKXKXKXKXKXKXKXKXKXKXKXKXKXKXKXKXKXKXKXKXKXKXKXKXKXKXKXKXKXKXKXKXKXKXKXKXKXKXKXKXKXKXKXKXKXKXKXKXKXKXKXKXKXKXKXKXKXKXKXKXKXKXKXKXKXKXKXKXKXKXKXKXKXKXKXKXKXKXKXKXKXKXKXKXKXKXKX",
"mXSXCXfXuX@Xo.o.o.$.OXb.%.@.>./.pXZXMXZXsX;.W U R T.m.W U x M.!.$.Y E %.(.CXpXfXfX).%.E k ,.Q.c.U %.@.~.CXZXCXfX0X<., : h O.j.O.W ;.,.M.O.U R ;._.9X9X8X7XI.E l h @.m.b.Y t H :.@XuXtXfXdXI.k t t l m.:.z h o.;XAXCXuXMX6X;.U k l m.m.W W E ;.@XuXeXuX2X<.W U U c.m.J J k @.~.o.R ,.,.Q.tXrX8XtXW.;.;.=.,.M.,.:.+.>.~.iXdXeXCX2X:   .     .   VXKXKXKXKXKXKXKXKXKXKXKXKXKXKXKXKXKXKXKXKXKXKXKXKXKXKXKXKXKXKXKXKXKXKXLXKX|   .                                                                                                                                                                                                                           BXKXKXKXKXKXKXKXKXKXKXKXKXKXKXKXKXKXKXKXKXKXKXKXKXKXKXKXKXKXKXKXKXKXKXKXKXKXKXKXKXKXKXKXKXKXKXKXKXKXKXKXKXKXKXKXKXKXKXKXKXKXKXKXKXKXKXKXKXKXKXKXKXKXKXKXKXKXKXKXKXKXKXKXKXKXKXKXKXKXKXKXKXKXKXKXKXKXKXKXKXKXKXKXKXKXKXKXKXKXKXKXKXKXKXKXKXKXKXKXKXKXKXKXKXKXKXKXKXKXKXKXKXKXKXKXKXKXKXKXKXKXKXKXKXKXKXKXKXKXKXKXKXKXKXKXKXKXKXKXKXKXKXKXKXKXKXKXKXKXKXKXKXKXKXKXKXKXKXKXKXKXKXKXKXKXKXKXKXKXKXKXKXKXKXKX",
"bXAXAXCXuX;X;.U T >.+XM.] o.b.+XpXMXMXZXrX;.l j o.~.H.z r j M.H.$.j j $.;XZXZXZXCX+X@.W z ,.~.M.T o.@./.CXZXCXCXwX1.r , M / :.k.,.W <.M.o.#.[ o._.8X9X8X7XI.W +.+.T m.c.E +.R E (.uXdXtXtXM.k l t l n.;.U W ;.(.AXuXuXpX,X;.z U k c.M.[ E o.<.;XuXuXuX,Xb.o.z k k.n.J x l +.Q.W W :.;.Q.rX8X8XrXW.o.;.;.,.I.>.,.,.k.+XiXuXdXnX2X>             bXKXKXKXKXKXKXKXKXKXKXKXKXKXKXKXKXKXKXKXKXKXKXKXKXKXKXKXKXKXKXKXKXKXKXLXKX'                                                                                                                                                                                                                           .   BXKXKXKXKXKXKXKXKXKXKXKXKXKXKXKXKXKXKXKXKXKXKXKXKXKXKXKXKXKXKXKXKXKXKXKXKXKXKXKXKXKXKXKXKXKXKXKXKXKXKXKXKXKXKXKXKXKXKXKXKXKXKXKXKXKXKXKXKXKXKXKXKXKXKXKXKXKXKXKXKXKXKXKXKXKXKXKXKXKXKXKXKXKXKXKXKXKXKXKXKXKXKXKXKXKXKXKXKXKXKXKXKXKXKXKXKXKXKXKXKXKXKXKXKXKXKXKXKXKXKXKXKXKXKXKXKXKXKXKXKXKXKXKXKXKXKXKXKXKXKXKXKXKXKXKXKXKXKXKXKXKXKXKXKXKXKXKXKXKXKXKXKXKXKXKXKXKXKXKXKXKXKXKXKXKXKXKXKXKXKXKXKXKXKXKX",
"mXAXCXCXuX@X,.E E >.OXb.O.@.c.~.pXZXCXAXrX;.U l T ~.m.R t l <.U.j.h h >.@XfXfXpXCX(.@.U J >.~.M.T T @.(.MXAXpXCXqX1.r X.h ] k.b.1.,.c.b.+.j.:.;.*XgX8X8X7XI.W :.+.R m.b.O.,.[ [ @XuXtXtXfXI.k U l l H.E U o.;.^.CXMXpXMX7X1.W x z M.m.@.z W 1.<XuXuXiX0XI.x t k k.m.R r t ,.!.o.t J ;.W.aX9X9XrX_.;.;.>.n.I.c.,.:.c.+XiXeXeXdXiX:   .     .   VXKXKXKXKXKXKXKXKXKXKXKXKXKXKXKXKXKXKXKXKXKXKXKXKXKXKXKXKXKXKXKXKXKXKXKXKX'                                                                                                                                                                                                                               BXKXKXKXKXKXKXKXKXKXKXKXKXKXKXKXKXKXKXKXKXKXKXKXKXKXKXKXKXKXKXKXKXKXKXKXKXKXKXKXKXKXKXKXKXKXKXKXKXKXKXKXKXKXKXKXKXKXKXKXKXKXKXKXKXKXKXKXKXKXKXKXKXKXKXKXKXKXKXKXKXKXKXKXKXKXKXKXKXKXKXKXKXKXKXKXKXKXKXKXKXKXKXKXKXKXKXKXKXKXKXKXKXKXKXKXKXKXKXKXKXKXKXKXKXKXKXKXKXKXKXKXKXKXKXKXKXKXKXKXKXKXKXKXKXKXKXKXKXKXKXKXKXKXKXKXKXKXKXKXKXKXKXKXKXKXKXKXKXKXKXKXKXKXKXKXKXKXKXKXKXKXKXKXKXKXKXKXKXKXKXKXKXKXKXKX",
"2XSXAXnXnX;X@.@.$.$./.c.c.b.c.Q.uXCXCXCXqX;.;.+.U T.G.+.+.T <.!.$.] $.@.(.aXaXtXuXQ.@.;.E @.!.k.E @.$.~.nXCXZXZXuX,., : C ' :.c.k.<.M.M.$.j.,.>.(.tX8XrXwXQ.m.OXOXU.U.v.@.:.:.:.(.uXtXgXfXI.U R l J H.>.>.<.,./.AXMXuXMXwX1.o.z U M.m.>.U W <.,XdXeXuXwXI.j r h c.m.R t t +.T.+.l W +.Q.rXrX9XtXW.;.o.j.H.H.<.:.:.c.).iXeXiXdX2X2             bXKXKXKXKXKXKXKXKXKXKXKXKXKXKXKXKXKXKXKXKXKXKXKXKXKXKXKXKXKXKXKXKXKXKXLXKX'   .                                                                                                                                                                                                                           BXKXKXKXKXKXKXKXKXKXKXKXKXKXKXKXKXKXKXKXKXKXKXKXKXKXKXKXKXKXKXKXKXKXKXKXKXKXKXKXKXKXKXKXKXKXKXKXKXKXKXKXKXKXKXKXKXKXKXKXKXKXKXKXKXKXKXKXKXKXKXKXKXKXKXKXKXKXKXKXKXKXKXKXKXKXKXKXKXKXKXKXKXKXKXKXKXKXKXKXKXKXKXKXKXKXKXKXKXKXKXKXKXKXKXKXKXKXKXKXKXKXKXKXKXKXKXKXKXKXKXKXKXKXKXKXKXKXKXKXKXKXKXKXKXKXKXKXKXKXKXKXKXKXKXKXKXKXKXKXKXKXKXKXKXKXKXKXKXKXKXKXKXKXKXKXKXKXKXKXKXKXKXKXKXKXKXKXKXKXKXKXKXKXKXKX",
"%XNXCXCXAX+X>.j.j.k.oXm.b.v.b.T.uXAXCXAX0X,.<.j.+.!.U.:.k.#.n.U.j.j.k.>.+XCXpXfXuX/.;.<.[ ,.~.c.#.c.@.~.MXMXAXZXrX:.r : C / +.k.1.1.n.m.c.c.k.c.(.eX8X9X6XQ.^.2X2X@XY.c.+.+.] @./.eXeXeXeXR.Q.%XqX+Xm.n.@XqX4XsXAXnXMXMX,X<.R ;.E <.m.,.;.+.,.;XnXnXdX3Xb.&.H U k.n.R R k +.T.O.o.j.;.Q.aXaXtXfXW.o.<.<.c.m.>.+.>.c.Q.uXdX1XiX2X,         .   mXKXLXKXKXKXKXKXKXKXKXKXKXKXKXKXKXKXKXKXKXKXKXKXKXKXKXKXKXKXKXKXKXKXKXKXKX'                                                                                                                                                                                                                               BXKXKXKXKXKXKXKXKXKXKXKXKXKXKXKXKXKXKXKXKXKXKXKXKXKXKXKXKXKXKXKXKXKXKXKXKXKXKXKXKXKXKXKXKXKXKXKXKXKXKXKXKXKXKXKXKXKXKXKXKXKXKXKXKXKXKXKXKXKXKXKXKXKXKXKXKXKXKXKXKXKXKXKXKXKXKXKXKXKXKXKXKXKXKXKXKXKXKXKXKXKXKXKXKXKXKXKXKXKXKXKXKXKXKXKXKXKXKXKXKXKXKXKXKXKXKXKXKXKXKXKXKXKXKXKXKXKXKXKXKXKXKXKXKXKXKXKXKXKXKXKXKXKXKXKXKXKXKXKXKXKXKXKXKXKXKXKXKXKXKXKXKXKXKXKXKXKXKXKXKXKXKXKXKXKXKXKXKXKXKXKXKXKXKXKX",
"UXNXnXuXCX@X<.k.c.m.Y.m.b.M.b.~.nXAXnXnX0Xc.I.U.c.!.U.:.j.,.m.G.v.k.r.b.(.fXZXpXuX(.<.n.k.n.~.v.k.b.<.T.MXMXMXMX0Xo., , h } oX2X4X^.c.^.>XbXqX^.(.7X9XtX7XQ./.qX2XOXY.U.!.oX!.U.+XeX1XeX1XT.OX4X%X%Xn.M./.4X@X6XNXaXMXuX,X<.] >.] b.G.>.:.>.<.>XCXnXCXiXI.@.O.o.k.G.[ :.E $.T.+.$.b.>.~.fXpXaXfX_.;.M.>.>.U.>.@.j.b.).nXnXdXdX2X=   .         bXKXKXKXKXKXKXKXKXKXKXKXKXKXKXKXKXKXKXKXKXKXKXKXKXKXKXKXKXKXKXKXKXKXKXLXKX'   .                                                                                                                                                                                                                           BXKXKXKXKXKXKXKXKXKXKXKXKXKXKXKXKXKXKXKXKXKXKXKXKXKXKXKXKXKXKXKXKXKXKXKXKXKXKXKXKXKXKXKXKXKXKXKXKXKXKXKXKXKXKXKXKXKXKXKXKXKXKXKXKXKXKXKXKXKXKXKXKXKXKXKXKXKXKXKXKXKXKXKXKXKXKXKXKXKXKXKXKXKXKXKXKXKXKXKXKXKXKXKXKXKXKXKXKXKXKXKXKXKXKXKXKXKXKXKXKXKXKXKXKXKXKXKXKXKXKXKXKXKXKXKXKXKXKXKXKXKXKXKXKXKXKXKXKXKXKXKXKXKXKXKXKXKXKXKXKXKXKXKXKXKXKXKXKXKXKXKXKXKXKXKXKXKXKXKXKXKXKXKXKXKXKXKXKXKXKXKXKXKXKXKX",
"O.SXnXnXnX+X>.k.k.v.Y.U.v.b.m.T.iXCXnXCX2Xc.b.>.k.Y.H.#.:.:.m.Y.v.V.b.b./.aXpXaXtX/.;.k.n.n.!.c.>.k.j.T.MXAXMXZXyXo., e C [ G.@X(.Q.c.T.@X%X%X^.(.dXtXtXyX^.~.2X2XOXY.T.@XqXqX~.+XdXeX1XeX).@XmXNX@Xm.n.@XmX4X6XNXaXnXZX1X<.] [ } v.n.h.[ E <.>XCXuXCXiXG.$.r.O.v.G.[ [ O.k.T.>.$.$.>.Q.pXfXaXfX).@.$.O.j.U.>.>.$.k.T.uXfXeXiX>X:             VXKXKXKXKXKXKXKXKXKXKXKXKXKXKXKXKXKXKXKXKXKXKXKXKXKXKXKXKXKXKXKXKXKXKXLXKX'                                                                                                                                                                                                                               BXKXKXKXKXKXKXKXKXKXKXKXKXKXKXKXKXKXKXKXKXKXKXKXKXKXKXKXKXKXKXKXKXKXKXKXKXKXKXKXKXKXKXKXKXKXKXKXKXKXKXKXKXKXKXKXKXKXKXKXKXKXKXKXKXKXKXKXKXKXKXKXKXKXKXKXKXKXKXKXKXKXKXKXKXKXKXKXKXKXKXKXKXKXKXKXKXKXKXKXKXKXKXKXKXKXKXKXKXKXKXKXKXKXKXKXKXKXKXKXKXKXKXKXKXKXKXKXKXKXKXKXKXKXKXKXKXKXKXKXKXKXKXKXKXKXKXKXKXKXKXKXKXKXKXKXKXKXKXKXKXKXKXKXKXKXKXKXKXKXKXKXKXKXKXKXKXKXKXKXKXKXKXKXKXKXKXKXKXKXKXKXKXKXKXKX",
"P GXnXMXnX@X~.%X@X@XoX}.>XUX2X+XiXnXnXCX0XT./.~.!.!.H.z.v.v.m.~.OXUXmX;X/.pXaXtXyX(.I.!.!.U.^.!.T.T.~.~.NXZXMXMXsX;.r r f I [ :.=.[ <.c.O.e.[ ;./.aX8XtXwXI.[ +.' ] G.k.E k.#.@.(.1X8XgXeXT.E [ ] E m.:.W ,.,.^.ZXMXyXCXuXc./ ' [ G.F.:.E R >.>XMXuXuXmXG.O.O.O.v.G.#.' ' c.Y.j.e.e.>.~.aXtXpXZX+X@.O./ e.U.j.+.#.,.~.yXnXtX1X3X=         .   mXKXKXKXKXKXKXKXKXKXKXKXKXKXKXKXKXKXKXKXKXKXKXKXKXKXKXKXKXKXKXKXKXKXKXLXKX|   .                                                                                                                                                                                                                       .   BXKXKXKXKXKXKXKXKXKXKXKXKXKXKXKXKXKXKXKXKXKXKXKXKXKXKXKXKXKXKXKXKXKXKXKXKXKXKXKXKXKXKXKXKXKXKXKXKXKXKXKXKXKXKXKXKXKXKXKXKXKXKXKXKXKXKXKXKXKXKXKXKXKXKXKXKXKXKXKXKXKXKXKXKXKXKXKXKXKXKXKXKXKXKXKXKXKXKXKXKXKXKXKXKXKXKXKXKXKXKXKXKXKXKXKXKXKXKXKXKXKXKXKXKXKXKXKXKXKXKXKXKXKXKXKXKXKXKXKXKXKXKXKXKXKXKXKXKXKXKXKXKXKXKXKXKXKXKXKXKXKXKXKXKXKXKXKXKXKXKXKXKXKXKXKXKXKXKXKXKXKXKXKXKXKXKXKXKXKXKXKXKXKXKXKX",
"U PXMXAXMX>X~.%X2XOX~.}.2X2X%X).iXCXnXCX2XY.3X2X>XoXY.OX%X>X~.Y.+XmXmX+X/.fXfXtXtX;X/.NXnX%X!.+XbXAX2X@XnXnXMXMXiX+., , h J #.h.#.E k.b.o.r.+.+.Q.8XgXeX7XI.R R T T b.$.k [ E W _.8X9X9XrX<.j l t j I.] j E T I.ZXaXaXCXyXv.e.O.r.L.Y.OXUX%X}.2XZXrXtXmXb.z z T v.L.0.O.] r.}.j.] 0.+.Q.uXrXtXnXOX%./ / :.Y.k.$.[ h.Q.yXpXrXwX,X:         .   mXKXKXKXKXKXKXKXKXKXKXKXKXKXKXKXKXKXKXKXKXKXKXKXKXKXKXKXKXKXKXKXKXKXKXLXKX'                                                                                                                                                                                                                               BXKXKXKXKXKXKXKXKXKXKXKXKXKXKXKXKXKXKXKXKXKXKXKXKXKXKXKXKXKXKXKXKXKXKXKXKXKXKXKXKXKXKXKXKXKXKXKXKXKXKXKXKXKXKXKXKXKXKXKXKXKXKXKXKXKXKXKXKXKXKXKXKXKXKXKXKXKXKXKXKXKXKXKXKXKXKXKXKXKXKXKXKXKXKXKXKXKXKXKXKXKXKXKXKXKXKXKXKXKXKXKXKXKXKXKXKXKXKXKXKXKXKXKXKXKXKXKXKXKXKXKXKXKXKXKXKXKXKXKXKXKXKXKXKXKXKXKXKXKXKXKXKXKXKXKXKXKXKXKXKXKXKXKXKXKXKXKXKXKXKXKXKXKXKXKXKXKXKXKXKXKXKXKXKXKXKXKXKXKXKXKXKXKXKXKX",
"U SXpXMXAX@X;.+.+.>.Y.m.@.$.%.R.eXCXuXuX1X<.@.$.O.T.T.O.$.O.M.Y.r.%.@.@.(.fXfXtXuX*X<.>.k.c.U.m.>.M.b.~.nXCXfXfX0X@., , h Y [ j.$.] j.b.$.j.h.@.).eXgXeXeXU.E ] ] E v.j.W :.E E _.tX9XtXdXI.x W l l m.] C O.o.b.ZXpXaXfXyXT.OX%X+XY.K.2XBXmXOX3XZXtXpXiXb.H C z r.Y.r.e.e.r.}.b.#.:.$.).rXtXeXCX+X$.O.] :.Y.c.$.@.k.~.wXuX8XwX2X2             VXKXKXKXKXKXKXKXKXKXKXKXKXKXKXKXKXKXKXKXKXKXKXKXKXKXKXKXKXKXKXKXKXKXKXLXKX|   .                                                                                                                                                                                                                           BXKXKXKXKXKXKXKXKXKXKXKXKXKXKXKXKXKXKXKXKXKXKXKXKXKXKXKXKXKXKXKXKXKXKXKXKXKXKXKXKXKXKXKXKXKXKXKXKXKXKXKXKXKXKXKXKXKXKXKXKXKXKXKXKXKXKXKXKXKXKXKXKXKXKXKXKXKXKXKXKXKXKXKXKXKXKXKXKXKXKXKXKXKXKXKXKXKXKXKXKXKXKXKXKXKXKXKXKXKXKXKXKXKXKXKXKXKXKXKXKXKXKXKXKXKXKXKXKXKXKXKXKXKXKXKXKXKXKXKXKXKXKXKXKXKXKXKXKXKXKXKXKXKXKXKXKXKXKXKXKXKXKXKXKXKXKXKXKXKXKXKXKXKXKXKXKXKXKXKXKXKXKXKXKXKXKXKXKXKXKXKXKXKXKXKX",
"U PXtXCXMX;X;.+.O.>.~.b.%.@.$.R.eXdXuXCX,X@.%.T T m.m.U C h @.T.e.C U o./.fXrXeX1X).o.U k ] T.j.U [ W m.nXnXdXCXiX+., : h Y R [ [ [ c.H.+.[ } ;.).eXeXtXrXR.+.[ ] O.v.c.[ +.+.;./.pX8XtXeXR.[ =.E E G.#./ O.T I.ZXfXaXtXiXc.Y O.Y M.G.$.r./ r.3XuXtXtX1XI.z z T j.m.] I H $.~.$.E ] =.W.wXtX8XuX).%.O.] $.Y.j.O.#.:.T.wXeX9XiXiX,             bXKXKXKXKXKXKXKXKXKXKXKXKXKXKXKXKXKXKXKXKXKXKXKXKXKXKXKXKXKXKXKXKXKXKXKXKX'                                                                                                                                                                                                                               BXKXKXKXKXKXKXKXKXKXKXKXKXKXKXKXKXKXKXKXKXKXKXKXKXKXKXKXKXKXKXKXKXKXKXKXKXKXKXKXKXKXKXKXKXKXKXKXKXKXKXKXKXKXKXKXKXKXKXKXKXKXKXKXKXKXKXKXKXKXKXKXKXKXKXKXKXKXKXKXKXKXKXKXKXKXKXKXKXKXKXKXKXKXKXKXKXKXKXKXKXKXKXKXKXKXKXKXKXKXKXKXKXKXKXKXKXKXKXKXKXKXKXKXKXKXKXKXKXKXKXKXKXKXKXKXKXKXKXKXKXKXKXKXKXKXKXKXKXKXKXKXKXKXKXKXKXKXKXKXKXKXKXKXKXKXKXKXKXKXKXKXKXKXKXKXKXKXKXKXKXKXKXKXKXKXKXKXKXKXKXKXKXKXKXKX",
"J SXaXfXMX@X;.+.+.k.~.v.j.>.>.T.uXfXiXCXwX<.@.+.T Y.Y.' Y U >.Y.r./ E +./.pXuXaXuX+Xo.O.E #.}.v.R [ E I.nXnXCXCXiX[ , , h J R } [ [ v.m.@.[ :.>.Q.7X1X1X7XU.W R Y #.m.T.OX%X%X~./.7X6XwXwXQ.[ | R =.K.h./ ' Y U.fXaXaXaXwX;.t H h $.M.] I h O.2XtXrXtXwXb.z h h r.v.T j j O.T.%.k U W Q.7XtX8XpX).$.%.] $.Y.r.O.O.>.Q.0XeXwXtXyX,   .     .   mXKXKXKXKXKXKXKXKXKXKXKXKXKXKXKXKXKXKXKXKXKXKXKXKXKXKXKXKXKXKXKXKXKXKXLXKX|   .                                                                                                                                                                                                                           BXKXKXKXKXKXKXKXKXKXKXKXKXKXKXKXKXKXKXKXKXKXKXKXKXKXKXKXKXKXKXKXKXKXKXKXKXKXKXKXKXKXKXKXKXKXKXKXKXKXKXKXKXKXKXKXKXKXKXKXKXKXKXKXKXKXKXKXKXKXKXKXKXKXKXKXKXKXKXKXKXKXKXKXKXKXKXKXKXKXKXKXKXKXKXKXKXKXKXKXKXKXKXKXKXKXKXKXKXKXKXKXKXKXKXKXKXKXKXKXKXKXKXKXKXKXKXKXKXKXKXKXKXKXKXKXKXKXKXKXKXKXKXKXKXKXKXKXKXKXKXKXKXKXKXKXKXKXKXKXKXKXKXKXKXKXKXKXKXKXKXKXKXKXKXKXKXKXKXKXKXKXKXKXKXKXKXKXKXKXKXKXKXKXKXKX",
"T SXnXnXAX<Xj.:.h.j.!.n.k.k.c.T.rXMXnXMXiXc.j.c.e.Y.Y.#.#.#.v.Y.V.e.O.O./.MXaXpXuX+X$.$.$.r.oXU.} #.[ T.mXCXCXAXqX>.> , ..R !.4X4XOXH.U.@X%X4X_._.1X-X6X6XQ.!.&X%XOXG.K.%XqX%XOX/.6X7X7X6X^.H.E.!.K.L.z.L.Y.G.).aXrXrXtX1Xr.I E T c.b.>.O.H %.>XfX9XtXrXI.E T z >.m.E H h O.U.O.Y ] +.I.rXtXeXuX/.@.$.[ >.Y.j.O.[ ,.T.0XwXtXuXiX=         .   VXKXKXKXKXKXKXKXKXKXKXKXKXKXKXKXKXKXKXKXKXKXKXKXKXKXKXKXKXKXKXKXKXKXKXLXKX'   .                                                                                                                                                                                                                           BXKXKXKXKXKXKXKXKXKXKXKXKXKXKXKXKXKXKXKXKXKXKXKXKXKXKXKXKXKXKXKXKXKXKXKXKXKXKXKXKXKXKXKXKXKXKXKXKXKXKXKXKXKXKXKXKXKXKXKXKXKXKXKXKXKXKXKXKXKXKXKXKXKXKXKXKXKXKXKXKXKXKXKXKXKXKXKXKXKXKXKXKXKXKXKXKXKXKXKXKXKXKXKXKXKXKXKXKXKXKXKXKXKXKXKXKXKXKXKXKXKXKXKXKXKXKXKXKXKXKXKXKXKXKXKXKXKXKXKXKXKXKXKXKXKXKXKXKXKXKXKXKXKXKXKXKXKXKXKXKXKXKXKXKXKXKXKXKXKXKXKXKXKXKXKXKXKXKXKXKXKXKXKXKXKXKXKXKXKXKXKXKXKXKXKX",
"H SXnXAXAX>Xj.k.j.k.!.F.n.n.v.T.yXNXnXMXqXc.c.c.r.}.L.r.} +.v.}.V./ | r.+XMXpXMXnX+X$.$.$.V.OXV.[ #.$.T.MXnXCXAXyX,., , f R !.%X2XOXG.!.@XbXqXOX_.,X6X1X:X_.@XNXmX2XH.Y.2XVXNX&X+X0XwXwX6X/.%XNXNX%XF.F.UXNXmX2XrXaXrXaXuXb.O.O.E m.m.k.e.O.e.3XaXtXfXrXI.@.+.E v.H.#.[ E $.T.j.[ [ +.W.8XtXtXpX+X@.>.@.,.~.m.v.M.n.!.wXuXtXdXiX,             bXKXKXKXKXKXKXKXKXKXKXKXKXKXKXKXKXKXKXKXKXKXKXKXKXKXKXKXKXKXKXKXKXKXKXKXKX'                                                                                                                                                                                                                               BXKXKXKXKXKXKXKXKXKXKXKXKXKXKXKXKXKXKXKXKXKXKXKXKXKXKXKXKXKXKXKXKXKXKXKXKXKXKXKXKXKXKXKXKXKXKXKXKXKXKXKXKXKXKXKXKXKXKXKXKXKXKXKXKXKXKXKXKXKXKXKXKXKXKXKXKXKXKXKXKXKXKXKXKXKXKXKXKXKXKXKXKXKXKXKXKXKXKXKXKXKXKXKXKXKXKXKXKXKXKXKXKXKXKXKXKXKXKXKXKXKXKXKXKXKXKXKXKXKXKXKXKXKXKXKXKXKXKXKXKXKXKXKXKXKXKXKXKXKXKXKXKXKXKXKXKXKXKXKXKXKXKXKXKXKXKXKXKXKXKXKXKXKXKXKXKXKXKXKXKXKXKXKXKXKXKXKXKXKXKXKXKXKXKXKX",
"H SXnXnXNX<X~.2X2X+XY. X%XqX%X~.rXZXyXMX2Xc.c.c.V.Y.}.}.&X@X}.}.}.OX}.T.+XMXpXpXMX+X$.O.O.z.oXY.G.Y.T.T.mXnXAXAXqX,., , t J :.P.k.#.z.m.+.,.:.+.Q.7X1X1X6Xm.[ ,.$.$.v.v.:.:.=.:./.wXrX9XwXQ.:.k.k.u.F.j.j.H.n.Q.MXaXtXCXiXb./ / [ H.H.#./ I r.<XCXtXeXqXG.E T Y v.L.} J J +.~.j. .E =.I.aXrXtXpX+X@.R T ,.!.oXbXNX4X+X0XuX8XtXiX,         .   mXKXLXKXKXKXKXKXKXKXKXKXKXKXKXKXKXKXKXKXKXKXKXKXKXKXKXKXKXKXKXLXKXKXKXLXKX'                                                                                                                                                                                                                   .       .   BXKXKXKXKXKXKXKXKXKXKXKXKXKXKXKXKXKXKXKXKXKXKXKXKXKXKXKXKXKXKXKXKXKXKXKXKXKXKXKXKXKXKXKXKXKXKXKXKXKXKXKXKXKXLXKXKXKXKXKXKXKXKXKXKXKXKXKXKXKXKXKXKXKXKXKXKXKXKXKXKXKXKXKXKXKXKXKXKXKXKXKXKXKXKXKXKXKXKXKXKXKXLXKXKXKXKXKXKXKXKXKXKXKXKXKXKXKXKXKXKXKXKXKXKXKXKXKXKXKXKXKXKXKXKXKXKXKXKXKXKXKXKXKXKXKXKXKXKXKXKXKXKXKXKXKXKXKXKXKXKXKXKXKXKXKXKXKXKXKXKXKXKXKXKXKXKXKXKXKXKXKXKXKXKXKXKXKXKXKXKXKXKXKXKXKX",
"z PXnXnXnX<XOXmXbX%X!.Y.2XmX2X+XwXuXnXMX0XT.2X2X<XOX~.UXIXNX@XoX<XBXSXUX+XaXaXuXuX;XT.2X<X~.oX&XmXSXmX+XiXnXuXCX0X,., e l J :.c.j.[ c.b.R h.[ W Q.1X:X1X,XI.U :.#.H k.:.H E U U Q.9XrX9X8XM.j  .l j v.] h Y T M.CXpXuXAX3XT.}.%XOX!.K.}.+X}.Y.%XmXrXtXiXY.M.Y.L.K.H.F.L.F.F.Y.G.G.E.M.Q.6XaXyXMX/.c.h.} z.E.E.&X4X&X^.yXrXwXwXiXe   .         bXKXKXKXKXKXKXKXKXKXKXKXKXKXKXKXKXKXKXKXKXKXKXKXKXKXKXKXKXKXKXKXKXKXKXLXKX'   .                                                                                                                                                                                                                           BXKXKXKXKXKXKXKXKXKXKXKXKXKXKXKXKXKXKXKXKXKXKXKXKXKXKXKXKXKXKXKXKXKXKXKXKXKXKXKXKXKXKXKXKXKXKXKXKXKXKXKXKXKXKXKXKXKXKXKXKXKXKXKXKXKXKXKXKXKXKXKXKXKXKXKXKXKXKXKXKXKXKXKXKXKXKXKXKXKXKXKXKXKXKXKXKXKXKXKXKXKXKXKXKXKXKXKXKXKXKXKXKXKXKXKXKXKXKXKXKXKXKXKXKXKXKXKXKXKXKXKXKXKXKXKXKXKXKXKXKXKXKXKXKXKXKXKXKXKXKXKXKXKXKXKXKXKXKXKXKXKXKXKXKXKXKXKXKXKXKXKXKXKXKXKXKXKXKXKXKXKXKXKXKXKXKXKXKXKXKXKXKXKXKXKX",
"J SXfXCXMX@X$.>.>.>.!.M.%.$.j.I.iXfXuXMX,XM.>.c.$.T.U.r.r.h.c.!.V.r.b.b.).uXpXpXuX(.m.T.T.U.~.H.m.^.m.T.iXuXuXuXiX>.r , h H :.j.:.[ k.b.%.j.} O.).eX8X8XeXT.o.k.k.] b.b.] $.R W ^.tX8XgXtXI.z [ H h M.[ H O.o.b.tXMXpXAX2X~.bXNXqX!.E.%XBXVX+X@XnX0XrXqXOX2XBXmXOX[.%XNXbX%X}.OXbXNX%XOX6XaXrXyX+X+XUXUXOX!.E.bXVX4X^.sXtXtXuXmX:     .   H KXN.N. X9.s.l.A.9._ J.Z.|.9.p.B.8.`. X^ N _ ~ Z.[.|.l.s { |.oXNXbX..J.s.d D b y S ( u.7 9 9 s b -.P.y 2 q 9 = d  X4Xl .. XFXBXbXVXbXbX4XcXIX4X4XVX$XVX$X X|..X|..X4.3 = ..y = 7 7 * Z s 7 6 7 = S m 2 7 7 7 s = 7 s m v N L N * 6 Q ^ L A Z e ^ ( K Q y * _ ! a D Q S B D b BXGXBXIXBXIXIXIXIXFXIXIXBXGXBXBXKXKXKXKXKXKXKXKXKXKXKXKXKXKXKXKXKXKXKXKXKXKXKXKXKXKXKXKXKXKXKXKXKXKXKXKXKXKXKXKXKXKXKXKXKXKXKXKXKXKXKXKX&X. % % ; X % ; ; % X % ; % X % X % % ; X % X % % ; X % X % % ; ; % X % ; % X % X % % ; X % X % % ; X % X % % ; ; % X % ; % X % X % % ; X % X % % ; X % X % % ; X % ; % o bXKXKXKXKXKXKXKXKXKXKXKXKXKXKXKXKXKXKXKXKXKXKXKXKXKXKXKXKXKXKXKXKXKXKXKXKXKXKXKXKXKXKXKXKXKXKXKXKXKXKXKXKXKXKXKXKXKXKX",
"J SXyXCXAX<X+.R T o.U.b.O.%.o.M.wXCXuXfXwX@.T z k I.m.U h k +.U.r.C k T ).uXtXrXuX).o.k h E T.k.k U U R.MXCXpXtXwX>., , h k ] ] E O.j.U.b.c.j.<.).dXgXdXtXT.+.$.$.$.m.Y.Y.@XOXI.(.uXdXdXtX_.m.!.H.<.H.$.Y ] ] M.iXtXuXuX1Xb.] O.[ n.H.:.:.[ >.@XMXrXwXyXT.%.<.$.n.U.v.j.>.k.T.I.v.G.M.R.6XrXrXrX).I.T.T.M.!.m.H.^.m.^.wXuXeXnXnXe   .     | KXp.9.8.9 Q D _ M b i.5.8.~ p ~ A 9.N.) 2 ^ B D Z.Z.` `  XJ.E.BX@X$  XQ q 0 n m -.u.D.q S b d ) P.|...6 S b 7 ` 4XNX . .$XKXLXGXGXGXGXGXPXPXBXIXPXIXLXVXcXcXzXcXcX'.y e ( d 9 s 9 7 Q D 7 s y 6 D Q 1 7 q 7 d e e G _ A S 9.^ 9 b 8.9.5.8.D S p.p.i.a.d a ` p.Q 8.i._ 5..XzXLXKXKXKXKXKXKXKXKXKXKXKXKXKXKXKXKXKXKXKXKXKXKXKXKXKXKXKXKXKXKXKXKXKXKXKXKXKXKXKXKXKXKXKXKXKXKXKXKXKXKXKXKXKXKXKXKXKXKXKXKXKXKXKXKXKXKXKXoX  .                                                                                                                                                                     %XKXKXKXKXKXKXKXKXKXKXKXKXKXKXKXKXKXKXKXKXKXKXKXKXKXKXKXKXKXKXKXKXKXKXKXKXKXKXKXKXKXKXKXKXKXKXKXKXKXKXKXKXKXKXKXKXKXKX",
"U SXuXpXMX>X,.O.] $.T.m.$.$.O.I.wXuXuXCXiXb.o.E T G.G.Y U E $.T.r./ %.O.).pXpXtXfX(.@.E U E T.c.R W T T.yXuXdXdX0X<., , f l ' ' R [ k.F.0.| } $.).uXeXtXuXT.] R / } V.oXbXBXNX%X+XaXuXuXrX/.@XVXsX4XH.u.( / J c.0XwXwXuX1X<.k h j j.M.E k j W @XCXuXuXiXI.j k h $.m.Y h j E T.@.H P T I.6X8X8XiX/.@.] T ;.!.:.R [ o.Q.0XuXtXuXMXe     .   ' KXN.i.p.b y 3 _ D D d.i.d.N.D v ~ p.s.4.S s.A.S 4.S.) ` ].].&XPX^.>  Xs 7 7 q y =.-.u.7 b p s S a.#Xd q b b 7  .cXNXx L $XKXHXBXIXGXIXNXFXIXVXFXGXBXJXVXkXzXzXlXkX'.e 6 L d 6 y 0 7 S Q 7 q 9 7 b -.p d b b D d e L ! ^ S 8.N m y _ 5.^ Q i Q 8.5.8._ m Q A i.A _ 8._ D s.XXJXKXKXKXKXKXKXKXKXKXKXLXKXKXKXKXKXKXKXKXKXKXKXKXKXKXKXKXKXKXKXKXKXKXKXKXKXKXKXKXKXKXKXKXKXKXKXKXKXKXKXKXKXKXKXKXKXKXKXKXKXKXKXKXKXKXLXKXoX  .                                                                                                                                                                 .   bXKXKXKXKXKXKXKXKXKXKXKXKXKXKXKXKXKXKXKXKXKXKXKXKXKXKXKXKXKXKXKXKXKXKXKXKXKXKXKXKXKXKXKXKXKXKXKXKXKXKXKXKXKXKXKXKXKXKX",
"J SXnXMXMX2X>.$.$.j.}.V.O.e.e.I.eXCXnXnXiXv.$.$.} G.G.e.[ O.j.}.V.0.e.$./.pXpXuXCX+X;.#.$.j.Y.G.+.@.+.T.wXuXpXfXrX,., e f I Y.%X%XOXG.G.e.e.e.>.~.iXtXeXiXQ.+.' Y #.v.K.@X%X%X~.^.aXeXrXaXQ.OX4X4X&XF.h.F.F.m.U.0XrX7XuXeX<.T U U j.m.O.E z o.<XZXuXuXuXT.T %.T :.m.] H h E U.$./ ' ] I.6XrX7XyX/.@.#.O.+.Y.:.E [ =.!.rXuXuXuXMX,     .   | KXN.5.s.Z 3 N 9.N D d.d.d.N.8.u 4.9.d.~ Q Z.`.s.p p.=.a.D.P.%XGX,.e E.) D D A ~ a.s.` @ p 9 9 s a.|.Z y b a q  .bXNX..` 4XKXGXBXPXHXBXVXJXBXbXHXIXBXLXVXkXcXkXzXcX`.s 6 L m 6 9 9 7 S f.q 9 9 q b i.9 y 9 9 A L > G ! 4.^ _ N D p ~ 5.| A m 8.6.8.8.` M Q a Q S _ p.4.~ '.XXLXKXKXKXKXKXKXKXKXKXKXKXKXKXKXKXKXKXKXKXKXKXKXKXKXKXKXKXKXKXKXKXKXKXKXKXKXKXKXKXKXKXKXKXKXKXKXKXKXKXKXKXKXKXKXKXKXKXKXKXKXKXKXKXKXKXKXKXoX  .                                                                                                                                                                     qXKXLXKXKXKXKXKXKXKXKXKXKXKXKXKXKXKXKXKXKXKXKXKXKXKXKXKXKXKXKXKXKXKXKXKXKXKXKXKXKXKXKXKXKXKXKXKXKXKXKXKXKXKXKXKXKXKXKX",
"J PXnXnXNX>X:.[ } j.Y.V.j.h.V.Y.eXCXnXMXqXb.$.O.] Y.L.[ R [ j.Y.v.e.r.k.~.uXuXrXrX;XT.&X%X&XE.^.&X4XOX_.0XsXaXfXyX<., e f P Y.2XqX+XM.m.G.Y.K.M.(.eXgXuXwX/.m.!.}.Y.m.Y.%XNXNX@X/.wX7X8X7X_.%XmXsX4XH.P.4XNXmX3XrXrXaXtX9X1.Y R U v.L.:.[ U @.@XCXCXCXnXT.$.$.O.j.G.#.Y Y } Y.j.' #.O.T.0XwXwXiX+X$.[ / :.Y.>.R [ [ U.wXaXtXuXnXe     .   ' KXZ.9.8.2 y D ) 8.D 9.9.i.s.i.S ) i.i.D 6.s.Z.|._ S s.s.s.P.4XSX-.s  X7 9 q 9 9 S.s.a.b ~ Q Q Q -.OXs 9 a y 7  .bXmX..` cXKXGXIXLXGXBXFXPXBXbXGXBXDXLXVXlXcXkXkXvX].e > f Z 6 7 9 7 p p.y a w 9 b ` 7 7 7 7 s M = Z L ^ D Q m ~ A S 8.4.s ^ i.8.8.u.! A u.A S S S a.8.4.d.XXKXKXKXKXKXKXKXKXKXKXKXKXKXKXKXKXKXKXKXKXKXKXKXKXKXKXKXKXKXKXKXKXKXKXKXKXKXKXKXKXKXKXKXKXKXKXKXKXKXKXKXKXKXKXKXKXKXKXKXKXKXKXKXKXKXKXLXKXoX  .                                                                                                                                                                 .   bXKXKXKXKXKXKXKXKXKXKXKXKXKXKXKXKXKXKXKXKXKXKXKXKXKXKXKXKXKXKXKXKXKXKXKXKXKXKXKXKXKXKXKXKXKXKXKXKXKXKXKXKXKXKXKXKXKXKX",
"U SXuXZXAX<X,.[ #.j.Y.Y.%X2X@X).wXCXZXMX2Xb.$.O.#.Y.G.#.] O.b.Y.V.e.$.r.Q.yXrXwXiX;X+XbX4X&XE.E.4XqX4XOXsXpXpXMXyX<.r r j C #.j.;.o.,.M.$.$.j.;.R.eXgX1XeXQ.@.c.b.$.v.m.j.k.b.j.Q.1X9X7X7X).,.n.1.,.M.,.k.G.M.T.rX9X8XfXeX<.H k G F.G.[ Y k $.@XAXnXCXnX~.O.T / j.G.] C I ' K.r.C ! ' U.0XrXrXyX+X%.h h [ Y.>.l l J G.yXuXuXuXnX,   .     | KXN._ A 2 a 5.4.9.` d.d.N.A.N.S S i.) ^ s.s.Z.`.A.b a. XS.E.NXNX, L s.> q p q q a.E.Q > w 9 q S a. XS s b b p Q 4X4X, -.$XKXGXLXLXIXVXHXGXBXVXJXBXIXLXvXkXlXzXkXcX|.a = i d y 9 9 0 9 -.= 9 7 7 7 f.q 7 q 7 7 S = M I _ ^ ^ ^ 8._ p 5.~ a _ 5.8.5.8.D D p.( Z K m p.8.3.i.|.LXKXKXKXKXKXKXKXKXKXKXKXKXKXKXKXKXKXKXKXKXKXKXKXKXKXKXKXKXKXKXKXKXKXKXKXKXKXKXKXKXKXKXKXKXKXKXKXKXKXKXKXKXKXKXKXKXKXKXKXKXKXKXKXKXKXKXKXoX  .                                                                                                                                                                 .   %XKXKXKXKXKXKXKXKXKXKXKXKXKXKXKXKXKXKXKXKXKXKXKXKXKXKXKXKXKXKXKXKXKXKXKXKXKXKXKXKXKXKXKXKXKXKXKXKXKXKXKXKXKXKXKXKXKXKX",
"J PXuXCXAX2XU.U.oX!.Y.Y.2XNX2X+X7XuXtXnXiX~.>XbX@XY.!.@XqXqXOX}.+XUX2X>X+XyXiXwXuX@X/.BXNX%X^.OX4XNXqX_.sXMXpXMXyX<.: r h l #.>.;.o.<.b.o.$.#.E R.1X1X1X7XI.U +.O.T k.b.U Y U Y Q.9X9X8XeXQ.k H x ..1.=.H / o.<.rXrX9XpXeXI.L.oXE.K.F.m.Y.H.m.<XCXuXnXmX~.V.V.v.F.G.z.j.j.j.Y.m.x.z.z.Y.rXaXsXyX+Xj.O.' =.Y.,.Y R R m.uXfXrXuXCXr   . .   | KXp.i.8.2 N 4.4.i.D 4.i.9.i.i.) b ) S v i.d.s.Z.].s.s.E. XE.IX4X> a.f.> 9 b s ..=. XS 7 p 9 q S D.S.Z S S F S -.sXqX> =.4XKXPXJXHXBXIXGXBXIXFXJXVXIXJXVXcXlXcXcXcXXXd 3 f K i b a p 0 ` 7 9 q 7 7 f.b 7 9 7 q ` e f ! 5.S N ) 5._ 7 Q D N 8.` 8.8.8.A D p.Q y S ~ p.9.4.6.{.LXKXKXKXKXKXKXKXKXKXKXKXKXKXKXKXKXKXKXKXKXKXKXKXKXKXKXKXKXKXKXKXKXKXKXKXKXKXKXKXKXKXKXKXKXKXKXKXKXKXKXKXKXKXKXKXKXKXKXKXKXKXKXKXKXKXLXKXOX                                                                                                                                                                        lXKXLXKXKXKXKXKXKXKXKXKXKXKXKXKXKXKXKXKXKXKXKXKXKXKXKXKXKXKXKXKXKXKXKXKXKXKXKXKXKXKXKXKXKXKXKXKXKXKXKXKXKXKXKXKXKXKXKX",
"H SXtXCXMX@X<.j.k.c.Y.n.x.k.j.T.9XfXuXMXiXm.b.v.v.n.H.c.P.c.b.T.}.V.Y.U./.uXuXtXtX@XH.OXE.H.!.E.E.^.^.^.aXZXZXCXyX,.r g h G #.,.+.o.;.M.O.$.$.+.).eXdXgXwXQ.o.#.$.E v.M.U E T W Q.tX8X8XtXR.U E  .x k.=.P O.] M.0XwXwXtXeXI.bXIXmXoXL.%XBXnX+X@XiXiX1XmX+X3XmXbXOXL.@XVXmX&XY.oXbXNX2X+X0XpXpXpX+X+XNXNX@XH.~.bXNXqX^.>XtXeXuXnXe         ' KXN.B.0.6 D ~ D 5.D 4.i.d.d.p.p.D 9 p b D 5.a.s.N.p.s.S.P.^.IX&X> S. .7 p b b -.a.|.w q w p s Z s.S.y y p p 9 =.mX4Xs a.cXKXPXHXHXBXGXGXIXHXPXGXBXSXHXVXlXkXzXkXcX{.B 6 s I 6 6 6 6 1 4.s q q 7 7 i.D 7 9 9 q _ e e P _ D S 5.5.` 9 a N Q _ ` 8.8.i.A Q p.5.8._ _ N.8.` 4.'.LXKXKXKXKXKXKXKXKXKXKXKXKXKXKXKXKXKXKXKXKXKXKXKXKXKXKXKXKXKXKXKXKXKXKXKXKXKXKXKXKXKXKXKXKXKXKXKXKXKXKXKXKXKXKXKXKXKXKXKXKXKXKXKXKXKXLXKXoX  .                                                                                                                                                                 .   bXKXKXKXKXKXKXKXKXKXKXKXKXKXKXKXKXKXKXKXKXKXKXKXKXKXKXKXKXKXKXKXKXKXKXKXKXKXKXKXKXKXKXKXKXKXKXKXKXKXKXKXKXKXKXKXKXKXKX",
"Y SXyXMXMX@X:.E R ] H.v./ ] O.I.9XpXnXnX,X<.H h l c.n.J t h ] T.e.C C T ).CXCXCXuX;XO.H U O.T.c.I T E I.nXAXnXdX1X$.: r h C #.m.M.1.M.M.,.k.h.,./.eX8X8XrXQ.;.,.h.:.G.m.O.r.#.+.+XiXdXdXdX).O.#.,.[ G.e.e.e.O.U.aXrXwXuXtXb.] +.] m.H.>.k.>.,.(.nXiXwXyXQ.b.H.c.n.G.n.F.n.n.U.m.F.Y.H._.rXpXuXuX(.T.~.T.T.G.m.~.OX~.U.>XuX1XuXnX,     .   | KXN.A.^ 1 N ~ 4.5.~ 4.d.d.d.N.9._ 8 v 4.N 5.9.p.N.N.J.K.S.&XSX&X> 5X .q p b n ) -.$Xs 9 b b F Q P.A.q 9 s 9 q -.bX4Xg a.cXLXJXJXGXPXGXIXFXPXPXIXBXGXJXVXkXcXlXkXvX].D e y Z e q q q 7 5.S q y 9 7 ) _ 7 9 8 1 F = & I _ Q D 5.8.A a y S 4._ _ 8.0.p.S ~ 0.5.4.( D s.0._ 5.s.LXKXKXKXKXKXKXKXKXKXKXKXKXKXKXKXKXKXKXKXKXKXKXKXKXKXKXKXKXKXKXKXKXKXKXKXKXKXKXKXKXKXKXKXKXKXKXKXKXKXKXKXKXKXKXKXKXKXKXKXKXKXKXKXKXKXKXKXoX  .                                                                                                                                                                 .   lXKXKXKXKXKXKXKXKXKXKXKXKXKXKXKXKXKXKXKXKXKXKXKXKXKXKXKXKXKXKXKXKXKXKXKXKXKXKXKXKXKXKXKXKXKXKXKXKXKXKXKXKXKXKXKXKXKXKX",
"I SXuXnXMX@X<.@.[ O.Y.v.#.$.O.m.7XCXuXnXiXj.E T J k.G.[ Y U O.Y.r.T / O.T.nXCXdXuX+X%./ T O.Y.v.T T O.I.1XdXdXeX1X$., r h h / } =.=.,.M.' I J [ Q.eXtXrX6X!.[ R ' #.V.m.] ] E [ ~.1XgX1XeX+X] / R [ F.x.] } / U.NXMXpXMXyXc.j j t j.U.R z j W >XZXtXuXnXT.T U t +.G.] l l U m.>.H R R I.rXdXtXtX).>.o.E ,.U.k.] [ :.m.0XCXwXwXnXe   .     | KXC.N.a 6 9.4.9.d._ _ i.p.i.9.9.0.v ~ A.3.~ s.N.Z.N. X XK.$XSXn.> |.S q p b d { [ #Xb b b b D -.P.s.7 s s p e =.mX4Xs a.cXKXHXLXGXLXGXBXGXJXIXFXbXFXJXVXkXzXzXzXkX XQ e i Z s y y 9 7 ) ` q s 9 q S _ 6 p p 9 Z s e ! ! _ ^ 8._ S D m N 8._ { 0.0.9.S _ p.8.8._ ~ x.N._ 6.s.LXKXKXKXKXKXKXKXKXKXKXKXKXKXKXKXKXKXKXKXKXKXKXKXKXKXKXKXKXKXKXKXKXKXKXKXKXKXKXKXKXKXKXKXKXKXKXKXKXKXKXKXKXKXKXKXKXKXKXKXKXKXKXKXKXKXLXKXoX                                                                                                                                                                        2XKXLXKXKXKXKXKXKXKXKXKXKXKXKXKXKXKXKXKXKXKXKXKXKXKXKXKXKXKXKXKXKXKXKXKXKXKXKXKXKXKXKXKXKXKXKXKXKXKXKXKXKXKXKXKXKXKXKX",
"H SXiXnXnX>Xj.+.] :.Y.G.#.[ #.m.1XMXnXnXqXb.O.[ #.L.K.$.[ R j.}.r.| $.O.T.uXuXtXnX;X$.O./ e.Y.m.] +.O.m.2XCXCXdXdXb.r X.f I F.&X&X^.P.H. XoXOXH.^.7XrX7XqXQ.n. X!.Y.L.V.| / ' [ T.nXeXeXeX).] P  .[ F.e.e.z.j.T.yX0XyXNXiXc.h z k b.m.E E j x @XuXrXuXuXR.W W h [ m.[ H h U M.,.H ] W M.7XtXtXtX+X<.$.>.>.!.v.+.:.+.!.wXnXeXtXnXr     .   ' KXJ.0.A v 3.~ 5.i._ 4.s.d.i.N.N.5.A d.'.s.L s.N.A.A.E. XE.qXSX=...E. .D F ` Q -. . Xp b b b Z -.a.a.7 S S p 9 s.IX4X> a.VXKXPXHXJXLXFXVXLXGXHXJXVXPXHXVXlXcXcXkXvX.X` 7 e ( s 6 s 9 7 F Q 1 y q 7 q i.d S S a A ` e L ! _ L _ 4.S _ D d ! 4.8.0.9.0.S 8.a.0.0._ K 9.N._ 9.f.LXKXKXKXKXKXKXKXKXKXKXKXKXKXKXKXKXKXKXKXKXKXKXKXKXKXKXKXKXKXKXKXKXKXKXKXKXKXKXKXKXKXKXKXKXKXKXKXKXKXKXKXKXKXKXKXKXKXKXKXKXKXKXKXKXKXKXKXoX  .                                                                                                                                                                 .   bXKXKXKXKXKXKXKXKXKXKXKXKXKXKXKXKXKXKXKXKXKXKXKXKXKXKXKXKXKXKXKXKXKXKXKXKXKXKXKXKXKXKXKXKXKXKXKXKXKXKXKXKXKXKXKXKXKXKX",
"H SXiXAXAX@X+.H I #.L.V./ C T m.1XnXnXAX2Xb.T U ] Y.G.' I U $.oXV./ O.O.Q.uXuXuXiX;X@.' O.j.oXG.] O.O.I.iXnXuXdXuX<.< r t P K.qXbX&XH.E.%XBXVX@X/.wXrX7XrX_.+XmXBX%XY.m.$.$.:.,.+X1XdX1XiX+X$.e.u.:.V.L.2XBXNXbXMXsXrXuXrXb.P Y U V.K.E.E.n.c.+XyXyXyXiXQ.M.T.v.n.G.v.v.c.,.G.m.j.z.k.R.7X8X7XrX+X>.>.$.$.T.b.+.:.[ U.iXuXtXuXNXe     .   | KX[.8.3 B ~ ~ 3.8.~ Q 6.9.i.9.s.^ ~ d.Z.].) Q D.N.C.J. XJ.cXIX....s.q p p S Q a.=.S.s D S S Q ` s.a.s b b b s P.IX@Xs s.bXKXPXGXPXJXIXBXPXFXPXJXVXPXPXVX$XkXkXzXlX.X{ 6 e  .d 7 y q 7 w i.b ` -.Q D 5.y 9 9 7 9 ` 7 M L _ Z Q Q S ) ` s S 8.5.5.0.4.S 8.p.i.8.4.K 9.s.8._ 6.LXKXKXKXKXKXKXKXKXKXKXKXKXKXKXKXKXKXKXKXKXKXKXKXKXKXKXKXKXKXKXKXKXKXKXKXKXKXKXKXKXKXKXKXKXKXKXKXKXKXKXKXKXKXKXKXKXKXKXKXKXKXKXKXKXKXLXKXoX  .                                                                                                                                                                 .   2XKXKXKXKXKXKXKXKXKXKXKXKXKXKXKXKXKXKXKXKXKXKXKXKXKXKXKXKXKXKXKXKXKXKXKXKXKXKXKXKXKXKXKXKXKXKXKXKXKXKXKXKXKXKXKXKXKXKX",
"J SXuXMXMX2XG.Y.OX}.}.[.Y.}.L.Y.iXMXnXNX2XU.G.U.G.L.G.F.F.n.m.Y.V.z.v.b.Q.aXpXpXuX;X$.! ' k.E.K.n.G.U.T.qXnXdXCXtX1.r , r C $.<.<.;.1.M.@.<.k.;.).9X8X8X8XQ.;.c.M.$.b.m.] +.+.O.Q.1XdXeXdX~.O.} [ ' v.k.c.M.m.).yXuXyXyXwXM.I P P F.[.%XNXNX@X+XMXyXyXmXOX>XBXmXOXK.&XNXNX@XE.oX4XBX4X_.6XaXaXsX+X:.l l ] U.k.U k U m.wXuXtXtXMXr     .   | KX|.N 1 B 3.7.i.9._ ) i.9.9.d.4.u 5.p.4.N.8.N i.N.D.A.J.n.sXsX> =.a.q s p F -.=.l.C.Q i.{ -.a.=.a.` y S a 9 9 D.IX&X..a.cXKXGXJXPXLXBXIXPXFXPXJXBXJXHXVXcXvXvXvXvXvX0.e y L m y s b w a -.9 p p 9 s s.d q 9 9 q Q * f ^ ( K ~ Q Q 8.a.Z p { | _ i.( S i.i.8.8._ S 8.p.0.4.i.LXKXKXKXKXKXKXKXKXKXKXKXKXKXKXKXKXKXKXKXKXKXKXKXKXKXKXKXKXKXKXKXKXKXKXKXKXKXKXKXKXKXKXKXKXKXKXKXKXKXKXKXKXKXKXKXKXKXKXKXKXKXKXKXKXKXLXKXOX  .                                                                                                                                                                     bXKXLXKXKXKXKXKXKXKXKXKXKXKXKXKXKXKXKXKXKXKXKXKXKXKXKXKXKXKXKXKXKXKXKXKXKXKXKXKXKXKXKXKXKXKXKXKXKXKXKXKXKXKXKXKXKXKXKX",
"J SXyXnXyX@XOXbXNX%X}.}.UXBXUX+X0XMXsXMXqX+XmXBXmXE.oX4XBXNX@XoX+XNXNX0X/.uXpXtXiX;XI.oXoXoXoXOX%XNXqX~.wXuXfXuXyX1.t r g I :.v.1.W ,.c.T #.:.W R.tX9X8XtXQ.W ] O.H b.b.U ] E T T.nXeXeX1X).U I G h v.O.f z T c.qXMX0XrX6XM.J J Y v.G.OX4X4X^.+XAXrXpXmX~.!.%X%XE.L. X%X4XOXK.K.OX$X^.^.6XaXaXaX@Xk.' J #.U.j.h f U G.6XwX7XwXMXg   .     | KXJ.y u ~ 4.9.p.d.~ D s.s.N.s.S y ^ 9.4.5.p.m 8.N.A.J.F.OXFXsX> =.` q b p F -.=.P.-.7 m a b D l.D.=.S -.D S L P.IX^.s =.bXKXPXLXLXJXBXHXPXFXPXGXFXLXGXVXvXvXvXvXvXvX5.y e L A m S S a S u.9 y y q 9 i.d 7 9 y 7 S e m ' ` ! ~ A _ i.i.D p Q _ _ i.~ L i.i.0.8.8.L 8.p.d._ 9.LXKXKXKXKXKXKXKXKXKXKXKXKXKXKXKXKXKXKXKXKXKXKXKXKXKXKXKXKXKXKXKXKXKXKXKXKXKXKXKXKXKXKXKXKXKXKXKXKXKXKXKXKXKXKXKXKXKXKXKXKXKXKXKXKXKXLXKXoX                                                                                                                                                                    .   UXKXKXKXKXKXKXKXKXKXKXKXKXKXKXKXKXKXKXKXKXKXKXKXKXKXKXKXKXKXKXKXKXKXKXKXKXKXKXKXKXKXKXKXKXKXKXKXKXKXKXKXKXKXKXKXKXKXKX",
"J SXyXuXuX@Xc.k.c.c.U.K.v.v.b.T.1XCXtXnXiXI.b.U.m.G.G.G.L.H.m.Y.K.}.OXT.Q.aXpXaXuX;XU.OX+XoXY.oXOX@XOXQ.2XyXiXrX0X;.r r g I j.k.,.;.<.v.#.h.h.+.W.iX8X8XtXQ.U #.r.Y c.V.R @.+.E R.1XeXeXnX).T P H f j.:.H E o.m.yXiX,XyX,XR.OX%X&X!.H.%XNXsX/./.pXrXaXmX~.%XNXVXOXK.&XVXbX5XE.oX4XVX4X^.wXaXyXnX@X/.sXbX@XoXM.k.n.>.H.0XwXwXrXMXr     .   ' KXJ.N i A 4.5.9.p.4.D 9.d.d.~ N ~ D 9.9.s.B._ ^ p.]. XS.4XSX4X> E.Z > b p b L a.E.S p b b S ` s.a.S q ..q q 9 E.IX^.s a.VXKXPXJXLXGXBXLXPXIXPXFXFXJXDXVXvXVXvXvXVXlX` d 6 G m 7 9 9 q s s.9 s p 9 q -.S 7 9 9 2 D S i ' ` Q K S 5.8.5.D D S ) ` =.Q Q 9.8.0.8._ K 5.p.i._ 8.LXKXKXKXKXKXKXKXKXKXKXKXKXKXKXKXKXKXKXKXKXKXKXKXKXKXKXKXKXKXKXKXKXKXKXKXKXKXKXKXKXKXKXKXKXKXKXKXKXKXKXKXKXKXKXKXKXKXKXKXKXKXKXKXKXKXKXKXOX  .                                                                                                                                                                     bXKXKXKXKXKXKXKXKXKXKXKXKXKXKXKXKXKXKXKXKXKXKXKXKXKXKXKXKXKXKXKXKXKXKXKXKXKXKXKXKXKXKXKXKXKXKXKXKXKXKXKXKXKXKXKXKXKXKX",
"J SXeXpXfX<X@.E T o.m.m.o.T O.M.iXCXnXAX2X<.T z H m.V.Y h l ] L.O.I T U Q.rXfXuXiX*Xo.J Y #.U.v.U U W I.yXuXtXfXuX1.r r g H } [ =.=.k.F.#.} } :.Q.wXtXeXrX).+.[ } } m.H.#.>.:.@.T.eXdXgXdX).O.#.#.T k.j.E o.W M.qXwXwXyX<XI.<.c.k.F.H.<.E.n.<.@XpXrXrXmX^.c.!.m.F.H.F.K.H.H.E.M.E.E.H.^.7XpXpXuX@X!.&X+XY.T.G.Q.OX!.^.>XwXwXtXZXr   .     | KXA.p p D 4.9.p.p.9.Q 5.i.4.u 5.9.~ 9.9.s.N.l.y 0.[.E.H.4XZX-.> 5XS $ b b p ) s.E...9 b b b  .P.D.L s S ..p p E.NXE.s s.bXKXJXLXLXGXGXJXGXBXPXBXGXHXlXvXzXvXzXvXcXN.D d 6 Z Z y p y q p a.s q s 9 2 S L 9 y q 7 S d e ` ( _ S ^ 8.9.a.A ` D m ) =.A ^ 0.9.8.5.8.^ 8.p.0.4.i.LXKXKXKXKXKXKXKXKXKXKXKXKXKXKXKXKXKXKXKXKXKXKXKXKXKXKXKXKXKXKXKXKXKXKXKXKXKXKXKXKXKXKXKXKXKXKXKXKXKXKXKXKXKXKXKXKXKXKXKXKXKXKXKXKXKXKXKXoX                                                                                                                                                                    .   %XKXKXKXKXKXKXKXKXKXKXKXKXKXKXKXKXKXKXKXKXKXKXKXKXKXKXKXKXKXKXKXKXKXKXKXKXKXKXKXKXKXKXKXKXKXKXKXKXKXKXKXKXKXKXKXKXKXKX",
"J SXtXfXfX3X<.o.O.O.U.m.$.$.O.b.1XCXCXCXiXb.o.] R b.m.' H H [ Y.e.I O.T U.rXaXyXuX;X@.T T +.T.v.z U W M.yXfXfXfXuX1.r r t I h.k.,.=.P.F.' L J E T.iXwX7XwX~.k.P.v.v.G.m.#.[ +.:.R.wX9X1X8X).$.$.j.j.m.j.T o.T 1.iXuXwXiX6X<.h f g ,.n.J R l x @XMXyXtXuXT.l U j ;.G.E h h z M.<.H | W I.eXdXdXuX@X,.O.O.O.Y.b.O.+.:.G.@XrX6X7XMXe     .   | KXu.9 N ~ ) 6.i.d.p.D 9.N.S n Z.s.S ) 9.s.9.[.m Q  XE.E.4XPXP.> 5Xs 7 p b 9 Q s.|.s q p s b ` D.S...9 S b 9 S E.BXH...s.VXKXGXLXLXGXPXJXIXIXJXIXJXHXlXlXlXzXzXzXcXi.A B 2 M G y s y 9 9 a.a 7 0 9 * D ` 7 7 q 7 a ..7  .! 8.S D i.i.8.D _ 5.a D { A Q i.i.0.8.9.A 5.p.p.| 4.LXKXKXKXKXKXKXKXKXKXKXKXKXKXKXKXKXKXKXKXKXKXKXKXKXKXKXKXKXKXKXKXKXKXKXKXKXKXKXKXKXKXKXKXKXKXKXKXKXKXKXKXKXKXKXKXKXKXKXKXKXKXKXKXKXKXLXKXOX  .                                                                                                                                                                 .   lXKXKXKXKXKXKXKXKXKXKXKXKXKXKXKXKXKXKXKXKXKXKXKXKXKXKXKXKXKXKXKXKXKXKXKXKXKXKXKXKXKXKXKXKXKXKXKXKXKXKXKXKXKXKXKXKXKXKX",
"l SXrXCXCX>X<.O.} e.G.G.h.r.#.m.iXCXMXMXiXM.@.+.R P.K.#.[ [ ,.Y.z./ O.T Q.rXrXrXiX+X<.@.O.>.T.m.W E o.m.6XuXrXtXrX1., r t I z.&X@XE.P.M.z.F.z.j.Q.1X7X7XwX/.G.+X&XoXG.m.c.v.v.c.Q.wX1X1XgXW.<.I.G.m.G.$.E T U I.iXtXwXtX8XM.U H t j.m.Y [ k U (.nXtXaXCXR.z z j o.m.O.h l z I.<.J h.R <.1XdXdXdX;X<.$.$.$.I.V.O.+.+.U.6XyX7X0XnXr     .   | KX! B S ~ 9.i.p.p.s.) _ 9.c F i.s.D _ 9.9.8.C.u.p.[.|.OXVXPX-.t #X..9 S b 9 S a.&Xq s p p b ` D.D.d q S d 9 S P.sXP...s.VXKXPXLXPXIXLXPXBXBXLXDXJXHXlXlXzXvXcXzXvXs.D B 2 f M 6 9 9 q 7 ` m 7 9 q 7 D i.b S S S D D = Q | 8.Z S 0.i.5.A ` 5.Q S i.S _ p.0.9.8.| K 8.p.p.8._ LXKXKXKXKXKXKXKXKXKXKXKXKXKXKXKXKXKXKXKXKXKXKXKXKXKXKXKXKXKXKXKXKXKXKXKXKXKXKXKXKXKXKXKXKXKXKXKXKXKXKXKXKXKXKXKXKXKXKXKXKXKXKXKXKXKXKXKXoX                                                                                                                                                                        bXKXLXKXKXKXKXKXKXKXKXKXKXKXKXKXKXKXKXKXKXKXKXKXKXKXKXKXKXKXKXKXKXKXKXKXKXKXKXKXKXKXKXKXKXKXKXKXKXKXKXKXKXKXKXKXKXKXKX",
"G SXqXMXNX2Xh.' / e.[.V.0._ / m.,XMXyXMX0XM.:.:.,.F.K.P.F.H.G.}.r.0.O.#.R.yXpXuXnX;X$.T R >.T.m.R E +.I.0XuXtXtXrX<.t r g P G.%XqXOXn.E.%XbXmX@XQ.9X8X1X6X/.~.%XUX@XY.Y.@XbXqX@X).1X1X1X1X).T.>X2X@XY.b.M.I.I.T.mXuXrXtX7X1.E ] P k.G.h.k.E o.@XnXuXnXCX).o.o.E >.U.:.Y E ] G.c.R } R 2.1XeXeXtX;Xb.+.O.O.U.b.$.#.:.U.,XtXtXtXMXr     .   ' KXd d D ~ 9.d.9.i.N._ 5.N S 9.s.A.D ~ i.9.p.A.8.A.C.S.E.BXSXt t H.F D ` Q S -.=.&X2 q q q 7 L D.S.s q b 9 9 b =.mX,.s P.BXKXPXLXGXHXLXGXVXFXLXBXJXJXcXlXlXzXlXkXcXg.^ B = i d 8 y 9 q 7 Q ~ q p s 9 b i.9 y p y p ` e  .` _ A A 8.8.` D { 8.` d D A _ i.i.u.8.8.^ ` 9.0.9.^ JXKXKXKXKXKXKXKXKXKXKXKXKXKXKXKXKXKXKXKXKXKXKXKXKXKXKXKXKXKXKXKXKXKXKXKXKXKXKXKXKXKXKXKXKXKXKXKXKXKXKXKXKXKXKXKXKXKXKXKXKXKXKXKXKXKXLXKXoX  .                                                                                                                                                                 .   cXKXKXKXKXKXKXKXKXKXKXKXKXKXKXKXKXKXKXKXKXKXKXKXKXKXKXKXKXKXKXKXKXKXKXKXKXKXKXKXKXKXKXKXKXKXKXKXKXKXKXKXKXKXKXKXKXKXKX",
"J SXyXNXNX>Xh.' | e.L.V.| / | v.0XnXsXmXqXn.;.=.=.n.J.F.P.P.n.}.z./ O.O.!.uXZXpXnX;X>.Y ' j.!.v.R E E M.0XuXdXCXyX<.t r r l } <.,.,.,.G.c.k.z.:.I.7X1X9XeXQ.<.M.m.b.V.v.z.n.n.k.W.8X1X1X9XR.o.z h T b.>.U U z 1.wXtXtXiX7XI./ Y Y V.K.e.:.Y o.@XnXnXiXMX~.O.O.} P.[.h.' / #.L.Y.E.OX!.U.,XrXeXyX@Xc.Y R #.U.m.b.m.k.U.0XuXtXiXnXe     .   ' KXK A S ) 5.9.8.9.p.) b u ~ d.N..Xi.D 9.p.B.`.a. XK.E.|.IXSX> -.=.> p q p 9 ` s. XS  .Q D S -.a.E.q q b p 9 S  XNXM.L s.VXLXJXPXFXLXPXGXbXGXLXBXLXJXcXlXzXlXlXzXcX'.A M 6 f M e 7 7 7 1 S f.d S S S F =.y 7 q 9 q 5.q ..( | ~ S 8.i.` D 8.8.a.d 7 A _ 8.u.8.8._ S 4.p.9.0.( JXKXKXKXKXKXKXKXKXKXKXKXKXKXKXKXKXKXKXKXKXKXKXKXKXKXKXKXKXKXKXKXKXKXKXKXKXKXKXKXKXKXKXKXKXKXKXKXKXKXKXKXKXKXKXKXKXKXKXKXKXKXKXKXKXKXKXKXoX  .                                                                                                                                                                     2XKXKXKXKXKXKXKXKXKXKXKXKXKXKXKXKXKXKXKXKXKXKXKXKXKXKXKXKXKXKXKXKXKXKXKXKXKXKXKXKXKXKXKXKXKXKXKXKXKXKXKXKXKXKXKXKXKXKX",
"k SXiXmXmX>Xv.e.r.B.[.G.x.V.r.m.0XnXyXMX0Xm.k.n.k.G.K.oXOX!.H.!.V.e.r.r.~.nXCXMXnX;XT.%X@XOX}.G.h.G.<.!.>XuXwXnXpX<.r r g h :.m.M.;.;.<.o.@.#.W R.1X1X9X7XQ.W T O.T j.b.Y [ [ U I.6X9X1X1XW.z h h h >.>.k E o.1.wXtXiXtX9XI.j.j.j.G.L.h.G.k.c.+XyXyXyXNXoX] R | x.K.x.u.0.h.F.Y.&XlX%XQ.0XfXuXuX%Xk.Y P #.G.Y.}.@X&XOXqXnXiX1XnXe   .     | KXC.9.b 9.9.d.p.0.B.8.7 u 6.s.'..X'.D 5.9.A.D.a. X|.E.&XSXIX> k.-.1 b b b F =.s.S...b F b q -.D.S.s b b a 9 Q OXNXP.D D.DXKXPXGXGXKXJXIXVXJXJXBXLXGXcXlXlXzXzXlXcX{.N S 6 a Q d m N b 9 ) 5.7 9 9 9 q =.S 6 y u 7 S 6 d ( ` _ A 6.i.Q D i.i.i.a & d 5.8.0.8.{ 5.D Q p.8.0.^ PXKXKXKXKXKXKXKXKXKXKXKXKXKXKXKXKXKXKXKXKXKXKXKXKXKXKXKXKXKXKXKXKXKXKXKXKXKXKXKXKXKXKXKXKXKXKXKXKXKXKXKXKXKXKXKXKXKXKXKXKXKXKXKXKXKXKXKXOX  .                                                                                                                                                                 .   %XKXKXKXKXKXKXKXKXKXKXKXKXKXKXKXKXKXKXKXKXKXKXKXKXKXKXKXKXKXKXKXKXKXKXKXKXKXKXKXKXKXKXKXKXKXKXKXKXKXKXKXKXKXKXKXKXKXKX",
"G SXiXuXuX@X>.$.$.e.G.Y.e.r.e.I.1XnXuXnXrXM.>.;.r.b.Y.V.G.F.v.oXV.e.e.$.~.uXCXCXnX;XY.&X&XoX[.L.h.n.,.m.2XuX1XiX0X<.t r r I :.n.c.;.1.M.O.j.:.o.R.1X8X8X8XQ.W E ] T j.b.Y } [ E I.wXeX8XgX(.T J E f h.h.H $.@.c.qXMXuXMXwXQ.&XqXqXoXK.&XBXBX@X@XmXnXpXmX+XH.+XOXH.K. XqXbX&XK.!.$XbX%XT.wXCXuXnX>Xn.$.} r.L.Y.+XqX%X~.qXCXdXdXnXr     .   | KX[.8.Z 9.9.9.p.d.p.4.5.~ ~ d.s.]. Xm _ 4.D.s.p.]. X].4XPXbX> J.Q $ b p b -.-.S.a.9 b p ..q =.J. X.. .-.` -.-.OXBX,.A D.BXLXPXFXLXLXGXBXNXLXJXBXLXHXvXlXzXcXlXzXcX`.S M 6 s L d a b S p S 5.q 9 p 9 7 a.Q 6 9 9 7 d d s { ( | D 4.8.^ _ a.a.i.D S b D 8.0.9.8.=.D A p.9.8.) JXKXKXKXKXKXKXKXKXKXKXKXKXKXKXKXKXKXKXKXKXKXKXKXKXKXKXKXKXKXKXKXKXKXKXKXKXKXKXKXKXKXKXKXKXKXKXKXKXKXKXKXKXKXKXKXKXKXKXKXKXKXKXKXKXKXLXKXoX  .                                                                                                                                                                     bXKXKXKXKXKXKXKXKXKXKXKXKXKXKXKXKXKXKXKXKXKXKXKXKXKXKXKXKXKXKXKXKXKXKXKXKXKXKXKXKXKXKXKXKXKXKXKXKXKXKXKXKXKXKXKXKXKXKX",
"J SXiXuXCX;X@.T T O.G.V.E E O.@.,XuXwXtX2X<.W U C v.T.T h h W T.r.C T z I.tXCXdXCX;X%./ E O.G.b.k z W <.0XuXtXdXyXM.t r g I } j.,.} j.G.O.j.e.+.T.tXeXeXiX/.#.[ ] } v.U.O.[ [ E T.rXuXrXdX@XO.' | R z.j.$.:.+.c.qXMXnXMXwXI.,.v.k.n.G.V.}.~.n.@XyXuXuXnX^.c.T.H.F.K.F.K.!.n.m.U.!.&X~.T.wXuXuXuX>Xc.$.#.r.G.K.Y.&X}.Y.iXCXuXnXAXr         [ KX[.D u ~ ) 4.5.4.D ) d.4._ N.Z.S.#Xm S 4.a.8.N.S.J.J.4XPX&X> oX-.* b p s -.a.S.-.s b b S S a.S.S.q b b p 9 ( $XBX=. .D.DXKXHXGXKXJXFXBXBXLXGXBXKXFXlXzXlXzXlXzXlXXXS Z 6 i ! y 3 6 q 7 p ` 9 9 y y 7 -.( q 9 9 7 a _ e { ! { S 4.i.D D 8.6.3.N D ~ N D i.i.i.8.Q D i.8.9._ JXKXKXKXKXKXKXKXKXKXKXKXKXKXKXKXKXKXKXKXKXKXKXKXKXKXKXKXKXKXKXKXKXKXKXKXKXKXKXKXKXKXKXKXKXKXKXKXKXKXKXKXKXKXKXKXKXKXKXKXKXKXKXKXKXKXKXKXoX  .                                                                                                                                                                 .   bXKXKXKXKXKXKXKXKXKXKXKXKXKXKXKXKXKXKXKXKXKXKXKXKXKXKXKXKXKXKXKXKXKXKXKXKXKXKXKXKXKXKXKXKXKXKXKXKXKXKXKXKXKXKXKXKXKXKX",
"J ZXwXMXnX@X$.o.%.O.b.v.E O.E c.2XyXeXuX6X1.T E Y r.U.R l z W H.e.H / T I.iXuXtXdX*X%.T Y O.Y.b.x z U M.wXfXfXfXpXm.r X.g C I R E E j.L.#.] +.O.T.8X1X8XiX/.@.[ #.O.v.V.Y J P E U.rXrX8XeX(.+.I P } n.z.h.,.+.M.mXMXuXnXiXI.h h t h.G.Y H h U +XuXuXrXuXT.U k l +.H.[ l f U G.n.k ( ] <.wXuXrXuX>Xc.] ] O.G.m.O.[ +.U.2XnXeXiXCXe   . .   | KX|.L B _ 5.4.B B D 5.s.~ ) s.Z.A..Xu.D 8.s.a.J.J.S.E.bXNXx > 5XF q b w p Q s.S. .s S p S S a.S.P.7 L ..s q Q %XZX=.Q A.IXKXGXPXKXHXIXBXDXLXIXBXLXFXcXlXlXlXzXzXlX.XD ! e i L d 6 y 9 q q =.p y p p 7 D Q 9 9 9 9 9 0.2 ! _ | D ` a.Q ~ 4._ 4.S ^ ~ ~ S b ` i.5.L D i.8.9._ LXKXKXKXKXKXKXKXKXKXKXKXKXKXKXKXKXKXKXKXKXKXKXKXKXKXKXKXKXKXKXKXKXKXKXKXKXKXKXKXKXKXKXKXKXKXKXKXKXKXKXKXKXKXKXKXKXKXKXKXKXKXKXKXKXKXLXKXOX                                                                                                                                                                        %XKXKXKXKXKXKXKXKXKXKXKXKXKXKXKXKXKXKXKXKXKXKXKXKXKXKXKXKXKXKXKXKXKXKXKXKXKXKXKXKXKXKXKXKXKXKXKXKXKXKXKXKXKXKXKXKXKXKX",
"G IXwXaXnX<Xj.O.O.$.U.G.$.#.[ b.1XAXCXCXiXI.@.j.r.c.G.#.U W =.H.z.O.O.E I.yXfXpXdX;X$.O.] } Y.m.' E E M.0XuXuXuXwXM.t X.r h / ' [ [ ,.G.+.Y ] ] R.6X1X9XwXQ.o.E ] [ v.U.P.,.,.,.U.6X7X9XrX/.:.[ ' | v.v.j.c.c.U.qXnXyXuXtXI.h h h r.V./ T H T /.uXiXeXuXQ.U T k +.H.] l h U m.v.k ' T <.tXdXdXdX<Xc.;.[ [ m.b.O.%.e.G.2XuXeX1XnXr     .   | KX$X~ S 5._ D v ~ ` i.Z.) ) s.'.'..Xi.m 9.N.p.[. X XE.bXPX-.- ^.p q q p p -.s.E...b b b A A =. XD.> A d s 6 ` 4XMXW L D.FXKXPXLXLXPXIXVXFXKXIXBXLXFXcXzXcXcXcXzXcXXXD ` y e L m e u u q 7 5.m 9 p p 7 S 5.7 7 7 q 7 Q 3 ! ! ` _ _ p.D ~ 4.) _ F S ~ D D u N ) 5._ S 8.4.5.5.JXKXKXKXKXKXKXKXKXKXKXKXKXKXKXKXKXKXKXKXKXKXKXKXKXKXKXKXKXKXKXKXKXKXKXKXKXKXKXKXKXKXKXKXKXKXKXKXKXKXKXKXKXKXKXKXKXKXKXKXKXKXKXKXKXKXKXKXOX  .                                                                                                                                                                     bXKXLXKXKXKXKXKXKXKXKXKXKXKXKXKXKXKXKXKXKXKXKXKXKXKXKXKXKXKXKXKXKXKXKXKXKXKXKXKXKXKXKXKXKXKXKXKXKXKXKXKXKXKXKXKXKXKXKX",
"l SXyXpXmX;X$.Y Y #.L.G.] P Y b.2XCXnXCXwXM.v.Y.[.K.L.} U  .;.!.z./ / ] T.yXpXuXuX;X;.+.#.r.Y.V.} +.E m.qXMXuXuX0X<.r e r K V.@XqX+Xm.n.O.} } @.T.7X8X1X7X_.+.[ [ #.c.!.@XNXNX4X_.6X6X6X6X@X@XBXBXNXoXG.@XNXNXiXiXyXnXtXiXI.E T C c.Y.] O.] [ /.nXtXtXnX).T W T k.m.,.] / $.M.m.Y [ E I.rXdXdXuX>XM.,.k.:.U.m.O.O.O.T.2XdXuXnXnXr   .     | KX|.b u D ) Z._ D 8.s.A.i.3.s.Z.'. XJ.q 8.u.u.[.[.F.P.sXGXt ..E.b 9 p S b A a.|.q p b b b D a.].s.7 S d a y ` 4XZX-.( S.IXLXPXLXLXGXGXNXGXLXBXIXLXGXcXkXzXkXkXzXvX.XD ` y e L m 6 p p q 7 f.S 7 9 q 1 9 i.a 0 p b v Q 6 M ! ( _ L 9.D D 4.4.5.S D 3.) ~ n ~ D ^ 4.N 9.5.4._ LXKXKXKXKXKXKXKXKXKXKXKXKXKXKXKXKXKXKXKXKXKXKXKXKXKXKXKXKXKXKXKXKXKXKXKXKXKXKXKXKXKXKXKXKXKXKXKXKXKXKXKXKXKXKXKXKXKXKXKXKXKXKXKXKXKXLXKXoX                                                                                                                                                                    .   2XKXKXKXKXKXKXKXKXKXKXKXKXKXKXKXKXKXKXKXKXKXKXKXKXKXKXKXKXKXKXKXKXKXKXKXKXKXKXKXKXKXKXKXKXKXKXKXKXKXKXKXKXKXKXKXKXKXKX",
"J SXyXMXMX%X>./ / e.L.F.0.| ' m.1XnXyXpX0XM.>.v.F.L.L.} U W h.Y.r.I I E T.qXyXuXuX;X;./ ' e.oXG.' R E m.iXMXnXyX0X<.r r e M r.n.n.c.c.m.O./ [ E I.7X8X9XwX^.W R ] E c.n.P.H.H.P.^.6X7X7X7X/.n.!.OXY.m.v.H.~.^./.iXyXyXrXiXR.U Y I z.L.#.] ' #.+XyXaXtXnX/.W k U c.G.&XmXNX%XT.U.h ' Y <.8XdXgXuX6XOXqXqX&X~.v.O.E O.G.3XnXuXtXCXe   . .   | KX'.S ~ 6.s.kXA.D i.D.A.5.) s.A.'.A.].A ` ~ 0.|. XL.E.ZXSX> x  X..D D Q ` ` =..X$ q 9 b d A a.S.a.7 b b p q -.2XNX .` `.GXLXJXLXLXIXGXBXGXLXBXFXKXFXkXkXzXcXcXkXcX$XD ` s 6 G Z 6 y p 9 7 f.D 9 a a 9 p s.S u u 0 8 D d y ` ( ~ S 9.Q 8.i.a.s.D ^ 4.3.~ v 3.4.S F v 3.D 3.D LXKXKXKXKXKXKXKXKXKXKXKXKXKXKXKXKXKXKXKXKXKXKXKXKXKXKXKXKXKXKXKXKXKXKXKXKXKXKXKXKXKXKXKXKXKXKXKXKXKXKXKXKXKXKXKXKXKXKXKXKXKXKXKXKXKXKXKXOX  .                                                                                                                                                                     bXKXKXKXKXKXKXKXKXKXKXKXKXKXKXKXKXKXKXKXKXKXKXKXKXKXKXKXKXKXKXKXKXKXKXKXKXKXKXKXKXKXKXKXKXKXKXKXKXKXKXKXKXKXKXKXKXKXKX",
"J SXnXmXiX2X+X2XmX%X}.}.bXBXbX+X2XCXuXMX0X~.@XUX%XoXL.&X4X%XOXE.r./ Y ] T.yXuXuXuX@X$./ ' e.Y.V.R [ W G.qXMXuXtX6X<.j : r h #.k.>.E ,.m.] ] #.R R.eXeX8XwX/.o.W E H ,.n.J W R W M.6XtX8XrX_.k f f t h.,.l k W ;.0XnXiXiX7XI.J J I V.K.0.' / +./.sXaXrXnX+XT l h h.Y.}.%XbX+XY.v.Y } ] b.wXfXuXpX@XOX4XbX%X~.m./ Y / T.2XCXiX1XCXr         | KXlX[.B.` s.#X8.) a.s.s.i.) s.A.'..X|.L _ ) u.E. X X5XSXZXs -.P.7 p w b S ) s.#XS  .) Q Q -.`  X=.7 ..b y q { bXNX..{ `.FXKXLXLXJXFXHXIXJXLXBXGXLXFXcXzXcXkXzXzXcXjXQ D s e Z S 7 6 9 7 7 Q ) S Q ~ D Q D.p 7 8 8 3 m K 6 _ Q | ~ 5.~ i.s.i.i.D D ) ~ D b D 3.N D f..X#XjXjXLXKXKXKXKXKXKXKXKXKXKXKXKXKXKXKXKXKXKXKXKXKXKXKXKXKXKXKXKXKXKXKXKXKXKXKXKXKXKXKXKXKXKXKXKXKXKXKXKXKXKXKXKXKXKXKXKXKXKXKXKXKXKXKXKXKXLXKXoX                                                                                                                                                                    .   %XKXLXKXKXKXKXKXKXKXKXKXKXKXKXKXKXKXKXKXKXKXKXKXKXKXKXKXKXKXKXKXKXKXKXKXKXKXKXKXKXKXKXKXKXKXKXKXKXKXKXKXKXKXKXKXKXKXKX",
"J SXaXmXyX>XU.OXOXoXL.L.!.&XoX!.,XMXrXpX0XQ.@XqX&X}.K.OX4X@X!.!.B./ ] O.T.yXyXuXuX;Xb.e.j.c.}.L.k.n.k.T.0XMXCXnXwX<.j : r h ] r.,.[ :.c.] #.,.W I.7X9X9XeXQ.E [ :.U :.b.U [ E z M.rXrX9XeX(.z h f t $.,.h H [ ;.>XnXwXwXwXI.] R / v.K.O.[ ] +./.aXrXtXMX+XR Y P x.K.}.VXbX@XY.G.%XbX2XT.6XuXdXyX4X^.4X4X&X!.!.+X2X%X~.0XMXiXiXnXr     .   | KXlX{.'.~ p.|.` 4.s.a.Z.Z.D { i.D.A. X_ N ~ s.[.K.K.4XPXsX, S.i.1 b p b S ` Z.#Xb S F D  .i.-.E. .7 p 9 9 q -.4XmXt ` C.IXLXPXLXGXIXPXFXLXJXVXGXLXIXcXkXkXzXkXkXcXkX) A s 6 f M i N b b u Q D 9 p p 9 7 a.S 7 8 8 q p D = ` ( _ Q Q D i.i.i.i.D D ) D D N D 3.D D 7.zXjXjXjXLXKXKXKXKXKXKXKXKXKXKXKXKXKXKXKXKXKXKXKXKXKXKXKXKXKXKXKXKXKXKXKXKXKXKXKXKXKXKXKXKXKXKXKXKXKXKXKXKXKXKXKXKXKXKXKXKXKXKXKXKXKXKXKXKXKXLXKXOX  .                                                                                                                                                                 .   bXKXKXKXKXKXKXKXKXKXKXKXKXKXKXKXKXKXKXKXKXKXKXKXKXKXKXKXKXKXKXKXKXKXKXKXKXKXKXKXKXKXKXKXKXKXKXKXKXKXKXKXKXKXKXKXKXKXKX",
"l SXrXMXAX@X>.U T [ H.v.Y J J <.>XrXwXrX,Xb.U U Y v.G.Y l x E H.e.I I T T.wXrXrXiX*X%.I Y [ G.v.U [ E M.0XCXfXtX,Xc.j : r C [ $.,.o.;.m.$.,.h.o.I.7X9X9X7X).W R [ U >.b.U +.+.U I.9X8X9X8X).U h I h j.,.k W ;.<.3XiX1XuX7XI.T Y H z.Y.e.] o.+.(.uXtXtXnX+Xk.v.k.F.K.[.%X%X}.}.}.OXlX%XT.0XMXpXyX4X^.@X4XOXK.E.&XbX%XOX2XpXrXiXyXe         | KXcXZ.Z.( D. Xi.5.s.s.`.D.` d.s.s.s.A.8.m ~ Z. XK. XqXPX@X, E.-.> p w a m { J. X7 s s b b ` a.S.a.Q =.i.`  . .&XNXf -.S.GXKXJXLXGXIXKXHXLXGXBXGXLXIXcXkXcXkXcXkXkXkX~ D d 6 s d B S F S c D { 9 9 9 p 2 ) Q 7 q 8 8 7 L 6 ( ( ( Q N Q 8.8.5.8.Q y N ^ D v b ~ F D 7.XXzXkXjXLXKXKXKXKXKXKXKXKXKXKXKXKXKXKXKXKXKXKXKXKXKXKXKXKXKXKXKXKXKXKXKXKXKXKXKXKXKXKXKXKXKXKXKXKXKXKXKXKXKXKXKXKXKXKXKXKXKXKXKXKXKXKXKXKXKXLXKXoX                                                                                                                                                                        UXKXKXKXKXKXKXKXKXKXKXKXKXKXKXKXKXKXKXKXKXKXKXKXKXKXKXKXKXKXKXKXKXKXKXKXKXKXKXKXKXKXKXKXKXKXKXKXKXKXKXKXKXKXKXKXKXKXKX",
"l SX6XaXMX;X;.U z E m.c.W R U <.=XwX9XrX6X1.T U h k.U.T l x R U.r.C H T I.wXwXeXtX*X%.h C E m.v.l k z <.wXCXtXwX,Xb.j : g C ] $.;.o.,.m.+.#.[ E R.7X9X9XwX_.b.I.T.b.m.U.o.E E o.I.1X9X9X8X(.o.Y Y Y k.k.] +.E <.2XnXuXuXuXI.U j j e.G.E H C T ).wXwXwXmX~.U k h #.Y.} h C k G.m.h / U <.9XtX8XtX>X<.E o.[ m.m.[ ] O.b.2XnXrXwXMXr   . .   | KXzX'.A.D N.].5.6.Z.Z.`.A.D s.Z.Z.'.A.p.d Q  X X[.oXsXPX2.s $XQ 7 9 p p b -.S.J.9 b b m p -.a. X .s F ..b 9 a.bXsX..{ A.FXLXPXLXIXGXKXHXLXHXNXGXLXIXcXkXzXzXkXzXcXkX_ A m 3 f M e 8 y w 1 S a.9 9 9 q * Q i.7 q 8 8 * ` y A ` ! Q B D a.8.i.8.^ 7 1 u ~ B v ~ D 5.6.XXjXzXjXKXKXKXKXKXKXKXKXKXKXKXKXKXKXKXKXKXKXKXKXKXKXKXKXKXKXKXKXKXKXKXKXKXKXKXKXKXKXKXKXKXKXKXKXKXKXKXKXKXKXKXKXKXKXKXKXKXKXKXKXKXKXKXKXKXKXKXKXoX  .                                                                                                                                                                 .   %XKXKXKXKXKXKXKXKXKXKXKXKXKXKXKXKXKXKXKXKXKXKXKXKXKXKXKXKXKXKXKXKXKXKXKXKXKXKXKXKXKXKXKXKXKXKXKXKXKXKXKXKXKXKXKXKXKXKX",
"G SX6XaXMX@X;.z z T M.c.U U Y <.<XrX9XrX6X1.z U U j.b.o.l j W m.O.H I &.I.7XeXwXtX*X%.U U T m.b.k U z 1.0XtX8X8X7XI.t : r h Y [ [ E >.v.] Y  .R m.rXrX9XrX@X^.bXBXbXoXv.} J P E m.0XtX8XeX+X[ Y Y P z.F.} [ [ <.0XaXtXdX1XR.C j r +.G.U k k k Q.wXwXwXtXQ.z h j O.U.E h h h m.I.t G x ;.9X8X8XeX;X<.z T W b.n.U T o.m.1XuXrXwXMXe   .     | KX#Xs.A.Q D.`.~ 8.s.A. X X~ a.D.Z.A.].A.y d .X X X!.aXPX-.e &XS q p p 9 F =.l.D.7 a p p 9 { a.S...s S b p q =.sXsX> { J.GXLXJXJXBXLXKXPXLXGXBXJXLXDXcXzXcXcXzXlXzXkXi.D S = s L i 8 y p 1 S N.9 q q 0 7 F a.1 7 8 q 7 ` a a ` ! _ b D p.8.i.i.Q D S u ~ A N 9._ 4.9.XXzXjXjXLXKXKXKXKXKXKXKXKXKXKXKXKXKXKXKXKXKXKXKXKXKXKXKXKXKXKXKXKXKXKXKXKXKXKXKXKXKXKXKXKXKXKXKXKXKXKXKXKXKXKXKXKXKXKXKXKXKXKXKXKXKXKXKXKXKXKXKXoX  .                                                                                                                                                                     bXKXKXKXKXKXKXKXKXKXKXKXKXKXKXKXKXKXKXKXKXKXKXKXKXKXKXKXKXKXKXKXKXKXKXKXKXKXKXKXKXKXKXKXKXKXKXKXKXKXKXKXKXKXKXKXKXKXKX",
"I AX0XtXMX;X;.E Y E m.G.$.O.%.b.3XiXwXeX1Xb.] / Y x.G.[  .J +.K.r./ / %.G.1XnXiXiX;XO.Y ] ] T.m.z W T 1.3X8XgX1X7XI.t > t M ' #.;.=.,.H.H.|.oXH.Q.0XeXwXrX/.!.%X2X%X}.F.n.L.K.v.T.0XrXeXrX+X$.0.h.#.v.v.j.G.H.^.6X6X6X6X7XI.U j t +.G.U H z z Q.wXiXiXyX_.z l h O.U.] h h C U.b.h H J 1.wXdXtXdX>Xc.U E U M.m.R / &.b.2XuXrXaXpXr   . .   [ KX.XD.D.` ].$X) 9.Z.A.S.S.` 9.s.s.B.A.].d d #X XE.|.NXsX> t ^...w a a y A a.P.=.7 w p n 6 i.u.S.d d S b 9 9 P.NXsX> i. XGXKXPXGXFXKXLXPXLXGXBXHXLXIXcXlXzXzXzXzXzXzXd.~ ! 3 m { i 6 9 9 q w s.q 7 q 9 7 a i.* q 7 7 2 N d e | ! 8.A Q p.8.p.i.Q _ _ _ _ A B 9.5.4.d.g.kXkXjXLXKXKXKXKXKXKXKXKXKXKXKXKXKXKXKXKXKXKXKXKXKXKXKXKXKXKXKXKXKXKXKXKXKXKXKXKXKXKXKXKXKXKXKXKXKXKXKXKXKXKXKXKXKXKXKXKXKXKXKXKXKXKXKXKXKXKXKXOX  .                                                                                                                                                                 .   lXKXKXKXKXKXKXKXKXKXKXKXKXKXKXKXKXKXKXKXKXKXKXKXKXKXKXKXKXKXKXKXKXKXKXKXKXKXKXKXKXKXKXKXKXKXKXKXKXKXKXKXKXKXKXKXKXKXKX",
"G SXwXuXnX<X>.R / #.Y.G./ / O.V.3XnXuXnXwXm.O.O.| V.K.!.+X+X!.!.e.I I O.I.2XuXiXiX;X%.P / ' L.n.P U T c.1XCXeXwX6X2.< - r l j.&X&XOXk.m.OXqXbX+XQ.wXeX9XsX@X^.qXmX%XY.Y.&XbXNX%X/.0XtX7XdX<X+X2XmX2XY.m.OXbXsX>X0XwX9X9XwXI.Y I I j.G.[ W E E W.wXeX8XuX/.W U k +.L.e.Y I T G.v.k |  .<.wXtXfXfX6Xc.R [ E m.Y.[ #.O.m.3XrXrXrXpXr         | KX.Xs.i.) s.`.i.p.A.]. X].Q 5.s.s.N.l.D.A p.|.J.F.&XIXsX> -.S.> 9 0 w 9 S p.J.-.q s p a q i.a.J.s 9 s p s q P.IX4Xs { S.HXLXGXGXGXKXJXGXPXGXBXJXHXFXcXkXlXcXzXcXzXcXZ.~ Q 6 d ' i 7 9 9 7 q a.q 6 9 w q 9 d.9 p b b b S S i _ ! 5.^ S 8.p.9.8.) | 5.Q ~ ^ A 0.9.5.d.s.kXjXjXKXKXKXKXKXKXKXKXKXKXKXKXKXKXKXKXKXKXKXKXKXKXKXKXKXKXKXKXKXKXKXKXKXKXKXKXKXKXKXKXKXKXKXKXKXKXKXKXKXKXKXKXKXKXKXKXKXKXKXKXKXKXKXKXKXKXLXKXoX  .                                                                                                                                                                     2XKXLXKXKXKXKXKXKXKXKXKXKXKXKXKXKXKXKXKXKXKXKXKXKXKXKXKXKXKXKXKXKXKXKXKXKXKXKXKXKXKXKXKXKXKXKXKXKXKXKXKXKXKXKXKXKXKXKX",
"I SXrXMXMX@X;.W ] e.F.G.V.V.V.T.3XuXtXpX2XM.E / ] z.E.&XqX4X+XY.e.C f z T.wXuXuXuX*X%.! ' 0.L.V.I J Y k.qXAXMXnXrXM.t , e h #.v.c.>.j.M.,.k.k.:.M.rX9X6XtX/.,.M.v.k.v.G.k.z.M.>.I.wXtX8XeX=X<.M.G.c.m.b.k.U.m.Q.6XrXtXaXtXR.R Y Y j.L.$.:.@.;.Q.wX8X8XuX+X+.E U h.Y.e.P I Y U.V.Y ' P <.rXtX8XaX>Xn.J R Y m.G.Y / T b.3XtXwXrXpXe   . .   ' KX].s.i.) A.`.` a.B.Z.S.[.! ) d.p.p.u.{ A |. XE.E.&XSXIXt -. X-.-.` =.` -.{ ].D 9 a a b q { s.S.q s 9 p 9 e E.IX4Xt =.].PXLXJXGXHXKXPXGXJXIXVXJXHXIXlXlXzXlXcXcXzXcXA.) ) e d ( s 6 9 q 9 7 -.s 7 7 7 4 * a.~ m S b p S 4.i ! _ | ^ N 5.p.i.8.) _ 5.^ ^ ^ B 4.0.^ 9.Z.kXzXjXLXKXKXKXKXKXKXKXKXKXKXKXKXKXKXKXKXKXKXKXKXKXKXKXKXKXKXKXKXKXKXKXKXKXKXKXKXKXKXKXKXKXKXKXKXKXKXKXKXKXKXKXKXKXKXKXKXKXKXKXKXKXKXKXKXKXLXKXoX  .                                                                                                                                                                 .   bXKXKXKXKXKXKXKXKXKXKXKXKXKXKXKXKXKXKXKXKXKXKXKXKXKXKXKXKXKXKXKXKXKXKXKXKXKXKXKXKXKXKXKXKXKXKXKXKXKXKXKXKXKXKXKXKXKXKX",
"G SXyXMXNX>XQ.4XmX&XE.K.2XNXmX+X,XuXiXrXwXM.o.O.$.V.H.OXqXqX&XH.L.V.V.b.~.2XtXwXiX;XY.$X%X#X[.[.oX&X&X}.2XMXMXuXwX2.t , r f [ h.>.E +.b.W E ] U I.6X9X9X6X/.[ R ' T j.m.E +.+.U M.1X9X1X1X).T U U z <.$.H H W 1.4X9XrXaXiXT.[ | ' v.U.r.E o.%.Q.wX8X8XyX/.E U H :.L.e.| ] #.Y.G.#.l.k.c.0XtX7XpX0Xn.} R [ n.G.I C C b.2XuXwX6XpXr     .   | KXA.s.` i.|..X-.l.A.J.Z.]._ ~ p.i.N.p.m =.$XE. XE.4XSX6Xt 1.a.q ..d D Q a.a.oXs q p n p 7 -.s.S.> s s s 9 6 S.BXsXe i. XHXLXGXGXPXKXGXGXLXGXNXPXJXIXlXlXlXkXzXzXkXcX`.~ ! y i ' d 7 9 9 y 7 _ D w b b n q s.S 7 q 7 1 7 p.y A ( _ _ N _ 9.8.8.) ! 4.^ a N M ) 4._ d.s..XzXzXLXKXKXKXKXKXKXKXKXKXKXKXKXKXKXKXKXKXKXKXKXKXKXKXKXKXKXKXKXKXKXKXKXKXKXKXKXKXKXKXKXKXKXKXKXKXKXKXKXKXKXKXKXKXKXKXKXKXKXKXKXKXKXKXKXKXLXKXOX                                                                                                                                                                    .   2XKXKXKXKXKXKXKXKXKXKXKXKXKXKXKXKXKXKXKXKXKXKXKXKXKXKXKXKXKXKXKXKXKXKXKXKXKXKXKXKXKXKXKXKXKXKXKXKXKXKXKXKXKXKXKXKXKXKX",
"H SXwXaXMX@XH.!.OXK.G.Y.].}.Y.T.>XtX7XtX6XM.@.>.#.v.L.U.@X&X^.Y.}.OX+X~.T.0XyXwXwX;XT.&X%XOXY.K.OX%X@X~.0XMXMXfXrX2.< : r f #.j.,.W ;.M.T ] [ R I.1X9X9X9X_.o.W [ E $.M.E #.:.E m.6X8X7X9X(.T U E z @.<.T Y T ;.@XaXtXuXuX+X}.%X%X~.Y.T r r z R.7XeX9XyX+X%.T U j.K.K.%XbXOXoXG.%XcX4XU.0XtXtXrX>X!.@XqX&XK.F.Y T T r.3XyXrXwXpXr         | KXA.i.4.i.S.].5.B.`.J.].].| _ Z.s.N.P.9 S.%XJ.E.E.qXSX^.> _.-.> s b S S =.D.|.-. .i.6.{ { ` a.S.> b s p q q E.qX4X> a. XJXLXGXIXLXKXGXGXLXGXVXJXJXIXlXlXkXlXkXlXzXlX[.D ~ i s ( M 2 7 q 9 $ _ 8.y p a w q f.Q 7 y 9 q 9 ` 6 i { _ _ A ~ 8.9.8.~ _ 8.! M N N ~ 4.) i.f..XzXjXLXKXKXKXKXKXKXKXKXKXKXKXKXKXKXKXKXKXKXKXKXKXKXKXKXKXKXKXKXKXKXKXKXKXKXKXKXKXKXKXKXKXKXKXKXKXKXKXKXKXKXKXKXKXKXKXKXKXKXKXKXKXKXKXKXKXLXKXOX  .                                                                                                                                                                     bXKXLXKXKXKXKXKXKXKXKXKXKXKXKXKXKXKXKXKXKXKXKXKXKXKXKXKXKXKXKXKXKXKXKXKXKXKXKXKXKXKXKXKXKXKXKXKXKXKXKXKXKXKXKXKXKXKXKX",
"I SXeXrXuX@X,.W U R m.v.E E E b.,XuXtXpX6X<.E ] P j.H.R k k [ Y.e./ / ] I.0XwXwXwX;XO.T ] E G.v.U E T c.6XfXpXdXrX2.t : r C ' [ [ R >.M.O.+.:.E I.9XtX8XrX@X[ R E Y k.H.[ [ [ W I.rXtXgXdX;Xo.T [ U >.k.Y Y E ;.<XuXyXuXiX).v.G.V.G.T.T < < z ).iX8X7XuX+XT h t +.Y.G.oXOXH.Y.T.^.#X/.G.6XuXrXrX0XH.!.%X~.U.U.+.r.$.m.2XuXtXwXMXr   . .   | KX|.Z.) s. XB.9.B.'.].]. X8.5.s.p.C.a.1 |.#X[.].E.bXSX1.t 5X` q p b b L a.D.OX7 9 ..b D ! a. Xs.> b b p 9 s OXIX4Xg a.|.LXLXGXIXKXLXFXGXKXGXNXJXHXBX%XkXkXkXkXkXlXlX`.A _ y y ( ( Z Q ` 3.D s.4.7 p p 9 7 Q ` 7 9 q 9 6 A s i 8./ ^ N A 9.9.9._ _ A B S S a S 4.` 6.s.XXzXzXLXKXKXKXKXKXKXKXKXKXKXKXKXKXKXKXKXKXKXKXKXKXKXKXKXKXKXKXKXKXKXKXKXKXKXKXKXKXKXKXKXKXKXKXKXKXKXKXKXKXKXKXKXKXKXKXKXKXKXKXKXKXKXKXKXKXKXKXoX                                                                                                                                                                    .   UXKXKXKXKXKXKXKXKXKXKXKXKXKXKXKXKXKXKXKXKXKXKXKXKXKXKXKXKXKXKXKXKXKXKXKXKXKXKXKXKXKXKXKXKXKXKXKXKXKXKXKXKXKXKXKXKXKXKX",
"H SX8XrXnX;X1.T z R m.G.O.O.E <.,XuXaXpXwXc.R [ Y j.G.U h f / G.r./ Y T M.0XwX0XiX;X%.T H U M.b.k k z 1.rXfXfXaXaXI.t : g h C C ..k :.n.E I I x M.wX8X9XwX/.E H P Y k.G.R G J R I.iXtX8XeX;X+.Y Y Y k.j./ P J :.>XpXnXCXnXR.U t h $.V.O.z z &.Q.iXuXrXuX).&.k j O.U.$.h k U n.U.J | R <.wXtXtXuX0Xc.R ] E b.I.[ $.%.b.3XpXrXwXpXe     .   | KX[.s.` N.|.N._ '.`.].[.|.u.` s.a.S.A 1 $X#XS.E.E.bXSX=., 5XA 9 b b b Q a.P.OX9 s m Z A Q i.K.C.q -.` ` Q  .#XIX4Xt i.$XLXLXGXGXKXLXIXHXKXGXBXLXHXBXlXlXzXzXlXzXkXlX[.^ 5.s e ' ' s b S b q D i.2 a a 9 q S i.9 0 q q 7 b Q a _ ! ( ^ K 9.0.9._ _ A = 7 m s S ) ) i.a.g.cXjXKXKXKXKXKXKXKXKXKXKXKXKXKXKXKXKXKXKXKXKXKXKXKXKXKXKXKXKXKXKXKXKXKXKXKXKXKXKXKXKXKXKXKXKXKXKXKXKXKXKXKXKXKXKXKXKXKXKXKXKXKXKXKXKXKXKXKXKXOX  .                                                                                                                                                                     bXKXKXKXKXKXKXKXKXKXKXKXKXKXKXKXKXKXKXKXKXKXKXKXKXKXKXKXKXKXKXKXKXKXKXKXKXKXKXKXKXKXKXKXKXKXKXKXKXKXKXKXKXKXKXKXKXKXKX",
"H CX3XwXnX;X<.T E O.G.V.O.$.$.b.>XuXaXaXrXM.@.r./ j.G.[ U J [ K.e./ ' ] I.wXpXyXeX;X@.T T T M.b.U U T <.6XfXpXaXaXH.t = i f { z.k.k.k.F.z.v.n.k.I.6X7X,XwX/.:. .Y ] k.L.} J J [ m.,XwX7XtX(.k.} } e.V.z.} | ] ,.6XsXiXdXiXT.z h k $.r.%.&.T T Q.uXnXtXCX(.%.z k O.H.+.k f l M.G.k R U ;.wXfXgXtX,XM.U #.T M.G.E $.$.m.3XrXwXwXMXg   .     ' KXS.4.) N..XZ._ A.A.A.A.|.x.` a.a.A.s S %X XJ.S.H.NXSXt ..&Xb p p b b Q a.D.#X9 b m S D ) =. X-.O S b s q 9 E.IX4Xs =.$XJXKXFXHXKXPXBXPXKXIXDXLXGXVXcXvXvXcXvXvXvXvX.X_ 8.d y K Z 6 9 9 0 7 b i.7 p p y 9 w a.9 9 q q 7 b =.e M M _ _ S 5.p.p.4.8.9.Q s 6 a S ` ` 5.s.'.zXzXLXKXKXKXKXKXKXKXKXKXKXKXKXKXKXKXKXKXKXKXKXKXKXKXKXKXKXKXKXKXKXKXKXKXKXKXKXKXKXKXKXKXKXKXKXKXKXKXKXKXKXKXKXKXKXKXKXKXKXKXKXKXKXKXKXKXKXKXoX                                                                                                                                                                    .   %XKXKXKXKXKXKXKXKXKXKXKXKXKXKXKXKXKXKXKXKXKXKXKXKXKXKXKXKXKXKXKXKXKXKXKXKXKXKXKXKXKXKXKXKXKXKXKXKXKXKXKXKXKXKXKXKXKXKX",
"H AX0XwXuX@Xj.R Y [ L.V.] Y / b.3XuXyXnXiXM.#.r.} v.}.r./ E $.L.r.e.e.e.I.2XMXuXtX;X>./ O.e.G.z.' Y Y c.qXnXnXNXaXI.t > f M L.bXbX4XE.K.&XbXVX%XQ.:X7X,X0X+X!.%X%X%XY.K.OXbXbXOX~.0XuXrXrX;XOX%XbX%XK.F.OXbXUX@XmXrXrXuX2X).T Y C r.U.$.T ] o.T.yXnXpXMX+X@.&.T #.m.$.Y h U v.m.Y ' E $.1XgX8XwX3Xm.O.j.O.m.U.] ,.:.k.qXuXiX7XCXr     .   | KX|.8.4.D.#XD.-.A.A.'.`.#Xu.Q a.p.8.7 u.$XJ. XJ.OXNXNX, x E.s a p d b  .f.D.E.9 b ..S S ` =.E.a.1 S S b s ..a.ZX4Xt a.$XLXLXFXJXLXPXBXLXKXGXFXLXFXVXVXvXvXvXvXvXVXvX.X) 0.S y f d y s 9 w q 9 a.p q y p 9 6 C.s q 9 9 q b ( 7 L ! _ { S ~ p.p.5.4.p.8._ M i B ^ ) ) i.d.zXzXLXKXKXKXKXKXKXKXKXKXKXKXKXKXKXKXKXKXKXKXKXKXKXKXKXKXKXKXKXKXKXKXKXKXKXKXKXKXKXKXKXKXKXKXKXKXKXKXKXKXKXKXKXKXKXKXKXKXKXKXKXKXKXKXKXKXKXKXoX  .             .   .     .   .   .       .   .   .         . .   .   .   .   .   .                                                                                     bXKXLXKXKXKXKXKXKXKXKXKXKXKXKXKXKXKXKXKXKXKXKXKXKXKXKXKXKXKXKXKXKXKXKXKXKXKXKXKXKXKXKXKXKXKXKXKXKXKXKXKXKXKXKXKXKXKXKX",
"J SXyXnXnX@X>.] [ =.G.V.| Y / b.2XnXyXMXwXb.] / / V.G.e./ Y $.U.L.}.OXT.+X1XuXuXuX;X$.Y ' e.L.V.H G I v.qXNXNXnXsXU., > g M e.V.n.P.,.n.P.F.H.b.I.1X8X1XwX(.M.!.~.U.m.H.m.^.OXU.Q.7XgX8XtX=XI.T.^.U.n.v.G.oX~./.>XeXwXtXuXR./ / ! x.K.} / [ $.~.yXuXuXCX@X+.T C #.Y.e./ I / m.m.T ' Y $.2XdX7XyX2Xb.I Y Y n.Y.Y R  .,.0XyXrX1XfXr     .   | KX#X) i.].#Xs.` B.A.A.F.|.p.D 0.8.m 7 A.#XK. XE.%XSXsX> -.D.y a p b b ` s.P.P.9 b b b b ` `  Xi.2 D b s q S 5XGX@X..=.$XLXLXGXLXKXGXGXLXLXGXGXKXBXcXVXvXvXvXvXvXvXvX#X8._ m i L ` e q s s q q s.d q p y 9 6 D.b 7 9 7 2 8 A y K _ ( _ D D 0.p.4._ 0.4.^ B y B ~ _ ` i.d..XzXLXKXKXKXKXKXKXKXKXKXKXKXKXKXKXKXKXKXKXKXKXKXKXKXKXKXKXKXKXKXKXKXKXKXKXKXKXKXKXKXKXKXKXKXKXKXKXKXKXKXKXKXKXKXKXKXKXKXKXKXKXKXKXKXKXKXKXKXoX  .                                                                                                                                                                 .   2XKXKXKXKXKXKXKXKXKXKXKXKXKXKXKXKXKXKXKXKXKXKXKXKXKXKXKXKXKXKXKXKXKXKXKXKXKXKXKXKXKXKXKXKXKXKXKXKXKXKXKXKXKXKXKXKXKXKX",
"I SXyXyXMX@X^.%XqX&XE.K.OXqX%X+X2XnXuXMXiXG.$.e.e.r.}.}.^.^.H.H.K.OX2XOXY.wXuXtXwX<X>./ ] 0.L.G.C.G.G.U.2XAXnXnXaX2., , r j / @.;.W ;.n.+.:.>.E b.1X9X:XrX(.+.E >.] >.m.R E E U M.7X9X9X8X(.o.Y  .h #.v./ E ] <.@X7X7XtXuX).[ Y / j.K.h.R R @.Q.iXyXiXnX+XO./ / h.K.e./ I ] G.V.] ( [ ,.1XdXtXMXqX,.k g ..n.H.H t ..:.qXnXtX1XCXt   .     | KX|.) i.`.$Xd.i.Z.Z.'.A.#XN.b ` ~ 6 y |.|.D.L.E.4XGX@X, S.=.7 w p b b ` P.A.a.e S b b d i.` |.=.7 Q ..s q S &XGX5Xt i.#XLXJXGXKXLXFXIXKXLXGXHXKXBXlXcXlXvXlXlXkXXXlX$X8.4.M s G { y q 9 9 q 7 s.S q p y 9 q f.D 6 d b v b Q s Z ( ! 4.L N 5.9._ 5.0.0.~ A d v ^ 4._ 8.d.$XzXLXKXKXKXKXKXKXKXKXKXKXKXKXKXKXKXKXKXKXKXKXKXKXKXKXKXKXKXKXKXKXKXKXKXKXKXKXKXKXKXKXKXKXKXKXKXKXKXKXKXKXKXKXKXKXKXKXKXKXKXKXKXKXKXKXKXLXKXOX              } &XoXoXoXoXoX}.oXoXoXoXOXoXY.oXoXoXoXoXOXoXoXoXoXoXoXoXoXoXoXoXoXoX&Xh.                                                                                  bXKXKXKXKXKXKXKXKXKXKXKXKXKXKXKXKXKXKXKXKXKXKXKXKXKXKXKXKXKXKXKXKXKXKXKXKXKXKXKXKXKXKXKXKXKXKXKXKXKXKXKXKXKXKXKXKXKXKX",
"G AXyXuXMX@XQ.@X@XOXH.G.OX2X@X/.3XuXtXuX1Xm.#.r.O.V.|.%XbXqXOXE.Y.%XUX@X).2XrXrXeX<X>.} e.e.G.}.%XNXbX~.qXAXyXMXaXQ.< = r h $.k.,.W ;.M.@.,.k.E I.8X1X9X7X(.o.,.j.R r.T.Y +.>.R M.6X7X1X9X@Xo.J R h [ v.] O.%.>.(.rXeXrXeX).OXbXUXOXY.oX4XqX+X+X0XiXuXnX+X~.+X%XoX}.}.%XUXOX}.Y.&X$X&XH.2XuXrXaX4XH.OX&XoXL.H.U.OX~.m.@XnXuX1XuXg     .   | KX X) f.`.cXs.i.Z.Z.A.'.oXA.S ` S * Z OX XC.l.J.mXBX=.> E.a.S ) ~ ` Q i.{ H.-.s m b S S =. .&X-.7 A b p q ..5XSX/...a.#XLXLXGXLXLXIXGXKXLXIXPXKXDXkXlXzXzXlXlXkX{.zXkX5._ Z e d { y 6 9 s 9 6 p.S 7 9 9 q 7  .` p b b b p 5.d d ( ! { Q a _ p._ _ 8.5.! ^ b a ^ _ _ i.f.XXzXKXKXKXKXKXKXKXKXKXKXKXKXKXKXKXKXKXKXKXKXKXKXKXKXKXKXKXKXKXKXKXKXKXKXKXKXKXKXKXKXKXKXKXKXKXKXKXKXKXKXKXKXKXKXKXKXKXKXKXKXKXKXKXKXKXKXLXKXoX  .           bXKXKXKXKXKXKXKXKXKXKXKXKXKXKXKXKXKXKXKXKXKXKXKXKXKXKXKXKXKXKXKXKXKXKXNX                                                                              .   %XKXLXKXKXKXKXKXKXKXKXKXKXKXKXKXKXKXKXKXKXKXKXKXKXKXKXKXKXKXKXKXKXKXKXKXKXKXKXKXKXKXKXKXKXKXKXKXKXKXKXKXKXKXKXKXKXKXKX",
"I AX0XyXqX@X<.[ ] [ G.n.[ $.o.b.<XiXwXtX0XM.E ] / V.L.#.[ =.;.M.r.e.e.$.I.0XaXuXuX<X$./ [ ' G.V.+.:.#.m.0XuXnXMXaXU.r : r C $.$.@.[ $.m.#.e.k.] M.iX8XeXrX(.+.[ :.] r.}.O.} } E U.wXdXeXdX;X+.Y ] l +.n.] $.O.@.(.pXrXrXeX/.U./.!.M.H.H.OX@X^./.wXuXtXiX+X}.@X+X}.Y.Y.%X%X+X}.}.+XlX%XU.6XtXrXtX6XE.%XqX&X!.Y.+XbX2X!.@XyXwXiXfXr         ' KX#XD i. XkXs.i.'.`.].[.#XC.A Q p 2 { $XoX|. XE.sXPX,.> #XL q s b S b i.l.J.Q s b b S m a. .#X` 6 L b p 9 L 4XSX&X..a.#XLXJXGXPXJXIXGXKXJXGXGXKXDX$XcXcXvXzXzXkX[.kXkX8.Q S e f _ d 6 s s q 9 a.D s A D A b 5.Q 7 7 7 7 1 ` s y | ! _ ^ N D p._ _ i.8.( ^ B a ^ _ _ i.i.`.lXLXKXKXKXKXKXKXKXKXKXKXKXKXKXKXKXKXKXKXKXKXKXKXKXKXKXKXKXKXKXKXKXKXKXKXKXKXKXKXKXKXKXKXKXKXKXKXKXKXKXKXKXKXKXKXKXKXKXKXKXKXKXKXKXKXKXKXKXoX  .       .   UXKXLXLXKXLXKXKXKXKXLXKXKXLXKXKXKXKXLXKXKXKXLXKXKXKXLXKXKXLXKXLXKXLXKXbX  .                                                                           .   bXKXKXKXKXKXKXKXKXKXKXKXKXKXKXKXKXKXKXKXKXKXKXKXKXKXKXKXKXKXKXKXKXKXKXKXKXKXKXKXKXKXKXKXKXKXKXKXKXKXKXKXKXKXKXKXKXKXKX",
"I AX,XiXwX>X<.R E / G.v.E O.T b.<XwX7XrX6X<.E ] I e.U.' J J [ n.e./ / ] I.wXpXrXtX<X%.Y / T v.V.Y O.E <.>XnXCXfXyX!., , r C / #.+.o.>.H.$.h.k.[ I.1XeX7XrX@X:.+.#.} j.G.#.#.#.#.I.iXdXeXtX;X+.] #.R ,.V.e.$.+.<.6XfXwXwX1X).z k ..=.M.[ z W o.U.iXuXuXnX+Xo.Y U +.K.:.R / / v.m.E | ] <.<XeXeXuX6XM.[ [ E n.U.] :.+.k.>XiX1X7XCXr   . .   ' KX.XD s. X$Xi.a.'.`.].[.#XB.d Q 8 8 D.$X XOXE.oXNXPX-.q &XS 7 y 9 s p { A.J.=.~ -.` ) ` u...&XA q D s s 9 A @XIX^...a.#XLXLXGXJXJXBXGXKXLXGXLXLXVX%XzXzXzXlXlXzX[.kX$Xi.L m 6 f P s > 9 9 q 2 -.` b S S S p ` a.7 q 9 q 7 S s y _ Q ! Q S a 5._ _ 9.9._ ^ N p N ^ _ 6.i.{.zXKXKXKXKXKXKXKXKXKXKXKXKXKXKXKXKXKXKXKXKXKXKXKXKXKXKXKXKXKXKXKXKXKXKXKXKXKXKXKXKXKXKXKXKXKXKXKXKXKXKXKXKXKXKXKXKXKXKXKXKXKXKXKXKXKXKXLXKXoX  .           bXKXKXKXKXKXKXKXKXKXKXKXKXKXKXKXKXKXKXKXKXKXKXKXKXKXKXKXKXKXKXKXKXKXKXVX                                                                                  UXKXKXKXKXKXKXKXKXKXKXKXKXKXKXKXKXKXKXKXKXKXKXKXKXKXKXKXKXKXKXKXKXKXKXKXKXKXKXKXKXKXKXKXKXKXKXKXKXKXKXKXKXKXKXKXKXKXKX",
"H AX1XiXyX@X<.R E ] U.V.[ ] &.b.;X8X7XeX,X<.o.[ T r.G.[ Y T +.U.r./ ] O.U.0XpXtXtX<X@.T ] T G.b.T [ +.;.3XCXuXCXMXQ.r = r C / T Y U $.U.$.} } } M.,X7X7X6X@X+. .Y ' k.U.#./ ] +.m.wXeX8XeX;X@.Y ' ] b.V.#.#.$.c.>XtXrXwX2X).H h h W M.[ U =.W I.yXuXdXpX@Xo.z k E G.:.k J z b.m.U Y T @.:XeXgXuX>XM.U @.R b.T.E #.@.c.@XwX7X,XCXt     .   | KX|.4.N.|.lXi.s.`.].A.].#X].s a 2 p S.#XS. XE.#XSXSXt t #X..q s p b y _ P.J.a q b p b S s.'  XA y S b s y ..E.NXP.e a. XJXLXGXLXGXIXLXKXPXGXLXKXVXkXcXcXlXlXlXkX#XkXkX9.Q A = e Z m b ..S b d ` ` 7 q 7 q * A p.2 q 9 9 1 a Q e ! ! ! ! ^ 7 8._ _ i.0.8.^ M i N ~ _ 6.p.s.zXLXKXKXKXKXKXKXKXKXKXKXKXKXKXKXKXKXKXKXKXKXKXKXKXKXKXKXKXKXKXKXKXKXKXKXKXKXKXKXKXKXKXKXKXKXKXKXKXKXKXKXKXKXKXKXKXKXKXKXKXKXKXKXKXKXKXKXKXoX  .           bXKXLXKXKXKXKXKXKXKXKXKXKXKXKXKXKXKXKXKXKXKXKXKXKXKXKXKXKXKXKXKXKXKXKXVX  .                                                                           .   %XKXKXKXKXKXKXKXKXKXKXKXKXKXKXKXKXKXKXKXKXKXKXKXKXKXKXKXKXKXKXKXKXKXKXKXKXKXKXKXKXKXKXKXKXKXKXKXKXKXKXKXKXKXKXKXKXKXKX",
"H NX1XuXnX<Xc.[ ] O.G.G.O.O.%.b.;XeX7XrX7XI.:.@.| v.U.:.E ] $.G.r.] O.O.U.wXpXtXuX<X@.Y O.Y U.V.+.$.+.j.,XCXfXfXnXT.r : X.C T Y U W #.G.$.#.=.:.M.:X7X1X,X@X:.U ] ' j.Y.#./ O.$.I.2XeXeXdX;X>.' ] / j.V.| O.O.c.>XaXrXtXnX(.T H x =.n.;.W o.o.U.wXeXrXuX(.o.z h W H.,.R R U c.M.T ] O.<.3X8X8XeX:XM.T >.U b.T.E >.} k.@XyXwX1XZXt   .     | KXS.) s.].#Xi.s. X].].[.#XOXa 3 3 v S.|.P.S.E.&XSXZX, -.E.d s p p p a -.D.J.9 9 p p p s s.-.E.-.~ ` ` ` L -.&XIX^.s a.|.LXLXGXJXGXIXLXKXPXBXLXLXVX%XcXzXzXzXlXzX.X$XlXp.^ ( = y ( Z s b b S 9 Q i.9 q 9 q 7 m i.7 7 0 0 7 u i.* Z ( ! 8.Q 8 _ i.) p.8.8.~ A B C ) ) 4.i.i.kXKXKXKXKXKXKXKXKXKXKXKXKXKXKXKXKXKXKXKXKXKXKXKXKXKXKXKXKXKXKXKXKXKXKXKXKXKXKXKXKXKXKXKXKXKXKXKXKXKXKXKXKXKXKXKXKXKXKXKXKXKXKXKXKXKXKXLXKXoX  .       .   bXKXKXKXKXKXKXKXKXKXKXKXKXKXKXKXKXKXKXKXKXKXKXKXKXKXKXKXKXKXKXKXKXKXKXmX                                                                                  bXKXKXKXKXKXKXKXKXKXKXKXKXKXKXKXKXKXKXKXKXKXKXKXKXKXKXKXKXKXKXKXKXKXKXKXKXKXKXKXKXKXKXKXKXKXKXKXKXKXKXKXKXKXKXKXKXKXKX",
"H ZXwXuXnX>Xk.E Y O.Y.G.O./ / b.;XwX9XrX1XM.E ] ] V.Y.O.I T r.K.B./ / O.T.3XuXrXtX;X$.O.e.O.Y.G.#.#.+.b.2XnXuXCXMXU., : r f C h j l E m.c.v.F.c.I.1X1X1X7X+X<.:.v.k.b.T.k.j.P.<.T.,XeX8XtX=X<.,.k.,.k.G.j.G.T.I.3XiXeXiXnX).W G l #.K.j.[ $.;.U.wXwX8XyX+X@.o.T :.K.j.+.O.O.V.m.$.#.O.c.,X8X8XeX,XM.O.>.$.b.Y.O.:.@.,.>XmXiX7XZXt   . .   | KXZ.~ D.|.#X6.9.Z.Z.N.`.|.|.s * 7 A [.oXJ.oX X5XPXaX, -.E...s 9 b p p -.P.J.q 9 s s 9 s S.=.E.s 7 b p 9 q  .$XGX^...a.#XLXJXGXJXGXIXLXKXPXIXLXLXbXlXzXcXzXvXzXkX.X$XlXs.) _ 6 g  .Z 7 6 q 9 * F N.q q 9 q 7 s s.9 q y 9 7 9 s.& d ` _ 8.! s B 4._ 9.9.4._ A a B ^ ) ) i.i..XLXKXKXKXKXKXKXKXKXKXKXKXKXKXKXKXKXKXKXKXKXKXKXKXKXKXKXKXKXKXKXKXKXKXKXKXKXKXKXKXKXKXKXKXKXKXKXKXKXKXKXKXKXKXKXKXKXKXKXKXKXKXKXKXKXKXKXKXoX  .           UXKXKXKXKXKXKXKXKXKXKXKXKXKXKXKXKXKXKXKXKXKXKXKXKXKXKXKXKXKXKXKXKXLXKXNX                                                                              .   cXKXLXKXKXKXKXKXKXKXKXKXKXKXKXKXKXKXKXKXKXKXKXKXKXKXKXKXKXKXKXKXKXKXKXKXKXKXKXKXKXKXKXKXKXKXKXKXKXKXKXKXKXKXKXKXKXKXKX",
"K SX1XuXMX@X>.T H ' K.G.] I / r.;XwX7XwX1Xm.T Y / r.}.| C U e.}.r.I C / T.2XrX7X1X;X$.] e.e.G.G.[ / ] c.2XnXuXCXpXQ., , r h Y T R z o.m.#.:.:.+.I.:X9X1X7X(.+.+.$.O.j.U.E E :.E I.6X7X9XtX<X;.' } E j.L.] e.j.b.<XdX2XiX2X).E k k $.Y.j.+.>.<.T.7XrX8XrX+X$.T ] :.Y.x.' / O.Y.V.O.e.#.>.<XeX8XeX0XM.+.G.OXT.}.O.+.' #.2XyXwX8XCXt         | KXZ.` S.#X#X{ 8.s.Z.A.J.oX[.y * 7 ) #X[.[.#XOX4XPX4X> s.P.q 9 p p 9 S a.D.E.q 9 p p 9 p s.-.E.9 q b p w 9 ' %XSXE...a.$XKXLXGXGXGXIXLXLXHXFXKXJXVXlXcXzXzXzXcXkX$XkXcXZ._ _ 6 y L A e 9 9 9 7 S s.7 9 9 q 7 > s.d 7 6 q 7 7 5.2 S { ! | _ N y ) 8.p.9.0._ ^ a m D Q _ a.9.XXKXKXKXKXKXKXKXKXKXKXKXKXKXKXKXKXKXKXKXKXKXKXKXKXKXKXKXKXKXKXKXKXKXKXKXKXKXKXKXKXKXKXKXKXKXKXKXKXKXKXKXKXKXKXKXKXKXKXKXKXKXKXKXKXKXKXLXKXoX  .       .   bXKXKXKXKXKXKXKXKXKXKXKXKXKXKXKXKXKXKXKXKXKXKXKXKXKXKXKXKXKXKXKXKXKXKXbX  .                                                                               2XKXKXKXKXKXKXKXKXKXKXKXKXKXKXKXKXKXKXKXKXKXKXKXKXKXKXKXKXKXKXKXKXKXKXKXKXKXKXKXKXKXKXKXKXKXKXKXKXKXKXKXKXKXKXKXKXKXKX",
"J NX,XuXaX>XT.OX&XoX}.V.e.| ] b.;X1X2XiX2XI.$.#.e.V.}.O.P P e.[.x./ / O.T.2XiXwXiX;Xb.e.r.e.G.L.} } [ n.2XNXnXnXaXI.t , r h $.b.M.,.,.M.+.:.j.o.2.1X:X-X1X(.;.+.$.E >.U.E E +.W c.6X9X-X9X=Xo.U [ U #.v./ / $.>.+XuX1XnXdX+X>.=.[ z.L.h.R [ $.R.wXrXwXrX;X$.T T O.}.x./ C 4.V.L.| ' ] >.<XeXeXiX0Xc.I ] G.Y.K./ L I } 2XwX,X,XfXt     .   ' KXN.) Z..X#XQ i.Z.s.N.B.J.J.6 * a 8.&XE.E. X X4XPX^.> J.=.q p p b a Q a.D.C.> b b p q b s.=.S.q 9 p 9 p q { 4XSXE...a.$XLXLXGXHXIXFXKXLXGXIXKXJXVXlXcXzXzXcXzXkXkXkXkXA.` Q e g K L 9 9 9 q 7 w f.6 6 9 y q 7 s.D 7 9 q q 7 A d a ` _ _ _ A 3 Q 4.i.9.0.4.^ N N D ~ ) a.5.XXKXKXKXKXKXKXKXKXKXKXKXKXKXKXKXKXKXKXKXKXKXKXKXKXKXKXKXKXKXKXKXKXKXKXKXKXKXKXKXKXKXKXKXKXKXKXKXKXKXKXKXKXKXKXKXKXKXKXKXKXKXKXKXKXKXKXKXKXoX  .           bXKXLXKXKXKXKXKXKXKXKXKXKXKXKXKXKXKXKXKXKXKXKXKXKXKXKXKXKXKXKXKXKXKXKXNX                                                                              .   bXKXKXKXKXKXKXKXKXKXKXKXKXKXKXKXKXKXKXKXKXKXKXKXKXKXKXKXKXKXKXKXKXKXKXKXKXKXKXKXKXKXKXKXKXKXKXKXKXKXKXKXKXKXKXKXKXKXKX",
"H ZXwXyXyX>XT.!.OXK.}.V.e.| ] b.3X2X1XuX2XT.r.v.e.V.}.e.R ' e.K.V.0.e.j.I.3XrXwXeX;Xm.}.OX}.}.G.e.j.,.m.0XMXMXCXaXW.t - e h O.b.,.;.,.M.;.$.:.+.I.1X1X1X1X(.1.;.>.@.>.T.+.+.>.W <.rX8X9X8X:Xo.E #.z >.v.' } >.>.*XdXdXeXnX*XE.OX&X!.K.k.} $.<.T.wXaXtXuX3X@.H U e.}.V.e.e.e.V.Y.$.| } <.;XeX7X1X2Xm.O.#.j.V.OXV.z.e.j.@XyXeX1XCXt   .     | KXp.) s.|. X` a.Z.N.A.F.[.B.2 3 m C.$X].K.[.OXNXSX1.> &X-.> p w a a ` P.D.s.7 b b b 9 ..a.=.S.s 9 b b p s -.4XGXn...a.$XLXJXGXGXFXGXKXLXGXIXKXJXbXkXzXcXzXzXzXkX$X$XkX'._ Q y i C K e 9 9 9 q q a.a 7 y 9 9 7 a.D 7 9 7 9 1 S Q 7 ` ! _ _ K y a 9.p.9.0.5.K B B L _ ) 4.8.'.LXKXKXKXKXKXKXKXKXKXKXKXKXKXKXKXKXKXKXKXKXKXKXKXKXKXKXKXKXKXKXKXKXKXKXKXKXKXKXKXKXKXKXKXKXKXKXKXKXKXKXKXKXKXKXKXKXKXKXKXKXKXKXKXKXKXLXKXoX  .           UXKXKXKXKXKXKXKXKXKXKXKXKXKXKXKXKXKXKXKXKXKXKXKXKXKXKXKXKXKXKXKXKXKXKXVX  .                                                                           .   %XKXKXKXKXKXKXKXKXKXKXKXKXKXKXKXKXKXKXKXKXKXKXKXKXKXKXKXKXKXKXKXKXKXKXKXKXKXKXKXKXKXKXKXKXKXKXKXKXKXKXKXKXKXKXKXKXKXKX",
"L SXrXuXpX@X>.U T / V.V.] ] Y <.;XtXrXfXtXI.O.E I r.Y.T k k ] m.j.T %.&.m.3XtXwX7X;X@.T o.T m.m.Y T T 1.>XuXuXdXaXU.r - r l / e.' [ r.m.r.$.#.+.I.1XgXtXtX<X>.R [ ] >.Y.] ] +.[ m.iXdXeXuX>X@.] $.<.b.G.=.h.,.;.+XuXeXdXuX+X>.,.,.z.Y.r./ $.$.Q.yXfXtXfX;X%.j r T I.b.O.#.O.G.Y.$.#.+.<.;XwX7XtX0XI.:.v.k.U.Y.V.n.h.1.@XnXrX9XCXt   . .   ' KX8.4.s. XA.` p.Z.Z.A.J.#X| & 9 Q [.$X].J.J.OXIXPX=.s 5X{ 9 a b b a ` a.S.=.9 d b b b S a.s.P.9 s a p s 9 L  XPXM...p.4XKXLXGXJXIXGXKXLXIXGXKXGXcXkXcXzXzXcXzXjXkXkXlX`.~ Q y i d s 6 9 9 9 0 q i.S 7 9 p p 7 ) -.b D A Q S _ Q 7 ( ( ( ~ Q a 9 5.s.N.9.5.^ m B ^ ~ Q _ i.f.LXKXKXKXKXKXKXKXLXGXPXLXKXJXLXLXPXGXGXPXJXHXPXGXGXHXPXLXJXJXGXPXGXGXLXLXLXJXGXLXPXGXKXLXJXPXGXGXGXGXGXGXGXGXGXGXGXGXGXGXGXGXGXGXGXGXGXLXF.              &XLXGXGXGXGXGXGXGXGXGXLXKXKXKXKXKXKXKXKXKXKXKXKXKXKXKXKXKXKXKXKXKXKXKXNX. X X X X X X X X X X X X X X X X X X X X X X X X X X X X X X X X X X X X X X ;   bXKXKXKXKXKXKXKXKXKXKXKXKXKXKXKXKXKXKXKXKXKXKXKXKXKXKXKXKXKXKXKXKXKXKXKXKXKXKXKXKXKXKXKXKXKXKXKXKXKXKXKXKXKXKXKXKXKXKX",
"I ZXrXtXpX;X;.E T T U.b.E $.] ,.<XuXfXfXrXM.W E G O.m.E k H R m.j.E o.T I.1XiXwXwX=X%.k H H v.V.U U U >.<XuXuXfXaX^.r : g f I I C P O.Y.v.v.V.c.T.1XrXrXyX>X+.G I I j.}.' G I  .m.iXiXnXuX,Xj.O.$.<.b.m.k.k.,.b.;XuXtXuXyX/.U h t R Y.$.H T O.I.nXCXfXfX=X%.&.z o.m.$.H k U b.I.E [ o.;.<XeXgXuX,Xm.o.] ] v.U.T l k ;.@XuXrX9XZXf     .   | KX8.4.Z.S.s.~ 8.i.N.N.Z.].v 7 F 8.#X&XE.E.J.&XIXqXg s &X=.A ) ) { -.p.-.A.` q d a a S D =.S.l.9 b b p 9 s =.4XPXH.A a.$XLXJXGXGXBXGXKXLXIXGXKXHXbXlXcXzXzXcXcXkX$XkXlX]._ ! s e L | y y y y q 7 i.A 7 y 9 9 7 n i.9 9 y y 7 p ` = L _ ! ! Q Z 9 S s.N.p.8._ B B A ^ Q 5.i.i.LXKXKXKXKXKXKXKXF.  ( #X#Xu.#XcX( @ % & = * 7 f l 7 e e g g s 2 = * =.E.{ - . P.{ 2 L Q D D                                                                               .   bXKXKXKXKXKXKXKXKXKXKXKXKXKXKXKXKXKXKXKXKXKXKXKXKXKXKXKXKXKXKXKXKXKXKXKXKXKXKXKXKXKXKXKXKXKXKXKXKXKXKXKXKXKXKXKXKXKXKXKXKXKXKXKXKXKXKXKXKXKXKXKXKXKXKXKXKXKXKXKXKXKXKXKXKXKXKXKXKXKXKXKXKXKXKXKXKXKXKXKXKXKXKXKXKXKXKXKXKXKXKXKXKXKXKXKXKXKXKXKXKXKXKXKXKX",
"l ZX6XrXuX>Xc.o.O.O.L.V.#.$.} <.3XCXfXfXrXI.+.[ P j.H.+.Y Y [ F.c.O.#.%.I.2XnXuXtX;X@.T Y Y v.v.R / R c.>XnXuXnXsXY.r = g C | V.V.V.z.G.Y.%X%XoXT.0XtXyXmX2X=.P ! | z.L.} P P ' n.qXiX1XdX3X$.O.$.%.c.m.n.oXOXQ.>XrXwXuXyX~.U H h / Y.$.T T O.U.nXCXpXpX=X;.%.o.%.b.$.H T U j.b.O.e.+.@.;XdXgXdX1Xm.E +.O.v.m.E o.:.;.@XrXrX:XZXj     .   | KXa.i.A. XS.! p.N.N.Z.S.Q 7 D _ x.oXoXK.].E.%XIXsX> ..&Xb q 9 9 S b u.C.S.` d A S A S ` -.E.=.s S S s p s a.4XPXP. .a.$XLXLXGXHXDXJXKXLXFXGXKXHXbXlXzXzXcXzXcX$XjXzXcX[.3.{ m e Z | s 6 p w 9 1 i.u.S Q A D S D i.9 9 9 0 q 9 ` e A ( ) 4.Q D d y ~ Z.d.8.8.A A ^ ) _ 5.i.d.LXKXKXKXKXKXLXKXC.   .#X#Xs.$XbXD.> X * A A 6 E.Z O - L Q e e e * - d | = o . { l.2 @ 6 S v                                                                                   bXKXKXKXKXKXKXKXKXKXKXKXKXKXKXKXKXKXKXKXKXKXKXKXKXKXKXKXKXKXKXKXKXKXKXKXKXKXKXKXKXKXKXKXKXKXKXKXKXKXKXKXKXKXKXKXKXKXKXKXKXKXKXKXKXKXKXKXKXKXKXKXKXKXKXKXKXKXKXKXKXKXKXKXKXKXKXKXKXKXKXKXKXKXKXKXKXKXKXKXKXKXKXKXKXKXKXKXKXKXKXKXKXKXKXKXKXKXKXKXKXKXKXKXKX",
"Z NX6XsXMX@X>.] ] O.Y.V.| } [ c.3XdXdXfXiXI.+.} | z.K.k.k.z.k.K.c./ O.%.T.1XnXuXnX>X$./ } | L.F.[ [ E b.2XCXCXCXMXT.r : e C x.&X%X+XV.Y.OXqXbX%X~.wXuXiXtX@XH.%X%X@XY.L.oX%X%X&X!.0XdXeXdX3X%.r X.r %.U.!.qXqX>XwXuXeXuXuX/.E U Y $.Y.x.} e.$.I.yXMXrXuX<X<.@.@.O.Y.c./ O.O.v.Y.$.j.#.>.;XgXgXuXiXM.+.e.$.m.T.@.+.o.;.@XtXtX9XZXf   .     ' KXs.6.D. XS.~ 0.d.s.A.L 2 b 8.u.C. X].S.F.J.&XAXNXg -.E.s p b b S S i.D.K.{ ` -.` 5.i.a.-.E.-.7 S s s q q D.cXPX,. .s.%XKXLXGXGXIXLXKXJXSXJXLXGXcXkXcXzXzX5XzXjX$XcXlX.X5.4.Z y Z ( e 7 9 9 0 7 ` -.7 9 w 9 7 0 s.a q 9 q 9 = Q s s ^ ! p.( S M m 8 ) x.8._ Z p B ) ` ) p.7.LXKXKXKXKXKXLXKXF.  `  XS.s 8.$XJ. .7 l.VX$Xl. .@ @ $ C.#XA Q |.p.A 6 > e e 2 Z Z d d s b y                                                                                   bXKXKXKXKXKXKXKXKXKXKXKXKXKXKXKXKXKXKXKXKXKXKXKXKXKXKXKXKXKXKXKXKXKXKXKXKXKXKXKXKXKXKXKXKXKXKXKXKXKXKXKXKXKXKXKXKXKXKXKXKXKXKXKXKXKXKXKXKXKXKXKXKXKXKXKXKXKXKXKXKXKXKXKXKXKXKXKXKXKXKXKXKXKXKXKXKXKXKXKXKXKXKXKXKXKXKXKXKXKXKXKXKXKXKXKXKXKXKXKXKXKXKXKXKX",
"J NX0XmXNX@Xj.$.O.e.Y.V.] ! Y k.>XiXwXdXwXT.n.K.F.K. X!.+X&XoX[.j.$.$.>.T.iXnXnXiX3X#.G / / F.F.P H U k.2XnXuXnXaXH., : r t | e.} #.:.U.<.v.G.k.I.9XgXtXtX>X<.k.m.v.v.T.c.m.H.c.I.6XgXgXgX1X%.< r j %.T.j.v.H.U.;XaXtXtXnX+X+.R R u.!. X&X4X@X/.qXsXyXyX@X$.H k O.Y.x.Y Y / V.Y.O.| ] $.;XuXwXtX0Xb.I H I c.Y.#.I T +.@XrXeX7XZXt   . .   ' KXp.4.s.S.l.Q _ p.p.S 3 b 5.p.Z.|.&X|.H.P.E.sXPX5X> P.P.9 9 w b b m f.S.E.b s b p b S { a. X=.S ` ! S S S D.%XGXM.Z a.cXKXPXHXGXFXLXKXPXIXLXLXGXcX$XzXlXlXzXzXkX$XlXlX|.4._ A e M _ Q ( ` ) D A f.` q s s a q 9 s.b 7 0 q 9 1 ( d s | ( 8.! B A ( v 9 _ p._ A m S D Q ~ 5.3.JXKXKXKXKXKXKXKXP.  Q q = -. X&XD.P.Q -.cXcX=.$ % * o =.$XQ A.DXDXcX` { ' = e G L Z A A b a                                                                                   bXKXKXKXKXKXKXKXKXKXKXKXKXKXKXKXKXKXKXKXKXKXKXKXKXKXKXKXKXKXKXKXKXKXKXKXKXKXKXKXKXKXKXKXKXKXKXKXKXKXKXKXKXKXKXKXKXKXKXKXKXKXKXKXKXKXKXKXKXKXKXKXKXKXKXKXKXKXKXKXKXKXKXKXKXKXKXKXKXKXKXKXKXKXKXKXKXKXKXKXKXKXKXKXKXKXKXKXKXKXKXKXKXKXKXKXKXKXKXKXKXKXKXKXKX",
"l NX6XyXNX2X~.@XUX%X}.G.}.&X&XT.<XmXeXuX2X~.2XVXcXOXE.OXqXbX&XoXm.U.oXT.~.2XnXnXnX<Xm.K.OX}.L.L.z.v.n.H.>XnXiXuXaXI.< : e f O.z.c.:.>.m.E ;.c.o.2.9XdX8X8X=X+.E $.O.$.I.o.W ;.W 1.6X9XgXgX-X%.z o.z %.b.P R ,.,.@XfXfXfXiX).:.h.z.P.E.K.E.OX|.!.0XsXrXwX@X+.l ..] Y.x.Y I Y V.H.] J I +.;XtX1XuXqXM.G f C x.G./ f h / @XiXwX8XZXf     .   ' KXp.) i.N.0.L _ i.D 7 n 9.Z.A.].&X$XE. X X&XVXPX_.t E.a.q s s p S S a.s.E.s b b b F S { a. X=.-.a.-.{ )  .S.4XGXP...a.%XKXJXHXHXGXLXLXHXIXLXLXHXcXlXlXkXlXlXkXkX#XkXlX.X8.( K y M _ m 9 p p 9 q b =.9 y p 9 9 q a.S q 9 7 9 1 D Z y 8./ _ 4.^ M ~ ^ y a { 0.A S A Z ) ) ) 7.LXKXKXKXKXKXLXKXF.  L L u.cXlX$XJ.Q G 7 s.A.& % & * o ( 5X{ s.vXVX$X` J.mX%X[.C.C.C.C.i.S p                                                                               .   bXKXLXKXKXKXKXKXKXKXKXKXKXKXKXKXKXKXKXKXKXKXKXKXKXKXKXKXKXKXKXKXKXKXKXKXKXKXKXKXKXKXKXKXKXKXKXKXKXKXKXKXKXKXKXKXKXKXKXKXKXKXKXKXKXKXKXKXKXKXKXKXKXKXKXKXKXKXKXKXKXKXKXKXKXKXKXKXKXKXKXKXKXKXKXKXKXKXKXKXKXKXKXKXKXKXKXKXKXKXKXKXKXKXKXKXKXKXKXKXKXKXKXKXKX",
"Z NX0XsXMX>Xm.!.OX}.[.G.Y.OXOXT.<XiXuXuXwXQ.~.%XOXK.K.H.OX&XoXY.>.H h U I.2XCXiXMX,XU.&X%X&X[.Y.oX2X+X~.>XMXMXCXaXI.r , , h / r.j.j.,.M.;.,.c.o.<.9XgXgXtX;Xo.o.$.O.$.T.o.W ;.W 1.6X9XhXgX:X%.&.R j E M.R ' >.<.(.uXeXrXuX+XY.UX4X&X XE.$X4X&X~.0XMXdXuX@XG.n.F.F.[.K.OX%X+XH.G.Y.&X|.U.<XiXiXnXqXm.H C I V.K.e./ ! } @XuXwX9XCXj   .     | KXN.5.p.].u.S 0.^ 8 u 4.Z.`.J. X$X%X X X|.%XBXPXI.e 5X` 7 p p b m Q s.S.E.q s b b b S -.u.&XS q s p y q s S.4XPXP...a.4XKXLXHXFXGXKXLXGXGXLXLXHXcX%XlXlXlXzXlXkX#XzXzX#X9.5.Q e d / ..7 y p w q b i.s q 9 9 9 q ) ) 9 9 7 9 7 S A = ( 5._ _ ^ M ~ ! d 6 b 8.S m A S D D D '.KXKXKXKXKXKXLXKXF.  ..b a.|.A.D.=.{ J.C. X( . = - 7 . Q %X{ d i.[.8.> u.bX$XK.C.z.l.x.N.i.7                                                                                   bXKXKXKXKXKXKXKXKXKXKXKXKXKXKXKXKXKXKXKXKXKXKXKXKXKXKXKXKXKXKXKXKXKXKXKXKXKXKXKXKXKXKXKXKXKXKXKXKXKXKXKXKXKXKXKXKXKXKXKXKXKXKXKXKXKXKXKXKXKXKXKXKXKXKXKXKXKXKXKXKXKXKXKXKXKXKXKXKXKXKXKXKXKXKXKXKXKXKXKXKXKXKXKXKXKXKXKXKXKXKXKXKXKXKXKXKXKXKXKXKXKXKXKXKX",
"G ZX0XyXnX>X$.E E / G.v.} } ' >.<XuXeXeXwXM.R R L h.E.E k I [ G.$.k h k M.2XCXdXuX>X@./ ] / m.G.'  .E :.@XnXpXpXaX^., : r f / e.} ' :.I.:.+.} E I.wXtX8XuX>X>.] } [ j.~.n.n.H.P.M.6XrX6X8X>X1.<.F.<.<.n.[ R =.;.;XuX8XeXeX+Xb.G.F.F.oXL.P.K.T.Q.uXCXdXCX@XH.E.M.n.Y.L. X+X}.!.U.Y.&XOXY.<XnXdXuXiXH.L l I z.K.m.V.V.b.@XiXeX1XCXt     .   | KXC.i.p.].N.M D 8 9 D i.Z.L. XOX%X%XoXE.E.4XIXPX=.q 5X .q b b ..S ) s.P.5X> p p b b S a.a.$X .q S b b 9 d S.mXPXk. .s.cXLXLXHXGXJXLXLXGXGXLXLXPXlXkXlXkXlXkXkXkX#XjXlX$Xp.5.Q 6 d | A 9 y a p 9 9 s.a q a 9 9 2 D 4.9 9 9 9 q p ( y ^ ' _ _ ~ D ^ ) m m y m S B N v N N 4..XLXKXKXKXKXKXKXKXP.  b 9 N.cX X` Z u.J.J.P.Z * % @ % . =.$Xs.9 p .XD.S l.cX%XE.l.k.l.p.J.i.7                                                                               .   bXKXKXKXKXKXKXKXKXKXKXKXKXKXKXKXKXKXKXKXKXKXKXKXKXKXKXKXKXKXKXKXKXKXKXKXKXKXKXKXKXKXKXKXKXKXKXKXKXKXKXKXKXKXKXKXKXKXKXKXKXKXKXKXKXKXKXKXKXKXKXKXKXKXKXKXKXKXKXKXKXKXKXKXKXKXKXKXKXKXKXKXKXKXKXKXKXKXKXKXKXKXKXKXKXKXKXKXKXKXKXKXKXKXKXKXKXKXKXKXKXKXKXKXKX",
"G SX6XaXnX2X>.E Y T G.v.[ $.[ <.<XiXeXeX7Xb.T E C e.U./ k k Y c.j.T %.%.R.1XnXdXdX,X@.U E H v.v.H k x >.@XaXaXpXsX!.r - r B I I I I e.Y.O.P I P b.iXtXwXyX>X:.K I ! h.Y.&XbXNX4X^.4XaXrXrX>XU.%XbXqXOXP. .G l W @XZXtXpXuX(.T h h E Y.$.h U E M.uXfXdXCX@X;.z U E H.k.W U T b.M.o.R R ;.;XdXgXdXiXI.o.E ] c.m.,.>.;.<.=XwX9X6XfXf   . .   ' KXs.D 4.d.9.y 1 8 _ N.A.].A.#X%X4X$X|.$X4X4XSXPXx > 4XS q d d S S =.P.P. Xq s b b S Z a.=.$XS q b b s q b E.4XPX<. .P.cXKXJXHXHXJXKXLXGXSXLXLXHXUXkXlXkXkXkXlXzX#XkXzXkXp.) K e s _  .6 9 p 9 q 7 C.b 7 p p 9 1 S d.6 9 9 9 8 q _ s ^ { ( ~ 9.N.Q Q Q ^ N u n b F c D F f.kXLXKXKXKXKXKXLXKXF.  =.i.S.VXcX|.u.=.a.u.a.` G f A a g J.#Xl.{ S a.` = L cX%XK.F.z.N.x.'.i.7                                                                                   bXKXKXKXKXKXKXKXKXKXKXKXKXKXKXKXKXKXKXKXKXKXKXKXKXKXKXKXKXKXKXKXKXKXKXKXKXKXKXKXKXKXKXKXKXKXKXKXKXKXKXKXKXKXKXKXKXKXKXKXKXKXKXKXKXKXKXKXKXKXKXKXKXKXKXKXKXKXKXKXKXKXKXKXKXKXKXKXKXKXKXKXKXKXKXKXKXKXKXKXKXKXKXKXKXKXKXKXKXKXKXKXKXKXKXKXKXKXKXKXKXKXKXKXKX",
"l ZXwXrXuX>X<.E o.] U.V.+.#.[ c.>XuXeXfXtXI.E O.Y r.U.%.T U ' m.r.%.@.%.T.2XCXnXuX:X<.E / T m.V.Y U J ;.>XuXpXpXnX!.r : r M I / Y I O.Y.] P ! / M.2XiXwXiX2X#.P I Y x.Y.!.OX&X^.I.6XaXrXuX0Xm.&X%X&X!.F.u.{ } ,.@XpXaXaXnX+Xo.h h O.Y.$.l T T I.iXdXtXuX>X;.U U U m.k.U H U <.m.E ] E @.;XtXdXCXiXH.+.:.:.M.M.:.>.:.<.(.rXwX6XfXt   .     ' KX.X{.].'.d.L p.#X#X|..X#X X#X%X%X#XE.OX$XbXPXPX....#Xs q s p b 9 ` s.P.E.e b b S S Z s.a.5X..q b b a 9 b  XVXSX=. .a.4XKXPXHXHXLXLXPXGXFXLXLXHXlXkXkXlXcXkXzXkX#XkXlXkXN.~ ^ y s ! L 7 y 9 w q q s.S 7 p 9 w 7 S a.7 7 7 9 6 7 _ y S 0._ L 0.B.^ ^ _ ^ ^ N D .XkXkXkXjXkXzXLXKXKXKXKXKXKXKXF.  D.#X=.5XDXVXa.D.$X Xp.{ { ( m .. .C. X( s.` 7 `  X X4X%XE.F.l.x.l.B.5.6                                                                                   bXKXKXKXKXKXKXKXKXKXKXKXKXKXKXKXKXKXKXKXKXKXKXKXKXKXKXKXKXKXKXKXKXKXKXKXKXKXKXKXKXKXKXKXKXKXKXKXKXKXKXKXKXKXKXKXKXKXKXKXKXKXKXKXKXKXKXKXKXKXKXKXKXKXKXKXKXKXKXKXKXKXKXKXKXKXKXKXKXKXKXKXKXKXKXKXKXKXKXKXKXKXKXKXKXKXKXKXKXKXKXKXKXKXKXKXKXKXKXKXKXKXKXKXKX",
"Z ZX6XwXuX>X>.R Y ] G.G.} } } c.,XnXuXfXeXI.$.} ' z.K.O.E ' #.L.V.0.O.e.T.2XnXnXuX>X<.] [ [ L.G.' / ] c.>XmXpXCXsXH.g = r f P Y R R $.Y.| Y / E I.wXeX1XuX>X:.[ } ] j.~.@XmXNX4X^.qXpX8XtX6X!.%XbXqXoXF.!.bXmX4X0XaX6XrXdX;XO.T Y [ Y.k.Y E O.I.2XwXeXrX@X1.W U R n.F.,.:.[ n.m.,.:.:.;.;XeXeXwX0XU.:.k.$.v.H.k.j.:.,.@XaXrXwXZXf   .     | KXvXzXcXzXcXcXbXcX|.L.[.J.E.$X4X4XOXE. X XmXPXZX..=.#Xm d S b F d -.-.E.s.q b b b S S a.s.#Xa 9 S b b 9 s C.sXIX=. .a.bXLXLXHXHXLXKXPXSXGXLXLXGXlXlXkXkXkXcXlXzX#XjXlXkXd.^ ^ 3 e M d 6 y p p 9 q a.A q p 9 p q b i.D Q Q ` _ ) i.e M 0._ ^ ) ^ K ^ _ ^ D S F $XzXkXzXzXzXzXKXKXKXKXKXKXLXKXF.  l.vXa.Z.vXvXQ D.DXJ.9 y ( ..= o @ ` S.D { N.b 6 S.lXcX%X XF.C.x.x.N.8.9                                                                                   bXKXKXKXKXKXKXKXKXKXKXKXKXKXKXKXKXKXKXKXKXKXKXKXKXKXKXKXKXKXKXKXKXKXKXKXKXKXKXKXKXKXKXKXKXKXKXKXKXKXKXKXKXKXKXKXKXKXKXKXKXKXKXKXKXKXKXKXKXKXKXKXKXKXKXKXKXKXKXKXKXKXKXKXKXKXKXKXKXKXKXKXKXKXKXKXKXKXKXKXKXKXKXKXKXKXKXKXKXKXKXKXKXKXKXKXKXKXKXKXKXKXKXKXKX",
"J ZX7XrXMX>X>.U I / [.V./ P P >.<XuXuXuXwXU./ / ! z.}.] Y I 0.L.r./ I O.Y.2XnXnXuX<X;.Y / ] G.V./ I U k.>XMXaXpXaXQ.t : e t R [ +.E +.G.[ R R E M.eXeX8XrX,X;.o.$.] k.Y.v.n.K.n.I.6X8XrXtX,XM.G.K.G.m.v.j.Y.!.T.@XaXaXrXiX*XT f h E oXk.l H E U.1XwXeXuX%XM.H.H.n.L.K.%XbX%X!.F.R I l W @XdXwXuXiXG.P G I k.L.=.I Y =.+XaXrXrXZXt     .   | KXzXzXkXzX$XVXVXVX%XoX XE. XOX$X4XOX|.E.OXVXPX4X..=.E.Q ` ` ` ` ~ a.=.E.=.q b p b b S s.P.#Xp p b b s s S J.bXSX . .D.VXKXJXHXHXLXLXJXGXGXLXLXGXUXkXcXcXkXzXlXzX.X#XlXzXs.^ ( 2 2 K L y 9 a p 9 q ` D 1 7 7 q * 9 { a q y q q 7 S S d 0._ _ ( ^ ^ _ 9.5.~ D D `.zXjXkXzXzXjXLXKXKXKXKXKXLXKXF.  s.cXA.d.`.VX` `.4Xs X 7 S 7 7 X e  XOXa.A S.|.y s $XcX$XK.z.h.u.x.l.N.y                                                                               .   bXKXLXKXKXKXKXKXKXKXKXKXKXKXKXKXKXKXKXKXKXKXKXKXKXKXKXKXKXKXKXKXKXKXKXKXKXKXKXKXKXKXKXKXKXKXKXKXKXKXKXKXKXKXKXKXKXKXKXKXKXKXKXKXKXKXKXKXKXKXKXKXKXKXKXKXKXKXKXKXKXKXKXKXKXKXKXKXKXKXKXKXKXKXKXKXKXKXKXKXKXKXKXKXKXKXKXKXKXKXKXKXKXKXKXKXKXKXKXKXKXKXKXKXKX",
"..ZX0XyXMXqX>.R Y #.L.V.#.| [ b.;XuXrXfXiXm.E ' / z.Y.} U I #.L.j./ Y / T.2XiX2XrX<XI.H.Y.G.Y.L.v.G.m.G.@XpXpXfXaXQ., > , t ] b.M.,.;.m.,.,.P.+.I.1XgXgXdX:X;.$.<.+.>.T.[ [ :.W 1.aXdXtXgX6X;.x [ l @.m.Y ] %.$._.rXwXtXuX;X] f C ! oXh.J H E T.iXiXiXiX@XY.@X&XOXE.K.&XcX%XoXF.R J J [ +XuXuXnXiXM.f g f :.G.( s g E @XiXrX6XMXg         } KXvXzXzXkX$XvXBXbX%X$X%X$X$X&X%X&X[.J.K.&XBXLX@Xs S.s.2 9 9 9 q 7 { s.E.=.p S S b b b a.s. Xs s b b b 9 S  XZXPX=. .s.VXLXJXGXJXLXLXGXSXGXKXLXGXcXkXzXcXkXcXzXkX.X$XlXkXZ.A 8.y e K L y 9 p w 9 9 D i.S S Q Q ) ) d.d 7 7 7 q 7 b Q s { ` ^ ^ ^ ^ 4.9.5.~ 3.F s.zXzXkXkXzXjXLXKXKXKXKXKXLXKXF.  N.VXcX`.=.#XS a.a.= s e = q % & s. X Xa.! u.%XC.@ ( VX%X|.F.z.x.l.C.x.6                                                                                   bXKXKXKXKXKXKXKXKXKXKXKXKXKXKXKXKXKXKXKXKXKXKXKXKXKXKXKXKXKXKXKXKXKXKXKXKXKXKXKXKXKXKXKXKXKXKXKXKXKXKXKXKXKXKXKXKXKXKXKXKXKXKXKXKXKXKXKXKXKXKXKXKXKXKXKXKXKXKXKXKXKXKXKXKXKXKXKXKXKXKXKXKXKXKXKXKXKXKXKXKXKXKXKXKXKXKXKXKXKXKXKXKXKXKXKXKXKXKXKXKXKXKXKXKX",
"l NXrXyXuX>Xm.U.OXH.T.U.Y.+X+XT.>XtXtXfXtXI.[ :.| z.K.$.Y Y O.G.v.O.O.$.T.2XnXnXtX:XT.2XmX%X~.}.%XBXmX+X>XpXtXfXaXI.t > , h #.c.M.,.+.M.,.k.n.;.I.1XdXgXdX>X;.>.v.>.j.T.+.:.<.W M.0X8XtXdXwX;.H :.k +.m.T O.b.@._.aX9XpXpX(.!.%X%XOXoXY.&X%X@X+X3XuXeXnX%X!.qX4X&X]. X&XqX%XoXH.OX%X&X^.<XuXuXnXyXOXK.&XOXH.H.F.L.K.G.+XyXyX6XMXt   . .   { LXvXjXkXkXVXBXVXcX%X%XlX$XOX%XbX$XF.P.J.$XFXAX,.> .X=.1 b w p p 9 =.a.E.a.L ) ) Q D -.a.l.E.9 b b a s s s =.bXGX=.=.P.VXKXLXHXJXJXLXHXIXGXLXJXGXcXlXcXzXcXzXzXcX#XjXkXkX'.^ 8.y 3 m s 7 7 q 7 q 7 b i.9 p w p 0 9 i.D 7 q q 9 q v 8.y ` ` K ^ 4.~ ~ 8.5.^ ~ V 6.kXzXjXzXjXzXLXKXKXKXKXKXLXKXF.  A.DXvX#XD.S = D 6 -.#Xy & * * C.=.{ OXs.Z m s. Xe = bXbXoXL.C.x.x.l.l.6                                                                               .   bXKXLXKXKXKXKXKXKXKXKXKXKXKXKXKXKXKXKXKXKXKXKXKXKXKXKXKXKXKXKXKXKXKXKXKXKXKXKXKXKXKXKXKXKXKXKXKXKXKXKXKXKXKXKXKXKXKXKXKXKXKXKXKXKXKXKXKXKXKXKXKXKXKXKXKXKXKXKXKXKXKXKXKXKXKXKXKXKXKXKXKXKXKXKXKXKXKXKXKXKXKXKXKXKXKXKXKXKXKXKXKXKXKXKXKXKXKXKXKXKXKXKXKXKX",
"Z ZXwXyXnX>X>.+.] O.G.m.$.>.@.<.;XrXtXtXwXI.R E P h.H.] H T #.G.j.Y T O.T.2XnXdXtX:X1.>.>.:.n.G.j.k.>.c.@XfXtXaXyXQ.g : r h ] O.W W :.H.$.} [ ] M.dXdXtXuX,X>.] e.$.j.oX;.[ :.U 1.6XrX9X8XwX;.J R k >.G.O.O.$.%.(.pXtXrXtX@Xv.Y.OXK.Y.L.L.+XoX~.2XuXiXtX>XU.OX&X^.E.L.!.&XOX!.H.!.&XOXT.;XtXdXuXiXOXOXqX%X!.H.OX%X@X~.@XaXrXwXpXt     .   | KXlXzXkXkXDXGXVXbX%XlXcX$X#X$X%X&XF.A. X%XGXIXx , 4X-.= d p b w s a.a.|...q q 9 p q 9 E.S.S.s b b p 9 7 L &XIXSXW =.D.VXKXJXJXHXPXJXPXFXPXLXLXGXcXlXkXkXkXkXlXkX#XzXzXlX`.) 0.i 6 M ( d s a a F b ` a.7 7 q q q 1 d.` * 9 q 9 7 b 6.6 ( { ! / 3.~ ^ ~ 4.) ~ F ~ jXkXjXkXzXkXKXKXKXKXKXKXKXKXF.  Z.lX#XS.|.l.7 a 6  Xl.* @ = =.J.X Z $Xl.s $ A { % % %XcXoXF.z.l.x.x.C.d                                                                                   bXKXKXKXKXKXKXKXKXKXKXKXKXKXKXKXKXKXKXKXKXKXKXKXKXKXKXKXKXKXKXKXKXKXKXKXKXKXKXKXKXKXKXKXKXKXKXKXKXKXKXKXKXKXKXKXKXKXKXKXKXKXKXKXKXKXKXKXKXKXKXKXKXKXKXKXKXKXKXKXKXKXKXKXKXKXKXKXKXKXKXKXKXKXKXKXKXKXKXKXKXKXKXKXKXKXKXKXKXKXKXKXKXKXKXKXKXKXKXKXKXKXKXKXKX",
"G MX6XrXmX>X@.U U U b.b.O.@.&.>.(.tXeXtX7Xb.Y Y C } G.E h C ] V.r.T T E m.1XnXgXtX:X@.k k k k.v.T U H @.=XaXaXfXnXY.r : e f C h l l +.G./ h G H b.uXuXeXuX2X$.f M h #.~.R l l J n.0XrX9X7X,X;.f f t +.m.Y h h k W.aX7XiXuX=XE h h Y }.k.k T T I.iXwXuXfX>X:.U J  .H.P.R R U k.m.+.#.,.,.(.uXtXtXiXT.] R E k.m.:.o.[ >.@XwXaX6XfXt   .     | KXcXzXkX$XcXBXVXcX%XlX%X%X$X%X%XOXL.S. X4XPXPX=.6 4XQ 7 a p b b A a.a.#Xb 9 p 9 b q s S.P.S. .-.` -.-. .i.$XIXSXW -.C.VXKXJXHXHXGXJXPXIXLXLXJXGXlX$XkXkXcXzXzXkX.XkXlXlX[._ 4.d X.M { D b S S F b S a.7 q 9 9 q 7 f.6.7 9 y 0 7 p ` u A | _ _ ) ~ ~ ~ ) ~ ^ F S XXzXkXkXjXjXLXKXKXKXKXKXLXKXF.  Q `.a.a.#XS.* X & = @ O @ `  X2   L #XP.a X * 5.m $ &XcXOXF.z.x.x.l.A.m                                                                                   bXKXLXKXKXKXKXKXKXKXKXKXKXKXKXKXKXKXKXKXKXKXKXKXKXKXKXKXKXKXKXKXKXKXKXKXKXKXKXKXKXKXKXKXKXKXKXKXKXKXKXKXKXKXKXKXKXKXKXKXKXKXKXKXKXKXKXKXKXKXKXKXKXKXKXKXKXKXKXKXKXKXKXKXKXKXKXKXKXKXKXKXKXKXKXKXKXKXKXKXKXKXKXKXKXKXKXKXKXKXKXKXKXKXKXKXKXKXKXKXKXKXKXKXKX",
"M ZX,X0XqX>X>.R E Y m.M.$.>.O.;.;XtXeXtXeXI.] | P e.}.O.E / O.G.j.O.O.O.U.2XCXuXdX:X1.Y U J v.V.' R U >.>XaXpXfXsX^.t = X.f e.Y.~.Y.v.U.V.L.L.V.H.0XrXeXtX<Xk.P.V.V.V.Y.] G l k <.qXrX7XtX2X>.} } =.k.F.r.r.r.r.(.wXwXuXuX+XT h h H Y.k.k R T I.iXnXuXdX,X;.T h H m.b.I E H >.I.@.#.:.;.(.dXdXtXiXI.R R [ <.m.:.o.o.<.(.rXrX:XpXt   . .   ' LXvXjXkXkXcXVXbXcXcXcXlX$X&X%X%XoXA.J.E.bXPXSX....5XS 7 b b b b  .a.a.#Xs p b p p q b S.S.s.9 s s s s q ` $XSXIX=.=.D.VXKXJXJXJXHXLXPXBXLXLXJXGXlXlXlXlXkXkXcXcX.XkXlXlX.X5.| d e M ' d 2 6 q 7 7 p a.9 6 y 9 0 7 ~ i.9 q 9 9 9 7 ) m m { _ ( ) 3.^ ~ 4.5.) D 3.'.cXjXzXzXkXLXKXKXKXKXKXKXKXF.  _ A.9.$XVXA.7 % & & @ @ d J.9 o X A |.D.d @ + & d s OXcXOXL.z.z.l.l.p.i                                                                                   bXKXKXKXKXKXKXKXKXKXKXKXKXKXKXKXKXKXKXKXKXKXKXKXKXKXKXKXKXKXKXKXKXKXKXKXKXKXKXKXKXKXKXKXKXKXKXKXKXKXKXKXKXKXKXKXKXKXKXKXKXKXKXKXKXKXKXKXKXKXKXKXKXKXKXKXKXKXKXKXKXKXKXKXKXKXKXKXKXKXKXKXKXKXKXKXKXKXKXKXKXKXKXKXKXKXKXKXKXKXKXKXKXKXKXKXKXKXKXKXKXKXKXKXKX",
"l ZX>X0XuX2X>.U U Y G.m.O.O.E <.<XpXtXtX2XI.O.] ! r.}.O.E / $.L.x.] / $.U.iXAXMXfX,X<.R / Y F.G.[ ] E c.6XsXaXfXaX^.t : X.C O.M.U.M.>.H.}.mXVX2X_.6XtXrXrX4XE.bXmXbXOX}.L.OX%XoXH.0XuXrXuX2XT.%XVXqXOXn.V.OX+XT.<XnXrXuXnX;Xo.h T T ~.b.W E W R.1XfXuXfX2X1.o.U T U.V.] ] Y j.U.>.j.>.@.*XdXdXuXiXT.E R R ,.n.k.[ [ ,./.rXtX9XZXt     .   { KXzXjXkX$XcXBXbX%XlXcXlX%X%XbXlX!.[.|. XbXPXSX..J 5Xa q n p b b -.a.P.|.7 s b a b p ` S.E.a.q 9 9 p p 7 ` 4XIXBXR =.D.BXKXJXJXJXHXLXHXBXJXKXPXGXlX$XzXzXlXlXzXzX.X$XkXlX|._ _ m 3 f ( S 6 9 p 0 7 p a.b q p p 9 7 S d.p q 0 9 8 7 ) K s { _ _ _ ! ) ) ) 4.D ~ D g.jX$XjXzXjXLXKXKXKXKXKXLXKXF.  A _ [.L.i K d X & % X y C.f X $ X Z oXD.s @ & = @ *  XbXOXL.C.x.x.x.x.i                                                                               .   bXKXKXKXKXKXKXKXKXKXKXKXKXKXKXKXKXKXKXKXKXKXKXKXKXKXKXKXKXKXKXKXKXKXKXKXKXKXKXKXKXKXKXKXKXKXKXKXKXKXKXKXKXKXKXKXKXKXKXKXKXKXKXKXKXKXKXKXKXKXKXKXKXKXKXKXKXKXKXKXKXKXKXKXKXKXKXKXKXKXKXKXKXKXKXKXKXKXKXKXKXKXKXKXKXKXKXKXKXKXKXKXKXKXKXKXKXKXKXKXKXKXKXKXKX",
"G ZXwXyXMX2X+.H Y / F.V.Y I Y $.@XtXrXuX1XI.H I I x.K./ f f / z.j./ I O.b.2XnXyXuX,X>.Y P Y V.V.P C C >.>XMXpXfXaXI.r : g f H h r j W M.j.v.k.k.M.9X9X9X9X6Xc.<.n.k.c.oXk.V.G.n.G.yXaXtXMX0Xm.L.L.n.L.V.^ C j z ).dXeXeXuX<XY C / O.}.j.] j.+.Q.2XfXuXCX2Xj.Y C Y K.V.K C C c.G.] / Y O.;XuXtXaXyXoXF.oX XE.J.C.F.F.M.+XaXrXrXZXt     .   { KXcXjXzX$XFXKXIX%XlX%X%X$X4XbX4XE.[. XOXNXPXaXt =. Xq q a p m b ` =.C.|.7 d n a N b -.S. X-.q s a p a q { cXGXNX=.=.D.VXKXLXJXJXJXLXJXIXLXLXJXFX%X$XlXkXlXkXkXzX.XkXlXlX[._ _ m 2 f | Z 6 y u w 9 s a.S q 9 9 9 q a s.d q 0 9 0 1 D ! = L ( ! ) _ 3.) 4.5.) 6.f.f..XkXzXzXkXKXKXKXKXKXKXKXKXz.  6 7 3 % o 6 P * % X = | f % @ @ X D oXN.d * ! p.* y |.cXOXL.z.u.u.x.N.d                                                                               .   bXKXKXKXKXKXKXKXKXKXKXKXKXKXKXKXKXKXKXKXKXKXKXKXKXKXKXKXKXKXKXKXKXKXKXKXKXKXKXKXKXKXKXKXKXKXKXKXKXKXKXKXKXKXKXKXKXKXKXKXKXKXKXKXKXKXKXKXKXKXKXKXKXKXKXKXKXKXKXKXKXKXKXKXKXKXKXKXKXKXKXKXKXKXKXKXKXKXKXKXKXKXKXKXKXKXKXKXKXKXKXKXKXKXKXKXKXKXKXKXKXKXKXKXKX",
"M ZX1XyXyX>XU.^.&XOX}.V.C.K.L.m.;XuXtXuX2XI.V.L.V.].G.z.b.B.F.F.e.Y I / T.UXNXnXyX,XM.G.Y.G.}.V.#.} } v.2XMXMXuXrXW.t - X.j +.c.M.<.1.m.+.,.k.E 1.9XaX9XrX6X,.;.M.o.<.T.@.@.,.o.M.7XdX9XtX7X@.E +.l +.I.T C %.%.W.8X8XtXpX@XY f C Y OXj.H ] R T.iXuXdXnX2X$.f g C [.V.f g f z.K.Y f f T +XtXwXwX0X^.!.4X4XoXE.E.&X%XOX/.6X6X6XZXt   .     | KXlXzX$XlXJXKXGX%XlX$X$XoX%XbX%X XoXE.OXNXPX4X> =.E.9 p a b S d i.a.S. X* p p b b m =.S.|.=.9 b b a a 7 -.cXGXNX[ -.N.DXKXLXLXJXJXLXLXSXLXLXJXGXlXkXkXkXkXkXkXlX.XkXzXlX[._ _ K 3 s ` Z y y p p 9 9 5.Q 7 9 9 w q 9 A.S 7 q 7 7 2 S Q 7 L ( ! _ ^ ^ ~ _ 5.~ ) s.` XXkXjXzXjXLXKXKXKXKXKXLXKXV.  * = % % % * K M X & d s % % $ % @ ^  Xx.d G a.Z s ( |.4XOXL.l.k.a.z.F.Z                                                                                   bXKXKXKXKXKXKXKXKXKXKXKXKXKXKXKXKXKXKXKXKXKXKXKXKXKXKXKXKXKXKXKXKXKXKXKXKXKXKXKXKXKXKXKXKXKXKXKXKXKXKXKXKXKXKXKXKXKXKXKXKXKXKXKXKXKXKXKXKXKXKXKXKXKXKXKXKXKXKXKXKXKXKXKXKXKXKXKXKXKXKXKXKXKXKXKXKXKXKXKXKXKXKXKXKXKXKXKXKXKXKXKXKXKXKXKXKXKXKXKXKXKXKXKXKX",
"l aX<XwXmX>X~.%XqX&XY.F.OX4X%XQ.>XiXiXuX1XT.@XbX%XOX!.+XmXbX%XE.V.0.#.$.U.2XaXrXaX>X~.2XmX4XK.K.+XbXqXOX>XMXiXCXiXR.j : r t $.M.I.<.@.I.,.z.n.#.b.7XdX8XdX,X<.<.U.O.$.T.;.<.b.;.M.7XtXtXaX7X@.T <.z o.G.R [ j.+.(.gX8XtXpX;XE I J [ oXv.l H k T.yXuXuXCX2Xj.C h H }.V.h h C c.G.E C J E (.tXeX7X0XOX^.4X&X^.F.E.OXOXE.+X0XwX,XZXt     .   | KXlXzX.XbXLXLXBX#XlXVXVXbXcX4X%XOX|.E.OXNXPXE., E.a.* p p a S d i.a.S.C.* p p b b S a.S.#X-.q d S b p q -.cXPXNX-.=.D.DXKXJXJXJXJXLXKXFXKXLXPXGXlXkXzXzXzXzXzXlXjXkXlXlX#X_ _ L 3 s ' A 9 y a 9 9 7 ` ` q p p p q q s.D 9 S S b 9 S ( i M G I _ ~ ^ ^ ^ ~ D V 9.q.XXzX$XjXjXLXKXKXKXKXKXLXKXn.  M P d d f 7 = f s f e % & = = = @ f =.S 7 % & * 6 y A.bX&XK.C.l.x.x.B.I                                                                                   bXKXKXKXKXKXKXKXKXKXKXKXKXKXKXKXKXKXKXKXKXKXKXKXKXKXKXKXKXKXKXKXKXKXKXKXKXKXKXKXKXKXKXKXKXKXKXKXKXKXKXKXKXKXKXKXKXKXKXKXKXKXKXKXKXKXKXKXKXKXKXKXKXKXKXKXKXKXKXKXKXKXKXKXKXKXKXKXKXKXKXKXKXKXKXKXKXKXKXKXKXKXKXKXKXKXKXKXKXKXKXKXKXKXKXKXKXKXKXKXKXKXKXKXKX",
"l mX>XrXiX>X<.+.+.] m.c.,.=.,.<.<X1XeXeXwXT.+.+.[ k.m.+.E [ :.n.z.| #.:.H.,XpXtXuX,Xb.k.P.j.n.G.j.k.>.b.>XMXdXCXnXT.t = X.f } r.$.O.$.U.j.#.=.+.b.7XgX8XfX6Xb.+.r.O.r.OX,.#.>.+.M.1X9X6XtX7X;.W $.T +.Y.[ [ :.E @XpXfXuXuX>X+.H J ' ~.v.k H U Q.iXuXuXdX2X<.U z T Y.F.C H H j.Y.$./ ] o.@XtXeXeXrX/.H.&X@XE.H.E.%X@X!.+XyXyX6XfXt     .   | KXlXjXkXVXKXHX4X#XbXFXGXLXNX4X&X|. XE.E.mXGX=.g 5XP.a L D D ) Q =.` J.s.7 d m S m S a.P.|. .q a b s p 7 i.bXPXbX' =.D.IXKXLXJXJXJXLXLXPXLXLXJXDXvXvXvXvXVXVXvXDXlXzXkXlX$X4._ ! 3 g (  .e 6 9 w 9 7 ) { 7 p p y q q i.` Z S D A S D 4.i a P ! 4./ ~ ~ ~ ~ ^ ^ 6.5.'.zXkX5XzXLXKXKXKXKXKXLXKXC.  6 s Z ( u.` L u.K.u.2 & - = % % @ d ` d s @ @ 7 7 2 s.cX&XK.C.k.l.h.F._   .                                                                           .   bXKXKXKXKXKXKXKXKXKXKXKXKXKXKXKXKXKXKXKXKXKXKXKXKXKXKXKXKXKXKXKXKXKXKXKXKXKXKXKXKXKXKXKXKXKXKXKXKXKXKXKXKXKXKXKXKXKXKXKXKXKXKXKXKXKXKXKXKXKXKXKXKXKXKXKXKXKXKXKXKXKXKXKXKXKXKXKXKXKXKXKXKXKXKXKXKXKXKXKXKXKXKXKXKXKXKXKXKXKXKXKXKXKXKXKXKXKXKXKXKXKXKXKXKX",
"l ZX6XtXuX3X@.T U H m.v.] +.R ;.<XnXeXdXwXI.E ' I ,.G.W z k Y V.r./ / O.m.1XfXtXuX,X$.T T H v.n.T H T $.<XnX1XCXnX~.t - g M I H h z O.Y.} G x  .2.7XaXrXrX6X,.R / I r.OX} h I U <.0XaX9XdXeX@.k k k $.Y.P.E.E.M.@XaXrXaXuX;XW k l k ~.k.l k k U.iXnXnXnX2Xb.T E T G.G.C h H j.T.%.U Y +.;XtXrX8XrX!.R R ' k.H.u.| [ ,./.iXwX9XZXt   .     | KXzX$X$XVXHXFX%X&XVXFXGXLXVX4X%XOXOXE.&XSXPXx > &Xa.d -.` ) -.{ a.=.J.` 1 b s b m b s.P.#XD 7 a b w p 7 i.cXHXbX .i.S.DXLXJXJXJXJXLXKXJXKXHXFXVXbXVXvXVXvXvXvXvXvXzX$XkX#X4._ { y s ( Q s 9 a p y q D i.q 9 p p q q ` ) q q q q q * 8.B s | ! 4.' ^ ~ ~ ~ 3.3.^ N d.jXjXjXkXLXKXKXKXKXKXKXKXv.  3 d d m Z  .{ ' M I K G d g e 2 = Q 8.Z m i q q 6 7 u.bX%XK.C.l.x.u.C.!                                                                                   bXKXLXKXKXKXKXKXKXKXKXKXKXKXKXKXKXKXKXKXKXKXKXKXKXKXKXKXKXKXKXKXKXKXKXKXKXKXKXKXKXKXKXKXKXKXKXKXKXKXKXKXKXKXKXKXKXKXKXKXKXKXKXKXKXKXKXKXKXKXKXKXKXKXKXKXKXKXKXKXKXKXKXKXKXKXKXKXKXKXKXKXKXKXKXKXKXKXKXKXKXKXKXKXKXKXKXKXKXKXKXKXKXKXKXKXKXKXKXKXKXKXKXKXKX",
"l ZX1XiXtX3X;.E E T U.V.[ h.+.,.3X1XdXCXiXM.E [ G h.H.W E T E G.r./ O.%.b.1XfXtXdX1X<.T O.Y v.m.O.T T @.;XnXnXnXiX).t = e f ] >.$.$.$.U.z.u.k.,.M.6XtX8XtX0X>.I C I e.OX| f f l ,.rXpXrXdX1X@.z &.&.r.G.F.%X5X^.@XaXwXtXCX;XW U k J !.,.h J l I.iXnXdXCX,X>.E E U H.v.k C h r.U.O.Y | +.(.tXtXtXrXQ.R [ ' k.n.=.I Y O.~.,X6X:XfXt     .   | KXcXjX$XlXBXVX4X4XcXcXbXBXbXbX$X&X$XE.4XPXPXx e 5X` * s p a m A a.a. X=.d D D F L L s.a.$X..7 ..S a s 7 a.VXGXbX .=.S.DXKXJXHXJXJXLXKXKXLXGXBXbXvXvXvXVXVXvXvXvXvXzXkXlXkXe.5.| s g Q ( s 9 a p p 9 S i.Q D Q ) ) D ` i.a y y 9 9 q 8.d i _ / ' 4.) ^ ^ ~ ~ D D V q.cXkXzXjXKXKXKXKXKXKXLXKXF.  M A y e d Q =.C.( Z M G G M Z L Q =.( m m ) a * Z a.J.bX&XE.F.z.z.x.C.K   .                                                                               bXKXKXKXKXKXKXKXKXKXKXKXKXKXKXKXKXKXKXKXKXKXKXKXKXKXKXKXKXKXKXKXKXKXKXKXKXKXKXKXKXKXKXKXKXKXKXKXKXKXKXKXKXKXKXKXKXKXKXKXKXKXKXKXKXKXKXKXKXKXKXKXKXKXKXKXKXKXKXKXKXKXKXKXKXKXKXKXKXKXKXKXKXKXKXKXKXKXKXKXKXKXKXKXKXKXKXKXKXKXKXKXKXKXKXKXKXKXKXKXKXKXKXKXKX",
"Z CX6XrXaX6X,.E T ] L.V.[ ] ] k.>XnXnXnXyXI.[ }  .z.Y.[ E T [ H.V.e.$.O.G.1XfXtXuX,X<.[ ] / G.G.' E E ,.>XuXfXCXdXT.t > , ..+.m.).T.<.U.!.qXbX%XQ.:X1X9XwX2X>.J Y C e.oX| I I Y c.rXrXtXtX9X<.&.T T r.T.}.UX4X4X4XpXwXtXuX3X%.Y H U !.k.J R k m.iXnXuXnX2X<.o.+.J G.F.H Y H >.U.@.} } @.@XtXtXtXuX~.] [ #.j.G.} J [ $.~.3X1X7XCX..  . .   | KXzXjX$XcXbX4X%X4XcX4X&X%XbXbX&X&X#X X4XPXIX..t &XL q b b ..S Q a.l. Xa.-.a.a.a.a.a.u.{ $Xy q d S a 9 7 l.VXPXbX( a.S.DXLXJXJXJXJXLXKXKXKXHXBXvXDXVXvXvXvXVXlXzXlXlXlXlXlXs._ 0.B i L ' s 7 y s y 7 a i.9 9 9 p w 7 S s.p 9 9 9 9 7 Q S i ( _ _ _ ~ ^ ~ ^ D D D D 3.zXzXjXzXLXKXKXKXKXKXLXKXv.  y > ! u.A.0.! A.h.s e f s = $ @ 2 A _ L a 5.Z.= s a.C.cX%X XF.l.l.k.z.L                                                                                   bXKXKXKXKXKXKXKXKXKXKXKXKXKXKXKXKXKXKXKXKXKXKXKXKXKXKXKXKXKXKXKXKXKXKXKXKXKXKXKXKXKXKXKXKXKXKXKXKXKXKXKXKXKXKXKXKXKXKXKXKXKXKXKXKXKXKXKXKXKXKXKXKXKXKXKXKXKXKXKXKXKXKXKXKXKXKXKXKXKXKXKXKXKXKXKXKXKXKXKXKXKXKXKXKXKXKXKXKXKXKXKXKXKXKXKXKXKXKXKXKXKXKXKXKX",
"l ZX6X6X0X6X;.l H / L.P.I M G $.3XnXiXnXiXM.H J H z.G.E k f ' F.r.^ I Y I.2XpXaXuX,Xk.' / P F.n. .l x :.@XMXuXpXtXQ., - , t k r r j T T.M.K.oXH.m.;X7X1XwX2X>.P / P r.OX#.P Y T k.6XtX9XrX7X@., X.: r.r.V.OXOXOX@XrXwXtXuX3Xo.I H / OXn.J J k I.iXnXtXpX2X:.R U U K.v.H I k k.Y.O.Y ' ] (.tXtXtXiX~.E Y P j.Y.e.I Y $.~.1XnX8XCXt         | KXlX#X$XbXVX$X$X%X4X4X|.$XVXcX&X#X#XOXbXPXsX..x 5XS q ..b b S ` a.l.|.s 9 b s b b L a.l.#Xs d S S Z ..9 l.VXPX4X( =.D.IXKXJXHXJXJXLXKXKXKXJXHXHXJXHXlXlXkXkX#XXX#XlXlXlXzXN._ 0.M s A { Z Z D ~ D D Q f.d 9 p p s 7 a Z.a 9 p 9 p 7 S Q y P ! _ | ! ^ ) D ~ ~ D D 3..XkXjXkXKXKXKXKXKXKXKXKXC.  d 6 K C.N.! ! a.Z & 3 d s e 2 % 2 L Q M 6 Z Z.a $ X K bX%XY.F.k.u.u.B.P                                                                               .   bXKXKXKXKXKXKXKXKXKXKXKXKXKXKXKXKXKXKXKXKXKXKXKXKXKXKXKXKXKXKXKXKXKXKXKXKXKXKXKXKXKXKXKXKXKXKXKXKXKXKXKXKXKXKXKXKXKXKXKXKXKXKXKXKXKXKXKXKXKXKXKXKXKXKXKXKXKXKXKXKXKXKXKXKXKXKXKXKXKXKXKXKXKXKXKXKXKXKXKXKXKXKXKXKXKXKXKXKXKXKXKXKXKXKXKXKXKXKXKXKXKXKXKXKX",
"l MX6X6XsX@X,.W [ e.L.P.{ { { b.@XiXeXuXwXm.[ } { v.K.#.E [ =.L.B./ / #.m.,XpXsXuX6X>. .I I C.F.[  .W ,.@XMXrXrXtX_.t , e r =.M.I.<.@.I.:.,.P.+.<.rXtX9XrX0X<.+.j.$.j.Y.#.@.r.O.<.wXtX8XtXrX1.z %.z %.G./ Y #.+.(.fXuXdXuX;XT f f ! OXk.f t l M.0XuX0XuX2X@.l t h K.F.f g f r.Y.Y f f T ).uXeXtXiXT.h g g #.U.[ f h T T.iXeX1XCXt   . .   | KXlXjXlXBXbX4X4XcX4X$X$X%XcXcX&X#X&X&XNXIX^.> -.|.b 9 b b S S  .u.D.&Xs s S S S S Q p.P.|.Q -.p.i.-.-.Q a.5XJX4X .i.S.DXLXJXHXHXJXLXKXKXKXJXHXHXHXHXlXlXlXzXjX#XjXkXlXlXzXZ.8.8.M g Z ' S i b N F b m a.S 7 q p s q a s.m 9 9 9 9 7 a ` y I / ( | _ _ ) ) ~ B n D 3.{.zXjXzXLXKXKXKXKXKXKXKXn.  Z A e a K s _ C.s e Z d y e , = Z { ^ s i a a 7 & + d cX%XK.F.x.x.h.A.!                                                                                   bXKXKXKXKXKXKXKXKXKXKXKXKXKXKXKXKXKXKXKXKXKXKXKXKXKXKXKXKXKXKXKXKXKXKXKXKXKXKXKXKXKXKXKXKXKXKXKXKXKXKXKXKXKXKXKXKXKXKXKXKXKXKXKXKXKXKXKXKXKXKXKXKXKXKXKXKXKXKXKXKXKXKXKXKXKXKXKXKXKXKXKXKXKXKXKXKXKXKXKXKXKXKXKXKXKXKXKXKXKXKXKXKXKXKXKXKXKXKXKXKXKXKXKXKX",
"G ZX6XqXsX4XQ.4XbX%XK.L.&XbX%XT.<XuXuXuXwXT.+X4X%XoXU.~.qXqX@XE.}.UXbX%X+X2XpXaXpX0Xk.' R ' F.K.OX%X@X^.@XpXuXtXrX_.< - , f ,.Q.R.@.@.I.:.k.K.+.1.rXdX8XtX,X<.>.I.>.;.T.>.<.I.@.<.8XtX8XdX9X;.&.r.%.T G.Y H @.E (.gX9X9XiX=Xv.F.F.V.oXL.K.&X!.~.2XMXrXuX2Xv.K.!.F.K.L.h.h.#.F.H.E P I / +XuXwXwXiXOX$.e.e.V.L.=.f j U T.iX2X3XCXt     .   | KXlX$XlXbXVX#XA.|.cX%X&XcXbX4XOX&X#X$XIXSX=.> =.E.s s m b S S -.u.P.|.s b ..b S F  .a.P.#X7 a A S p s y A E.PX%XL =.S.FXKXJXHXJXJXLXKXKXLXHXHXHXHXHXlXlXlXzX#X|.#XkXlXlXlXA.5.8.S s d Z s 7 y 9 s 0 q f.D q p p 9 q 9 a.D 9 p 9 p q w a.e Z 0.' _ _ ~ _ _ D v n D w.g.zXzXzXLXKXKXKXKXKXLXKXF.  K 0._ L K B M K e ! P 6 = 7 6 s f { { G Z s 9 9 7 o s cXcXOXC.z.l.l.F.(                                                                                   bXKXLXKXKXKXKXKXKXKXKXKXKXKXKXKXKXKXKXKXKXKXKXKXKXKXKXKXKXKXKXKXKXKXKXKXKXKXKXKXKXKXKXKXKXKXKXKXKXKXKXKXKXKXKXKXKXKXKXKXKXKXKXKXKXKXKXKXKXKXKXKXKXKXKXKXKXKXKXKXKXKXKXKXKXKXKXKXKXKXKXKXKXKXKXKXKXKXKXKXKXKXKXKXKXKXKXKXKXKXKXKXKXKXKXKXKXKXKXKXKXKXKXKXKX",
"G MX>XiXnX>X;.>.k.k.G.n.k.k.n.c.@XwXeXeXwXI.<.F.z.v.G.k.M.m.v.m.}.V.Y.T.I.0XCXuXpX7Xb.#.#.#.V.G.G.Y.Y.I.;XdXdXdXuXOXt - X.f } r.$.O.$.Y.:.e.j.+.<.7XgX8XtX6X<.o.>.o.>.Q.<.@.<.%.b.1X8X9X8X1X<.] r.T +.H.] ] #.o._.9X1X1XeX;XT.%XqXOXoXK.&XmX@X/.6X9X9XaX%XH.qXmX@XE.H.&X4X%X!.Y.n.&XoXH.+XwXrXrX0X@X&XbXbXOXH.h.} #.r.).uXrX9XfXt     .   | KXlX$XcXVXmX[.p.J.$X#X&X%XbX$XOX&X|.5XZXPX2.> P.E.9 a b b S A ` a.C.|.q b ..b S S -.=.s.5Xq b D S p s y a.cXGX@XA ` Z.FXKXJXHXJXJXLXKXKXKXJXGXHXHXHXcXlXlXlXjX.X#XkXlXlXkXZ.) 8.M y s d y e u u v u 9 d.~ q p p p 9 q a.) q 9 9 p q 9 a.9 Z { ( _ _ 4.3.A v v v D D f.zXjXjXKXKXKXKXKXKXLXKXF.  { lX|.| Z 3 % O e L d = * e M s = f ( K m y 6 9 9 @ 6 %XqXoXK.z.l.u.C.(                                   .                                               bXKXKXKXKXKXKXKXKXKXKXKXKXKXKXKXKXKXKXKXKXKXKXKXKXKXKXKXKXKXKXKXKXKXKXKXKXKXKXKXKXKXKXKXKXKXKXKXKXKXKXKXKXKXKXKXKXKXKXKXKXKXKXKXKXKXKXKXKXKXKXKXKXKXKXKXKXKXKXKXKXKXKXKXKXKXKXKXKXKXKXKXKXKXKXKXKXKXKXKXKXKXKXKXKXKXKXKXKXKXKXKXKXKXKXKXKXKXKXKXKXKXKXKXKX",
"l CX1X1XnX3X<.T z z b.b.Y W U +.;XuXeXeXrXM.R [ J :.U.E h h ] V.r./ O.%.b.1XuXuXuX3X<.Y / C V.G.Y U T @.<XnXtXdXeX).t : r f K G C C #.Y.| I L H <.wXeXeXpX6XH.!.OXoXL.!.#.h C C j.2XuXwXtXuXj.Y P I #.L._ G G J ).uXeXwXnX3XO.T R E !.n.J :.E I.rXaXtXgX0X<.,.>.=.F.H.:.>.[ k.!.,.j.z.;./.rXrX9X6X_.,.,.1.P.U.P.e.x.r.~.uXtXrXfXt   .     ' KXlX#X$XUXUXF.x.F.J.A.$XcX%XOXK. XK.@XSXPX=.>  XD.7 b b b S b ( -.D.|.> b F b S S  .a.P.|.> b D S p 9 9 D.bXIX|.Z =.S.FXLXJXJXJXJXLXKXKXKXLXHXHXHXHXVXlXlXlX#X.X.XkXlXzXlX'.^ 8.d = s P d 6 y u c u 7 i.) 9 a w w 9 7 i.3.7 9 9 9 q 9 ` a f { { 8.8.K i p c p v N D f.zXzXzXLXKXKXKXKXKXKXKXC.  Z $X[.a * % e P s d P s g A ( s 7 L ! M a B ~ ` a @ s %XcXOXL.P.x.x.C.(                     .     .   .                                               .   bXKXLXKXKXKXKXKXKXKXKXKXKXKXKXKXKXKXKXKXKXKXKXKXKXKXKXKXKXKXKXKXKXKXKXKXKXKXKXKXKXKXKXKXKXKXKXKXKXKXKXKXKXKXKXKXKXKXKXKXKXKXKXKXKXKXKXKXKXKXKXKXKXKXKXKXKXKXKXKXKXKXKXKXKXKXKXKXKXKXKXKXKXKXKXKXKXKXKXKXKXKXKXKXKXKXKXKXKXKXKXKXKXKXKXKXKXKXKXKXKXKXKXKXKX",
"G fX1XwXiX3X<.o.T T m.b.R @.W ;.;XnXwXdXtXb.E [ J h.G.O.T T ] V.r.r.$.@.b.1XuXtXdX,X<.T T U r.G.] E E ;.;XnXdXtXiX).j - e g G Z Z I | Y.#.I K H c.0XrXwXaX4XH.&X%X%XoXH.e.Y ! ' >.2XpXwXuXyX,.R ! ' k.C./ G ..J +XCXuXtXCX>XE z T H !.j.H <.E b.rX9X8XdX6X;.z T k m.G.l [ l >.T.o.U [ W W.8X9X8X9XW.U W W ;.I.:./ ] $.T.iXwX6XZXt     .   | KXkX$XUXbXlXp.p.B.x.x.OX4X4X$XH.|.E.4XSXPX=.% &Xs.* b b b b p ` a.A.E.7 b b b S S  .a.S.|.> ..D b b 9 s E.IXGX^.Z =.S.HXKXHXGXJXJXLXKXKXKXJXHXHXHXHXbXzXlXvXjX.X.XkXlXlXvX'.~ 0.M 3 d ! Z y y p p p q ) ` 9 p p w 9 $ 3.f.7 0 9 9 9 q ~ S 6 ( { _ S u 8 p i p v n D w.XXzXzXLXKXKXKXKXKXKXKXv.  % * 2 e = 7 K M i P M e G K e 6 S u.| m p B _ ~ S 9 _ lXbXOXK.C.x.h.z.(                             . .                                               .   bXKXKXKXKXKXKXKXKXKXKXKXKXKXKXKXKXKXKXKXKXKXKXKXKXKXKXKXKXKXKXKXKXKXKXKXKXKXKXKXKXKXKXKXKXKXKXKXKXKXKXKXKXKXKXKXKXKXKXKXKXKXKXKXKXKXKXKXKXKXKXKXKXKXKXKXKXKXKXKXKXKXKXKXKXKXKXKXKXKXKXKXKXKXKXKXKXKXKXKXKXKXKXKXKXKXKXKXKXKXKXKXKXKXKXKXKXKXKXKXKXKXKXKXKX",
"G fX1X7XuX3X<.E E Y m.m.E [ R ;.<XnXeXuXuXI.o.:. .h.K.e.O.] $.G.V.V.b.>.m.iXMXaXuX,X<.] E T V.V.#.[ ] @.<XnXuXuXuX).t - : g Y e.e.| e.Y.k.:.z.:.M.7XtXeXtX6XH.qXbXqXOXL.oXUXbX2X!.6XpXtXuX0X^.&XqX%XOXL.C.&X4X@X<XyXuXuXyX@XO.U T Y OXv.E j.T M.rXaXdXdX,X<.%.O.U U.m.W +.U >.T.@.R [ W _.tXgX8XrXW.o.;.=.,.Q.:.' [ $.T.iXtX7XfXt   .     | KXlX$XcXVX$X| u.a.| P.lX%X&XoXS.E.J.4XPXSX..= 5Xa.* p w 9 p 7 Q =.S.S.> p b b b S ) a.D. X6 b S p s s q  XBXGXOXG -.S.GXLXJXHXJXJXLXLXKXKXJXFXFXHXHXVXlXlXlX$X.X.XkXlXzXcX`.~ 0.K e s ' K y u p p p 0 Q 5.9 q y 9 9 7 D i.* 7 7 7 7 * A Q * A ` A N v v B v v n n D ) {.vXjXLXKXKXKXKXKXLXKXF.  g 6 7 Z ( Z M 3 e ! d f L y & @ s =.P s i 8 u K s.D S OXbXOXL.C.l.z.C.P   .         .   *.y.y.y.*.t.*.y.*.  .                                             bXKXKXKXKXKXKXKXKXKXKXKXKXKXKXKXKXKXKXKXKXKXKXKXKXKXKXKXKXKXKXKXKXKXKXKXKXKXKXKXKXKXKXKXKXKXKXKXKXKXKXKXKXKXKXKXKXKXKXKXKXKXKXKXKXKXKXKXKXKXKXKXKXKXKXKXKXKXKXKXKXKXKXKXKXKXKXKXKXKXKXKXKXKXKXKXKXKXKXKXKXKXKXKXKXKXKXKXKXKXKXKXKXKXKXKXKXKXKXKXKXKXKXKXKX",
"l MX6X0XnX>X+.h h I F.V.G d G @.@XuXeXeXwXI.+.k.h.F.Y.O.I Y 0.L.}.+X2X@X_.0XMXsXaX6X>.U C H V.V.Y C H @.2XMXtXuXnX).r - > g ' 0.} } $.H.$.;.v.@.<.7XtX8XeX>Xm.^.OXOXU.U.E.OX&X^.H.6XrXrXeXwXU.!.&X&XH.n.P.OX&X^.@XyXiXuXMX>X+.H J Y oXV.J W R M.0XyXrXdX2Xk.T T U G.Y.J / H j.Y.+.Y ' Y _.tX8XeXyX/.R [ R :.!.h./ ] O.T.iXeX1XCXt   .     | KXlX$XcXVXOX{ x.p.{ V.%X$X Xs.=. XE.4XPXNXt S 5X` * p u p 9 q  .=. Xs.1 9 p p b p Q a.D.S.9 b b b p q p  XIXSXoXA i.J.GXKXJXHXHXGXJXKXKXKXLXHXFXHXJXVXlXlXlX#X.X.XjXzXzXlX|.4.p.! i i | L 9 y p p 0 9 S i.0 q q 9 q 7 S s.D D ) ) 4.D 8.) 7 I _ ^ M B v B n c v B V n g.cXjXLXKXKXKXKXKXLXKXP.  7 3 % 6 u.=._ 8.[.$Xh.K d 6 2 = K B.^ y i B S D L 1 7 oXbX&XK.B.l.u.z.K             .   y.y.y.y.AXy.y.y.t.. .                                             bXKXKXKXKXKXKXKXKXKXKXKXKXKXKXKXKXKXKXKXKXKXKXKXKXKXKXKXKXKXKXKXKXKXKXKXKXKXKXKXKXKXKXKXKXKXKXKXKXKXKXKXKXKXKXKXKXKXKXKXKXKXKXKXKXKXKXKXKXKXKXKXKXKXKXKXKXKXKXKXKXKXKXKXKXKXKXKXKXKXKXKXKXKXKXKXKXKXKXKXKXKXKXKXKXKXKXKXKXKXKXKXKXKXKXKXKXKXKXKXKXKXKXKXKX",
"l NX6XrXMX%Xh.Y P { L.F.{ ( ( >.;XnXuXuXwXU.n.Y.L.L.K.O.Y ( { F.L.}.&XoX^.4XmXaXyX>X<.Y Y Y V.V.' I P >.@XMXMXpXnX/.j : , g | k.v.c.$.I.@.@.v.[ M.9X8X9XrX6Xc.W [ R :.U.,.h.k.[ <.0XaXrXdXeX;.U [ k =.H.R G =.W (.tXtXuXMX2X[ f f J oXx.f e f k.>XrX0XtX2X$.t g f K.K.M f f x.}.' f Z J ~.uXrXrXyX^.f g g } Y.} f h T T.iXuXwXfXt     .   | KXlX$X%X4XE.u.N.C.l.L.$X4X$XP.P.J.E.qXPXsX> ..$Xl.` i.6.i.i.a.a.)  Xa.2 a w p b s S a.J.S.q b b b b s p  XIXGXoX .=.J.GXKXJXJXJXJXJXKXKXKXJXFXHXHXHXVXlXlXlXjX|..XkXlXvXlX|.8.d._ s s | P e y p p p q b i.7 7 7 q 7 * p 5.b y b n p 7 S ` 6 A 8.^ v B v B n v v n D ` g.zXzXLXKXKXKXKXKXKXKXV.  e x.( > s l._ L [.VX Xg = > & & Q oXz.B Z D Q ^ v * e #XbXOXL.z.l.h.V.!               . -.L = a.lXXXf.-.q .                                           .   bXKXKXKXKXKXKXKXKXKXKXKXKXKXKXKXKXKXKXKXKXKXKXKXKXKXKXKXKXKXKXKXKXKXKXKXKXKXKXKXKXKXKXKXKXKXKXKXKXKXKXKXKXKXKXKXKXKXKXKXKXKXKXKXKXKXKXKXKXKXKXKXKXKXKXKXKXKXKXKXKXKXKXKXKXKXKXKXKXKXKXKXKXKXKXKXKXKXKXKXKXKXKXKXKXKXKXKXKXKXKXKXKXKXKXKXKXKXKXKXKXKXKXKXKX",
"l ZXqXsXmX@XY.%XUX&XL.`.OXlX&XT.2XiXuXfXrXQ.~.&X&X}.K.G.K.E.J.L.H.%XbX@X^.0XMXyXaX6XT.&X2XOX}.K.OXUX%X~.@XMXMXpXyX/.t : , g :.K.G.:.$.U.;.1.n.+.1.7X8X9XrX0X,.E [ E #.T.,.k.n.+.b.1XgX9XdXgX@.k @.x W M.' U $.O./.uXuXdXnX,X,.( Q { OXC.{ [ =.M.4XsXwXrX2Xz.' ' | K.J.0.e.0.F.[.| P Q ( oXnXyXyXmX^.[ ( ( x.Y.} f h Y T.iXeX1XaXt   . .   | KXcXBXBXbXL.=.{ ' 0. X%X&X XJ.J.E.E.sXPX5X>  .#XZ 6 b b a p b -.a.E. .$ q 7 q q q L -.E.s.q s p p p q p 5XBXGXE.L i.S.GXKXJXHXJXJXLXKXKXKXJXFXHXFXHXVXlXlXzXkX|..XzXlXlXlX.X9.e.4.a d ! ! y e y 0 p q p s.b n b b b p F a.p 2 9 9 8 7 0 _ y M 5.! B B v B B v n v D  X'..XzXLXKXKXKXKXKXLXKXF.  =.cXl.e 7 A K e M 8.f & = 2 & @ Z  Xp.d K e % 3 9 3 d $XVX&X}.F.z.z.z.Y   .         .   4.[.r.kXzXr.d.'.D                                                 bXKXKXKXKXKXKXKXKXKXKXKXKXKXKXKXKXKXKXKXKXKXKXKXKXKXKXKXKXKXKXKXKXKXKXKXKXKXKXKXKXKXKXKXKXKXKXKXKXKXKXKXKXKXKXKXKXKXKXKXKXKXKXKXKXKXKXKXKXKXKXKXKXKXKXKXKXKXKXKXKXKXKXKXKXKXKXKXKXKXKXKXKXKXKXKXKXKXKXKXKXKXKXKXKXKXKXKXKXKXKXKXKXKXKXKXKXKXKXKXKXKXKXKXKX",
"G ZX0XyXmX<XM.v.v.V.V.V.V.K.F.M.3XuXuXfXrXR.M.Y.L.L.K.r.j.x.z.L.F.Y.^.G.T.0XyXiXuX,XT.}.OX}.[.K.Y.OX~.!.%XMXpXpXqX+Xj - r g } k.j.] #.I.;.>.:.E <.6XtX8XrXrX<.W #.E $.T.v.n.M.,.<.,X8X9XgX1X<.o.$.z ;.M.[ ' $.%.Q.dXdXdXMX>Xc.h.k.x.oXK.F.E.P.Q.6XrX6XaX2XL.OX+XoX}.[.OXlX%XoXK.j.x.h.} +XuXrXwXyX^.!.%X%XoXK.e.I Y O.~.uXrX6XfXt         | KXVXLXKXGXP. X$XS.u.C.&XE.P.=.u.s.^.sXSXI.> =.#Xd q b b b S  .a.s.|.s.Q ` ) ` ) ) -.-. Xa.> p p p p q ..&XIXSXE. .=.S.GXKXJXHXJXHXJXKXKXLXLXHXFXHXHXVXlXlXlXkXXX.XzXzXzXlX#X9.0.| M d ! ! y 9 9 9 0 q p s.D D Q D S S S D.S 7 p u 0 9 y _ d s _ _ N v B B n B v v n f.f.XXzXLXKXKXKXKXKXLXKXF.  |  X' ` | 6 e i M i = & = 7 = & M [.0.d m y 3 B s 1 9 |.VX&XY.F.l.x.B.!                 6 9.zXvXjX{.p..Xp.                                                bXKXLXKXKXKXKXKXKXKXKXKXKXKXKXKXKXKXKXKXKXKXKXKXKXKXKXKXKXKXKXKXKXKXKXKXKXKXKXKXKXKXKXKXKXKXKXKXKXKXKXKXKXKXKXKXKXKXKXKXKXKXKXKXKXKXKXKXKXKXKXKXKXKXKXKXKXKXKXKXKXKXKXKXKXKXKXKXKXKXKXKXKXKXKXKXKXKXKXKXKXKXKXKXKXKXKXKXKXKXKXKXKXKXKXKXKXKXKXKXKXKXKXKXKX",
"l ZX1XeXtX<X<.z k T b.m./ ] Y @.<XuXuXdXwXI.U ' P j.L.O./ / | G.k.R T T b.wXCXdXuX1Xb.Y H P z.F.] / ' >.@XMXMXuXyX/.t : , g G M G G R H.#.H P R <.6XrX8XaX0Xk.l J H #.Y.~.%X2X%XI.6XrX9X9XeX1.U H h O.Y.| C I U ).uXnXtXyX2X,.J J R }.V./ I T b.2XeX9XtX,Xb.<.>.#.G.K.#.j.,.v.!.>.[ } ] ).uX8X8XuXQ.;.,.,.c.!.h.P Y O.T.uXuX7XfXt   . .   | KXbXGXKXBXl.BXLXLXJ.a.OXK.C.u.l.l.OXIXPX1.- ,.5Xs y b b S S Q s.p. X-.s F S F S S -.{ K.=.* 7 9 q 9 7 b &XIXGXE.Q u.`.HXKXHXGXHXHXLXKXKXLXLXGXGXHXHXvXcXcXzXkXXXXXkXlXzXlX#X9.9.4.M s ^ ! i 7 9 6 9 1 p i.9 2 7 q q q $ D.~ 7 p 9 9 9 q ) S i 8._ G B v v v v a v n 3.f.XXzXLXKXKXKXKXKXKXKXV.  K | Z p.oX| D ( { ( y = 3 2 - & d x._ i s y 2 * 7 p y  XVX&XE.L.l.x.C.!                 2 D p p. Xd.9.6.6                                                 bXKXKXKXKXKXKXKXKXKXKXKXKXKXKXKXKXKXKXKXKXKXKXKXKXKXKXKXKXKXKXKXKXKXKXKXKXKXKXKXKXKXKXKXKXKXKXKXKXKXKXKXKXKXKXKXKXKXKXKXKXKXKXKXKXKXKXKXKXKXKXKXKXKXKXKXKXKXKXKXKXKXKXKXKXKXKXKXKXKXKXKXKXKXKXKXKXKXKXKXKXKXKXKXKXKXKXKXKXKXKXKXKXKXKXKXKXKXKXKXKXKXKXKXKX",
"l pX:X7XtX<X<.T T T b.b.O.$.+.@.<XuXuXuXwXI.R E P j.G.O.] ] O.V.v.R E o.<.2XnXnXtX,X>.T Y U v.V.[ / E @.<XMXuXtXpX^.t - , f L ( H G ' H.#.J  .J ,.0XrX6XpX0X,.l f G #.L.E.%X4X@XE.=XaX9XtXiX,.l f h } L.| M f H ^.yXuXyXaX@XE l k I Y.b.T T &.b.,XeX1XdX1X<.z o.U M.m.T Y H @.U.+.E +.E Q.eX8X8X8X).z U k +.T.,.U R O.T.eXwX7XfXf         | KXbXVXBX$Xu.4XIXVXF.a.E.oXE.} l.l.&XIXPX=.$ E.S.9 a b b b m -.a.l.|...q b b b s d -.l. Xa.d D S F ) S ( $XIXGXH. .=.S.GXKXJXHXGXGXJXKXKXKXLXGXHXHXHXVXkXlXlX$X.X.X$XlXlXlXkXB.9.8.B a P ( ^ Q ) ` ) D 4.p.S 0 p w 9 q 7 i.` 9 9 p 9 p 7 ) A 3 | 0.^ B v B v v a c B D F {.zXKXKXKXKXKXKXLXKXF.  3 g e M Z { } u.l.} P K P ^ M M ! 4.B e y a ~ i y B y oXVX%XoXL.z.x.V.!                 i p.S S D N N u +                                             .   bXKXLXKXKXKXKXKXKXKXKXKXKXKXKXKXKXKXKXKXKXKXKXKXKXKXKXKXKXKXKXKXKXKXKXKXKXKXKXKXKXKXKXKXKXKXKXKXKXKXKXKXKXKXKXKXKXKXKXKXKXKXKXKXKXKXKXKXKXKXKXKXKXKXKXKXKXKXKXKXKXKXKXKXKXKXKXKXKXKXKXKXKXKXKXKXKXKXKXKXKXKXKXKXKXKXKXKXKXKXKXKXKXKXKXKXKXKXKXKXKXKXKXKXKX",
"..pX:X9X2X;X2.%.O.O.G.v.O.O.] $.>XnXiXdXtXI.E :.' x.L.e.] | e.L.v.#.$.+.M.2XnXdXMX6Xc.E T Y v.G.] ] E @.;XpXtXtXuX/.t : e f a.%XcXcXK.L.K.4X4X$X^.6XrX7XrX>XH.!.OX+XY.G.E.$X4X&XE.4XaXrX8X6XH.^.&X&X}.L.C.|.oXY.@XyXiXuXsX%X;.k h T Y.m.T O.&.m.:X8X9XgX,Xb.%.@.T b.m.o.O.E <.U.+.@.:.W W.9X9X8XtX_.U W U #.T.[ z R o.~.1XuX1XfXt   . .   [ KXVXbXBX&Xa.a.C.C.S.OXOX&XE.u.x.P.%XSXPXx $ 5XD.q a b b S S ` a.l.|.b s S F S S S a.u. Xa.Q ` ` ` ` L -.&XIXSXH.Z u. XJXLXJXHXJXHXJXKXKXKXLXHXHXHXHXDX$XzXlXkX.XXX$XlXlXlXkXe.4.4.B B K _ M y p b b p p 9.D q w p 9 9 7 ` -.y y y 9 9 7 D Q e ^ 0.M u c c v c i c v n n s.zXLXKXKXKXKXKXLXKXF.  e ! d e * Z L.P.L e ^ K f e 3 e ! x.! 3 i B l.N & O 3 OXbX%XoXF.P.l.C.P                 { #XD.$X$XA.9.Z.`                                                 bXKXKXKXKXKXKXKXKXKXKXKXKXKXKXKXKXKXKXKXKXKXKXKXKXKXKXKXKXKXKXKXKXKXKXKXKXKXKXKXKXKXKXKXKXKXKXKXKXKXKXKXKXKXKXKXKXKXKXKXKXKXKXKXKXKXKXKXKXKXKXKXKXKXKXKXKXKXKXKXKXKXKXKXKXKXKXKXKXKXKXKXKXKXKXKXKXKXKXKXKXKXKXKXKXKXKXKXKXKXKXKXKXKXKXKXKXKXKXKXKXKXKXKXKX",
"l CX,XiXuX2Xm.$.T / K.F./ ! I $.>XnXuXdXaXU.[ [ / z.Y.O.Y I #.V.k.] R [ M.qXnXnXaX6X<.U k Y v.v./ H T >.<XpXtXfXpX(.t - e t =.!.oXoXn.n.m.^.&XOXI.<XtXtXrX6XH.^.@X&XY.K.E.^.@XOXI.6XaXeXtXrX^./.2X%X~.G.G.%X&X@X<XiXtXdXpX6X;.k H ] Y.V.Y T T m.,X9X9X8X2Xb.%.T ] H.U.' [ Y v.G.+.[ [ E Q.eX9X8XeX_.E U Y j.Y.,.P T o.T.nX1X2XZXt     .   | KXVXVXBX&Xk.l.l.l.F.|.OXOXJ.z.C.L.%XPXSX..> 4Xa.q d p b m S =.a.D.OXs s b ..F b L a.a.|.A 6 b s p w q Z |.SXSXF.G a.|.JXLXJXGXHXJXJXKXKXKXLXFXGXFXHXDX$XlXlX$X.XXX#XzXkXlXzXB.q.0.B B M ! a 9 9 9 0 9 7 6.` 7 9 p p 9 q ~ s.y 9 p 9 w q m Q y K 8.A i i v v i 8 u n 0 1 f.zXLXKXKXKXKXKXKXKXv.  3 a M ( g d C.{ 2 2 x.P 3 2 & & G C.0.e a B p.N.~ & % ].VX%X XL.z.h.z.L                 ( C.a..X.Xs.5.'.A.                                                bXKXLXKXKXKXKXKXKXKXKXKXKXKXKXKXKXKXKXKXKXKXKXKXKXKXKXKXKXKXKXKXKXKXKXKXKXKXKXKXKXKXKXKXKXKXKXKXKXKXKXKXKXKXKXKXKXKXKXKXKXKXKXKXKXKXKXKXKXKXKXKXKXKXKXKXKXKXKXKXKXKXKXKXKXKXKXKXKXKXKXKXKXKXKXKXKXKXKXKXKXKXKXKXKXKXKXKXKXKXKXKXKXKXKXKXKXKXKXKXKXKXKXKXKX",
"l ZX0XyXnX@Xj.| R } [.F.! Z M +.;XuXeXdXuXI.R J I z.K.] h ..' J.v.P I E c.iXnXiXtX:X<.G G L V.B.| C U $.@XMXnXnXuX+Xt - e h [ <.<.;.;.I.;.%.h.E b.:X8X9XpX6X;.=.,.#.$.U.,.;.,.:.2.1XeX8XwXwXM.] $.E O.V.} ' } O.~.dXeXnXCX2X$.C M / [.V.C h h v.>X0X0XtXqXk.l t l P.K.K M f z.K.} H K / Y.iXrXwXiX/.H f f | }.} C h U T.tXtX9XfXt     .   | KXVXVXNX Xl.V.N.x.V.|.oX Xl.u.l.F.qXIX^., ..&X-.q b s b S S i.a.s.#Xs ..F b ..S Q s.s.|.S s A S b a 9 S J.NXIXF. .u.|.JXLXJXHXJXJXPXKXLXKXLXHXHXHXJXDX$XzXcXkX.X.X$XlXzXlXlXB.4.4.M M d M s e u p p p 7 f.a.7 9 p p 9 7 S s.s q 9 9 9 q a ` y d ( L i u c i u y 0 v N n 6.zXLXKXKXKXKXKXLXKXv.  = e ' [.{ d | { Q ! x.b 3 6 & = { S.0.y d M A 8.Z % & A.bX&XJ.z.x.=.l.P             .   A a.D.lX.Xs.6.'.s.  .                                             bXKXKXKXKXKXKXKXKXKXKXKXKXKXKXKXKXKXKXKXKXKXKXKXKXKXKXKXKXKXKXKXKXKXKXKXKXKXKXKXKXKXKXKXKXKXKXKXKXKXKXKXKXKXKXKXKXKXKXKXKXKXKXKXKXKXKXKXKXKXKXKXKXKXKXKXKXKXKXKXKXKXKXKXKXKXKXKXKXKXKXKXKXKXKXKXKXKXKXKXKXKXKXKXKXKXKXKXKXKXKXKXKXKXKXKXKXKXKXKXKXKXKXKXKX",
"..ZX2XiXmX<X}.2XbX%X!.F.#.O.' <.<XuXtXuXeXI.:.h.h.V.Y.j.} | u.F.z.0.O.O.M.2XyXiXuX1XT.&X%XOXK.K.}.&X&X~.>XMXCXnXuX+Xt : e f h.G.<.:.E m.:.k.n.E <.1X8X9XtX6X<.;.v.$.$.T.,.,.b.o.@.:XeX8XrX0X<.J h.T T U.} Y $.@.).dXdX1XuX1X@.f f ^ }.L.C B f c.2XiX0XuXqXv.h.0.h.J.J.8.{ | z.E.C.F.F.V.+XiXtXrXnXOX] R ! e.}.} f h H T.iX8X6XdXt   .     | KXVXVXbXL.z.s.u.p.C. XE.E.P.z.C.L.4XBXM.> x oX` 9 a b b S S i.a.S.|.q b b b S b Q a.P.OXS s D A b p w d =.%XNXP.( a.|.JXKXJXHXJXJXJXKXKXKXLXHXFXFXHXDXkXcXlXlX.XXX.XlXlXlXlXL.9.5.M B f M i 7 u y w c 2 -.a.* p 9 w w q p S.y 9 y 9 9 9 0 ` s m 0.! B i c a u 8 u u F D ~ {.KXKXKXKXKXKXKXKXC.  s s i M g L ! m _ 8.z.y = 2 * m p.C.0.i m s 3 3 2 O @ l.bX$XK.F.P.l.F.P                 Q u.s.kX.Xg.9.Z.Z                                             .   bXKXKXKXKXKXKXKXKXKXKXKXKXKXKXKXKXKXKXKXKXKXKXKXKXKXKXKXKXKXKXKXKXKXKXKXKXKXKXKXKXKXKXKXKXKXKXKXKXKXKXKXKXKXKXKXKXKXKXKXKXKXKXKXKXKXKXKXKXKXKXKXKXKXKXKXKXKXKXKXKXKXKXKXKXKXKXKXKXKXKXKXKXKXKXKXKXKXKXKXKXKXKXKXKXKXKXKXKXKXKXKXKXKXKXKXKXKXKXKXKXKXKXKXKX",
"l CXwXpXyX<XT.oXOX!.H.H.G.OXY.M.2XnXtXdXrXQ.I.OXoXK.Y.G.Y.!.H.E.G.G.Y.G.T.iXnXnXfX,XT.OX%X&XK.K.OXUX%XOX@XCXnXfXnX).t : r t #.h.=.=.+.H.j.j.v.] <.1XdXgXeXwXc.+.v.$.#.T.1.%.<.%.2.3XtXdXtXrXc.] x.o.O.U.#.} r.+.).dXeXeXuX3X,.! / / }.F.P C C v.2X0X0XtX2X!.qXBXcXoXK.&XbXbXOXE.!.bXbX&X+X2XwXwXiX~.%XbXBXOXY.[.oX&XY.~.2XrX6XdXt   . .   | KXbXVXbXC.u.l.u.0.[.oXL.H.l.l.F.J.qXPX4X> L #XD y d b b S D a.a.E. X7 ..S b F S ` a.s.|.S s A D b p p a ' 4XNXz.` u.#XLXLXJXHXJXJXJXKXKXKXLXHXFXFXJXDX$XlXlXlX.X.X.XlXkXlXkX'.e.8.^ M B M a 8 8 p c p 7 ) a.7 s p w w 7 9 A.b q 9 9 9 9 7 5.d s { { i u i a u 8 u n N 6.s.{.LXKXKXKXKXKXLXKXF.  _ 0.K Z M | d = M K g * = 7 7 e Z u.( y i s s M a * = N.bXlXoXL.P.x.z.P                 m S Z $X.Xs.f.Z.v                                             .   bXKXKXKXKXKXKXKXKXKXKXKXKXKXKXKXKXKXKXKXKXKXKXKXKXKXKXKXKXKXKXKXKXKXKXKXKXKXKXKXKXKXKXKXKXKXKXKXKXKXKXKXKXKXKXKXKXKXKXKXKXKXKXKXKXKXKXKXKXKXKXKXKXKXKXKXKXKXKXKXKXKXKXKXKXKXKXKXKXKXKXKXKXKXKXKXKXKXKXKXKXKXKXKXKXKXKXKXKXKXKXKXKXKXKXKXKXKXKXKXKXKXKXKXKX",
"l CX7XrXyX>X<.E W W n.G.] E E $.>XiXwXuXrXI.E } | k.G.:.[ [ [ M.v.+.$.O.b.2XCXnXuX1XI.] O./ V.G.#.] O.k.;XMXuXdXuX(.t - X.f P I l l R K.0.K I k $.1XeXeXtX0Xk.l H Y $.R.%.j r j @.1XdXtXtXaXM.h.z.$.j.H.e.h.j.>.(.eXeXuXdX>X<.[ O.| }.G.H H T b.>X7X7XeX,Xm.M.I.n.H.H.n.K.H.H.H.M.!.K.v.).1XrX9XwXQ.m.!.!.H.U.G.OX@XY.~.,XiX6XdXt         { KXbXbXlXF.l.C.h.e.oXE.P.L.u.l.F.|.bXPXOX- '  XZ y d b b S A -.a.E.D.q b ..b b S ` a.P. Xb s A S b a 9 A E.NXbXk.( a.#XJXLXJXGXJXHXLXKXKXKXLXFXFXFXJXDXkXcXcXkX.X.X#XkXkXkXkX{.d.0._ K a i i y 8 u p w 7 Q s.q 9 p p p q 0 s.b 7 q 7 7 7 * ) m d { { a X.c i y 8 i v u 3.'.'.LXKXKXKXKXKXLXKXv.  ( { ( ' K f 3 & y d = % 3 Z Z s S =.P d Z m a M ^ m y p.bX%XoXL.z.l.V.!   .             ( p.) #X#Xs.f.s.S                                                 bXKXKXKXKXKXKXKXKXKXKXKXKXKXKXKXKXKXKXKXKXKXKXKXKXKXKXKXKXKXKXKXKXKXKXKXKXKXKXKXKXKXKXKXKXKXKXKXKXKXKXKXKXKXKXKXKXKXKXKXKXKXKXKXKXKXKXKXKXKXKXKXKXKXKXKXKXKXKXKXKXKXKXKXKXKXKXKXKXKXKXKXKXKXKXKXKXKXKXKXKXKXKXKXKXKXKXKXKXKXKXKXKXKXKXKXKXKXKXKXKXKXKXKXKX",
"l ZX9XeXiX>Xb.o.;.R M.H.] O.E @.2XnX2XdXiXI.k [ R k.G.=.z W E c.c.E +.E b.0XnXiXuX1Xb.O.O.E v.G.' / ] @.<XpXrXtXrX/.j - r f C C f .. .E.| d f f :.6XwX6XaX0X,.x f l } ~.&.- ; : &.-XgXgXuXuXm.[ e.$.j.L.=.{ ' [ ^.rXaXaXaX@X,.U T T Y.b.H T T <.3XgX1XgX>X<.o.o.W c.G.E R U ,.U.o.E [ R R.wX9X9X7XQ.W W R +.U.,.[ Y [ T.2XeX1XfXt         | KXbXcX&Xx.l.l.u.h.L.P.h.l.( l.C.oXBXPX^.> S.S.q q s 9 a d S i.u. XC.q b ..b S S  .s.s. Xb s A Z b p 9 Z ].NXmXx.( a.#XJXLXJXHXHXJXLXLXKXKXLXHXHXFXJXDXlXcXcXkX.X.X#XzXkXkXkX{.9.0._ C d d i y 0 p p w 7 m d.a 9 p p p q 9 i.4.b S S D S S _ m y ! } I B B 6 3 8 u c u A F 9.LXKXKXKXKXKXLXKXF.  |.%Xx.M * X = = e M i * s ! d e L l.z.| P d = 7 m 6 * l.cX4XOXK.l.l.C.P                 S 0.s.lX.X'.3.|.A.                                                bXKXKXKXKXKXKXKXKXKXKXKXKXKXKXKXKXKXKXKXKXKXKXKXKXKXKXKXKXKXKXKXKXKXKXKXKXKXKXKXKXKXKXKXKXKXKXKXKXKXKXKXKXKXKXKXKXKXKXKXKXKXKXKXKXKXKXKXKXKXKXKXKXKXKXKXKXKXKXKXKXKXKXKXKXKXKXKXKXKXKXKXKXKXKXKXKXKXKXKXKXKXKXKXKXKXKXKXKXKXKXKXKXKXKXKXKXKXKXKXKXKXKXKXKX",
"f CX9XwXiX<Xb.o.[ [ G.G./ e.O.j.2XmXdXnXyXI.[ =.' ,.H.;.E =.;.n.c.$.$.@.b.0XCXnXCX,XM.] +.O.v.G.$.] O.>.@XpXrXpXaX(.t = e h O.K.^.E.n.L.F.OXOXoXH.6XrX6XrX4Xn.E.OXoXF.~.&.: ; : &.gXgXgXtXrXM.[ e.' ,.H.F.oX^.^.@XaXrXrXsX6X<.W O.E I.V.H T &.b.3X1X1XgX3XI.@.o.E M.m.[ +.] c.U.>.+.=.;.R.7XtX8XwX_.;.=.[ h.!.k.} +.$.T.iXtX:XfXt     .   | KXBXVXOXz.a.x.0.B. XC.h.u.' N.K.&XBXLX1.$ |. X .-.` -.4.` i.5.{ |.a.y S S b S S  .a.P.|.p ..S b p p 9 Z ].NXmXk.( a.&XJXLXHXGXHXHXJXKXKXKXLXHXHXHXLXFXlXlXzXlX.X.X.XzXkXlX$X|.d.9.! N B M d y p p p p q b s.b q p w w q 7 ` f.S S F D A F ) Z 7 Z 0.! B B i c i i c c N N 7.LXKXKXKXKXKXKXKXF.  l.L.s % & d h.f f ! f L | f 6 s ' F.J.0.L d & $ = % & { bXcXOXK.l.k.V.P                 ( kXcXkX].s.4.{.p.                                            .   bXKXKXKXKXKXKXKXKXKXKXKXKXKXKXKXKXKXKXKXKXKXKXKXKXKXKXKXKXKXKXKXKXKXKXKXKXKXKXKXKXKXKXKXKXKXKXKXKXKXKXKXKXKXKXKXKXKXKXKXKXKXKXKXKXKXKXKXKXKXKXKXKXKXKXKXKXKXKXKXKXKXKXKXKXKXKXKXKXKXKXKXKXKXKXKXKXKXKXKXKXKXKXKXKXKXKXKXKXKXKXKXKXKXKXKXKXKXKXKXKXKXKXKXKX",
"f ZXwXwXnX2Xm.O.] ] G.K.O.O.O.>.3XAXnXnXtX~.~.%X%XoXH.!.+X@X^.H.I.+X@X+X^.0XCXMXCX,XI.j.>.k.L.Y.j.:.>.M.>XpXtXdXpX(.t : e f #.K.!.H.n.G.v.}.oX!.I.=XaX9XaX6Xm.!.&X+XE.Y.o.: : : %.3XdXgX7XwXM.#.h.:.k.F.L.&X4X%X>XpXtXrXpX>Xc.@.r.r.G.V./ I &.r.2XnXnXnX2Xb.+.[ [ G.H.[ [ / k.Y.>.[ [ +.Q.7XdXeX7X).W E O.r.T.j.+.[ @.T.iXwX7XfXl   .     [ KXIXBXOXu.=.| ' l.oXL.x.{ ( z.K.&XSXSX=.; 5Xs.S -.Q D ) ) i.a.u.J.( 7 9 9 p b b  .a.P.|.q ..S d b a 9 Z E.NXbXh.=.p.#XJXLXHXGXJXHXJXKXKXKXLXHXHXJXJXDXlXkXcXlX.X.X#XkXkXkXkX[.9.8._ ^ d m B y u p p w 9 p a.m 1 q q q 9 7 Q i.7 7 7 7 1 1 a _ i L 0.! a i 8 8 u 8 i p A D w.LXKXKXKXKXKXKXKXP.  % * 7 s e L G = e e g M e * @ $ M C.C.L f s 2 = 2 % @ Q 4XbXOXL.C.z.C.L                 M 8.s.zX.Xs.6.'.i.                                                bXKXLXKXKXKXKXKXKXKXKXKXKXKXKXKXKXKXKXKXKXKXKXKXKXKXKXKXKXKXKXKXKXKXKXKXKXKXKXKXKXKXKXKXKXKXKXKXKXKXKXKXKXKXKXKXKXKXKXKXKXKXKXKXKXKXKXKXKXKXKXKXKXKXKXKXKXKXKXKXKXKXKXKXKXKXKXKXKXKXKXKXKXKXKXKXKXKXKXKXKXKXKXKXKXKXKXKXKXKXKXKXKXKXKXKXKXKXKXKXKXKXKXKXKX",
"h AXmXCXnXnX/.b.V.U.L.OXY.OX+XU.;XnXCXnXAX@X2XAXNX2X^.@XNXSXNX/.Y.UXGXNX@X>XMXCXMXiX(.2XBXNX~.!.@XNXNX@X<XfXZXZXfX7Xz , , f #.j.c.,.;.<.@.U ] H ;.6XfXdXpXwX1.U [ T T U.E U E k %.3XeXgXeXwX;.h R h W n.z x z ;.2XZXMXpXMX=X!.%XbX+X}.m.O.%.%.I.1XdXdXnX,Xb.m.U.m.H.m.F.Y.m.T.H.>.k.m.b.+XtXeXrX7XI.;.c.j.m.m.b.c.c.k.<XCXpXtXuX;X%   .   | KXBXVXP.' { _ ! B.K.u.=.( P C.oX%XGXSX-.> 4Xa.> 9 p p b b Q N.D. X-.p S S D D A D ( S.|.q b b b b a 9 Z E.NXsX=.{ a.#XLXLXHXGXHXGXJXKXKXKXKXHXHXJXJXDXlXzXcXlX.X|..XkXkXkX$X|.N.9.| K B M d y y p a a w q D.f.` _ -.) ) D d.d.9 9 9 9 9 7 a i.6 ^ x.! i u 8 8 i 8 u u S {.D HXKXKXKXKXKXLXKXF.  = & = | P | s i Z g i g s e % = L P._ e d Z = % * @ @ { cXcXOXL.x.h.z.!                 2 $ 2 |. Xd.9.6.8                                                 bXKXKXKXKXKXKXKXKXKXKXKXKXKXKXKXKXKXKXKXKXKXKXKXKXKXKXKXKXKXKXKXKXKXKXKXKXKXKXKXKXKXKXKXKXKXKXKXKXKXKXKXKXKXKXKXKXKXKXKXKXKXKXKXKXKXKXKXKXKXKXKXKXKXKXKXKXKXKXKXKXKXKXKXKXKXKXKXKXKXKXKXKXKXKXKXKXKXKXKXKXKXKXKXKXKXKXKXKXKXKXKXKXKXKXKXKXKXKXKXKXKXKXKXKX",
"f SXaXaXpXaXQ.,.r.>.b.+Xb.,.M.b.).nXCXuXAX@Xc.I.M.c.^.G.<.n.n.U.Y.V.Y.T.T.>XMXpXCXyXT.I.~.T.T.T.!.OX+XU.@XZXZXZXZX7Xo., , h e.v.c.,.;.m.k.E r./ ;.=XdXdXtX,X<.Y :.T ] Y.O.T #.l %.3XeX1XeXwX@.h h.l R m.U x W ;.>XMXyXyXpX;X^.bXmX&XT.V.%.z &.I.1XCXdXnX>X~.iXMX@XY.H.sXmXqX^.I.+XNXbX).@XwXeXtXwXW.(.mX2X!.I.OXqXqX^.@XuXtXrXuX@X%   .   } KXPXIXP.( u.{ ( %X$Xk.=.( { C.E.qXGXZX-.> 4X-.e b p N S S ` s.a. Xa.-.p.i.i.i.a.u.A s.E.9 s S m b n 9 ..L.mXqX:.{ a.#XJXLXJXHXJXHXPXKXKXKXLXJXHXHXJXDXcXkXcXkX.X{..XkXkXlXkX[.9.8.4.M M d a 6 6 y 9 9 9 $ d.` 7 n p p p q D s.p 9 9 q 9 q y 8.y K e.4.B v i 8 v i c y c [.3.PXKXKXKXKXKXLXKXC.  = & @ 8.l.l.e | 0.f e e f s % = `  Xz.f C N * @ * 7 Z N.bXUXOXG.V.l.C.P                 Z u # 7 q 0 8 q @                                                 bXKXKXKXKXKXKXKXKXKXKXKXKXKXKXKXKXKXKXKXKXKXKXKXKXKXKXKXKXKXKXKXKXKXKXKXKXKXKXKXKXKXKXKXKXKXKXKXKXKXKXKXKXKXKXKXKXKXKXKXKXKXKXKXKXKXKXKXKXKXKXKXKXKXKXKXKXKXKXKXKXKXKXKXKXKXKXKXKXKXKXKXKXKXKXKXKXKXKXKXKXKXKXKXKXKXKXKXKXKXKXKXKXKXKXKXKXKXKXKXKXKXKXKXKX",
"h SXaXaXtXpX_.o.E E ;.~.,.R >.1./.CXZXnXAX<X+.O.U ] OX<.l J x m.U.O.] } $.;XMXMXMXuXI.T T T r.T.;.T +.@./.CXuXuXpX>XT , : f O.e.,.,.:.m.v.r.j.$.b.<XeXeXuX1XM.] j.] r.T.k.O.,.E $.3XtX1XeX7Xc.E h.] E G.E +.o.;.@XMXrXMXuX@X<.,.j.j.U.b.k r z @.1XnXgXnX3X<.M.b.c.G.m.c.m.M.G.I.c.!.~.M.+XtXiXtX0XI.U./.!.H.m.T.OXOXm.@XpXeXwXuX>X;   .   | KXLXIXu.( { ! ( $XoX=.l.} h.F.|.qXGXaX, ..5X .q b b b S S { s.D.oXb 6 p p b b S i.l.D.S.* 9 b d p 9 q Z F.bX4X[ ( a.$XJXLXJXFXJXJXJXKXKXKXLXHXHXHXJXDXlXkXlX$X.X[..XkXkXlXkX.Xe.0.4.N s i B d S S N F S p s.4.7 p w 0 9 2 a s.b 9 9 9 9 7 9 _ v B 0.0.C i i c i i i u u 4.3.JXKXKXKXKXKXLXKXn.  * = = > e ( d Z ( f & = g 6 @ $  . XL.d G M 2 * 7 e i | cXbX&X[.F.z.V.!                 * 9 ` cX.Xs.9.Z.~   .                                         .   bXKXKXKXKXKXKXKXKXKXKXKXKXKXKXKXKXKXKXKXKXKXKXKXKXKXKXKXKXKXKXKXKXKXKXKXKXKXKXKXKXKXKXKXKXKXKXKXKXKXKXKXKXKXKXKXKXKXKXKXKXKXKXKXKXKXKXKXKXKXKXKXKXKXKXKXKXKXKXKXKXKXKXKXKXKXKXKXKXKXKXKXKXKXKXKXKXKXKXKXKXKXKXKXKXKXKXKXKXKXKXKXKXKXKXKXKXKXKXKXKXKXKXKXKX",
"f SXZXfXtXaX_.@.+.+.c.OXb.;.M.<.*XfXCXCXAX>X:.>.+.@.oXn.R R U n.U.#.r.h.c.@XpXpXfXiXI.o.$.o.$.~.>.o.O.>.@XCXpXdXfX>XW e r C / ] P.>.>.M.m.e.e.e.c.<XeX1XtX2XI.+.$.e.j.Y.j.] ] +.$.<XtX8XdXeXb.E | ] :.U.+.+.o.,.>XpXyXMXCX;XW h z T m.b.z z &.2.1XdXeXdX;Xo.R W k n.k.l R l M.U.U Y [ @.(.nXrXtXwXM.%.>.+.c.M.$.+.+.k.@XMXuXrXuX>X;   .   [ KXLXbXP.=.( ! u. X&Xl.P.h.u.C.|.mXPXhXt -.^...9 b b b S b -.s.D.OXS y b S S D D a.s.S.E.-.a.a.a.f.6.` a.OXBXqX[  .i.#XJXLXHXFXHXJXJXKXKXKXLXHXHXHXHXFXcXkXzXcX#XXXXX$XkXkXkX.XN.9.9.A d B M S A Q D D D F s.i.9 p p p p q v p.S 7 9 8 9 q 9 ~ B v 0.0.C B i B c c u v u 3.s.LXKXKXKXKXKXKXKXC.  l. X( & % | ! s G e = 7 d y @ > Q K.x.f B ^ a.| e * & Z lXbX&XK.F.z.F.!                 = Q |.cX.X'.s.`.8.                                                bXKXKXKXKXKXKXKXKXKXKXKXKXKXKXKXKXKXKXKXKXKXKXKXKXKXKXKXKXKXKXKXKXKXKXKXKXKXKXKXKXKXKXKXKXKXKXKXKXKXKXKXKXKXKXKXKXKXKXKXKXKXKXKXKXKXKXKXKXKXKXKXKXKXKXKXKXKXKXKXKXKXKXKXKXKXKXKXKXKXKXKXKXKXKXKXKXKXKXKXKXKXKXKXKXKXKXKXKXKXKXKXKXKXKXKXKXKXKXKXKXKXKXKXKX",
"f SXZXfXCXZX^.j.b.k.G.OXU.j.b.m.+XCXAXCXAX>Xc.c.>.>.+Xm.;.:.;.m.Y.j.r.r.b.<XMXtXuXiXR.$.<.$.b.~.j.+.@.<.@XZXZXZXZX6XW : X.h ] 0.>.,.>.n.v.r.#.O.<.;XeXdXuX2Xb.+.} O.r.T.b.b.c.c.b.>XdX8XeXwX<.] [ R :.m.E E R o.@XyX0XpXpX;Xo.T T ] v.b.%.T T b.2XCXdXdX<XO.o.o.W M.P.k J l b.I.E #.:.;.(.uXrXdXwXI.;.b.:.v.m.$.>.>.c.@XpXuXuXfX>X@       | KXIXOXP.l.{ ` u. X&XOXL.p.l.L.oXBXPX5X> =._.a 9 b s b F a a.D.P.|.b p S b S S Q a.a.S.S.7 s S b a b p =.&XNXqX'  .a.&XJXLXJXJXJXGXJXLXKXKXLXGXGXHXHXFXcXlXcXzX#XXX XjXkX$XkX#XZ.9.9.^ B M Z y 6 y y 9 q * Q a.9 9 a p 0 q p i.D 7 9 9 q 9 8 ^ D X.0.9.C B v c i c 8 8 u F 4.LXKXKXKXKXKXLXKXn.  L F.|.( 3 L e._ f 2 * = d d > y ( L.5.f a A S = 7 7 % Z lXbXOX[.F.z.F.(             .   ..D f.cX.XA.f.`.i.                                  .             bXKXLXKXKXKXKXKXKXKXKXKXKXKXKXKXKXKXKXKXKXKXKXKXKXKXKXKXKXKXKXKXKXKXKXKXKXKXKXKXKXKXKXKXKXKXKXKXKXKXKXKXKXKXKXKXKXKXKXKXKXKXKXKXKXKXKXKXKXKXKXKXKXKXKXKXKXKXKXKXKXKXKXKXKXKXKXKXKXKXKXKXKXKXKXKXKXKXKXKXKXKXKXKXKXKXKXKXKXKXKXKXKXKXKXKXKXKXKXKXKXKXKXKXKX",
"f SXZXZXAXAXOXk.V.V.G.%Xj.v.b.m.@XrXAXMXAX<Xc.k.c.c.OXm.n.c.c.U.Y.v.b.k.b.<XnXuXnXnXR.<.b.j.U.~.b.>.>.c.3XZXZXCXfX>XW , e h } #.n.n.<.m.v.r.v.k.M.:XtX8XrX6XQ.^.%X+X}.T./.qXNXmX~.;XwX8XtX1Xb.@.:.:.>.H.;.b.I.U.@XyXyXyXtX(.@./ O.} m.H.:.W E I.uXCXfXCX2X@.o.O.] G.v.E R T b.T.] [ #.>.(.CXuXdXtXI.@.>.+.v.m.>.:.,.<.+XiXwXeXCX>X;   .   | KXGXE.h.h.u.u.p. XOXK.C.x.l.S.OXIXPX^.> P.|.s p b p b a 9 5.s.P.|.p a S F F S D a.s.E.S.7 s F b b 9 y 0.&XNXqX[ { a.$XLXLXHXGXJXJXJXKXKXKXLXFXHXHXJXFXlXzXlXzX#XXX[.kXkXkXkX#XB.9.0.^ M M N a 8 p a p c 6 S N.p 9 p u u 8 8 d.) 1 9 6 9 9 7 ^ _ 3 { x.^ a B c u 8 B D i n V LXKXKXKXKXKXLXKXF.  d ` u.l.K.J.C.L.|.C.I L { m 6 g Z P.=.a d D  .u.s.A 6  .%XbXOXY.F.z.V.!                 = b s.cX.XS.d.'.)                                                 bXKXKXKXKXKXKXKXKXKXKXKXKXKXKXKXKXKXKXKXKXKXKXKXKXKXKXKXKXKXKXKXKXKXKXKXKXKXKXKXKXKXKXKXKXKXKXKXKXKXKXKXKXKXKXKXKXKXKXKXKXKXKXKXKXKXKXKXKXKXKXKXKXKXKXKXKXKXKXKXKXKXKXKXKXKXKXKXKXKXKXKXKXKXKXKXKXKXKXKXKXKXKXKXKXKXKXKXKXKXKXKXKXKXKXKXKXKXKXKXKXKXKXKXKX",
"f SXZXZXAXAX+Xr.r.r.G.OXv.V.r.j./.tXMXuXnX@X<.>.@.>.+Xm.:.>.>.U.Y.j.r.r.b.<XfXfXnX1XI.$.j.k.m.oXv.k.>.j.+XZXZXCXfX<Xo., , f ] #.;.o.E M.b.O.+.] <.=XtXtXaX6XM.n.Y.I.m.U.M.G.H.m.M.;XeX7XeXwXM.O.} [ :.U.k.U.!.Q.0XMXwXuXMX<X>.O.$.r.Y.G.>.R E M.2XCXuXnX,X>.E T [ G.m.O.] ] H.Y.E [ @.;.+XfXuXdXtXI.o.o.E j.I.:.E [ >./.tXtXuXuX>X%       ] KXIXK.} u.a.=.N.&XOXK.P.P.D.F.&XSXLXP.% E.E.q p p b p p q -.a.C. Xe a b b b S A a.a.E.s.q b S S S p y 0.&XBXqX:.` a.$XLXLXHXHXJXHXJXKXKXKXLXHXHXFXFXFXVXlXlXlXjX|..X$XkXkXkXjXA.9.9._ Z M K i y p v p p 8 N Z.n 8 u 0 0 9 3 i.5.1 8 8 8 0 1 N 4.3 / e.K a B i 8 3 e.#XV c A JXKXKXKXKXKXLXKXF.  L.cXK.l. X$X&X8.( { u.a.p.L & > ( H.s.d S  .S S a.A * =.lXbX&X[.F.z.C.!                 s ) '.cX#Xg.s.'.S                                                 bXKXKXKXKXKXKXKXKXKXKXKXKXKXKXKXKXKXKXKXKXKXKXKXKXKXKXKXKXKXKXKXKXKXKXKXKXKXKXKXKXKXKXKXKXKXKXKXKXKXKXKXKXKXKXKXKXKXKXKXKXKXKXKXKXKXKXKXKXKXKXKXKXKXKXKXKXKXKXKXKXKXKXKXKXKXKXKXKXKXKXKXKXKXKXKXKXKXKXKXKXKXKXKXKXKXKXKXKXKXKXKXKXKXKXKXKXKXKXKXKXKXKXKXKX",
"t AXMXCXCXCX/.~.UX%X+X}.~.2X>X/.(.uXuXyXMX2XM.c.c.c./.!.^.+X~.~.T.b.v.r.b.3XuXuXnXdX).+X2X%XOX^.OX2XUX+X;XCXAXCXCX6Xz , : h [ ,.,.W o.M.:.U U k %.=X8X9X8X6X<.W T T o.U.+.k H k E <XdX8XdXtX;.h h t R H.U j z o.@XnXyXMXZX>X>./ / e.L.Y.n.c.<.G.,XyXiXuX2X$.E U ] G.Y.}.@XoXU.T.O.] +.@.).nXuXuXtXI.@.,.j.v.M.,.:.:.k.@XMXMXuXuX>X%   .   | KXVX[.h.C.z.u.|.cX&X XF.l.k.H.4XSXPX,.$ &XC.q d p p w w 9 =.a.J.S.q a b a b a m =.a. Xs.9 ..S ..b p p 0.OXNX4X=.{ a.$XLXLXHXGXHXGXJXLXKXKXLXHXHXHXHXFXvXlXUXzXkX|..X#XkXkXkX#XZ.e.9.( K M K s i p p c p 0 c Z.n 3 0 8 0 q 1 9.5.3 q 0 7 0 7 B _ y K 0._ f i c 3 4 3.N.N i V LXKXKXKXKXKXLXKXC.  l.cXlXVX$Xu.& @ X X X & 2 @ O L F.S.a.d y ( J.|.s.A -.A.%XcX&XY.F.l.z.P                 s s -.cX#XZ.g.g...                                                bXKXLXKXKXKXKXKXKXKXKXKXKXKXKXKXKXKXKXKXKXKXKXKXKXKXKXKXKXKXKXKXKXKXKXKXKXKXKXKXKXKXKXKXKXKXKXKXKXKXKXKXKXKXKXKXKXKXKXKXKXKXKXKXKXKXKXKXKXKXKXKXKXKXKXKXKXKXKXKXKXKXKXKXKXKXKXKXKXKXKXKXKXKXKXKXKXKXKXKXKXKXKXKXKXKXKXKXKXKXKXKXKXKXKXKXKXKXKXKXKXKXKXKXKX",
"f SXZXpXdXdXQ.<.b.r.b.OXb.b.M.M.(.pXAXMXMX<X;.,.>.:.OXT.m.!.M.U.Y.v.j.>.j.<XfXuXCX2XQ.I.OX~.H.oXY.OX@XT.+XnXCXCXfX<Xo., : h $.$.;.W o.b.$.U T U @.;X8X9X8X7X2.U U T ] T.+.k H k o.>XuXeXdXuX1.h f e k U.U h z @.;XCXuXuXpX;X>.[ #.j.G.oXbXmXqX/.2XuXwXnX3X>.T T [ n.Y.UXmXbXOXU.#.=.j.$.+XdXdXdXeXQ.~.2X%X!.M.U.%X@X~.@XuXuXdXnX@X;   .   | KXbXJ.z.C.l.u.&XvXOX&XE.u.l.L.4XSXSX-.; 5Xa.q s 9 w w 9 w a.a.S.D.7 p n n a w p i.a. Xa.9 b F b b n 0 =.&XBXqX} =.a.cXLXLXHXFXGXGXHXLXKXLXLXIXcXDXJXFXvXzXlXlX#X{..XkXkXkXzX#X'.9.0.~ N M K B 6 y u p 0 9 u '.b 3 u q 0 9 8 4.4.9 9 0 8 q 8 v ) y M 0.8.i 6 i 3 4 4 3 3 u D LXKXKXKXKXKXLXKXF.  K.$X XcX%Xm X 2 a S u.` e m l. .{ l.' Z y ` cXDXs.9 a p.%XcXOX[.V.l.C.(                 L D.].cX.XZ.s.'.S   .                                         .   bXKXKXKXKXKXKXKXKXKXKXKXKXKXKXKXKXKXKXKXKXKXKXKXKXKXKXKXKXKXKXKXKXKXKXKXKXKXKXKXKXKXKXKXKXKXKXKXKXKXKXKXKXKXKXKXKXKXKXKXKXKXKXKXKXKXKXKXKXKXKXKXKXKXKXKXKXKXKXKXKXKXKXKXKXKXKXKXKXKXKXKXKXKXKXKXKXKXKXKXKXKXKXKXKXKXKXKXKXKXKXKXKXKXKXKXKXKXKXKXKXKXKXKXKX",
"f SXAXdXrXCX).E O.T >.+X$.@.@.;.(.ZXZXpXZX6X[ ;.E E +X>.U E W M.T.O.O.$.$.3XfXuXCXiXR.%.W z ,./.>.U O.@.+XCXCXCXfX,Xo., X.C $.j.W W ;.c.b.T k U 1.=X8X8X8X9X<.z r h @.T.j.h r l ,.>XpXtXdXtX1.h t r J m.[ k h @.<XAXuXuXpX;X+.[ ' +.G.G.n.M.m.m.>XuXyXuX>X,.T U ] n.H.G.!.G.Q.U.>.h.c.<.(.fXrXtXeXR.I.OXH.H.m.H.^.!.m.+XiXwXdXnX@X%   .   | KXcXC.h.l.u.| $XbX&X&Xl.u.F.E.4XIX&X> > 4X-.7 p w p b p d f.a.E.s.7 a p p n 9 a -.u. Xa.s b b p b n p u.OXBX2X[ { s.$XLXLXHXHXHXFXHXKXKXKXKX4XL |.JXGXvXlXlXlXzX|.[.#XkXkXkXkXB.e.0._ K M K m 6 u 0 0 w 8 0 B.b 3 0 8 9 9 7 D 8.9 2 8 7 7 4 9 4.u d e.4.i 3 i 3 4 3 8 3 8 c PXKXKXKXKXKXLXKXF.  #XVXA.N.( 7 i !  XbXFXlXs.a.y ; =.E.u.d a i.D.Q a { A 0.kXbX$XoXL.z.C.P             .   7 a.$XcXXXA.s.'.N                                                 bXKXKXKXKXKXKXKXKXKXKXKXKXKXKXKXKXKXKXKXKXKXKXKXKXKXKXKXKXKXKXKXKXKXKXKXKXKXKXKXKXKXKXKXKXKXKXKXKXKXKXKXKXKXKXKXKXKXKXKXKXKXKXKXKXKXKXKXKXKXKXKXKXKXKXKXKXKXKXKXKXKXKXKXKXKXKXKXKXKXKXKXKXKXKXKXKXKXKXKXKXKXKXKXKXKXKXKXKXKXKXKXKXKXKXKXKXKXKXKXKXKXKXKXKX",
"f SXAXCXCXnX/.o.T E >.+Xj.@.@.c.@XpXZXMXZX0X;.U z +./.c.U l z I.T.O.T T $.3XCXfXCXeXI.O.E x <.!.<.U @.;./.CXZXCXpX,Xo., r h O.j.[ W ,.<.b.E T R ;.(.8X8X9X6XM.o.h U $.m.>.U t U ,.@XaXfXfXrX<.k t t J G.@.z j 1.2XAXCXuXaX<Xo.H k k H.v.R W W <.,XuXuXuX@X;.o.U T v.v.k U l <.!.R E :.>./.tXeX8XeXI.o.@.;.k.m.,.+.:.<./.uXuXuXnX@X%   .   | KXqXz.u.a.{ z.cXbXOXOXl.l.K.OXbXGXsXx t 4X .7 p 9 9 p 9 d a.s. Xi.q p n w p 9 d u.a. X-.9 p n a b 9 9 s.@XBX4X[ { a.cXLXLXHXFXHXHXJXKXKXKXLXGXDXIXJXFXcXkXlXzX#X.XXXkXkXkXkX#X'.9.9.~ K B K M 8 8 0 w 0 8 p s.D 7 8 8 8 q 3 D p.F p v n n v v 5.i i e.e.C 3 8 i 3 3 c i i B JXKXKXKXKXKXKXKXF.  A Z m s A D.J.#XvXVXBX%X8.7 o % l.$Xs.d d Z * * u.` * N %XbX&XoXL.z.C.!                 d XXcXcX|.g.'.'.v                                             .   bXKXKXKXKXKXKXKXKXKXKXKXKXKXKXKXKXKXKXKXKXKXKXKXKXKXKXKXKXKXKXKXKXKXKXKXKXKXKXKXKXKXKXKXKXKXKXKXKXKXKXKXKXKXKXKXKXKXKXKXKXKXKXKXKXKXKXKXKXKXKXKXKXKXKXKXKXKXKXKXKXKXKXKXKXKXKXKXKXKXKXKXKXKXKXKXKXKXKXKXKXKXKXKXKXKXKXKXKXKXKXKXKXKXKXKXKXKXKXKXKXKXKXKXKX",
"f SXBXCXCXuX+Xo.U T b.OXb.o.O.b.@XCXMXMXZX6Xo.h j +.oXm.h r x m.I.$.r h 2.3XZXCXAXCXT.%.z U c.+Xc.U o.;.;XAXCXCXCX0X+., : C O.:.,.;.;.<.<.] ,.W ;.(.8X9X9X6X2.W #.E E I.>.o.@.R [ <XuXtXfXrX<.k l t U M.E T T 1.<XAXnXuXuX<X;.z z U b.M.E W %.b.3XuXuXtX<X<.W z z P.c.J k l k.I.W R ,.;._.tX8X9X9X2.o.1.,.c.m.>.>.,.P.@XnXdXeXnX>X;   .   | KXbXN.C.C.u.C.%X%X XE.P.S.F.^.BXSXsXx  .4X) s A S F Q D ` i.a.|.-.q 9 n w b 9 b u.a.OX-.9 b b p n 0 p { OXBX4XW =.a.cXLXLXHXHXHXHXJXKXLXKXLXHXGXFXHXGXvXkXlXlXkXXXXX#XkXkXkXjX].N.9._ K B Z S e 8 0 9 w q p d.D 7 0 0 0 9 q b d.) ) ) ) ~ 3.~ N.i e 9.0.C i X.c 8 3 a v v N LXKXKXKXKXKXKXKXz.  & A x.L J.cX$X|.|.#X#XS O @ X X -.!.a.Z m A A S s = . d %XVX%XoXL.l.V.P                 Z A..XcX.X'.s.{.b                                                 bXKXKXKXKXKXKXKXKXKXKXKXKXKXKXKXKXKXKXKXKXKXKXKXKXKXKXKXKXKXKXKXKXKXKXKXKXKXKXKXKXKXKXKXKXKXKXKXKXKXKXKXKXKXKXKXKXKXKXKXKXKXKXKXKXKXKXKXKXKXKXKXKXKXKXKXKXKXKXKXKXKXKXKXKXKXKXKXKXKXKXKXKXKXKXKXKXKXKXKXKXKXKXKXKXKXKXKXKXKXKXKXKXKXKXKXKXKXKXKXKXKXKXKXKX",
"h SXAXCXnXyX(.@.o.O.c.~.j.O.@.b.(.aXZXZXZX>Xo.W k O.~.b.U h x <.Y.$.h k $.3XCXdXCXiX).$.J W k.^.>.U o.$.@XCXCXfXCX0X@.: e C } k.M.,.,.M.b.$.k.,.;.<XgX8XrXwXk.W :.+.O.G.j.#.,.[ #.3XfXtXtXuX<.k J ..J H.R W o.@.+XAXnXnXpX:X1.z x T M.M.o.z T m.3XuXtXuX,X2.l t k M.n.k r f <.U.W t x ;._.aXrX9X8XR.;.@.,.m.U.c.,.:.b./.nX1XeXnX>X%   .   ' KX%XF.K.F.x.L.$X&XoX XC.P.P.OXBXPX4Xg  .$Xs.-.f.a.f.a.a.s.` =. X( 9 b b s b 9 S a.p.|.` q b p p p p a f F.IX4X( ` s.cXLXLXHXHXHXHXJXLXKXKXLXJXHXFXFXHXbXkXlXlXjX|..XkXkXkX$X#X[.9.9.) I B ^ A y 0 u w 9 q p 8.) 3 8 8 q 7 * 6 d.S q 9 9 8 7 1 4.M 7 0.9.^ i c B c 3 8 v v c PXKXKXKXKXKXLXKXF.  ' u.L S.#X|.J.S.K. Xp.s > 2 > s P.|.H.a.{ ( s = $ @ . d %XbX$X}.L.z.C.!                 . 2 g.vX#X'.g.'.S   .                                             bXKXLXKXKXKXKXKXKXKXKXKXKXKXKXKXKXKXKXKXKXKXKXKXKXKXKXKXKXKXKXKXKXKXKXKXKXKXKXKXKXKXKXKXKXKXKXKXKXKXKXKXKXKXKXKXKXKXKXKXKXKXKXKXKXKXKXKXKXKXKXKXKXKXKXKXKXKXKXKXKXKXKXKXKXKXKXKXKXKXKXKXKXKXKXKXKXKXKXKXKXKXKXKXKXKXKXKXKXKXKXKXKXKXKXKXKXKXKXKXKXKXKXKXKX",
"f AXNXAXnXCX).O.$.@.k.OX<.b.v.c./.aXCXZXZX>Xo.,.[ R ~.M.#.[ W n.T.O.O.$.$.;XpXtXuXrXR.@.:.E >.~.;.O.$.@.+XAXCXAXZX0Xo.: e H ' :.n.<.1.m.M.:.>.,.<.;XtXtXtX7XI.Q.@X@XY.U.k.#.>.#.<.;XuXeXdXeXM.W [ k R G.,.<.c.<.4XMXpXpXpX6X;.W z E M.m.+.W W b.2XuXeXiX,Xb.j r U M.M.k t j <.U.E k E ;./.tX8XaXtXW.;.;.,.G.M.<.:.:.c.+XyXeXdXiX>X%   .   | KX&Xh.C.l.l.oXlX&XoXoXL.x.z.&XIXLX/., -.OXb 9 b b b F b ` a.s.E.m 7 b p w b a S { a.|.Q q a p p b w s u.%XSX%X' { a.cXLXLXJXHXHXHXJXKXKXLXLXJXGXHXHXGXlXkXlXzXjX#XXXkXkXkXkX#X'.N.9._ L m A A y y p y 9 q 9 4.a.D ) ` ) ) D D s.D 9 y 0 8 0 3 ~ L 2 B e.^ a i v 8 3 i B v c HXKXKXKXKXKXLXKXF.  ` e % L D.D.S.`.J.J.S.K. XJ.a.' E.&XJ.{ ` Z * X @ %   i %XbX%X}.F.z.B.P                 . 4 Z.lXjX'.Z.'.a                                                 bXKXKXKXKXKXKXKXKXKXKXKXKXKXKXKXKXKXKXKXKXKXKXKXKXKXKXKXKXKXKXKXKXKXKXKXKXKXKXKXKXKXKXKXKXKXKXKXKXKXKXKXKXKXKXKXKXKXKXKXKXKXKXKXKXKXKXKXKXKXKXKXKXKXKXKXKXKXKXKXKXKXKXKXKXKXKXKXKXKXKXKXKXKXKXKXKXKXKXKXKXKXKXKXKXKXKXKXKXKXKXKXKXKXKXKXKXKXKXKXKXKXKXKXKX",
"f BXmXnXCXCX~.>.k.k.c.oXM.M.M.b./.pXAXMXCX@X;.b.<.$.OXm.:.k.;.m.L.r.b.v.b.<XZXpXpXMXQ.>.<.[ k.^.j.$.c.@.(.MXCXZXZX0XW , , H / :.n.k.P.1.H.M.n.k.M.(.8X9X9X6X!./.2X%X+XT.j.+.[ E $.+XeXeXeX1XI.+X4XqX@Xm.m.4XqX6XMXZXpXMXpX>X@.E @.o.c.M.$.>.@.1.,XCXdXuX,Xb.U z U P.v.Y R l ,.H.E +.b.;.@XpXtXtXaXI.;.<.,.<.G.,.@.c.b./.fXuXiX1X;X%       | KXoX} p.u.u.#XbX&X[.C.=.u.z.&XBXLX^.> =.|...9 b b b A S =.s.D. Xa.i.s.s.a.d.a.a.Q u.#XL w b b b b p s u.%XSX4X . .a.cXLXLXJXHXHXHXJXLXKXKXLXJXHXFXHXHXVXlXlXlXzXXX[.jXkXkX$XkX[.9.9._ L m M A y 8 9 9 9 q q _ i.m S D Q F m S s.Q y p u 0 0 3 N 4.1 i 0.^ B i c 3 4 8 c i i PXKXKXKXKXKXKXKXF.  h.=.e y L l.$X%Xl.d ..A Z S - $ a.#XQ y L 0.( d 6 6 o i %XVX$XoXK.l.B.!                 # D #XlXXXB.d.'.N                                             .   bXKXLXKXKXKXKXKXKXKXKXKXKXKXKXKXKXKXKXKXKXKXKXKXKXKXKXKXKXKXKXKXKXKXKXKXKXKXKXKXKXKXKXKXKXKXKXKXKXKXKXKXKXKXKXKXKXKXKXKXKXKXKXKXKXKXKXKXKXKXKXKXKXKXKXKXKXKXKXKXKXKXKXKXKXKXKXKXKXKXKXKXKXKXKXKXKXKXKXKXKXKXKXKXKXKXKXKXKXKXKXKXKXKXKXKXKXKXKXKXKXKXKXKXKX",
"g NXNXnXnXMX/.>.>.c.U.~.v.b.M.v./.MXAXnXMX>Xb.T.m.c.!.G.j.k.>.m.U.j.j.j.2.@XCXfXpXuX).<.P.c.M.^.b.k.M.c./.NXMXMXMX>XW : e C $.+XqXqX^.M.~.2XmXqX^.;XeXeXtX6XQ.+X2X%X&XY.U.OX+XOXT.;XuX1XdX1XT.@XqX%X@Xn.c.@X4X4XqXMXmXMXpX<X;.+.@.[ n.G.,.>.;.b.0XCXuXCX2Xb.@.+.E n.n.[ :.Y c.T.O.$.b.;.(.MXpXpXfXW.,.c.:.j.m.;.>.>.b.+XCXdXuXiX@X;   .   ' KXK.{ l.x.0.F.%X%XOXP.u.x.F.5XIXPXI.$ P.E.s s p p b A S -.l.s.E.S A S F S Q S i.=.l. Xb q p 9 q 9 q y u.%XIX@X .( s.cXLXLXJXJXHXHXJXKXKXKXKXHXHXFXFXHXlXzXlXkXjXXX|.jXkX$XkX$X[.e.9._ Q m y i e 9 p p w q 7 Q i.7 8 9 9 9 7 7 f.` y u 9 9 0 3 n 9.3 v 0./ B B v c 3 X.c c X.HXKXKXKXKXKXLXKXP.  a.E.u.u.C. XV.* X X O X @ X % `  X].Z s d Z Q Q L m * I $XbXlXOXz._ i @                 o 3 {.vX#X'.d.'.n                                             .   bXKXKXKXKXKXKXKXKXKXKXKXKXKXKXKXKXKXKXKXKXKXKXKXKXKXKXKXKXKXKXKXKXKXKXKXKXKXKXKXKXKXKXKXKXKXKXKXKXKXKXKXKXKXKXKXKXKXKXKXKXKXKXKXKXKXKXKXKXKXKXKXKXKXKXKXKXKXKXKXKXKXKXKXKXKXKXKXKXKXKXKXKXKXKXKXKXKXKXKXKXKXKXKXKXKXKXKXKXKXKXKXKXKXKXKXKXKXKXKXKXKXKXKXKX",
"f AXNXCXnXuX~.>.k.j.m.Y.G.v.v.m./.tXnXnXAX>X,.b.>.c.Y.G.} #.:.m.Y.c.L.b.2.@XaXaXyXrXW.;.<.P.G.!.c.:.$.c.~.AXMXCXMX0XW , r C } G./.^.I.P.T.OX%X&XT.;XfXgXtXwX^.!.%X@X~.Y.T.&XqX2XT.;XdX1X1X1X~.@XbXqX+Xm.M.@XsX@X0XNXyXaXCX6X,.] [ #.G.n.,.E W c.6XCXuXCX2XM.$.@.:.m.n.} [ +.v.Y.:.$.#.$./.yXCXaXZXI.;.;.O.v.I.,.#.:.<.^.iXdXgXiX+X;   .   | KX Xh.N.u.0.F.$X$XOXP.u.P.C./.SXPX,.> E.E.9 b b b b D L l.a.E. Xp 9 b b b S b ` s.a. X` D  .) Q ) D D P.%XSX+X .=.s.cXJXLXJXHXGXGXJXLXKXKXLXGXFXGXGXHXVXlXzXlXkX.XXX#XkXkXkXkX[.B.9.5.Q M m S A ` i.i.6.8._ s.i.y 9 p 9 w q 7 f.5.p p p 0 0 q 0 N.2 i 0.e.V v B n 3 4 i c w GXKXKXKXKXKXKXKXF.  k.E.G e S.cXC.O % & O @ O = u.P.E. X XF.A e > 2 6 e y s ^ _ ^ M a * 3 _                 o # a 4.4.3.D D 1                                                 bXKXKXKXKXKXKXKXKXKXKXKXKXKXKXKXKXKXKXKXKXKXKXKXKXKXKXKXKXKXKXKXKXKXKXKXKXKXKXKXKXKXKXKXKXKXKXKXKXKXKXKXKXKXKXKXKXKXKXKXKXKXKXKXKXKXKXKXKXKXKXKXKXKXKXKXKXKXKXKXKXKXKXKXKXKXKXKXKXKXKXKXKXKXKXKXKXKXKXKXKXKXKXKXKXKXKXKXKXKXKXKXKXKXKXKXKXKXKXKXKXKXKXKXKX",
". OXSXMXMXMX+XOXbX2X&XoX}.2XmX2X+XdXnXuXCX2XT.+X+XoXY.U.F.G.M.T.}.%XNXmX@X/.pXaXtXrX/.T.&X^.~.oXY.~.OX~.+XAXAXMXZX6XW , r C P [ :.[ E c.<.E $.[ @.+XtX8XeX6XM.R ] Y O.G.,.E :.[ ;.(.eX9X8X7X2.U Y U ] G.=.R ;.=./.ZXMXaXZX2Xr./ / } G.V.h.] ] b.2XCXfXnX2Xm.O.%.$.G.G.} / ] V.Y.e.e.e.k.+XuXuXnXCXT.O.] ] z.U.e.#.:.>./.uXdXtXiX@X;       ' KXL.u.i.( _ C.#X&X|.x.u.l.P.4XSXSX .> #XS.q b b F b D L a.=. X Xq s b b b F Z -.a.a. X8.5.i.a.f.-.` Q P.$XIX+X .` s.cXLXLXJXHXJXGXJXKXKXKXLXHXFXFXHXHXVXlXlXlXkX.XXXjXzXkXkXkX[.B.9.0._ B Z Q d 9 a b n w q ) a.a y 9 9 w q 7 6.s.y u p 0 0 3 q d.8 i 0.0.^ B B B 0 8 c i u HXLXKXKXKXKXLXKXF.  u.OXL @ 2 Q s % & % e d L { ..6 l.&XJ.a.` M e e e 6 e = * & % 3 2 & 6.#X  .             # # + O # # @ + o                                                 bXKXKXKXKXKXKXKXKXKXKXKXKXKXKXKXKXKXKXKXKXKXKXKXKXKXKXKXKXKXKXKXKXKXKXKXKXKXKXKXKXKXKXKXKXKXKXKXKXKXKXKXKXKXKXKXKXKXKXKXKXKXKXKXKXKXKXKXKXKXKXKXKXKXKXKXKXKXKXKXKXKXKXKXKXKXKXKXKXKXKXKXKXKXKXKXKXKXKXKXKXKXKXKXKXKXKXKXKXKXKXKXKXKXKXKXKXKXKXKXKXKXKXKXKX",
"  n.SXZXAXNX@X~.@X@X}.oX}.%X2X+X).nXCXnXnX2XT.<X2X@XoXY.OX%X@XY.T.+XbX2X/.@XZXpXtXrX(.@XNXmX+X!.+XmXNX>X@XnXMXMXMX2XW , e k Y :.:.+.o.c.j.O.j.[ @.(.tX8XeX1Xb.T ] T / M.+.H +.W W (.8X9X8X6X;.h l t k m.U j o.T Q.ZXaXpXCX2Xj.r.j.v.G.Y.%XbX2XOX2XAXtXfX2Xr.C C / V.V.O.O.O.v.Y.r.' } @./.tXtXuXnXT.$.} Y k.Y.j.} [ k./.uXfXwX1X;X%   .   | KXP.| _ ! { J.%X4XOX=.=.S. XsXPXZX=.> #XD.7 ..b b S Q L s.a.|. Xq b b b N D S a.a.D. Xp 6 n b p u y s a.4XSX&X .0.s.cXLXLXHXHXHXJXJXLXKXKXLXHXHXFXHXGXbXkXkXkX#X.X[.#XkXkX$XkXXXN.9.4.! S Z L a 7 9 9 9 9 1 D s.S w b p s 9 2 ) Z.w y p u u q 8 f.n 8 5.0.^ B v v 3 8 i c i HXKXKXKXKXKXKXKXF.  l. X=.* X = 3 y e y S L L 7 o 7 l.oXF.{  .P Z g y e 3 3 i f 3 3 & * s. X                p '.8.8 + # n s.v   .                                         .   bXKXLXKXKXKXKXKXKXKXKXKXKXKXKXKXKXKXKXKXKXKXKXKXKXKXKXKXKXKXKXKXKXKXKXKXKXKXKXKXKXLXLXKXKXKXKXKXKXKXKXKXKXKXKXKXKXKXKXKXKXKXKXKXKXKXKXKXKXKXKXKXKXKXKXKXKXKXKXKXKXKXKXKXKXKXKXKXKXKXKXKXKXKXKXKXKXKXKXKXKXKXKXKXKXKXKXKXKXKXKXKXKXKXKXKXKXKXKXKXKXKXKXKXKX",
"  M.SXfXZXMX(.+.+.O.r.).b.%.%.@.R.dXdXuXuX<X@.o.o.@.T.m.E O.o.b.Y.r.E %.;.=XfXdXtXeX).@.@.@.c.T.c.:.c.,./.MXCXfXfX,XE , , l R [ :.+.} v.v.@.c.#.>.*XgX8XtXeXM.o.] E ] v.:.R [ E ,.@XtX8XtXtX<.U R h U m./ U +.T Q.MXpXnXCX2XT.OX@XoXU.Y.2XVXUX~.3XAXdXnX1Xb.C z T v.G.r.r.$.b.~.j.$.,.;.(.tXuXeXnXT.%.O.] c.Y.k.#.#.c.).yXrXwXwX>X%   .   ' KX=.Q ! _ 0.[.%X%X&X{ { P.OXNXPXNXx > &Xs.> b p n F S  .s.a..XE.> b b N F D D a.=.S. Xp p b b a v p ..D.4XSX+X .u.s.cXLXLXJXHXJXPXJXKXKXKXKXJXGXGXHXHXVX$XlXkXzXjX.X.XkXkXkXlX.XB.q.8.Q Z A Q d 9 9 w 9 w 7 F s.S 9 p p w p 1 ~ '.p 0 y 9 9 9 3 4.A e | 0.~ B v c 3 4 8 8 8 PXKXKXKXKXKXLXKXF.  J.&XP.{ Z Z Z i.a.a.{ d > * * d N.|.0.d d ( d 7 3 y * % 2 3 2 6 6 8 f.`.  .             m .X].D # # ` .XA                                 % 3.N D D N a i 9.x.0.0.0.0.{ 0.0.| | 8.| 0.| _ 0.0.x.l.u.h.z.x.e.x.e.p.x.p.x.C.C.F.J.V.`.[.}.[.V.}.[.'.L.J.A.`.J.L.p.( | | { { 5.! ! Z Z _ ~ D F w.g.LXKXKXKXKXKXKXKXKXKXKXKXKXKXKXKXKXKXKXKXKXKXKXKXKXKXKXKXKXKXKXKXKXKXKXKXKXKXKXKXKXKXKXKXKXKXKXKXKXKXKXKXKXKXKXKXKXKX",
"  n.SXuXCXMX/.o.%.O.j.~.b.$.@.$.~.dXuXuXCX;Xo.o.T T T.v.T h h j.}.O.H U o.=XdXaXeXeXI.W U H :.!.+.U E W ~.nXnXCXCX2XT : , k J R [ ] O.M.m.O.[ } <.(.uX9XeXwXM.+.] ] $.m.c.#.:.,.<.;XtX8XtXrXI.[ } E #.G.O./ E W _.ZXpXuXnX1X$.I ] T V.v.r.O.T v.2XnXgXdX2Xr.z z Y r.V.Y C C b.T.+.Y [ +._.rXdX1XdXT.+.O.E j.T.$.O.O.j.~.uXeX1XtX2X;   .   | KX0.K | | _ u.F.E.L.u.u.P.#XBXPXsX....#Xa.q b b b S S F a.a.5Xs.7 S S S S A A a.i.E.].9 y n n b p s b s.%XSX+X' } p.cXLXLXHXJXJXJXJXLXKXKXLXHXGXGXFXGXvXkXlXlXzX.X[..XlXkX$XkX#X'.e.5.^ Z S ( ..9 9 b w 0 7 m s.A 9 p b 9 w 1 F '.b y u u u 0 7 Q ~ 8 _ e.4.B B v y 3 v 8 3 HXKXKXKXKXKXLXKXF.  J. XP.S.0.! ! { _ 0.` Q 8.a.=.u.z.[.u.M s d e y z.S.d % 3 a 3 3 3 3 D D.                u.kXS 1 1 # D $X8.                                * B.4.9.9.'.N.B.9.9.9.9.9.9.u.9.8.9.8.8.| 4.4.3.3._ 4._ _ ~ _ ) ^ 3.) ) ~ _ _ Q ! _ Q ^ ^ ^ D ^ ^ ^ D ^ ^ Q L ^ ^ Q A S Z ) 8.8.8.9._ ) ( ` _ v 3 4 w JXKXKXKXKXKXKXKXKXKXKXKXKXKXKXKXKXKXKXKXKXKXKXKXKXKXKXKXKXKXKXKXKXKXKXKXKXKXKXKXKXKXKXKXKXKXKXKXKXKXKXKXKXKXKXKXKXKX",
"  P.SXtXnXmX+X@.$.@.c.!.v.>.>.c.).uXMXuXAX>X;.>.o.E T.G./ Y U k.Y.r./ O.;.;XnXuXaXtXT.o.O.] j.oXj.] +.] T.nXnXCXAX2XE : , l J [ #.} :.v.m.#.:.h.,.).7X1X7X,XM.[ ] ] :.m.Y.@X%X%X!.(.wX7XrX6XM.[ [ ' =.H.} | / E /.CXaXaXtX6Xo.t U h c.c.O.U h $.2XuX8XtX2X<.z j k r.b.C t h +.I.E H Y o.W.9XtXrXuXT.%.+.] <.T.r.O.#.j.~.wXwX8XuX2X%   .   | KX} A ( 5.0.F.F.L.z.0.h.].&XBXLX6X..x #X-.7 b b b S S F a.a.$Xh.7 F S S S F A a.=.].S.7 b S F b b 9 b P.4XIX@X .u.s.cXLXLXJXHXHXHXJXLXKXKXLXHXHXGXHXHXVXkXlXlXzX.XXX.XzXzXkXkX#XB.9.8.^ A Z ! M 9 u b w w q w s.D 9 p p p b q b s.S 9 u u 9 u 8 F _ 3 ~ e.4.c c u i 8 c i 8 HXKXKXKXKXKXKXKXF.  J. XP.=.f i K ^ i i A G S d d Z u.K.J.0.C K f M A.5.6 = i B 6 7 7 7 d.`.  .             p.cX^ * * & S $Xa.                                % N 9 3 e b 4.A.[.{. X{.[.XX|..X[.|.XX|.|..X.X[..X[..X[.XX[.|.|..X|.|..X.X|..X|..X|..X#X|..X|.|.[.[.[..X}.[.[.[.].[.[.].Z.=.` _ { 5.5.6.( M e e 7 6 q GXKXKXKXKXKXKXKXKXKXKXKXKXKXKXKXKXKXKXKXKXKXKXKXKXKXKXKXKXKXKXKXKXKXKXKXKXKXKXKXKXKXKXKXKXKXKXKXKXKXKXKXKXKXKXKXKXKX",
"  c.SXnXAXCX+X>.j.:.v.!.v.k.k.k.~.uXMXuXMX2Xj.c.j.k.~.K.#.e.$.v.Y.r.e.e.,.@XMXpXnXyX/.$.r.#.b.OXm.} $.+.~.NXCXAXAX,XW , e l [ OXbXqXOXG.!.@XbXqX^.(.7X1X6X:X!./.%X2XOXH.}.%XbX2X^.+XwX7X7X,XQ.!.OXOXE.L.z.}.}.T.@XrXaX8XtX6X@.Y E W M.c.:.[ T $.3XfX8XdX1Xb.O.T H b.m.] U k $.T.O./ [ +.Q.tXaX8XdXQ.%.r.E k.Y.$.] O.c.Q.iXeXtXuX,X%   .   ' KX=.Z _ 8.e.[.B.V.z.| { F.%XBXKX5X, x #X .6 S b b S S  .a.s.$X-.3 D N N F S A a.a. XS.> b S F b b 9 ..D.4XSXOX .i.N.cXKXKXJXHXJXGXJXKXKXKXLXHXFXGXHXHXVXlXkXlXkX.X[..XzXlXkXkX.XB.9.9.( K M Q m y p a p p q 9 s.~ q p 9 9 p 7 w s.~ 9 p u u c 1 b i.1 ^ e.0.a X.w 8 3 8 8 8 PXKXKXKXKXKXLXKXF.  [.|.0.{ K s M v @ @ S y * * $ y p.F.e.C f X.& = 2 y 3 & 1 * 2 3 2 q g.`.            .   { vXlXp.a ) A.cX5.  .                         .   * {.9.4.~ N N ~ ~ ~ ) ) ) ~ ) ) _ 4.8.6.9.0.d.d.x.d.d.B.N.s.N.s.s.s.Z.Z.N.'.Z.'.'.J.].`.'.].[.[.[.[.}.[..X[..X|.#X.X|.p.Q 9 * & % & & $ & & & % * = 1 GXKXKXKXKXKXKXKXKXKXKXKXKXKXKXKXKXKXKXKXKXKXKXKXKXKXKXKXKXKXKXKXKXKXKXKXKXKXKXKXKXKXKXKXKXKXKXKXKXKXKXKXKXKXKXKXKXKX",
"  M.SXfXAXCX+Xk.c.j.F.Y.n.n.n.n.^.uXMXmXMX>Xj.b.k.v.}.G.e.0.#.m.}.r./ / c.@XMXpXMXnX~.@.O.$.G.oXv.O.$.+.~.MXnXAXMX6X+., , ..| !.%X%X!.m.!.@XqX%X^.(.6X:X6X>XQ.@XmXbX@XG.oX2XbXbXOX(.wX6X8X6X/.%XVXmX%XP.K.bXNXbX6XaXaXrXuXwX>.] E [ G.n.j.#.E b.0XfX8XaX2XI.@.+.O.G.G.O.[ R j.T.$.[ O.@._.aXtXtXnXQ.$.$.O.c.~.m.H.E.U.).iXtXtXfX7X%   .   | KXP.Q u.0.l.#Xl.0.{ ! 0.E.%XSXKX_.- x #XD 9 b b b F S  .a.s.&X` 7 D N S N S S a.-.OXP.q b S S b b b b E.qXSXOX .i.N.cXKXLXJXGXJXJXJXLXLXKXKXJXFXFXHXHXVXlXlXlXkX#XXX.XkXkXkXkX#X'.e.i.( K m K B y y p p n 0 q s.) q 9 w p p q p f.~ 6 0 8 9 u 1 n i.3 M 0.4.f 8 i w 3 8 8 8 PXKXKXKXKXKXLXKXF.  F.{ e y = = 2 & O A  XL i y @ e G G C C C X.i ! $X#XI 1 2 6 6 8 9 p s.A.                s.VXlXs.d a.#XvXs.                                * kX[.'.[.4.A N F F A F S S N N N M N V B B v n B v B B B n m v m b N b b S S A A A D ^ ^ ^ 3.4.4.4.4.4.4.9.0.5.9.9.0.| a = * * * & * * & * * - - * & HXKXKXKXKXKXKXKXKXKXKXKXKXKXKXKXKXKXKXKXKXKXKXKXKXKXKXKXKXKXKXKXKXKXKXKXKXKXKXKXKXKXKXKXKXKXKXKXKXKXKXKXKXKXKXKXKXKX",
"  c.SXnXAXnX+X+XmX%X&XY.oX%XmX%X+XuXCXuXMX@Xc.m.b.m.Y.}.&X2X@XoX}.}.+XOX~.@XMXaXpXnX).#.O.$.m.oXY.Y.OXY.+XnXMXAXMXqXW , , f J :.k.,.} n.M.] :.[ ;._.7X:X6X>XM.W #.} ] v.j.[ e.| ;.@XwXrX7X6XM.[ h.[ #.n.} r.v.<./.fXaXaXMX1Xj./ E +.!.m.#.Y Y j.0XfX9XaX0Xc.T U ] F.G.' I J j.!.:./ [ +.W.aX8XaXCXT.+.Y P k.oXoXbXNX@XOXiXrXwXtX2X%       ' KXL.8.p.0.L.%XK.C.u.} A.oX4XGXKX^.> -.#Xm s S b m D S -.a.P.#X .q S N N S S D a.=.#Xs.7 F S b b b 9 ..P.4XFX^. .0.s.cXKXLXHXHXHXJXLXKXKXKXLXJXHXFXHXHXVXkXlXlXzX.X.X.XkXkXkXzXjXZ.9.8.~ S b B s y 8 p w w 9 q s.` q 9 p w p 8 q i.-.u n u 9 9 1 9 5.p M 0.0.I B i i 8 8 8 c PXKXKXKXKXKXKXKXF.   XP.Z d 3 2 6 7 6 u.K.S 6 a 7 7 s P e.4.C B 6 e M M i * = 3 1 2 9 7 d.D.            .   u.cX$Xi.y a.#XvXa.  .                             6 vXXXXX{.Z.'.'.'.Z.Z.'.s.Z.B.B.d.N.d.9.9.9.d.9.9.9.9.6.4.6.4.4.` Q ) ) ) ~ D ^ ^ ~ L ^ D I ^ D I ^ ^ ^ ^ D ^ D ^ A L Q K s 7 * - $ * * & & - & & & & GXKXKXKXKXKXKXKXKXKXKXKXKXKXKXKXKXKXKXKXKXKXKXKXKXKXKXKXKXKXKXKXKXKXKXKXKXKXKXKXKXKXKXKXKXKXKXKXKXKXKXKXKXKXKXKXKXKX",
"  n.SXCXuXuX+X+XbX2X@XoX!.2XmX@X+XeXuXnXMX>X~.2X2X@X}.oX2XBXmXOXOXUXBXBX2X;XMXaXuXnX(./.2X@XOX~.&XBXAXiX+XmXuXuXMX2XE , r l J j.v.k.[ v.k.T j.] E (.1X1X9X,XM.U :.O.U v.#.U +.H W (.9X9X8XrX1.l R f l M.Y C Y E U.ZXuXuXCX3XU.$X2X&XK.H.&X%XOX!.2XyXrXaXqXQ.Y.OXY.K.K.G.oXK.H.Y.L.!.oXG.^.6XaXaXnXT.m.x.k.n.E.H.%X4X&X_.sXrXwXrXwX%   .   [ KXC.5.0.0.F.}.oXOXN.p.J.E.cXSXPX1., H. X7 7 q q p D S -.=.a.#XA q D N N S S D u.u.|.a.7 S S S b s 9 m J.bXNX,.L i.l.cXLXLXJXJXHXHXJXLXKXKXLXJXFXGXHXHXVXkXkXlXkX.X|..XzXlXzXlX$XB.9.9.^ B v A M u y w p p 0 7 i.=.9 w p p c 0 8 6.s.D 5.i.i.6.` 5.i.a B 0.0.^ B i c c u 8 i HXKXKXKXKXKXLXKXF.   X X{ P M e 7 L 6 L A.s = p 9 ..u.l.0./ K 6 @ & @ * 3 % 1 i 8 9 q 7 i.D.                a.vX%X_ 9 a..XvXs.                                3 zX.X.XjX.X[.'.'.'.`.[.`.]. X X X|.[.[.XX[.|.[.{.[.].[.[.[.[.[.[.|. X X{.[.XX[.{.[.[.[.].{.L.'.'.'.V.V.'.B.V.B.B.N.N.N.x.u.} ! ! Q ^ Q D D N M B f a JXKXKXKXKXKXKXKXKXKXKXKXKXKXKXKXKXKXKXKXKXKXKXKXKXKXKXKXKXKXKXKXKXKXKXKXKXKXKXKXKXKXKXKXKXKXKXKXKXKXKXKXKXKXKXKXKXKX",
"  k.SXpXMXMX/.o.@.[ j.T.v.+.$.:.Q.uXCXuXnX;X<.;.$.$.Y.m.$.$.;.b.}.r.r.r.<.+XpXaXuXtX).b.F.G.G.~.m.n.m.m.Q.uXpXuXuX2XE , , h Y :.j.#.O.b.M.@.j.} @.*XdX1X9X7XI.o.k.j.O.G.>.+.:.E =.(.tXgXdX8X1.z E x x M.] U O.o.I.pXpXMXZX>XY.UXmX%X}.L.lXNXbXOX2XmX0XwXqXOX2XBXqXoX X%XVXbX&X}.OXbXVX@X(.sXaX6XiX~.@XmXcXOXE.oXbXbX&XOXaXaXtXuXwX%   .   | KXL./ ( _ p.].}.OXp.a.S.oXVXSX6X> > E.#X` i.a.a.s.s.l.C.A u.&XA p D S S D S ( i.=.#Xu.7 A A S b b s ..|.IXIXP.L a.N.cXKXLXHXHXHXHXJXLXKXKXKXJXGXFXGXHXVXlXlXlXkX.XXX#XzXzXlXzXkX'.9.0.3.D B ^ N u 8 p p w 9 7 f.4.q 7 7 q q q & 4.d.9 y u p b w b 5.B i 0.p.^ i c B v i 8 w PXKXKXKXKXKXLXKXF.  S.D.Z Z s y } J.= e ( y = * & s =.l.e.^ g 3 7 3 > 7 2 % 3 i y p y * i.D.            .   P.VXcXf.y a.|.vXl.  .                         .   2 zX.XjXjX'.3.4.9.5.8.i.i.i.i.d.f.d.d.B.s.N.Z.Z.Z.Z.Z.'.'.`.'.[.`.`. X X].].[.[.].[.{.|.[.|.|.|..X|..X.X.X.X.X.X|.|..X[.|. X[.L.].J.A.'.[.XXXX[.{.[.'.LXKXKXKXKXKXKXKXKXKXKXKXKXKXKXKXKXKXKXKXKXKXKXKXKXKXKXKXKXKXKXKXKXKXKXKXKXKXKXKXKXKXKXKXKXKXKXKXKXKXKXKXKXKXKXKXKXKX",
"  P.SXtXCXAX+Xo.R T $.T.j.O.%.o.I.uXfXdXCX,X%.T z z U.b.H h T $.Y.O.C H o.*XfXtXtXyXW.T k h O.Y.@.k U T Q.MXCXuXuX2Xo., r h H E R R [ v.m.b.j.r.<.(.dXdXuX1XI.+.#.O.$.G.Y.+X%X+XI.(.aXaXdX8X^.!.OX!.M.H.O./ ' ] Q.yXrXuXnX1X$.T o.E m.m.O.O.W ;.6XMXwXuX0XI.T @.+.M.G.r.@.+.c.T.b.c.v.c._.6X9XaXtXQ.M.M.M.m.!.c.H.H.n./.aXuXtXpXwX%   .   | KX Xp.x.0.e.C.L.C.{ a.E.|.NXPXIX-.> E.#XD ) ) D D D A i.{ D. Xy 7 S b p b S A { =..X=.6 Q L b s b 9 L |.BXSXE. .a.l.cXKXLXHXHXHXHXJXKXKXKXLXJXGXHXHXHXVXlXlXlXzX.XXX.XzXkXlXlXkXA.9.9.4.D B D D u y w 9 p w q D a.S S D D b b q 4.d.u 9 8 q q q 1 ) Q 6 8.x./ v i v B 8 8 8 PXKXKXKXKXKXLXKXF.  x.Q e s e Z |.oXa 3 s g e = * > s L ^ K d e 6 = = 7 i e X.3 6 e 3 o ~ D.  .             s.VX$Xi.9 s.#XvXN.                              . 3 vX.XjX[.D b V N N S N S S N N F A D ^ ~ 3.^ D ~ 3.~ ~ ~ 3.4.4.4.4.5.5.9.0.9.9.9.9.B.N.N.e.B.B.V.'.'.'.V.L.L.'.'.A.S.].A.0.Z M A ! D D 3.6.f.g.g.d.3.LXKXKXKXKXKXKXKXKXKXKXKXKXKXKXKXKXKXKXKXKXKXKXKXKXKXKXKXKXKXKXKXKXKXKXKXKXKXKXKXKXKXKXKXKXKXKXKXKXKXKXLXLXKXKXKXKXKX",
"  c.SXtXCXMX@X;.+.E j.T.b.%.@.O.R.tXdXuXCX2X<.@.Y E U.V.Y Y T >.Y.r.O.O.O.+XCXtXuXpXQ.O.O.T @.Y.:.T R o.).uXfXdXdX6XE , r ..G ' [ [ [ z.V.| | #.$.@XdXeXeXwXU.' Y / #.V.OXbXBXVX&X@XaXtXaXrX/.%XVXmX4XP.} ' Y Y m.0XwXwXuX3X%.k h h b.b.T h j o.>XMXtXaXwX<.j k k k.v.T h j o.U.O.H J W I.9XrX9XwXQ.O.E W ,.!.+.W [ =._.rXyXeXaXiX%   .   | KXF.( 8.{ C.L.l.x.u.a.E.&XNXPXSX=.> #X X* 9 w p p S b i.s.E.#XL A ` ) ) 6.5.d.` { #X-.q Q S S b s s  .&XBXSXH. .a.D.vXLXLXHXHXHXHXJXLXKXKXLXJXGXHXHXHXDXlXlXlXlX.XXX.XzXzXkXlXkXA.9.0.4.^ B D ^ i 3 c p p w q F s.` Q ) 5.4.6.~ s.s.b y 0 9 9 9 7 ` Q 6 _ s.4.B i c c 8 8 8 HXKXKXKXKXKXKXKXF.  [.oX=.' I s 3 6 = * e s 9 y s S l -._ / ! s & % * 9 i 2 6 B s 6 = o a 5.            .   s.vX$X` y _ '.lXN.  .                         .   3 vX#X.X9.D ~ ~ ^ D D D S D D A A ^ V A V B V N N v N N B B M N B M A A S D ^ ^ ^ ^ ^ ^ ~ 3.3.3.3.3./ 3.4.4.4.4.4.5._ 0.8.8.m * % 7 u D D w.w.w.w.w.w.JXKXKXKXKXKXKXKXKXKXKXKXKXKXKXKXKXKXKXKXKXKXKXKXKXKXKXKXKXKXKXKXKXKXKXKXKXKXKXKXKXKXKXKXKXKXKXKXKXKXKXKXKXKXKXKXKXKX",
"  v.SXnXnXMX+X:.#.$.V.}.V.#.e.e.T.uXCXnXMX2Xj.$.} e.Y.F.#.[ +.v.oXr.} #.@.@XpXuXuXuX).$.j.$.v.oXP.:.,.;.Q.yXaXpXpX0Xo.: r f / OXqX4XOXG.V.e.h.h.j.(.eXeXwXwXT.} ] ] j.V.Y.%X%X2X^.+XpXwXeXwXQ.OX4X4X&XP.j.L.K.Y.^.wXrXrXdX1X@.U U J n.v.+.E z :.1XCXdXnXiXM.T E T j.m.' H k O.U.@./ ' O.Q.wXwXwXiXT.%.:.[ :.!.+.[ E :.~.yXfXtXuXyX%   .   | KXJ._ _ ( [.K.0.x.{ u.J.&XBXLXNXx ..5X X2 b b b b F b a.-.S. Xi.-.f.7.) 5.4.p.8.8.#XL 7 S F b s b q  .&XIXIXH.( u.Z.VXLXLXHXHXHXJXLXKXKXKXLXJXJXLXJXHXDXlXlXlXlX.X[.|.kXlXkXlXlX[.9.9.3.C N D ^ 8 4 8 3 3 3 * b f.p 7 0 9 q q $ F s.n 8 0 9 q 0 7 D _ 8 L l._ B B c c X.w 8 HXLXKXKXKXKXLXKXF.   XoXl.S.E.d X y 7 $ > e * = A =.s.P.l.}  .s = 6 d Z e * a ! d 6 7 & ) D.                C.vXa.q 7 b S F q                                 7 lXkXXX'.'.Z.Z.'.A.'.Z.Z.Z.Z.B.N.e.d.e.9.9.9.5.6.4.4._ 4._ 4.~ ^ ^ ^ L A w.^ D D D D D ^ ^ D A ^ D ^ ^ ^ ^ I I D D D ^ D D L s * & 7 m ) q.q.w.w.w.w.DXLXLXKXKXKXKXKXKXKXKXKXKXKXKXKXKXKXKXKXKXKXKXKXKXKXKXKXKXKXKXKXKXKXKXKXKXKXKXKXKXKXKXKXKXKXKXKXKXmX%X%X2XlX2XlX2XlX",
"  b.SXnXMXAX+X#.[ [ j.Y.V.j.j.v.).uXCXnXAX2X>.$.E #.Y.n.' Y ] c.}.r.e.r.<.+XpXyXyXtX+X~.%X%X&X!.^.4X4X+X/.yXsXpXpXwX+., r f Y oX%X2X).v.m.U.Y.U.b.;XuXgXdX1XQ.m.OXY.U.m.}.2XNXmXOX/.wX1XrX7X/.@XbXsX@Xn.L.UXNXiX6XrXrXtXtX1X>.Y R Y G.n.:.] T >.2XAXnXnXiXT.$.$.[ v.V.[ Y Y :.Y.:.| } #.Q.wX6XwXuX~.r.] R h.T.} R [ +.!.iXuXdXuXiX-       | KXF._ / x.#XL.x.u.0.u.A.&XBXLXNX..t &Xs.1 p 9 w n b y u.a. XJ.7 7 p w n N b Q l.D.oXL 7 L b s b ..b Q F.NXSXH.( x.A.VXLXLXHXGXHXGXPXKXKXKXKXJX|.].FXLXDXlXlXlXlX#XXX.XkXkXkXlXkX'.d.9.4.^ N A D A ^ 3.^ 3.7.F ~ s.b q w y 9 0 1 b Z.F 3 0 0 9 9 7 F ` 9 S s.| p B v c 8 8 X.HXKXKXKXKXKXKXKXF.  C. Xh.u.Z 7 y u.f % = 2 @ o @ s P.D.a.` L D S 2 & 6 y & & & 1 3 9 # ) a.  .             P.cXa.7 * f.S.) *                                 = jX'.N.N.s.d.s.A.'.A.'.`.[.{.{.[.[.{.{.[.[.[.[.'.`.`.'.'.`.`.].A.A.Z.9.9.e.B.e.B.e.e.e.9.9.e.9.9.0.5.4.0.9.4.4.3.4./ 3.^ Q Q L d 6 * 1 y F 3.w.w.w.V HXJXKXKXKXKXKXKXKXKXKXKXKXKXKXKXKXKXKXKXKXKXKXKXKXKXKXKXKXKXKXKXKXKXKXKXKXKXKXKXKXKXKXKXKXKXKXKXKX%   .             ",
"  n.SXnXAXAX+X,.#.:.v.Y.}.UXbX@X/.tXZXMXnX2Xb.j.$.j.U.m.#.+.$.v.}.V.r.r.<.+XtXwXwXiX+X@XbX4X&XH.OX4X4X@X^.sXMXMXpXrX;., r f I +.>.+.E <.b.%.:.#.@.).eX9X8X7XI.+.c.k.+.m.b.+.:.#.;./.7X8X8X9XI.;.k.=.,.n.:.:.M.j.Q.rXrX8XdX1X;.G J P L.n.[ J H >.2XAXnXnXmXU.+.E / v.F./ C G #.Y.$.K P [ ^.rXaXrXiXT./ h l =.Y.[ l f R Q.uXuXuXdXyX%   .   | KXN.Z M l.%X XK.C.C.C.K.%XIXKXsXt ..5Xa.1 b w p b n 0 i.a. X Xq n b b n F N ` p.N.|.a.=.s.s.s.a.s.=.L  .NXSXE.R p.A.VXKXLXHXHXHXHXJXLXKXLXKXLX Xa.IXLXDXlXlXvXlXjX.X.XjXlXkXzXkX{.9.9.4.^ N C D B D ~ 3.3.3.~ 4.'.b 7 9 9 9 9 q 0 Z.D 3 p 0 0 w q F _ 7 7 0.0.v a B B i 3 3 HXKXKXKXKXKXKXKXF.  C.oXP.a.f d p.l.L f m s e 7 q  .a.P.l.` D ( { s m ( 2 O = a 9 2 7 $ D a.  .         .   D.cXJ.S q g.`.s.p   .                         .   2 zX.X$X#X'.s.a.a.a.i.d.f.9.e.Z.e.d.N.B.B.Z.N.N.x.l.9._ _ _ ` | { 0.0._ _ e.'.'.[.{.{.[.{.XX[.[.[.[.'.[.`.[.'.[.'.'.'.V.A.Z.A.Z.p.Z 7 * & 3 s V w.w.w.HXKXKXKXKXKXKXKXKXKXKXKXKXKXKXKXKXKXKXKXKXKXKXKXKXKXKXKXKXKXKXKXKXKXKXKXKXKXKXKXKXKXKXKXKXKXKXLXKX-     .   .   .   ",
"  v.SXnXCXCX<Xm.!.!.oXY.}.2XbX2X(.8XpXtXnX2X~.2XbX@X!.~.%XbX2XOX}.+XmXbX<X@XuXrXwXiX(.@XBXbX&X!.OXbXNXqX@XsXMXpXMX0X+.X.r h G $.,.;.o.<.b.o.k.+.o.).8X9X8X1XM.T +.] T v.r.H E U o._.7X8X8X7XI.k x x l c.E H ] E m.tXrX9XfX:XI.OX&XoX!.F.K.OX~.T.2XCXnXnXiXY.m.Y.G.F.F.z.V.v.n.Y.v.V.L.v.^.yXyXaXmX).j.e.[ k.U.,.E +.[ Q.nXuXtXuXiX-   .   ' KXp.B K V.#XOX[.l.x.F.|.%XIXKX0Xe -.$Xu.1 b n b w b 9 i.=.|.].7 q b p b N b ` a.l.#X-.b D D  .F b s ( &XIXSXE.' p.S.VXKXLXHXFXHXGXHXKXKXKXLXLXJXJXJXLXDXlXlXlXzX$X.X{.kXkXkXkXlX[.N.9.4.^ C K ^ c 3 3 8 0 0 1 q '.S 7 9 9 8 q 7 q S.3.7 p w 0 0 7 b 8.a s u.e.B i c v c c 3 PXKXLXKXKXKXLXKXF.  C. Xl.=.s s Z d Z (  .Z ..s s ..a.J.l.( Z Q $X%XcXoXi * y s 9 7 q 1 d.A.                P.cXD.s 2 s.g.d.a                                 3 zXvXDX$X`.8.D D S A D S ^ V w.^ ~ 3.4.4.4.4.( _ ! a e 3 2 3 7 6 e y a f i ^ 4.0.d.'.'.'.A.'.'.'.].{.{.[.[.[.[.[.[.[.[.{.'.{. XXXs.b * @ % * 2 c V w.JXKXKXKXKXKXKXKXKXKXKXKXKXKXKXKXKXKXKXKXKXKXKXKXKXKXKXKXKXKXKXKXKXKXKXKXKXKXKXKXKXKXKXKXKXKXKXKXKX&                 ",
"  c.SXuXCXnX/.>.>.:.k.Y.v.:.k.>.R.rXpXuXnX2X<.>.>.>.G.m.:.>.>.c.}.V.r.G.m.+XfXuXuXuX+Xm.!.H.H.!.Y.G.Y.m.).nXAXCXZX0Xo., r C I r.,.;.W 1.b.o.k.#.;.(.8X8XeXwXI.E k.$.E G.k.E +.Y o./.eX8XgXrXI.U [ J J n.O./ #.] U.rX7XrXfX,XI.bXBX2X}.G.2XBXqX+X3XiX2X1X2X~.2XNXbX!.K.@XNXbX+XH.+XbXNX%X@XrXpXpXnX).<XAXNX+XU.OXNXBX2XQ.,XiXeXuXbX-   .   | KXx.Z ` P.|. XC.} { l.E.4XIXLX4X> =.$X` 7 b n w b w 9 i.i.#X].7 q w w n b 9 ) i.D.$XS > F b b s a s Q $XSXSXH.-.,.C.VXKXLXHXHXJXGXJXLXKXKXKXJXGXJXHXLXDXlXlXlXkX#X{.|.jXkXlXkXkX[.9.9.4.^ N B K a 8 u u u u 8 0 Z.D q 8 u 9 9 7 1 g.4.7 u 0 w 9 9 a 8.s B x.9.D i 8 8 8 8 3 PXKXKXKXKXKXLXKXF.   X&XP.( 6 s i.Q s s I L L d $ s l.C.l.( S ` #XS.K y e 6 * * = 7 9 q s.Z.                D.$Xu.7 $ s.].a.y                                 = zXjXkX#XA.( S D A S S D A N V D A V D A A A B M b 2 % % @ % & % O % * 3 2 i B ^ ^ 4.5.5.9.N.d.d.d.N.N.B.B.B.B.N.B.B.N.9.( D N ^ ~ D u 3 3 6 6 i B V HXKXKXKXKXKXKXKXKXKXKXKXKXKXKXKXKXKXKXKXKXKXKXKXKXKXKXKXKXKXKXKXKXKXKXKXKXKXKXKXKXKXKXKXKXKXKXKXKX-                 ",
"  v.SXuXMXnX/.+.E Y +.G.j.] ] ] I.rXpXuXuX>X@.H h H n.v.U f h +.Y.O.C I E +XCXCXnXiX).o.J H #.U.j.C U o.~.nXCXdXtX6XW , r h C r.m.M.c.M.c.#.k.:.,.(.tX8XeX7XU.+.,.:.$.G.b.+.:.+.,.(.tXdXgXtXT.+.=.,.=.M.e.e.e.$.~.aXrXyXuXwX;.Y E E G.G.#.$.O.;.3XnX1XnXiXm.j.b.$.n.G.k.k.j.v.G.v.j.F.M.^.aXfXtXiX).G.G.m.U.m.n.!.U.H.U.0XiX7XrXiX%       ' KXu.S { F.OXL.x.0.u.l. X4XSXLX/.> =.$X( q b b n F w p a.-.#X`.$ w b p n n q Q a.C.$X..q b b b b b s ` %XFXSXH. .u.S.VXKXKXJXJXHXGXJXKXKXKXLXJXGXGXFXHXDXlXlXlXzXkX.X.XzXlXkXlXkX.XN.9.8.~ A B c i 8 y 8 0 u q 8 s.D 7 9 0 y 0 q $ a.9.8 u 0 9 9 0 9 i.p i e.e.w.i c i 8 X.4 HXKXKXKXKXKXLXKXF.  C. X=.g $ b $XA.g s L s = 6 s  .l.S.P.` q = & @ s ( s = e s 7 * b 9 d.s.  .         .   a.$XD.a & d.].s.9                               .   o o o o o o   %XKXGXPXJXGXHXPXHXHXPXHXGXHXPXPXHXPXGXGXGXGXGXGXGXHXGXGXGXGXGXGXHXLXJXJXGXJXLXLXJXPXHXJXJXJXLXLXHXLXJXLXJXJXGXGXGXGXPXJXGXPXJXPXGXGXHXKXKXKXKXKXKXKXKXKXKXKXKXKXKXKXKXKXKXKXKXKXKXKXKXKXKXKXKXKXKXKXKXKXKXKXKXKXKXKXKXKXKXKXKXKXKXKXLXKX%                 ",
"  z.SXrXuXnX@X,.:.[ h.Y.v.$.>.#.R.wXCXnXMX2X$.o.U Y n.n./ Y / r.L.e.O.O.E (.nXfXnXuX).O.Y T #.Y.b.T E %.R.1XuXdXeX:Xo., r f h ] =.=.=.<.v.R I J ;._.aX8XrX0Xm.W Y | e.G.v./ ' E @./.tXeXeXiXT.R R  .=.G.e.' ' E U.MXMXMXMXiX;.j j t m.v.U U t W 2XCXnXCXyXI.T U t >.F.R k l E m.O.H R [ W.rXtXdXuXQ.@.o.] ,.U.j.[ E :.^.yXfX7XiXyX%   .   | KX0.m ! F. XC.l.u.x.P.E.4XSXPXI.> =.$XV q b b n b w p i.u.&XA.$ b b b b b q ) i.J.&Xb q b b b b s s ` %XSXSXH.=.p.A.VXKXLXHXJXJXHXJXLXKXLXKXJXGXGXHXHXFXlXlXlXlXkX[..XzXlXzXlXkXXXs.9.5.3.D M M v 6 8 0 8 0 8 q 9.4.8 0 0 0 9 9 1 f.i.0 y u 0 0 0 9 i.b v 5.e.3.B B c 8 6 3 HXKXKXKXKXKXKXKXF.  l.` s s 7 b  XlX XC.P.Z e 6 e e s S  .S y s Z.&Xx.s s = Z ( b b S 9 i.s.                C.cXD.d * f.g.s...  .                                             bXKXLXKXKXKXKXKXKXKXKXKXKXKXKXKXKXKXKXKXKXKXKXKXKXKXKXKXKXKXKXKXKXKXKXKXKXKXKXKXKXKXKXKXKXKXKXKXKXKXKXKXKXKXKXKXKXKXKXKXKXKXKXKXKXKXKXKXKXKXKXKXKXKXKXKXKXKXKXKXKXKXKXKXKXKXKXKXKXKXKXKXKXKXKXKXKXKXKXKXKXKXKXKXKXKXKXKXKXKXKXKXKXKXKXKX&                 ",
"  c.SXtXCXMX+X:.] R h.Y.V.[ ' +.T.tXuXnXMX2Xk.O.[ :.Y.G.#.] E r.}.r.O.O.@./.uXuXuXiX/.$.O.O.k.Y.v./ O.$.T.nXCXdXfXwX@., r f P Y.@X%XOXP.K.&X$X&XE./.rX6XwX0X!.H.&XOX}.Y.V./ / ' :.+XtXrXeXwXQ.R R R =.n.e.V.L.n.OXmX0XyXnXwX$.h T k m.c.o.T j o.3XuXuXnXiXM.o.T h >.n.] l h T U.$.I [ W I.8XtXtXeX/.>.>.:.<.Q.k.+.:.:.^.uXuXeXuXyX-   .   | KXN.M ! C.|.K.J.0.| S.&XbXPXPX1.- F.$XB u b p n n w b i.i.#Xs.$ b w b n b q ) i.S.#Xp q F S b ..b s ( 4XGXGXH.' a.Z.DXKXLXJXHXHXHXJXLXKXKXLXJXHXFXFXHXGXlXlXlXlXkX.X[.zXlXzXkXzX.X9.9.0.^ K M ~ B y y 8 0 u 7 q 6.4.3 q 0 8 0 w 7 ) i.p 0 u 9 p 9 9 8.m X.4.9./ B V B i 8 3 HXKXKXKXKXKXLXKXn.  J.S.L L s 9 d. Xp.L s s d d e q d L ` ` L A a.! * 3 ` 2 7 s s b b 7 ) A.                D.%X-.y 1 s.S.f.p                                                 bXKXKXKXKXKXKXKXKXKXKXKXKXKXKXKXKXKXKXKXKXKXKXKXKXKXKXKXKXKXKXKXKXKXKXKXKXKXKXKXKXKXKXKXKXKXKXKXKXKXKXKXKXKXKXKXKXKXKXKXKXKXKXKXKXKXKXKXKXKXKXKXKXKXKXKXKXKXKXKXKXKXKXKXKXKXKXKXKXKXKXKXKXKXKXKXKXKXKXKXKXKXKXKXKXKXKXKXKXKXKXKXKXKXKXKX-                 ",
"  c.SXyXAXNX+XO.Y Y e.Y.v.I I / T.eXnXnXMX2Xj.Y I #.Y.G.Y I U k.~.e./ $.$.~.pXuXuXyX/.O.] +.z.!.v.[ [ @.Q.yXuXuXpXrX%., r t / oXqX4X^.n.^.4XVXqX/.@XeX9XeX7XQ.+XVXNX&XY.v.$.e.$.j.+XiXeXeX1X~.r.e.#.h.v.K.qXBXnXyXnXqXrXpX6X<.I P Y L.K.!.OXU.m.@XaXsXyXqXT.T.Q.H.m.G.G.G.m.v.U.M.P.H.<.^.rX9XrXrX_.=.,.$.>.T.b.#.+.[ Q.yXuXtXpXyX&   .   | KXN.m L C.L.|.oX| {  X&XbXPXSX=.; E.&Xp u v v n b n N i.a.#X=.7 b n b w b q f.a. XOXa q F S S ..p s -.4XGXSXE.=.=.A.BXLXLXJXJXJXJXPXLXKXKXKXJXGXFXGXHXFXcXzXvXcX$XXX|.jXlXkXkXlX#XB.9.9.~ A A ^ M y y 0 u 0 q 7 5.f.7 9 0 9 9 0 7 D i.n 0 0 9 0 0 0 4.S y _ p._ i B B v 8 3 HXKXKXKXKXKXLXKXF.  L.S.Z d y =.cXcXD.A s e s y 6 d -.x.=.D 6 = = 9 `  X{ * % 2 3 3 e o 9 S             .   s.$XD 7 q i.s.f.u                               X O X O X O % O . %XGXBXBXBXBXBXBXBXBXBXFXGXGXGXGXHXGXGXGXGXGXGXGXHXHXGXGXLXKXKXKXKXKXKXKXKXKXKXKXKXKXKXKXKXKXKXKXKXKXKXKXKXKXKXKXKXKXKXKXKXKXKXKXKXKXKXKXKXKXKXKXKXKXKXKXKXKXKXKXKXKXKXKXKXKXKXKXKXKXKXKXKXKXKXKXKXKXKXKXKXKXKXKXKXKXKXKXKXKXKXKXKXKXLXKX-                 ",
"  z.SXuXnXnX@XU.OX&X}.}.}.oXoX}.~.1XMXnXMX>XH.~.Y.Y.H.L.L.K.G.U.}.V.V.G.m.(.pXpXuXtX/.+. .{ F.K.H.L.!.H.!.yXnXCXCXwX;., r t H +.,.1.=.<.M.o.c.>.@.(.8X8X8X7XR.+.,.<.$.m.b.E O.o.+.).uXeX1XdXT./ | / ' v.j.:.c.b./.mXMXwXyX6X,.I P ' L.!.%XBXNX@X@XMXaXaXmX/.2XBXmXoXE.%XNXVX&XK.&X4XNX4X_.rXaXrXaX^.[ ..f +.Y.$.H l R T.0XuXtXuXyX-   .   ' KXl.A | L. XoXL.! { K.&XmXPXSX=.> ^.#Xy u b n b V n D a.a.#Xi.$ F n n b b q 8.-. X.Xb q F S F b p p s.bXGXSXI.-.=.A.DXLXLXJXJXJXGXHXLXKXKXKXJXGXHXHXJXFXcX5XzXkX$XXXXX#XzXkXkXkXXXB.p.9.4.K A ^ B 6 8 u 0 p q q ) s.7 9 9 p w 0 7 N s.a 9 0 p w 0 0 Q ^ 6 ! x.| y v c c c X.HXKXKXKXKXKXLXKXF.  A.{ e d A a.s.i.A D S s y = = 6 d S D K S s s m ` { y % & * 3 y 3 1 # $                 s. X6 @ 3 7 0 S y   .                         . [.'.J.B.x.8.8.{ x.x.g @ X O ; O X X @ & X./ z.F.A.e.x.9.d.x.B.C.A.`.B.~ N GXKXLXKXKXKXKXLXKXLXKXLXKXKXLXKXKXKXKXLXKXLXKXLXKXKXLXKXKXKXKXLXKXKXKXLXKXKXLXKXKXKXLXKXLXKXLXKXKXKXKXLXKXKXLXKXKXKXLXKXLXKXLXKXKXKXKXKXLXLXKXLXKXKXKXLXKXLXKXLXKXKXLXKXKXKXJXKX&                 ",
"  P.SXyXyXiX@XOXbXmX%XK.oXbXBXUX+XiXnXnXMXqX/.NXBXbX!.oXbXBXmX&X}.+XNXAX3X/.CXfXuXnX(.T.&X+XoXoX&XbXNXqX/.iXuXuXrX6X;., r f Y j.c.,.=.,.j.E ,.#.W ).tX9XeXeXI.U +.E U b.j.T [ E R ~.tXeXeXeXT.H P h C v.E j U W I.yXyX0XrX,Xc.Y Y | F.G.OXqX%X!.@XZXwXpXsXY.OX%X%XL.L.oX%X%XOXL.E.&X&X^.^.sXaXaXsX/.,.=.] j.Y.$.h h R U.0XwXwXwXmX-   .   ' KXN.^ =.oX XJ.0.G u. X&XVXPXsXx > E.#Xq n b b b D D ) i.a.#X-.1 S n b b b n 6.`  XoXs p F S b b s s a.4XFXGXE.R a.S.DXKXLXJXHXHXHXHXLXKXKXLXLXHXHXHXJXFXcXcXcXcX#XXX|.jXlXkXkX$X#XN.9.9.) ^ N ! A 8 y y 0 p 0 7 ) s.8 8 9 9 p 9 7 b s.p 7 8 3 7 3 7 D _ 6 A x.4.y y c X.w 8 HXKXLXKXKXKXLXKXF.   XOXa.l.8.S A ` { m e y 7 6 s d ` a.a.` L Z D Z u. Xy % & 3 6 6 y 7 S i.                p. X3 + 1 1 1 w *                             . N.B.e.5._ K S | l.oXg % % % ; % % % % e i | [.[.OX`.N.'.L.L.[.[.[..X'.Q c GXKXKXKXKXKXKXKXKXKXKXKXKXKXKXKXKXKXKXKXKXKXKXKXKXKXKXKXKXKXKXKXKXKXKXKXKXKXKXKXKXKXKXKXKXKXKXKXKXKXKXKXKXKXKXKXKXKXKXKXKXKXKXKXKXKXKXKXKXKXKXKXKXKXKXKXKXKXKXKXKXKXKXKXKXKXKXKX-                 ",
"  k.SXeXnXuX+X>.>.j.j.Y.G.j.r.v.T.uXMXiXMX2Xc.c.b.v.m.G.n.c.n.n.Y.L.Y.Y.m./.uXuXuXuX).m.oXoXY.!.!.H.+XU.~.2XuXwXrX6X;.r g g I j.<.,.;.1.v.[ h.:.@._.tX8XeXiXM.W :.#./ m.v.E $.+.o.).wXgXdXeXI.U / k h k.$.H ] E !.yXwX2XuX:XT.&X%X@X!.K.@XNXqX/.@XpXrXpXbX~.%XNXbX XE.$XBXbX&X!.&XvXVX%X_.rXaXaXaX&X@XmXNX@XY.v.M.n.v.~.wXwXwXrXnX-   .   | KXV.( h. X&XE.{ A h.oX&XNXPXIXx > ^.J.1 p p p b n b ) a.p.&X .q F b b b b m a.( |.|.s b F S b b p b P.4XSXSXn.=.u.S.DXKXLXLXHXHXHXHXKXKXKXKXLXHXFXHXJXFXcXzXzXzXkX.X.XjXlXlXlXkX#XB.9.9.~ ^ A ! A e 8 0 0 p 0 1 D Z.c 0 p w p p q c Z.4.) 4.D F V n D 8.6 m 8./ 6 3 8 8 8 8 PXKXKXKXKXKXLXKXF.  J.OXP.C.p.p.$X|. XQ e y * $ $ s s.S.s.` A a.$X|.8.K s O y ^ a * 9 # ) `.            .   l.$X` * # 4.].Z.*                             . N.N.B.p._ 8.{ | F.J.g = e e X.i f i e f i ^ K.[.}.V.z.e.B.`.K.[.}.|.`.^ D s e e e e e e e e e e e r e e e e e e e e e e e r e e e e e e e g e e r e e e e g e e e e e e g e e e r e e e e g e e e e e e g e e e e e e r e e e e e e e e e r e e e e e e g o                 ",
"  k.SXeXuXfX(.@.T T +.m.v.o.E ] I.uXCXnXCX3X@.U k T V.v.H h l #.L.] C Y W /.aXpXuXwX).O.H T #.U.k.k U W T.aXpXpXfXwX;.< r t I } [ =.=.n.F.} | } >./.iXeXrXwXT.[ } } O.G.V.$.$.:.$.+XeXgXgXnXR.$.e.O.] v.,.E o.W I.yXwXwXyX;X<.,.:.:.H.n.k.n.,.,.>XpXrXrXyXT.k.I.k.n.H.z.C.n.n.H.M.z.H.n.Q.eXdXuXaX/.T.OX~.T.T.m.Q.OXT.^.>XwX7XtXMX&   .   | KXL.} l.oX%XA.L d { E.4XNXPXsXx x 5XN.* p b S D ) ) i.` s.$XQ q F S b F D S a.Q OX|.q b Q F b b p s a.4XGXSXH.=.=.S.DXLXLXJXJXJXHXJXKXKXKXKXJXHXHXHXHXFXcXlXcXcXjXXX.XzXkXlXzXvX#Xs.9.9.3.K S ! Q y 8 8 u u p 7 S Z.a 8 0 u u 0 7 0 Z.D N D ~ 4.6.7.9.d.3 s ! ( i 3 8 i 8 8 GXKXKXKXKXKXKXKXV.  J.|.l.a.{ |.cX].i.7 = 6 & @ o y D.S.P.) S A cX4Xd & f 3 6 7 2 7 9 + D `.  .             S.cX` & @ d.vXvXS                             . J.l.l.B.0.( { { C.P.Z g ..I Z  .( ..s s g ( L.K.OXL.h.C.[.C.[.[.}.|.'.D D o                                                                                                                                                                                                 ",
"  c.ZXtXfXfX=X;.o.o.@.U.b.$.$.O.I.eXnXCXAX3X<.o.O.E v.P.E P H #.}.O.Y O.U Q.uXuXuXuX).%.O.Y $.T.<.z W W R.yXpXfXpXwX;., r f I k.P.k.,.P.n.( I Y E ).eX7X7X6X!.k.n.G.V.G.v.O.[ +.@.).1X8X1X1XR.$.} r.j.G.:.T T z M.yXuXwXrX6X@.h t t k.k.J W t W >XpXrXaXuXM.j z h >.m.T h t W M.;.H { W R.tXdXdXyX/.$.O.O.%.T.j.+.[ :.U.2XwX1XiXyX-   .   | KX#XC.OXbXcXh.L L a.E.5XIXPX5Xt -.^.A._ s.N.s.s.s.d.N.Q u.#XQ q D b b S D A a.Q OX|.p b S b b b s s a.4XSXIXM.=.a.`.DXKXLXJXGXHXHXJXLXKXKXLXJXGXHXFXHXFXcXlXzXcX$X|..X#XzXlXzXcX#XZ.x.9.~ ^ m ! D y 7 u u u w 7 S s.b 8 9 0 9 q 1 3 d.D 7 q 7 7 8 3 v l.y a _ 8.M 3 i c u 3 HXKXKXKXKXKXLXKXF.  [.oXl.{ L A.` 7 q = % d 0.d X e D.J.s. .d a.cXa.b Q d * * & * 2 q 1 i.S.                S.$X` q 1 s.vXvXd                           . . B.[.p.x.l.x.0.h.E.K.' e g d s a ..e e d s  .K.}.}.V.V.V.F.A.}.[.[.[.N.^ 3.o     .         .     .     .           . .             . .           .   .         .           .     .   .         .           .   .           .       . .             . .                       ",
"  k.SXrXCXCX@X>.} [ r.Y.G.e.r.e.T.iXuXMXAX2Xc.:.+.] F.H.} } [ k.}.j./ [ o./.yXrXwXiX).$.O.O.j.T.n.W E +.U.rXuXtXtXwX%.r e t Y F.&X@XH.n.L.F.L.F.c.~.wX7XwX6XQ.U.&X&XOXG.G.V.H.G.m.).1X8X8X1XR.m.Y.Y.m.m.>.E E o.Q.uXyXwXrX7X1.U G h v.v. .[ J ;.<XmXtXpXuXI.h T l ;.m.E h l W I.@.Y h.E I.7XdXdXuX(.>.@.O.r.T.v.O.+.:.!.0XiX7XwXyX%       | KXK.C.&XbXcXK.{ Q p.H.&XBXPXhX> x E.s.S D S F F F m a.s.l.oXp * d n b S S D a.A #X|.q p -.S b s s s P.4XGXSXP.=.a.E.FXKXLXJXJXHXHXJXKXKXKXKXJXGXGXDXHXFXvXkXcXzXjX.X.X$XzXlXkXkX.XD.9.8.3.^ m Q L y 9 p c p p 9 S a.6._ 5.5.6.i.5.5.s.D q 9 0 8 0 4 i 9.a s 4.0.^ y i v n 3 PXKXKXKXKXKXLXKXF.  [.$Xx.( 6 & 3 S s.e ; 0.|.S @ y l.J.s.Q Z ` b 7 e d 2 % $ * > @ 7 q D (                 d d.i.D n s.kXkXm                             . C.B.F.p.x.0.u.{ z.oXh.g f ..e d A s s Z g L K.}.OXK.K.[.L.].[.[.[.}.l.^ V o                                                                                                                                                                                                 ",
"  P.AXmXAXNX@X#.' / x.[.V.| / / U.wXMXaXMX2X<.:.=.:.H.H.P.H.L.G.}.e.} +.$.^.pXpXuXnX+X%.T E j.Y.v.U E o.Q.rXuXrXtX7X@.r r g / K.@X@X!.v.oX2XbXqX+X).7X7X1X6X/.^.2XUX@XU.Y.@XbX2X+X/.1X1X1X1XW.~.@X2X+XU.c.M.U.M.).MXtXiXdX,X1./ ' Y F.n.,.k.W ;.>XMXuXnXnXI.o.%.R c.U.#.R ] +.U.k.R } E I.7X7XeXrX@Xj.O.O.r.U.j.#.+.@.!.0XtXyXtXyX-   .   ' KXl.u.OX%X$X[.( L z.E.4XIXSX2.> -.^.5.7 a n b b S S p.l.C.#X-.~ a.i.a.a.a.a.f...&X Xs b S S S b p s P.4XSXSXP.=.a.S.DXKXLXJXHXJXHXJXKXKXLXKXLXHXHXHXJXFXcXzXvXcX$X.X.X.XkXlXkXlX#Xg.9.8.) ^ m Q L y 6 u u y 0 7 b s.^ v N D D D S D d.) 9 0 u 0 0 8 u 5.m y | e.^ y 6 c v 3 HXKXKXKXKXKXLXKXF.  oX$Xl.Q $ & A.$X8.& * s 6 @ o e p.S.D.-.Z 9 & 2 d d 2 o 7 E.s.$ 7 1 b 5.                & S D b 7 n ~ s.A                             o [.l.J.N.l.x.} x.K.|.u.f f L ..Z Q d d Z s P K.}.&XY.n.[.[. X'.[.`.[.x.^ w .                                                                                                                                                                                                 ",
"  k.SXmXnXmX&Xe.' { x.[.z.4./ 4.G.rXyXyXmX6Xc.:.[ ,.F.L.F.P.n.m.}.e.| ] #.+XpXCXCXnX*X$.] } v.!.k.J [ W R.0XnXuXCX0X;.r r g C $.k.,.,.1.M.$.j.k.@.T.8X9X1XwXT.,.c.c.j.v.n.j.P.k.<.).8X1X1X1X2.&.k h U b.@.k z z M.yXuXwXrX:X<./ Y / F.G.e.$.Y @.>XnXuXuXmXY.] O.[ V.[.#.( ( 0.Y.Y.OX&XoXQ.7XaXeXrX@X:.R Y $.T.v.H.m.n.^.rXuXuXrXiX%   .   | KXF.0.oX%XoXl.L { C.E.sXIXqX-.> =.5X-.7 b b b b D S s.p.C.|.-.L ) D D Q Q D s. .$XS.* y N p i i q 9 D.4XSXIXP.=.a.E.FXLXLXJXJXHXHXJXLXKXKXLXJXHXJXHXJXFXvXvXlXlXzX.X|.jXkXzXkXcXXX'.N.9.4.^ M A Q m p p p p u 8 a 5.D 3 8 u 9 8 7 7 5.7.9 0 9 9 0 8 8 _ K y ` x.| 3 2 u u 3 PXKXKXKXKXKXLXKXF.  Q L ( L a 9  X#Xs * y y * & @ i u.a.Q d y v _ K 7 7 y X ! #XP.q 7 $ Q A.                y l.N 3 8 8 u b 8   .                         . [.C.N.J.N.C.u.{ |.OXC.=.g L ..L  ...d A s  .K.}.oXG.Y.L.|.A.[.[.F.[.9.^ w .                                                                                                                                                                                                 ",
"  k.AXyXmXmX@Xv.j.j.V.Y.L.x.V.r.T.yXyXnXMX0XM.b.v.n.G.K.oX&X!.K.}.V.r.V.r./.MXMXCXnX+XY.%X%X&XoXF.z.F.M.~.2XiXuXdXwX;.r r r U j.M.n.;.,.b.T j.+.o.W.1X1X9X7XR.z E E T b.k.J [ R W T.1X9X1X9XR.z k h h >.O.z o.o.M.wXtXiXuX:XI.k.v.v.K.F.v.K.n.v.@XnXyXnXNXH./ ' | z.K.x.k.x.j.L.}.&X4X&XT.rXfXpXnX@X:.Y Y #.Y.Y.OX%XOX/.qXpXtXtXiX-   .   ' KXC.0.K.#XK.x.( u.P.E.bXIXSX1.$ =._.x 7 b b n b D D s.u.E.|.9 7 d p a b S S D.a.&X].S Q 4.` 0.-.=.{ S.4XGXIXP.=.a.S.FXKXLXJXHXHXHXJXKXKXKXKXLXFXHXFXJXFXvXzXvXlXjX.X|..XkXkXkXkX#X'.p.9.8.^ S K Q _ { i.9.i.i.i.i.i.D 9 p p u u 0 8 5.i.9 9 0 9 0 7 7 ) ~ 3 Q p.8.y 2 8 u 8 HXKXKXKXKXKXKXKXn.  Z ..Z L ..s a q 6 y a y i y 7 e m d d p d _ C.u.=.J.0.3 6 d 9 * q 1 -.S.  .         .   B Z.N u v ~ 5.3.p                             . [.L.N.A.F.C.x.{ P.oXJ. ... .s  .-.b m L s P }.oXOX[.L.].[.].|.[.B.L.e.D n .                                                                                                                                                                                                 ",
"  k.SXiXuXiX(.@.O.$.r.G.G.r.r.$.I.wXuXiXnX>Xb.@.@.#.G.Y.j.v.j.v.OXr.e.O.$./.nXCXnXnX(.G.OXOXK.K.F.,.k.<.U.2XtXwXwX6X;.r r r J j.M.<.=.1.M.O.j.#.%.).1XgX8XwXT.U E ] E v.c.Y ,.[ E Q.rXeX8XeXR.U Y P G z.#.U :.@.m.iXnXnXCX,XR.@XsX%X}.L.%XBXBX&X2XsXyXmXmX~.!.@X&XK.K.OXbXbXoX!.!.%XbX%X~.uXfXuXyX@Xv.h.#.e.G.Y.%XqX&XOXyXuXtXiXmX%   .   ' KXJ.0.l.l.C.A.} { C.&XbXSXPXP.> ,.#XS q b p b F D Q D.a. X Xs p b b b S S L a.-.oX Xa.s.s.p.i._ -. .P.4XGXIXP.=.a.J.FXKXLXHXHXHXHXJXLXKXLXKXJXHXHXHXJXFXcXlXzXlXkX.XXX#XlXzXjXcX$X'.d.p.8.^ A A ! b y b N N b b D s.) 6 0 0 u c 0 8 ) s.9 9 0 9 9 8 3 ~ 5.2 ! x.{ s 3 6 8 1 GXKXKXKXKXKXLXKXC.  ].$XC.a.Z A ` K e 2 y Z [.0.@ = a.l.a.{ ^ p S K Z A M 5 * q 6 2 7 + D ].                6 L n 3 8 N ) 6.N                             . J.J.B.Z.[.l.} z.n.oXE. .d L ..L ` d m L s  .[.oX%X}.V.K.[.#X.XL.L.B.9.^ w.o                                                                                                                                                                                                 ",
"  k.ZXtXfXCX/.%.E T O.G.b.Y Y E b.0XrXwXrX>X;.T H T v.m.U h l +.}.O.C T T ).uXdXdXdX(.o.T Y #.U.k.l k U I.tXuXuXuXwX<.t e f I O.:.,.=.k.G.} j.e.$./.eXeXeXrXQ.+.[ [ } V.m.[ [ [ +.^.uXtXtXuX/.o.' | [ z.j.h.:.+.U.yXMXMXuX0XM.:.,.#.F.G.k.G.M.b.@XyXaXuXyX!.<.m.v.n.K.z.F.M.n.G.G.H.oXL.T.uXtXuXuX@Xj.#.} r.Y.U.T.OX!.^.iXnXuXCXnX-   .   | KXz.I 0.{ C.L.` { OX%XmXSXGX1.> E.&XN 9 b b b S D Q D.u.|. X9 9 b b b S S D s.=.#Xs.7 p b b b y q s P.4XSXIX=.=.a. XFXKXLXJXHXHXHXHXLXKXKXKXJXHXHXFXHXFXbXkXlXlXkX|.XX.XzXzXkXcXjX'.9.9.4.^ A A Q d 6 9 w y 0 9 9 s.6.9 p p u 0 8 7 ~ N.p 8 0 u 9 9 3 A 0.2 B 0.0.B 2 4 X.1 GXKXKXKXKXKXKXKXF.   XOX=. .6 s 6 * @ 7 _ L u.Z % s l.D.a.Q S e & O O * 3 % 2 S S = & . m `.  .             * b c u 3 i b V 2                             . N.[.L.J.L.L.u.{ E. XoX{ .. ...S  .p S L s ( }.OX&XK.K.[.|.#X|.'.[.B.4.A 3.o                                                                                                                                                                                                 ",
"  k.NXaXpXMX+X+.E ] $.m.b.E O.E I.wXtXiXaX>X;.E ] / c.H.U k k W T.$.I T T Q.tXdXdXdX).%.Y T $.Y.>.h U W I.wXfXfXCXyX<.r e r C P  .[ E k.H.[ ] [ +.Q.1XeXeXwXQ.+.[ O.$.V.n.J J J o.^.rX7XtXeXQ.R H P } n.k.:.#.+.U.yXAXuXnXwX<.h j f v.V.U C h T 3XuXuXrXnXm.l k l >.H.Y h f R U.<.l / E M.rXgXuXuX@Xc.] ] $.U.j./ O.$.Y.qXuXuXuXnX-       | KXp.^ z.x.C.h.( C.|.OXbXSXSX1.> E.&Xd 9 b b N F S Q D.a.#XE.q 9 b b b S S ) a.=.#XD.7 b S S S b p ..C.4XSXBX,.=.P.E.FXKXLXJXHXJXJXLXKXLXKXKXLXGXHXHXHXFXvXkXlXlXkXXX|..XcXzXzXcX$X'.i.9.4.~ A A A s q s y p w 9 q a.d.9 p p u p 0 1 D N.b 8 u 0 3 u 3 F 0.3 i | p.Z 2 1 6 3 PXKXKXKXKXKXLXKXF.  #X$Xu.p.A. .- = y * 6 e & * & s 0.p.a.` S 6 * * 2 6 a X i u.L y 7 @ ` [.  .             3 3._ ^ B 6.d.D q                             . N.J.`.C.B.A.l.( z.oX|.' ..L s S ` s d A s  .oXOX&XoX[.J.|.|..X}.B.^ Z S D X                                                                                                                                                                                                 ",
"  k.AXyXpXmX+X#.O.O.$.Y.V.e.#.} I.iXCXpXMX6X2.,.b.e.v.F.[ Y U >.}.j./ O.O.).uXpXfXdX/.@.] ] r.Y.v.] E E U.rXuXuXrX0X<.r X.g C ' [ :.,.k.H./ / ] +.).8X1X1X1XQ.E / ] #.m.H.k.n.n.n.^.7X7XeXwXQ.k.h.:.h.F.k.k.m.m.~.iXnXyXnXwX<.h k h k.V./ T C o.@XyXrXtXyXI.z W l >.G.R l l Y T.>.G ' T I.dXdXdXuX+X<.+.O.O.U.r.O.$.$.T.iXfXiX1XiX%   .   ' KXz.x.C.z.[.l.0.B.K.&XNXSXSX=., ^.5Xa y m n n D S Q s.=. XE.9 s S b S F Z  .a.` $XD.7 a b d p a s b k.5XSXBX=.-.a.S.DXKXLXJXJXHXJXJXKXKXKXKXLXGXHXFXHXHXbX$XlXlXkX.X.X.XzXzXzXzXkX`.9.p.8.^ Z S A s 7 p w 9 9 9 q i.a.p 9 p p 0 u q S N.b 6 0 0 0 0 3 N 9.i v 8.e.N 3 2 3 1 GXKXKXKXKXKXKXKXF.  E.s.d ..=...C.VXN.* 3 d s 3 * y ( 0.` Z y 2 2 9 i d d 6 6 y 6 9 p 0 A.|.                1 C ^ ^ ^ 9.Z.f.S                             . A.].J.F.B.x.l.x.C.OXOX{ f  ... .` d Z Q s  .[.OX%XoXY.K.[.[..X|.0.B s b F o                                                                                                                                                                                                 ",
"  k.SXyXMXMX+X+.T Y e.L.v./ H J U.dXCXuXMX0Xb.v.Y.}.K.F.=.J W ,.Y.e./ ] O.~.mXuXuXuX(.%.O.#.j.}.v.[ #.[ U.qXMXuXtX,X;.r X.r ! L.%XqX/.m.v.O.] } $.Q.9X1XeXwXT.E [ [ #.v.!.4XBXNX@X/.6X6X6X6X@X%XBXIXmXY.G.qXNXMXqXiXyXyXtXwXb.T T U v.G.O.#./ @.;XnXrXtXnXT.T E U c.m.k.+.:.>.m.c.P } o.I.tXdXdXaX<Xn.k.v.b.G.b.$.$.O.T.2XnXuXeXuX-       | KXz.0.l.z.J.l._ z.&X4XNXPXIX=.> _.E.s s b b V F Z ` D.a.#XS.q s m b b F S -.s.u.#Xs.7 a b a d b s b a.&XFXNX=.-.a. XFXKXLXJXJXJXJXJXLXKXKXKXLXJXJXHXHXHXvXkXzXlXkX.XXX.XcXcXkXkXkX{.i.i.8.^ B Z ! m q s p w p 9 7 i.i.p w p p c p q S s.N 3 0 3 0 u 4 n 8.a d p.x.A X.3 3 * HXKXKXKXKXKXLXKXF.  D.=.e e e s =.` 7 @ * s s i = = e b m Z Z e * * * 7 3 & 1 3 3 9 a d 4.A   .             3 3 3 i v V D D a                             . F.[.A.F.C.z.u.].OXOXOX{ ..Q ..-.=.b D Q a ( |.oX%X!.L.K.J.#X#X[.0.C w q w o                                                                                                                                                                                                 ",
"  k.SXuXMXNX@Xr.] ] x.Y.V.x.0.:.T.2XnXyXuX6Xb.j.V.V.H.n.=.R ' P.Y.e.I I E ~.yXyXuXiX/.$./ / z.OXz.Y R R U.yXMXMXyX>X+.r , r C r.c.c.,.k.M./ ] ] o.Q.eX9X7X1XT.E E ] Y b.M.,.P.P.1.^.6X7X9X7X^.<.L.L.V.n.v.n.Y.U./.yXuXiXtXeX<.Y P Y F.L.| #./ >.@XnXyXrXyXT.T z U v.H.%XNXBX@X!.M.h ' U I.eXdXdXtX@X+XbXbX@X}.b.T T ] T.iXdXeXuXmX-   .   ' KXC.F.$XA.e.0.( x. X4XbXPXNXx t 5XE.9 p b N N N N Q D.a.#XD.q b b b b S b ` s.a.$Xa.7 a F S b a p a  .E.SXNX,.=.a.S.FXLXLXHXHXJXJXJXKXKXLXKXJXFXFXFXHXFXvXkXvXlXzX.XXX.XzXzXkXkX$X].d.p.9.) M S ( S 9 9 b b p 9 q 7.i.b 0 c 0 0 0 7 b d.A 3 u c 0 0 7 n 5.a y u.x.L a y 3 5 PXLXKXKXKXKXLXKXF.  |.$Xa. ...s 2 * * = i B g s d L ! { u.u.L + X = e 6 b | Q y * s m A 0 2                 8 i 8 i a 3.i.3.0                             . B.`.A.A.`.F.k.A.oX&XOX( .. ... .-...Z ( s ` oXoX&XoX[.].L.[.[.[.4.A w w f.o                                                                                                                                                                                                 ",
"  k.SXMXiXiX>X+XmXmX%X!.OXbXBXbX+X1XAXnXMX0X^.@XbX%XoXK.&XbX4XOX[.e./ / O.~.yXuXuXyX(.$./ O.j.}.v.' [ [ U.yXMXpXtX,X%.r : r h h.k.,.o.j.M.E } [ W ).rX8X8XwXQ.W E E J c.k.k [ W W Q.rXeXtXrXR.h f g t k.#.h k W <.yXuXrXwX1XM.U I Y V.L.} ' R ;.@XaXaXaXmXT.T h h j.Y.[.2XUX}.Y.v.' h.[ I.eXdXuXaX@XOX4XqX&X!.v.] R [ T.yXMXrXtXnX-       } KXJ.A.oXoX|.l.| p.|.4XZXPXpX..t OXE.q p b b b b b Q s.a.|.s.q F b b b S b ) a.a.$Xa.* b F D b b q S s.4XSXIX=.=.P.E.FXKXLXHXHXJXJXJXLXKXKXKXLXFXGXHXHXHXbXkXlXlXkX.X|..XzXlXlXkXkX{.d.i.5.) N ^ 5.N y p v p c 9 q ) d.v q w 0 w w q b a.D 7 7 0 0 0 3 u 8.v 6 p.x.! B a 6 4 GXKXKXKXKXKXKXKXF.  #XlXC.L e e > 7 $ % e m s = = Z l.K.D.=.A 6 7 e * * J.FX$Xd @ 6 a b S p                 e 3 9 p p ) d.D q                               N.[.F.`.B.C.C.l.[.@XOX' f L b L ` b S  .d ( |.oX&X}.[.C.F.[.E.[.( S F F f.+                                                                                                                                                                                                 ",
"  P.AXyXmXmX+Xm.}.Y.K.L.G.K.oXK.T.2XnXiXaX6X!.+X%XOXK.K.oX@X^.!.}.r./ / O.+XyXtXuXyX(.>.j.j.v.}.n.k.n.<.~.yXCXCXfX1X;.j X.g C $.>.,.E >.c.] $.:.W Q.8X9X9X6XQ.U ] #.U k.c.U +.W x Q.rX8X9X8XQ.l h f f <.+.h U o.<.0XrXiXwX1XI.Y Y / L.G.[ } E ;.@XaXtXtXnXT.E E / v.L.+XBXbX&XY.Y.bXbX2XQ.iXuXpXyX@XOXbXbX&XK.!.%XbX%X^.qXyXtXiXuX%   .   | KXL.} J.&X%XC.{ K.&X4XZXPXaX, ..&XS.7 b b b b S S ) C.a.&Xa.7 b b b b b b Q a.a.$Xa.7 p S S F b q S ^.4XGXNX=.-.a. XFXKXLXJXJXJXJXJXKXKXKXLXLX4XS.4XHXHXVXlXlXlXkXjXXX.XzXkXkXkXkX.Xs.d.8.~ A A ( M i u v v n 9 q Q s.b 8 0 0 0 0 q w a.D 2 8 0 0 0 q 3 5.b 3 p.l._ C B B u PXKXKXKXKXKXLXKXF.  #X%Xl.L = $ e d e 2 s d e > $ 7 =.S.p.` L d d { 0.7 S .X Xa 2 ~ ~ S S 9                 = O & 7 2 3 3 1 &                             . l.`.A.`.B.V.C.L.[.&XoX[ ..A ..S  .p b Q s ` oXoXOX}.].C.J.K. X].` F F w.g.o                                                                                                                                                                                                 ",
"  k.SXrXCXnX+X+.U H #.G.k.J H J M.,X1XwXrX=X1.z T T V.n.J l x +.G.O.I H T ).iXiXeXeX/.o.H E O.U.k.H E E M.yXCXuXtX<X<.r : t h $.:.;.+.<.m.O.j.:.o.).9X9X9XwXR.W E E U c.b.U :.E W I.rX8X9XeXR.z h G k k.:.k W +.M.,XwXiXgXwXb.T I T V.}.] O.T @.;XtXeXdXmX~.j.v.x.L.K.[.OX#XG.}.Y.OX%XOXU.yXpXaXaX4XE.&X&X XK.!.+X4X&XOXqXuXtXiXqX-       | KXL.x. XoX|.u.{  XOX4XNXPXtX> -.&Xl.q v b a b S m ` D.a.&Xa.7 a b b a b a Q a.a.#X=.7 b b b b b q ..E.cXGXIX=.=.s. XFXKXLXHXHXHXHXJXLXKXKXLXLX#Xq f.DXHXVXzXlXlXzX#X.X.XkXkXkXkX#X[.s.d.9._ K N m i 8 u c c p p q D s.V 3 0 0 0 w 0 9 s.D * 3 q 8 9 0 4 8.A 3 { N._ B v B B JXKXKXKXKXKXLXKXF.  &XlXP.=.7 >  .i. .( ( Z A { '  .l.J.l.` A Z a.#X#Xy O 6 m 2 6 D ^ D b 9                 e O @ & & @ + 1 7                             . l.`.`.J.B.F.C.E.E.OXE.' ..Q ..L ` d S Q p ' oX|.&XoXJ.S. X X X X3.N V w.g.+                                                                                                                                                                                                 ",
"  k.ZXwXMXMX/.O.U U E m.k.R T T b.3XwXeXaX<X;.T H k v.m.x h l +.G.%.C H &.~.iXeXeXeX).T h H / H.>.h H z M.uXfXeX7X3X@.r : f C ' +.;.o.j.v.O.+.E o.W.9X9X9X6X_.M.~.~.H.U.b.o.W E [ W.7X9X1X8XQ.E Y U R v.>.[ +.o.I.yXnXtXdX1XI.k f j r.m.I H k W (.iX1XwXiXU.x h h j.Y./ h h H Y.j.h  .T <.7XgXtX9X@X;.W E E I.c.E E o.I.iXuXwXwXmX-   .   | KXK.C.oXoX Xu.{ J.&X4XIXPXhX- x 5Xa.6 b b b S F S i.l.a.|.i.7 b b a p p 9 A a.a..X5.q F b n b b p S |.sXGXIXP.=.a. XFXKXLXHXHXHXJXJXKXKXKXKXLXFXcXcXDXHXDXlXlXlXzX#XXX.X#XkXkXkXzX.Xs.d.8.~ N L ^ d 6 y p p w w 0 S s.F 4 0 0 0 0 q 9 i._ 9 8 7 3 1 1 5 Q Q 6 _ p.| B B v c PXKXKXKXKXKXKXKXF.  $X%XF.|.P.` u.` d =.S.F.].a.= 7 P. XL.{ s i.|.Z.Q p.Q Z * @ & * a D q 7             .   L N 7 2 9 s 9 S 9   .                         . 9.`.J.B.B.L.H.|.&XOXoXR G  .b  .` S  . .s -.#XoX&X[.K.K. X X].A.7.F V w.xX+                                                                                                                                                                                                 ",
"  k.ZX0XtXMX/.o.z H o.b.b.T T O.I.:XeXwXeX:X;.z H U b.n.U l l W U.] H T T Q.rXwXeXeX).o.k U E U.j.k U z I.wXeX8X8X,X1.r : g C / [ [ W ,.n.E ' ! E Q.rXrXrXrX^.OXbXNXUX}.V.] I I [ !.wXiXdXwX/.] ! Y  .C.v.| } E M.0XaXrXaX7Xb.z t g r.n.k J l U +XwXwXiXyXI.x h j >.H.T h h h T.r.t I l 2.eX9X8X8X=X;.z W W m.c.T ] O.T.wXtXiXwXaX-   .   ' KXJ.z.oX XE.h.0.K.OXqXIXPX4X> -.2.=.8 v p p p b b ` D.a.#X{ 7 b p p a p w L =.i..X` 7 b p b n b q S oXcXPXBX=.=.s.E.HXLXLXJXHXJXHXJXKXKXKXKXJXGXHXHXHXHXvXzXlXzXlXkX.X.XjXzXkXkX$X[.d.d.6.Q S ^ 8.^ y q 9 w w 9 9 b s.F 7 0 0 0 0 0 q 4.i.Q 5.9.6.3.F w ) Q 6 ! x.8.( 5._ ^ PXKXKXKXKXKXLXKXF.  &XlXS. XS.].$X#XQ A l.u.J.( K l.E. XC._ 7 -.cXcXD.( S.VX.XN @ 4 u S * $                 u.S.A d Q s.D.` y                             . 9.A.B.C.l.B.L.[.&X&X&X .f  ...Q ` S D ` s ( OXOX&XL. X]. X X X'.4.F F w.g.X                                                                                                                                                                                                 ",
"  k.ZXrXuXCX/.@.o.Y O.Y.V.O.O.O.m.1XnX1XuX,X<.] / Y V.G.[ W W ;.Y.r./ / +.~.wXrXwXiX/.o.Y ] O.Y.b.z W T <.1X8X8X8X7X1.r : g C ] h.:.=.k.H.E.&X&X!.Q.rXeXwXrX^.OX2XlX&XK.G.F.}.oXG.~.wXwX8XtX).>.j.k.k.v.v.F.Y.~._.0X6XhX6X,X<.k j j j.m.J J k W /.iXwXeXyXU.z k h #.m.Y h h T T.b.j J z 2.tXgXtXpX<X,.z E R m.n.Y / &.m.iXyXrXrXaX%   .   | KXF.K.&X[.K.l.l.K.|.qXSXPX_.> =.5Xx 4 7 p b S ) ` s.u.a.|.` 2 p p p b a s ` i.a.OX` 7 b n b p p q ..|.qXPXIX=.=.s. XFXKXLXJXHXJXJXLXLXKXKXKXLXFXFXFXFXHXVXkXlXlXzXjXXX.XkXkXkXkXkX}.d.9.8.~ S ^ 8.) y q p 9 9 p 9 b s.N 1 q 4 q 4 q 1 4.5.p p S ~ 7.4.6.s.Q y Q s.8.9.9.9.4.LXKXKXKXKXKXLXKXF.  #X#X=.C.&X%X%XS.a.4XcXp.L u.L d C.|.A.Q 7 Q cX$Xb * ! Z.l.b * & u A 7 *                 a.A.A Z _ C. Xs.a                             . 0.N.l.N.p.z.K.J.&X%XoXR ..( S  .-.Z A ( a ( #XoX&XL. XK.[. X|.`.6.S w f.xXO                                                                                                                                                                                                 ",
"  z.SXwXuXnX+X@.E Y r.G.V.E | O.G.2XnXdXnX3Xj.O.O.} F.K.oX@X@X^.Y.| C I o.~.iXrXtXiX(.E I / } Y.z.P U U U.iXCXrXeX6X1.r : f G F.&X&X^.P.G.+XqX4XOXQ.rXeXrXrX/.^.bXbX%XY.Y.&XbXmX@X/.wXtXeXeX;X+XbXmX>XT.F.@XbXqXqX0XrX6X7XwXb.T J P v.n.] E W o.(.rX7XeXuXT.R U H j.K.[ T I ] Y.j.l { Y M.aXtXdXpX>X<.R +.] U.G./ $.O.I.2XyXrXrXyX-   .   | KX&XcXbX%X%XOXOX|.oX4XSXSXQ.- 2.$X8.D i.s.Z.s.s.a.S.{ -.|. .7 9 s p p p q L u.x.|.` 7 b w w p p q -.E.sXPXBX,.=.s.E.FXKXLXHXHXHXJXJXKXKXKXLXLXHXFXFXFXFXVXlXlXlXkXjX.X.X#XzXkXkXzX.XN.d.9.) D L 9.! s 9 9 w 9 w 9 b s.) n p w 0 q 3 * D 6.8 1 7 7 4 q 7 D ` y ^ l.0.9.9.9.8.LXKXKXKXKXKXLXKXF.  Z Q Q |.$X XN.( D cXFX$X|.u.@ = l.C.L s = Q $XA.9 q 4 # * 3 # & y b * 3                 s.S.) D =.A..XS.S                               8.l.B.0.0.B. XF.E.%XOX=.d L ..( -.b A Q s { OX}.oX[.[.J.J.C.A.s.f.F w.f.xXO                                                                                                                                                                                                 ",
"  z.NXrXMXnX+X$.} #.j.L.U.L.L.G.R.3XnXdXuX,X<.E ] } P.H.&XqX4XOXK.#.h h T ~.yXuXrXuX/.O./ 5.e.[.z.P P E M.qXAXMXpX9X1.t : e h $.c.<.,.,.v.#.:.:.+.R.wX9X7XrX/.;.k.j.:.M.m.e.c.k.;.Q.tX8X8XeX).$.v.c.j.b.k.e.b.M.I.0XaXrXpXiXI.Y P J n.G.@.@.+.;.(.eX8X8XyX~.o.E U j.Y.| P I ' Y.v.P ' Y M.tXtXrXaX@Xk. .Y R H.v.I T T I.2XtXwXrXrX-   .   | KXVXVXBXVXbX$X&XOX&XsXSXSX2.- P.%XD.f.i.) D S a p a.D.a.|.A * 9 9 9 s b s ` -.a.|.Q 7 w p b b b q F &XVXPXBXP.-.a. XHXLXLXHXHXHXJXJXLXKXKXKXLXJXJXJXHXHXVXlXlXlXkX.X.X.XzXzXkXkXzX.Xs.d.i.4.D D 5.4.a y p n a w 0 9 d.i.4.6.4.6.6.6.4.i.i.p 7 8 8 q q 4 v 5.i N p.0.0.0.0.4.JXKXKXKXKXKXKXKXV.  A ` p. XC.m a D.#X$X|.{ { d * Z x.u.Q m 7 a s.5.7 @ & N.bX9.& * 3 8 O &             .   p.J.` ( -.C.#X`.Z                             . 8.p.N._ _ z.K.C.E.%XOXR f L s L  .p ..Q s ( #XoXOXK.].].J.l.i.7.w.F F f.g.X                                                                                                                                                                                                 ",
"  k.AXaXMXNX@X^.qXbX@XE.E.qXBXqX+X1XrXrXyX6X<.E O.e.V.H.&XsXqX+XG.L.G.G.G.+XiXwXwXwX+XY.lXlX&X[.K.&X%X+X!.qXMXnXpX6X1.t , t h #.>.,.E >.b.T +.R W W.6X1X9X,XQ.W R ] U c.m.R :.[ U I.6X9X-X1XR.z T U z 1.$.z U W <.6XrXwXCX1XI.#.#.#.V.U.O.o.&.$.(.1X8X8XiXT.E U H k.L.#.e.} e.Y.F.x.C.k.M.yX8XrXpX@Xn.} | #.G.v.C H C m.1XnX1X1XsX-       } KXbXVXNXBXbX$X%X#X&X4XSXSX1.> =.5X-.q 0 9 w p 9 s a.A.l. X0.Q 8.9.d.f.i.` a.A ` |.Q > b w p b 9 q S |.sXPXIX,.=.s. XFXKXJXHXHXHXJXLXLXKXKXKXLXJXHXHXHXHXVXlXvXlXzXzX.X.XjXlXzXkXzX}.B.N.0.) D D 5.4.8 1 8 8 3 0 3 0 d.~ 0 u n c V D D d.p.u 3 8 q 8 0 4 n 8.y M N.8.8.5.8.4.PXKXKXKXKXKXLXKXF.  K a.l.l.i.C.$XVX$X0.Z & 7 s y G l.J.A.^ s 3 B N i 2 ^ UX[.e & 3 i B # O                 a.`.` ` a.S.#XD.d   .                         . .Xe.0.` _ x.L.C.L.%XOXR f L ..L  .b S Q s ( oXOX|.[.`.`.B.B.0.^ B c w w.xXO                                                                                                                                                                                                 ",
"  z.SXtXpXaX@XM.H.H.F.E.n.G.K.m.T.1XrXrXaX6X<.@.r.#.v.H.U.OX^.!.Y.K.}.+XT.~.wXtXwXiX*XU.+X@X}.K.K.oX%X/.~.iXAXnXpX6X1., > t G #.k.>.E >.b.T +.[ E W.7X9X9X7X^.o.E [ E k.b.R :.:.[ I.rX8X9X8XW.T R ] k ;.$.T T E <.,XuXuXCX2X~.+X%X%XOXG.h r r T ).wXeX8XuX~.] U U z.G.oXbXbX&XY.K.2XbXqXU.wXaXtXrX>X!.2XbX@XY.v.T Y T b.2XCXuXiXyX-   .   | KXVXVXBXVXcX$X%X&X%XbXPXSX1.> 2.&X..q a a b b a b s.p.i.|.N._ _ 3.L S a s a.{ a. Xd $ 9 9 q s b 9 Q &XVXPXNX=.=.a. XGXKXLXJXHXHXHXJXLXKXKXKXLXJXHXHXHXJXVXlXlXlXzX#X.X.XjXzXkXkXzX}.N.9.9.3.^ ^ 5.9.D N F N n 0 4 3 i._ q 7 q 7 q 3 4 N s.c 3 0 8 8 0 q 0 d.p v p.u.0.8.9.4.JXKXKXKXKXKXKXKXP.  ( =.u. X|.%XVX$X0.6 d d L m 7 Z u.u.{ ^ i i 0.|.8.O i 0.3 y 0.5.3 u 6 %             .   a.Z.D A ` D.|.s.y                             . #X9._ 0.{ C.C.x.E.&X&XR d  .S ` -.S A Q s ` #XoX@XG.J.V.V.l.0.^ a u w n g.X                                                                                                                                                                                                 ",
"  z.SXrXyXaX/.,.U U ] G.P.R E E M.1XuXtXaX>X<.W ' H j.F.k l l #.[.$.Y Y O.T.2XiX,XiX(.&.T Y E T.>.U T U b.iXCXtXfX6X1., = t H | [ W R j.b.] +.[ W Q.8XtX8XiX_.W R R R c.m.E ] R =.Q.aXdXdXdX(.o.R E T c.j.Y / E <.6XdXuXnXiXT.r.n.k.G.Y.z r r &.(.iXeX7XtXT.z j t :.Y.v.L.Y.V.U.H.K.|.!.m.wXtXtXyX>Xm.!.OXU.U.H.$.j.$.I.2XuXuXwXyX-       [ KXbXVXNXVX4X$X%X&X&XNXPXSX=.> oX5Xd 9 a p p b w a s.u.i.$XC.B 3 3 6 q = q s.s.N. Xa.) i.i.i.s.s.a.D.5XNXPXIX=.=.a.E.HXLXLXJXHXHXFXJXKXKXKXKXLXJXHXHXHXJXVXzXlXlXkX#X.X{.#XzXkX#XzX.XZ.9.9.4.^ B 8.0._ 9.s.s.d.d.9.6.s.) q 8 0 0 9 q q b Z.V 3 0 0 0 0 q 0 i.v a p.p.8.8.9.8.LXKXKXKXKXKXKXKXF.  A Q { u.S u.l.Z 6 @ K S.` 7 = d { C.L.5.B * B B.( & * 1 y ^ N.^ 3 B A $                 =.a...b { D.#Xs.q                             . .XB.8.p.{ l. . .L.&XOXR s  ...` ' m Z Q s ( #XOX$X}.A.`.`.A.0.~ p 3 4 w q.X                                                                                                                                                                                                 ",
"  k.ZXeXrXpX_.;.T U E U.v.O.+.o.m.2XaXrXaX6X,.E O.Y j.G.J ..l ] V.e.Y / T T.iXwXwXiX(.%.H H T m.>.k z z b.tXCXdXpXaXI., - t f H f l x ,.n.U I G R R.rX7X7X6X~.R H J Y v.F.Y l H W I.tX8X8XtX).E P J E v.j.Y I H ,.qXCXnXnXiXI.h t l j.I.&.&.z %.(.tXuXiXuXT.&.z h >.U.] h h U H.m.l [ U M.tXtXtXaX>X>.U E E m.m.E O.@.m.1XuXwX7XmX-   .   | KXVXbXVXBXcX$X&XoX&XBXPX6Xx , oX#Xp 0 a v c b p d a.u.p.cX#X_ 3 y 8 9 6 y s.a.a.|.D.=.f.i.i.` -.S =.&XNXPXBX,.=.s. XFXKXLXJXHXHXHXJXLXKXKXKXLXJXHXHXJXJXDXlXlXlXzX#X[..X#XzXkXUXzX#X'.d.9.4.^ A 0.9.p 3 8 0 c v n F d.4.8 7 0 0 0 q 7 c '.F 3 q 9 0 0 q 4 q.b v 0.x.x.9.8.8.LXKXKXKXKXKXLXKXV.  e d { 0.Z { L 3 = * { l.d 6 7 s ( { } _ M y ! ^ * 3 * @ + % & O 1 y 7 @             .   =.s.S S i.A.|.S.s   .                         o #XJ.5.p.0.( g f F.OX!. .f L Z  .( S D ( s ( |.}.%XV.z.A.F.B.8.L c 3 q w g.X                                                                                                                                                                                                 ",
"  j.nX:XiXfX+X@.E E O.G.v.$.$.$.R.2XCXuXMX,Xb.@.r./ V.G.E R  .:.G.e.| / E T.yXpXiXiX+X%.Y E o.H.k.H U U I.0XMXfXMXwX2., : g M h.F.n.n.P.F.F.L.L.M.Q.7X,X6X0X^.[ [ | } v.G.[ ' ' =.H.wXwX1XtX/.r.h.} z.V.x.0.0.} G.0XrXrXnX1XT.k h h $.b.O.&.z %.(.iXnXuXdXT.%.T z $.H.] H f U m.b.k ' U b.uXdXtXtX>X<.Y #.E U.M.R ,.>.I.iXtXiXwXnX-   .   [ KXVXVXBXVX%X$X&XOX%XZXSX2.t t 5X^.s u v n v b y S l.5.N.kX|.^ 3 y y 9 7 9 D.=.a. XS 7 p 9 9 9 9 q  .4XIXPXBXs.=.S.E.GXKXJXJXHXHXJXJXKXKXKXKXKXHXHXHXHXJXVXlXlXzXlXzX.X.X#XlXzXlXzX#XZ.9.9.5.^ A 9.9.v 7 9 9 7 q 4 7 4.d.9 8 0 9 0 0 1 p '.D 8 8 9 9 0 q 7 6.M s 0.l.p.0.8.9.LXKXKXKXKXKXLXKXF.  d u.} C.|.%Xx.% y a * @ S d % d Q A ! | y y a a 9.S 2 M N.L i a 6 3 * @                 a.A.Q D =.A.#X`.d                             . kX'.4.p.} K g ..E.&XOXR .. .S  .` m D  .d ( OX}.%XV.A.V.C.z.5.K 0 8 w 7.xXO                                                                                                                                                                                                 ",
"  k.AXwXiXuX+X$.U Y $.K.z./ T / m.3XuXuXuX2Xb.@.e.O.V.K.:.E E ,.U.j.r.r.>.~.rXpXuXtX;X@.Y #.e.G.z.R Y E m.iXnXnXMXsXP., = f K  XbXcX4XF.E.&XbXmX&XQ.,X7X6X0X/.!.%XbX%XK.K.&XbXbX+X/.yXtXtXwX@XOXqXbX%XL.V.&XmXqX4XrXrXrXnX2XT.T T I c.G.O./ O.O.+XuXuXCXnX).O.&.T ,.m.$.U l R m.v.U | T b.1X8X8XuX;Xb.#.j.$.G.m.[ k.[ n.bXuXiX1XuX-   .   ' KXVXmXVXVX%X%X$X$X4XIXPXSX-.> 5XE.s u b b n b y S D.8.N.%X X^ 3 8 8 0 2 y A.a.D.|.S 7 p w b a a 9 -.%XBXPXZX,.=.s.E.FXKXLXJXHXHXHXJXLXKXKXKXLXJXHXHXHXHXDXlXlXlXzXjX.X{.jXzXlXzXzX#Xs.9.9.4.^ N 8.p.M 8 9 p 0 w 0 0 3.s.y 3 0 u 0 0 q 0 s.4.u y 0 0 0 q 7 ` Q s 0.N.p.8.9.9.LXKXKXKXKXKXLXKXF.  } u.2 Z C.L.0.p.B.m @ s u.Z = s d  .A.p.m & & 6 e a a x.|.#X$X9.2 = 7 d                 u.D.~ Q a.D.#X`.m                             . #X`.5.x.0.| L L J.@XOX .s  ...L ` ..S D d Q |.OXUX[.Z.Z.A.B.| D 0 3 V g.jXX                                                                                                                                                                                                 ",
"  v.ZXyXsXmX+X>.[ } j.L.x.] | ' I.2XnXnXCX2Xr.O.] 0.V.Y.:.W [ ,.K.L.}.+XY.+XyXuXuXtX(.O./ | h.L.k.G G J H.bXNXNXMX0Xb., : f f ,.P.k.>.>.n.k.F.n.>.I.1X9X9X7X).c.U.U.m.m.m.n.!.^.M.^.rX8XgX8X(.b.G.!.M.m.v.V.!.T.Q.6XwXwXuX1XI./ ! Y z.L.{ / ] r.OXuXnXnXnXOXT H H h.L.O.P I ] H.v.Y ' T <.eXrXeXuX>X#.H l J G.H.J  . .c.iXuXeX1XuX-   .   | KXNXVXVXbX%X%X&X&X4XIXPXIXx ..&XS.q p N b n S a D l.8.B.%X|.~ 8 i 8 q 1 y N.-.C. XS q b b b b w 9 u.4XNXPXIXa.=.s.E.FXKXLXHXJXHXHXJXLXKXKXLXLXJXHXHXHXHXDXlXlXlXlXjX.X.X#XzXzXlXlXzXZ.s.N.4.^ N 8.d.D y 9 9 0 w 0 0 ) s.u 7 u 0 0 p 8 9 s.6.u 9 0 0 0 0 7 ~ ! s 0.N.u.0.9.9.LXKXKXKXKXKXKXKXP.  L y O s p.$XVXBXN.2 * 6 d ..d d ( ].|.h.! a A 0.A.|.[.4.A.A.Z 2 1 a A S             .   a.S.Q Q f.S.#X].m                           . . jX[.8.p.0.' P  .H.&XOXI d A b L ` s ..L s ( OX#XlX}.C.N.B.C.4.S 8 u q.{.xXO                                                                                                                                                                                                 ",
"  k.SXyXaXNX/./.bX2X&XY.[.2XUX2X+X2XuXyXnX2Xb.O.O.e.L.Y.oX+X&XE.L.}.@X%XOX).0XtXrXiX(.$./ } $.L.L.K.}.Y.T.qXAXuXMXrX1.r : r h ;.,.;.W >.M.[ j.,.o.R.8X9X1X7XQ.E +.$.o.k.M.U E R W I.7X9X9X8X).W Y J h j.j.Y R [ <.=X6XrXnX1XT.#.] | v.K.:./ [ $./.nXiX1XnX).e./ ' k.}.e./ / #.G.v.| | } b.wXtXaXMX@X=.l f J H.m.l f l k.qXMXrX1XuX-   .   | KXVXNXBXVX%X5X&X&X4XSXPXaX....&XE.9 p b V N S S ( C.0.A.lX[.M 2 3 3 7 2 p a.{ C. XS > b p b d a p a.5XNXPXIX=.=.s.E.FXKXLXHXJXHXHXJXLXKXKXKXKXJXHXHXJXJXDXlXlXlXlX#X.X[.zXlXzXlXlX#XA.9.x.8.K M 0.l.K 8 y 9 w 0 q q D Z.n 8 0 u 0 0 q q d.6.p 9 w 0 0 0 7 D _ y 0.N.p.8.0.0.JXKXKXKXKXKXLXKXF.  R g X f p.A.K.d % 3 Q ..s & @ S  .P L L s s 8.0.8.#X`.M * 2 Z 4.A A b A                 ` a.m m -.Z.|.'.a   .                         . kX|.8.p.8.| Z ' oX&XOXJ .. ...` ` b S ` a ( }.}.>X}.A.z.B.N._ N v F q.g.jX+                                                                                                                                                                                                 ",
"  j.AXyXuXNX/.!.+X/.!.H.G./.@X&X).3XuXuXnX2XM.$.e.#.V.}.+XbX@XE.E.!.%X2XOX).2XuXrXtX(.$.#.e.e.K.}.2XbXUX~.qXZXiXZXyXM., , r h j.>.;.E >.m.+.j.j.E R.8X9X9XwXQ.E ,.j.E v.G.T $.:.E I.0X9X1X7X).W E Y h :.v.E O.$.<.<XtXrXrX7X).@XmXqXOXE.OXsXsX+X(.rXrXuXiX+XOX<X%XOX}.}.UXUXOX}.Y.%X%X&X!.qXrXrXsX@XE.%X5X^.H.H.OX%XOXI.2XyXrX7XuX-   .   | KXNXVXNXVX%X%X$X$XbXIXPXZXt x &XP.9 a b V N F S | A.u.J.$Xa.a a D D 4.4.5.p.{  X Xm 6 b n p b a 9 a.%XBXPXNX,.u.l.E.GXKXLXJXHXHXHXHXLXLXKXKXLXJXHXHXJXJXDXlXzXlXzXjX|..XkXzXlXlXvXlXZ.9.d.5.Z m 8.N.K 8 i u 0 c 0 q F '.n q y 0 w p q q 6.i.0 0 u u 0 9 3 F 0.6 ` N.u.8.i.9.JXKXKXKXKXKXLXKXF.  OX( o =.C.= $ = y d l.|.=.Z L L P h.P.{ 6 C.DXbX#XL.N 4 f L.lXA.B 6 2 5.            .   Q i.d a S ` f.i.s                             . lX|.0.0.x.{ m =.oX&XE.J .. ...` ` S D _ a ! oX}.2X&XD.x.C.p.) m V 7.7.g.XX+                                                                                                                                                                                                 ",
"  j.AX0XiXiX+X;.' ' [ H.P.E :.E I.,X1XiXtX3X<.E ] / V.K.] R R :.n.:.e.O.O.~.wXdXuXrX+X%./ } / G.v./ #.O.U.iXuXnXpXrXM., = r C $.:.@.o.k.m.+.j.h.[ T.wXeXeXrX/.[ #.:./ k.U./ #.} ] Q.uXfXtXdX+X] / R l ,.V./ #.O.;.<XpXeXtXiXQ.m.!.m.H.M.n.^.^.U./.yXtXyXuXOXY.+X}.Y.G.}.&X&X}.}.G.+X%XOXQ.6XrXrXaX@X^.@X%XOXH.Y.+XqX%XU.2XiXwXwXyX-   .   | KXBXVXVXbX%X%X%X&X4XIXPXaX, x @Xa.q b n b N D M _ C.=. X#X=.p.Z.'. X'.s.s.D.{  X Xd 9 N b b b b p -.cXBXLXBX=.u.p.S.HXLXLXJXJXJXJXJXLXKXLXKXKXHXHXHXJXHXDXlXlXlXlXkX.X.X#XzXlXzXzXzX'.s.l.8.A M 0.l.^ y u u p p 0 8 F Z.b 8 0 9 9 p 9 q 4.i.p 0 u 0 u 9 7 V a.6 ! p.0.0.p.8.LXKXKXKXKXKXLXKXF.  OX{ % ..e s S.J.i.Q |.bXC.d y Z x.$X$Xu.s ( [.$XvXVXvX#XB 3.s.` b D `. X                { D.) S p p d i.Z                             o lX.X8.8.l.0.{ F.OX&XE...d  ... .{ Z A ! a ! oX}.lX&XD.l.B.0.) b 0 w q.g.xXX                                                                                                                                                                                                 ",
"  j.AX6X2XwX@X@.W R E H.v.R E E I.3XwX7XwX<X1.E ] / v.V.R J U +.G.e.Y T O.Q.iXuXyXyX+Xo.T ] Y G.j.Y +.E b.wXCXCXCXyXm., : r C [ +.+.E <.G.$.e.h.:.U.7X7X7XwX^.;.#.} #.v.G.#.#.#.:.T.iXtXeXeX/.O.| [ E k.z.#.r.O.M.wXuXwXwX2XT.z l t +.m.R x W o.Q.yXnXuXuX^.W U H $.G.e.R U ] G.b.T | ] b.7XtX8XuX<Xc.E o.E m.m.Y :.E k.>XiX1X7XCX-   .   ' KXBXNXBXbX%X$X&XOXbXSXPXsX> x 5Xs.9 n b b F D S ` C.=.|. Xu.i.8.) D D S D l.-.K.J...s Z F b b n s i.4XIXKXNX=.=.s. XHXLXLXJXJXJXJXJXKXKXKXKXKXHXGXHXHXHXDXlXlXvXzXzXjX#XkXkXzXlXlXzX'.s.p.8.L M | s.! 8 9 u c p w q F Z.N 9 9 y p 9 9 q 3.d.u 8 u 9 9 0 3 b a.y A u.8.8.p.9.LXKXKXKXKXKXLXKXF.  &XC.d 6 7 ` A e S Q S.oXN.( m Q } K.oXN.Z & & 1 & 4 i 2 O 4 7 y S 6.vX#X            .   D.#Xs.` S S ) A.`   .                         . zX#X4.) 0.| l.E.OX@XOXP ..L S Q ` m Z ` s ! #X}.%X&XC.x.B._ Q D n V g.g.xXO                                                                                                                                                                                                 ",
"  h.CXwXuXuX@X;.E R +.Y.v.O.O.E <.3XwX7XeX<X<.E O./ r.G.] E Y $.Y.r.Y / %.Q.rXuXtXtX=XE T Y Y T.j.T +.O.<.2XCXuXCXyXM., X.g C / Y Y U k.H.] } } ;.T.1X7X7X0X^.[ J ' ] v.U.] Y ] @.T.rXeX8XeX(.%.Y ' [ n.v.e.O.O.b.wXuXrXiX1XI.k l l [ n.' W =.o.).iXuXdXuX).W z l +.U.O.H l U M.b.U / T 1.1XtXgXtX;X<.T :.T T.U.R :.[ M.2XwXwX:XMX-   .   ' KXDXVXVXcX$X%X$XOXbXSXPXsX,  .&Xi.y a F b F S S ` C.a.|.J.s a b v b S S D a.=. XS.S a S S b a a y =.4XIXLXIX=.=.a. XHXKXLXLXJXJXJXJXLXKXKXKXLXJXHXJXHXHXDXUXlXlXlXzX.X.X#XkXzXzXUX#X[.s.s.9.! S 8.l._ 6 8 u p c c q F s.S 8 9 w p w q q 3.s.0 u 9 9 0 9 4 n a.y S u.p.u.x.9.LXKXKXKXKXKXKXKXF.  $XC.s Z s = & 7 e * Z ( A s i Z 0.J.oXz.K 2 2 3 1 & & % 2 2 2 a F s.DX$X  .             A.$Xs.a.` a. XcXN.                          . . kX.Xe.B C ! C.^.oX&XOXJ ..L ..Z ` d K L s / OX}.%X%X[.h.0.! ! N V D g.XXjXO                                                                                                                                                                                                 ",
"  x.CX1XuXnX+X<.O.] $.Y.v.O.O.O.b.:XeX8XeX6Xb.@.O.] V.G.O.O.o.r.L.r./ ] $.~.yXuXuXuX(.o./ O.T Y.v.+.:.+.M.0XCXuXCXrXM., = g C T R R W >.G.$.h.#.:.U.1X1X1X0X/.E E ' O.v.Y.O.] #.:.T.rX8XeXdX+X@.] ' [ v.v.} e.$.M.2XuXuXdXiXT.T H H :.m.+.W E o.Q.iXrXtXuX_.o.z k +.H.+.E Y Y m.c.U ] E b.1XgXeXeX>X<.W $.T G.I.E >.[ c.2XyXwX7XCX-       | KXBXVXVXqX%X%X$XoX4XIXPX5X> -._.=.9 n b b F A m 5.N.a..Xl.9 a m N N S S Q a.=. XS.b d Q F b b p 9 a.cXIXLXNX=.=.s. XHXLXLXLXJXJXJXLXKXKXLXKXKXJXHXJXHXHXDXlXlXlXlXkX.X.X#XzXlXzXUXzX`.N.s.i.) K { N.` y 7 u w n n 4 V B.D 0 u u w p 0 q D B.u 9 u 9 0 0 3 u p.s m p.u.0.0.9.LXKXKXKXKXKXKXKXF.  |.C.` P.a.d A.FX Xd _ Z { ! = B e.[.|.x.K s m m e e X.3 3 B e.4.D ].FX$X                S.lXs.6.i.Z.$XvXS.                            o $X[.x.C K C n.!.oX&X&Xl ..L ..S  .s Z P s ^ [.[.%X&XL.} M f y u F D g.{.jXO                                                                                                                                                                                                 ",
"  k.AXwXuXnX@X>.T Y O.Y.V.] / / I.3X1XeXrX6X<.E O.| V.G./ T Y e.}.r./ T O.T.iXtXwXwX(.@.O.e.r.}.v.#.#.@.m.0XMXuXCXaXM., : g C H t t j @.H.j.v.G.,.W.9X1X1X7X/.>.j.c.j.v.Y.$.x.c.,.Q.wXrXgXdX(.$.j.k.:.v.G.j.G.T.R.2XwXiXeXiXT.T l k :.Y.,.:.>.>.Q.iXwX8XiX/.O.E Y ,.Y.e.#.+.O.Y.M.+.:.+.b.9XgX8XeX<Xb.+.>.r.b.G.O.>.+.c.0XuXwXwXZX=   .   | KXBXVXVXcX&X&X&XE.4XSXSX_.; =.5X-.9 a b n N F N ` l.a.OXu.y b S b N S m Q a.-. XS.m b D S b b p s a.4XIXKXNX=.=.s. XHXLXLXJXJXJXJXLXLXKXKXKXLXJXHXHXHXHXDXzXzXlXlXzX.X.XzXlXzXlXzXzX`.N.p.p._ A { N.` 9 8 u w w w 3 V d.D 9 u p p p w 3 F Z.u 4 3 3 3 7 3 w i.i 6 u.l.u.p.9.LXKXKXKXKXKXLXKXF.  ( { { F.e s VXcXd @ O 2 M { d G e.[.l.0.K e i y 3 y B u 3 B.[.~ m i.#X#X            .   C.cXD.=.i.D.#XvXD.  .                         o lX[.9.4.! | K.E.!.%X&XJ d L S  .-.S K _ f P OXOX%XOX} ' Z e = u V n q.{.xXO                                                                                                                                                                                                 ",
"  k.AXwXuXuX+X$.Y Y #.}.V.I / / I.;XiX6X7X,Xc.T / / V.}./ H H j.}.e.I C ] Q.0XrXwXwX(.$.] | O.}.V.' Y [ m.2XnXuXCXaXM., : g h T R W W @.M.O.:.:.+.I.9X1X1X1X).o.O.+.O.c.U.R O.+.W R.7X9X9XeX(.o.R [ E v.V./ e.j.b.3X1XiX2XnXT.T G I j.Y.h.+.>.<.).wXwX9XiX~.O.] E j.}.e.' I #.L.V.} } [ b.,XwXeXrX>X>.+.U.+XY.T.] } Y j.qXiX0XwXfX-   .   | KXVXbXBXbX$X$X&XOXbXSXPXE.X =.5X-.e a b a b N b 4.N.p.#Xu.9 b b b b F S Q a.{ |.A.d b D S b b p d  .a.qXLXZX=.=.s. XHXLXLXJXHXJXJXLXKXKXKXKXKXJXHXHXHXHXDXlXlXvXlXzX.X.X#XzXUXvXzXzX[.s.p.p.( G { N.u.9 7 p p p c 8 n d.~ 0 p p p p 0 7 F Z.9.D F v 8 8 3 8 8.v * ~ N.u.p.9.JXKXKXKXKXKXLXKXF.  C.( 9 =. .u.i.= % * i L f s L { x.u.( ' G * * 3 7 y 8 D B.) v b S S s.|.  .             Z.$Xa.i.i.N.XXcXs.                            o zX'.A.A./ ) F.H.OX&XOX ... .S  .' Z K _ s ! OX}.lX%X}.V.| e 7 9 q 4 V g.jXX                                                                                                                                                                                                 ",
"  h.MXwXuXmX@X~.+X%X}.}.V.e.e.O.M.;XwX7XrX>Xb.$.e.O.V.}.] Y ' x.[.e._ / $.Q.0XrXeX1X(.j.V.V.x.}.V.} } $.U.iXNXnXMXrXM., : r C r.M.c.;.>.M.O.:.j.o.I.:X-X:X:X).@.@.#.o.c.m.R ] +.W I.,X9X:X8X(.T R [ H ,.j./ O.$.>.<XdXdXnX1X).j.h.=.n.L.#.' O.$.Q.wXrXrXiX+X%.T T e.}.e./ K / }.L.] | ] <.3XeXeXwX2Xj.I } V.}.L./ I I h.2X0X1X,XCX-   .   | KXVXVXBXcX$X%X%X&XVXSXSX2.$ -._.x > 9 p w p n p ` u.p.$Xu.9 b b b N F N D a.{ |.l.d b A S b b a 9  .E.mXKXIX=.=.s. XFXKXKXJXJXJXJXJXKXKXKXKXKXJXHXJXHXHXDXlXzXlXlXzX#XjXjXlXzXlXUXzX[.Z.s.i.) D | N.8.y 9 w p n w q n s.D 7 9 y 0 9 w 4 N B.4.) 9.d.9.f.~ ~ 8.S e 0.N.0.i.8.LXKXKXKXKXKXKXKXF.   XE.=.P.=.7 & 2 9 = e L s % * d h.{ K ( K i s s S ) 9.UXVX4.4.D D D i.6.            .   D.$Xa.` 6.N.#XvXS.  .                         . zX[.'.B.a X.G } oXOX^. .f -.Z  .{ Z K ! f ! }.Y.%X%XOXV._ s y 8 c N q.{.xXO                                                                                                                                                                                                 ",
"  k.ZXwXyXsX@XG.Y.[.V.}.z.} | ] M.;X1X1XnX2XI.j.j.e.L.Y.} R ' h.[.r.e.e.r.Y.wXtXtXwX*Xm.}.}.Y.}.G.$.:.>.U.iXCXnXfXaXM., , r l :.r.j.$.>.U.@.,.:.@.R.9X9X9X9X_.;.>.;.+.c.U.o.O.#.O.I.aX8X1XdX*Xo.O.+.U <.P.[ [ :.<.>XdXeXdXiX).!.&X&X!.E.,.#.r.b./.uXpXtXuX(.@.z H $.}.v.e.e.e.Y.G.e.} [ b.,X8X8X7X,XM.#.$.z.G.}.V.v.,.P.>XtXwX:XCX-   .   | KXVXVXDXcX%X%X$X&XmXPXSX1.> n.$Xb 7 9 n F D 5.p.s.Q a.$Xa.9 b b b b b b D a.=.OXs.a b S S b b a 9 a.cXGXLXNX,.=.s.].FXKXLXJXJXHXJXLXLXKXKXKXLXJXJXHXHXDXVXlXzXvXlXzX.X#X#XkXzXlXlXlX[.N.p.i.! K 4.Z.0.i 9 u u c c q n i.4.9 q 7 2 q q 1 v s.S 8 u n V F D 3.s.N y p.N.p.0.5.LXKXKXKXKXKXLXKXF.  &XFX%XK.a.d A ..=.a.! ( a = e d x.k.0.u.Q S D a 7 b ^ N.5.|..X_ S N i.Z.  .         .   D.$Xs.` 8.Z..XvXA.                            o kX.XB.V i 0.z.K.OX&XOXL ..L S  .-.m A  .s I #X[.&X&XV.L M B e q c N q.XXjXO                                                                                                                                                                                                 ",
"  P.ZXrXuXpX(.;.T H E V.v.' / / b.,XuXuXfXwX<.o./ I r.G.T l l [ G.r.T %.&.I.2XuX1XwX(.%.T &.T G.v.U T U b.,XuXuXfXyXM.: - t h E O./ ' >.M.@.:.$.@.R.eXeX8XeX@X;.R ] / c.U.] ' O.[ T.aXrXeXdX;X%.[ j.<.b.n.:.:.:.<.;XdXuXuXuXT.+.#.O.z.Y.$./ O.b.).uXfXgXdX(.z j t E T.>./ O.O.G.V.O.#.+.b.,X8X1XtX>Xv.$.v.j.Y.U.j.k.:.n.2XpXtX9XCX:   .   | KXbXVXVXcX$X%X&X%XVXPXIX1.> ^.5X) Q 9.d.s.Z.s.d.N.8.=.&X-.7 y 9 q p n d ` ` =.5Xs.s s S b b b p p =.4XIXKXNX=.=.s.E.HXLXLXHXJXJXJXLXKXKXKXKXKXJXHXHXHXVXvXvXlXzXlXkX.X.XjXzXlXlXlXkX{.s.p.9._ K ! l.8.a y u u c v 9 c i.i.) 8.) D F F p V d.~ 8 0 7 q q q 0 8.~ 8 0.B.p.p.9.JXKXKXKXKXKXKXKXF.  #XFX$XS.l.{ A =.a.s.D.l.u.a.L G P. Xa.l.d Z $X XQ = @ B ^ ^ S N N 7 s.#X                l.#Xd.` p.Z.|.vXN.                            . zXlX.Xe.e.A.L.OX&X&XoXL ..L ..L  .d Z ( s L oX}.%XoX} e s s 9 6 p V q.{.xXX                                                                                                                                                                                                 ",
"  k.ZXrXuXuX(.%.T T ] U.k.] $.O.M.,XuXfXCX7Xb.W E C :.M.T z I ] m.r./ O.%.I.1X1XwXwX(.o.C H H V.k.T U T b.,XuXuXpXmXm., : g M I C I / $.Y.v.G.V.z.T.wXtXrXtX@X' C K I v.Y.P G G R !.rXrXnXnX;XO.#.e.<.b.n.h.P.>.M.,XrXrXuXyXT.U h j O.Y.O.C T %.~.CXCXfXfX*X%.&.z %.G.O.H H T b.b.T $.] <.,XdXeXtX>Xb.] ] ] m.U.E k U ;.2XrXrX6XZX=   .   [ KXvXVXDXlX&X$X$X%XVXPXIX=.> E.5Xs.s.i.) D D D A s.D.s.#X) > a S ) 6.d.s.a.` ` #Xa.a d Z S b b 9 y ` &XNXPXMX=.=.P.].HXLXLXJXHXHXJXLXKXKXKXLXKXLXLXHXDXvXvXvXvXzXlXkX.X.XjXkXlXlXlXzX[.p.s.9.! S S K a 6 3 8 0 u w q w s.8.b D ~ ` i.i.6.i.s.D u u 0 0 0 0 4 3.4.e 0.z.p.0.5.LXKXKXKXKXKXLXKXF.  #XFX$XS.C. .E.$XS d {  XK.a * e z.[.l.p.6 { VXVXlX_ & ( [.C.i B S p {.#X  .         .   P.$Xa.) i.Z..XvXN.  .                         . zXzX#XA.{ ! g l ' z.J.L ..Q ..L ( d S P d P oXL.&XoX| d I s 6 9 p n q.XXxXO                                                                                                                                                                                                 ",
"  h.MX6XyXyX@X>.o.O.$.Y.v.#.r.[ b.,XdXCXfXeXb.@.[ Y z.G.+.Y R } G.j.O.%.%.T.AXnXuXiX(.o.Y E / G.k.Y ' E M.0XnXuXCXyXb.r = f C e.L.L.V.V.Y.~.2XkXOX^.yXyXyXnX+X[ ' | } F.F.} ( ( [ G.sXyX1XiX3X%.] O.o.b.M.H.+XOX^.6XtXrXuXrXT.U H h O.L.} T T O.T.CXCXuXdX(.@.%.%.@.I.%.H T T b.b.$.j.] <.1XdXgXuX,X<.E @.#.v.b.T +.;.,.@XrX9X6XZX-   .   | KXbXvXVX$X&X%X&X%XNXPXZX=.> P.$X) p p p v b N S a.A.S.#Xs.a.s.D.s.i.a.4.f.a.=.#Xu.> 7 q 9 q 9 7 7 ` OXmXPXqXR =.s. XHXLXLXHXHXJXJXLXLXKXKXKXLXLXJXDXVXvXVXDXVXvXlXzX.X.XzXzXvXzXlXlX{.p.p.p.~ Z L _ M b u u 0 0 q 7 q i.i.9 8 9 w p p 0 S s.~ 8 p 0 q 0 0 7 ~ 8.y _ B.p.0.4.JXKXKXKXKXKXLXKXF.  $XbXu.p.( u.VX].% 7 u.l.s * d l.L.].u.L 6 D L.Z 3 S 0.a @ a N A m p .X$X                s.#Xa.` -.N.|.vXZ.                            o zXlX#X4.a M 7 2 f =.E.A .. .S  .` Z Z  .d K oXV. XL.=.H { i 9 9 w c q.xXjXO                                                                                                                                                                                                 ",
"  h.MX0XnXNX+X>.] / #.Y.z.| [ ' M.1XnXdXfX0XM.+.} } F.K.k.n.z.F.K.r.O.o.O.Q.nXnXtXuX=X+.' | | K.z.| ] E m.0XnXCXZXmXm., : g C V.OX$XOXV.T.OXbXcX+X^.iXyXtXpX+X!.%X%X@XY.K.OX%XqXOX^.aXaX8XdX;X&.X.: < r.H.oX2XqX@XwXuXwXuXyXQ.R U P j.!.k.:.k.<.Q.aXpXaXyX+X@.@.O.:.Y.r.] #.#.G.U.$.j.+.<.,XdX1XtX0Xc.+.$.$.G.G.@.+.+.,.>XyXrX7XZX:   .   [ KXlXcXVX$X&X%X#X%XBXPXIX=.> E.#X9 q b n b N F D x.N.s.|.a.D D S b b F b 4.s.a.$Xa.9 9 D ) i.f.i.0.D.%XBXPXmX=.=.P.|.HXKXLXJXHXHXJXJXKXLXLXKXKXLXFXVXvXvXvXvXVXvXzX#X.X.X#XzXzXlXlXkX Xs.p.p._ K Q N.9.0.9.s.d.5.3.D D d.i.p y p w 9 0 4 q d.8.8 u 0 0 0 w 4 ~ 9.y _ l.d.9.) JXKXKXKXKXKXKXKXF.  %XkXG =.S.4X Xd m oXDXIX$Xp.L d | C.{ A d A _ 9 * i a a 3 a ) D p q $X#X  .             p.|.i.) i.Z. XcXs.  .                         . zXjXx.D d s 3 g L h.E.Z .. .Z  .=.A A ' s K OXV.[.L.u.K ! y s L ) b q.{.jXO                                                                                                                                                                                                 ",
"  k.MX0XMXMX+Xk.h.e.r.Y.z.[ / ' M.2XiXeXuX2XI.L. XL.E.E.!.@X&XOXK.j.>.j.b.~.mXnXuXmX@X[ L J ' K.z.I I Y c.2XnXuXuXyXc., X.e f } #.} O.r.m.;.b.n.,.R.eXgXgXtX@X,.:.c.k.b.T.r.v.M.<.I.9XgXgXgX-X&.j r j b.m.:.v.m.I.,XfXtXuXuXQ.[ R R h.oX X$X4X&X&XqXsXrXyX+XO.z h e.Y.e.I C / L.G.] ' Y <.,XeXeXuX>X>.H C T V.G.] H H >.>XrXeX7XZX-   .   | KXlXlXVX%X$X$X%X%XBXPXsX-.> E.5Xb s b b N S N A d.N.D. XS 7 y p n b S S i.D.a.&XE.s.S.'.'.s.i.i.-.P.4XDXLXmX,.=.D.OXHXLXLXHXHXHXJXLXLXKXKXKXLXJXDXVXVXVXVXVXVXVXvXkX.X.X#XzXlXlXlXzX[.s.p.9.` D ! s.0.B p D ~ ~ ~ 3.4.A.i.p y p y 0 w 8 8 d.9.8 p 0 0 0 0 7 V 9.i ^ N.e.8.3.LXKXKXKXKXKXLXKXF.   Xl.Z i.J.$X%XVXcXp.{ S.C.K. Xl.` z.u.Q s y a i y * K lXkXa @ 9 7 q cX$X            .   D.#X-.Q i.s..XvXA.                            o lX|.~ M Q p..... .l.E.....` ..-.-.G L ( s ! #XK.&XF._ m m e 6 { i.9 w.{.jXX                                                                                                                                                                                                 ",
". ,.NX0XuXmX@XY.2XbX%X}.L.OX%X&X~.2XnXeXuX,X~.qXNXcXOX XOXbXbX&X!.F.H.T.I.~.2XnXuXnX@XG.OX&XoXK.L.n.H.G.T.qXMXtXuXyX<., : r j #.k.c.,.<.M.W ,.c.o.I.tXgX8X8X_.o.o.$.o.>.I.E o.+.W 2.rX9X1XgX-X&.z %.z $.c.J ' ,.<.>XCXdXuXiXQ.j.P.P.J.E.J.E.oX!.^.qXaXwX0X+X[ l l #.K.x./ Y O.V.V./ Y P >.3XeX1XyX2Xj.C f I V.L.Y f h :.>XyX7X9XZX-   .   | KXkXzXbX$X$X%X$X%XBXPXaXx > E.&Xb w b n V S N A l.N.S.|.S p S m S F F b ` s.=.#Xa.S S A S p 9 q 9 s.4XIXPXsX=.u.l.|.HXKXLXHXHXHXJXLXKXLXKXLXLXFXvXvXvXvXvXvXlXVXVXzX{.|.#XzXlXzXlXzX|.s.9.8._ L ! x.9.B 3 8 8 0 u q 1 s.i.p 9 9 9 w w q 8 6.d.9 u 9 0 0 0 3 N 8.a K N.p.5.s.LXKXKXKXKXKXKXKXF.  #X].s L A.cXvXFXcXZ S  XS.d s S =.a.L S s ( 8.A * * [.VXlX#XS 6 q $ g.].                D.#X0.Q i.A. XvXA.  .                         . lXkX|.J.x.C.d d G h.K.J ..` S  .=.S L =.d P }.F.OXx.D p s e e 0.5.v 3.XXxXO                                                                                                                                                                                                 ",
"  a.MX6XmXnX@Xv.Y.Y.G.Y.G.[.}.Y.T.3XiXeXdX2XT.!.&XE.H.L.G.oXoXK.L.[ h h T T.1XnXuXnX;Xm.OX%XOXK.K.OX%X^.~.qXMXpXMXyX2., > r f #.h.z.:.<.m.o.<.<.o.I.tXgX8XtX(.o.+.>.] b.T.E E +.W M.9X9X1XgX=X&.T &.z %.c. .=.,.<.>XuX7XtXuXQ.OXbX4XOXoX X%X4X&X+XyXpXuXuX&XF.E.K.L.Y.[.$X2X&XY.T.OX$XOXY.2XuXuXnX0Xv.G M / V.K.} ' ( h.%XyX7X6XZX:   .   [ KXlX#XlXlX$X$X$X%XNXPXaXt ,  XoXp p n b b S N L s.x.A. XZ d F b b N F d i.D.a.4X` 2 q b b b b s s l.cXSXLXqX=.=.l.#XHXLXLXHXHXHXJXJXLXKXKXHXVX|.`.XX{.|.XXXX.XjXjX.X[.[..XkXlXzXlXlX|.s.d.9.) A Q N.x.N 8 u u u u 0 4 d.s.p 6 9 p 9 w 9 8 9.s.9 9 0 0 0 0 3 n 8.v K l.p.D s.LXKXKXKXKXKXLXKXF.  OX Xm { s.Z ( 8.8._ e C.N.3 & e { { Q A d Q N.p.2 % x.9.0.0.S S 9 + s..X            .   l..X{ ) i.'..XvXZ.                            o lX%X#X[.8.u.s e f u.E.G ..` S L  ...S ` s ^ OXL.OXz._ a ..e e 0.9.c 7.XXjXO                                                                                                                                                                                                 ",
"  k.ZXrXsXMX@X:.E Y ' Y.x.] } R b.>XuXrXrX,Xc.E Y Z v.L.T h J } G.$.h k &.T.iXdXuXuX;X+.Y / Y G.n.J U R <.qXaXpXpXyXM., : t h ' ] ] / k.T.O.O.' o.R.iXwXwXuX@X+.] | / v.!.n.E.E.P.H.6XwX9XrX@X<.V.T.M.b.k.R [ [ ,.hXaX8XeXtX~.r.v.x.F.}.C.z.V.G.+XnXCXdXnX@XM.M.n.n.E.F.K.!.H.!.U.U.OX!.U.>XCXuXuXiXv.H l P F.Y.v.G.v.b.>XtX6X6XCX-   .   | KX$XS..X%X$X$XOX4XBXPXsXt t ^.E.p p b b b F S S s.a.S.E.S s S b b b F b i.s.s.cX-.s b S b m b s s P.4XIXPXqX=.=.s.#XHXLXLXHXHXJXJXJXJXHXDXzXXXXXXXXXXX#XXXXXjX$XjX$XjXjXjXjXkXlXlXzX[.s.p.9._ Q Q x.a.S 7 p p p s w 1 i.d.p 8 9 0 u w 0 1 f.s.9 8 0 0 0 0 4 V i.m m l.N.2 N KXKXKXKXKXKXLXKXF.  #X`.Z 8.l.A K L Z 2 = [._ 6 > y ( =.{  .9 p |.|.6 + p N.[.x.v p 7 + `.#X            .   s.|.5.~ d.{.#XVX'.                          . . lXlX[.A.8.0.g e ..h.E.I .. .m A  .d .. .s P &XL.V.0.A B ! y e =.i.w q.xXxXX                                                                                                                                                                                                 ",
"  l.MXwXrXpX@X;.E T E U.v.O.$.] c.,XdXrXtX1X<.U E C j.m.T H H R v.$.&.O.%.).1XCXuXuX=Xo.Y E T G.k.k k k <.>XyXaXpXmXm., = g h ! P I Y e.Y.Y I L Y U.rXwXiXyX@X[ I I ! z.!.%XbXNX4X^.qXrX6XaX;XH.%XUXqX~.z. .l ..=.6XfXaXCXiX).Y h h O.T.O.h U E R.nXdXdXuX;Xo.k k E T.:.U U U M.M.R Y U <.1XfXgXuX2Xm.o.] @.m.b.;.;.;.<.;XwX9X6XfX=   .   ' KX#X` Z.$X$X#XE.4XIXPX9X> t &XS.p p b b b F b S s.s.S.oX..w b F b F F b i.a.s.4X{ s S S F b s q b s.qXSXPX4X=.=.a.&XJXLXJXHXHXHXJXHXDXDXvXvXvXvXvXvXvXvXvXvXvXvXvXvXvXvXvXzXlXkXlXzXXXd.p.i.) Q Q p.s.Z 7 y p 9 w 9 1 7.s.b 8 0 u 0 w w $ f.s.9 q 8 0 0 0 4 p 6.m a l.N.3 3 JXKXKXKXKXKXKXKXF.  }.p.y ! p.#X#X[.N.l.0.3 * e 6 7 Q l.z.-.2 L 5XD.d * 3 y u V b b B 1 ) |.  .             { Z.D S 3.d.XXlXZ.  .                         o lXlX[.C.0.L.d e d h.K.I Z ` A  .-...A -.d  .$Xe.^ g B ^ ! f g =.a.n w.{.xXO                                                                                                                                                                                                 ",
"  ,.pXrXwXuX@X@.E E O.T.v.$.#.+.M.6XpXgXfXwXb.o.O.Y v.m.%.T U [ m.>.%.$.%.~.2XnXdXtX=X@.E / / Y.c.Y R U <.qXpXpXpXyXm.e : i f I P J  .,.Y.] / ! Y T.iXtXiXtX@X[ I P ! v.Y.!.OX&X^.^.rXaX9XaX@XH.%X%X&X XP.0.u.h.,.qXaXaXuXiX).&.h H O.T.+.k U o.R.uXdXdXuX+X%.U z W m.,.Y J U c.M.E [ W <.<XtXdXfX2XM.#.h.,.M.M.:.>.:.<.<XiXwX6XCX=   .   | KX[.b ) K.#X$X#X4XIXPX4X> x _.E.9 p n n p F m L s.=.D.E.S p b b n n F b i.s.D.4X-.q S S b b b 9 b D.cXSXPXsX=.=.s.&XHXKXLXHXHXJXHXDXvXvXvXDXDXVXVXDXvXDXvXvXvXDXvXvXDXvXvXvXlXzXlXlX[.s.s.i.) D ) p.l.Z q y 9 p w p q ) s.b 3 u 0 0 w w * f.s.0 3 0 q 0 0 4 w i.b a l.l.y * PXKXKXKXKXKXLXKXF.  #XoXd y i d | A.lX$XZ * 2 6 2 7 d { p.L & Q vXcX_ 9 D ^ s 2 3 v 9 1 Z.$X                S F w 9 0 V 9.jXd.                            . lXbX#XJ.e.`.d g f k.!.J l -.G ( =.S A ( s L OXx./ a i B a e s =.i.p q.{.xXX                                                                                                                                                                                                 ",
"  l.ZXwXyXuX;X;.Y Y [ Y.V.] | | M.0XpXuXfXwXb.+.0.' V.K.] / / h.[.j.] | r.~.mXCXnXnX;X$./ ] #.G.z.' ' ] n.2XnXpXCXsXm., X.g f / R R R ,.G./ ! / ] T.wX7X8XrX@X:.[ #.[ v.~.&XNXNX4X^.aXpX8XaX>X^.UXbX2X!.F.&XbXmX4X0XaXrXwXuX)./ T T $.}.>.R E o.T.2XiXiXuX+X;.E  .[ H.P.k.h.$.M.n.:.:.[ <.>XtXwXtX2Xm.$.j.#.n.G.h.j.:.c.3XyXrXwXZX-   .   | KX'.0 S -.D. X&X4XSXPX_.> ..5XJ.q p p n b F n A s.-.S. Xs p S b n F N b f.a.s.4X .s S F S b b q p D.4XIXPX4X=.P.a.#XJXLXLXHXHXHXDXDXvXDXvXvXvXvXvXvXvXvXvXvXvXvXvXvXvXvXvXvXvXkXlXlX|.s.d.i._ Q Q 0.l.D 7 q p w p w 7 ~ s.b q u 0 0 9 9 1 f.B.0 3 8 q q 0 q 9 i.S i 9.z.a @ GXKXKXKXKXKXKXKXF.  $X#Xs 6 y N.lXDXvX^ * 3 6 a s s L u.l.D = s.vXa.~ '.bXVXlX|.~ p * @ '.$X  .             7 7 1 1 # 4 V {.d.                            o UXlX`.8.0.`.f i f k.oXJ M ' Z ` =.S  .{ d P OXx.| g X.i e i 9 =.i.w w.{.xX+                                                                                                                                                                                                 ",
"  h.MXwXyXMX@X+.J I [ [.z.P I I b.,XuXuXdX1Xb.] / ! F.K.] I K h.Y.e./ Y O.~.UXnXyXtX@X@.Y ] } Y.v./ H Y M.2XfXpXaXaXM., = e j E =.;.W ,.G.E E ' E W.tX8X8XtX(.;.O.@.] c.^.,.z.n.1.^.6XrXeXtX<X<.n.F.b.m.v.j.G.U.I.4X9XrXwXuX).H g h [ OX#.l k E T.iXeX1XrX@XH.^.!.F.K.!.%XbX%X!.n.J G l +.3XfXwXiX0Xc.H Z P v.L.| J I ,.>XaXaX6XZX- . .   | KXZ.p a S L =.E.cXIXPX_.> t 5X1.9 s p a p b w S a.-.S.].s a N b n V b b i.-.D.%XQ p S S b n b q p S.4XIXPX4X=.u.s.#XHXLXJXHXHXDXDXvXvXvXDXDXvXDXvXvXvXvXvXvXvXvXvXvXvXvXvXDXvXcXzXlXXXd.d.9._ Q ^ u.l.L 7 9 u c 0 w 4 F s.b 7 q q 0 0 0 1 3.s.u 3 8 0 4 w 0 q 9.N s 0.B.M O HXKXKXKXKXKXLXKXF.   XlX( 2 s s.$XkX` 6 y K L a = 9 ( u.a.S 7 6 ~ Z.lXFXFXDXlX[.N 3 3 ~ vX$X  .             & @ $ # + # c Z.9.  .                         o cX%XB.I _ V.g e f k.oXP Z ( Z ( =.S D =... .oXh.I e 6 e e 3 > a.4.1 F g.xXO                                                                                                                                                                                                 ",
"  :.ZXwXyXMX@X>.] [ h.Y.V.h.e.$.I.,XrXtXdX2Xb.] ' ' F.K.] U I e.G.e./ T %.~.2XnXyXrX*XI.~.oXU.}.L.L.oXT.T.2XfXaXfXsX2., : X.h #.<.M.,.,.m.+.k.v.+.I.tXdXdXgX(.@.>.>.o.k.T.E :.;.x I.tXaXgXdX;XW Y E l $.v.U O.$.,.(.rX9XrXuX).E G K } oX:.I U #.~.iXiXdXyX@XE.@X&XoXE. X&XcX&X!.n.'  .J #.;XdXuXnX0Xc.f g l k.n.P s f [ @XsXrX6XfX-   .   ' KXZ.p b N s ..S.4XIXSXE.; -.5X=.q p p w w n 9 S i.5.S.J.s p n c b b b n 4.i.Z.$XD s m S b p b q p S.cXSXPXqX=.=.D.&XHXLXJXHXHXDXvXvXDXvXvXvXvXvXvXvXvXvXvXvXvXvXvXDXvXvXvXvXvXvXcXzX.XB.9.9.` D Q 0.C.A q 9 u p c p q F s.b 7 9 8 8 0 0 4 D d.c 4 8 0 3 q 4 2 9.A 1 ) x.M O GXKXKXKXKXKXKXKXF.  $XHXN.@ ^ i.N 1 7 9 b [.A.Z e d A Z ' d 9 ..A N.lXVX#X9.v 0 i v F |.FX$X                2 2 # # # $ V e.9.                            . VXcX|.V.e.B.i e f x.OXP ..( A  .-.S L -.d  .#Xe.! e r 2 e 3 e a.4.8 w.xXxXX                                                                                                                                                                                                 ",
"  h.MXtXuXnX@XU.T.oXH.U.G.Y.+X~.!.,XtXeXdXwXm.O.#.| V.Y.O.Y Y e.L.j.] O.$.~.iXnXuXtX=XQ.qXbX&XY.Y.%XNXqX+X>XpXtXaXaXM., : r h :.c.M.;.,.m.,.m.v.;.R.rXgXgXdX@X;.b.b.:.v.Q.E k.,.W I.rX9XeXtX>Xo.Y [ z $.v.T $.j.;.=XtXrXfXuX).OXbX2X&XoX!.%XbX>X+X1XnXwXyX&X^.4X4X&XE.E.%XbX%XoXU.&X4X%XOX,XfXuXnXqXOXOX%X+XY.L.K.oXoXG.@XuXrX6XMX-   .   | KXA.p b Z d s S.bXIXSXM.$ ..5Xs.q s w w 0 b q b ` `  XS.p u p c c v b p 6.a.D.$XA s F b n b b q p `.cXGXPX4X=.=.P.$XHXLXLXHXFXvXvXDXvXvXvXvXvXvXvXvXvXvXvXvXvXvXvXvXvXvXvXvXvXvXvXkX|.s.9.9._ D ^ u.C.Q 9 y p 0 0 w q F s.S 1 q q 8 0 0 1 N s.0 & 7 3 q 7 7 1 8.^ O i e.^ O GXKXKXKXKXKXLXKXF.  $XGXS.* b D ` s.a.9 f.FXvX' > s =.J.D.L a ` D y 4.9.v ^ Z.e.V N ^ `.DXjX            .   ..S 7 * q S q.xX9.                          . o vXlX#X[.B.L.g e t k.oXI ..L ..Z  ...A { s P oX0.K g i B { g e u.a.0 q.xXjX+                                                                                                                                                                                                 ",
"  :.MXwXyXuX+X+.E R O.U.b.$.$.@.<.:XtXtXuX7X<.R R H x.H.T H P $.G.$.T T O.T.iXdXtXrX=X;.+.+.$.m.m.$.$.:.c.>XpXaXaXaXM., = g h ' R E R >.G.[ ] / E R.fXdXtXpX<X+./ #.] v.~.W =.[ W I.rX9X8X8X:X+.J R H j.m.] O.%.;.<XpXtXeXrX).v.G.[.L.Y.F.F.Y.U.~.iXiXwXyX@XG.~.^.H.E.L.K.oX!.Y.G.!.OX!.I.<XuXdXuXiX~.OX%X&XU.K.oX&X@XY.>XuXrX6XpX-   .   | KX].p S Z m ..E.BXSXPXH.X x 4X=.9 s p 9 0 w 0 b ` ~  X`.y 0 p u u n c 9 ` ` s.$XS 9 b b b n b q b  XNXSXPX6X=.u.s.#XHXLXLXFXDXvXDXvXDXvXDXvXDXDXDXVXvXvXDXvXvXvXDXvXDXvXvXvXvXDXvXvX.XZ.d.8._ D ! u.C.Q 9 6 y w w w q p g.S * q 7 q 0 0 1 b d.8 # 7 q 4 3 q 1 _ ) O * 4.8.+ GXKXKXKXKXKXLXKXF.  #XGX XZ y y ) i.p b |.$XcXJ.- $ =.J.P.L s .XDX[.4.6.$XVXVX{.A A N 6.vX X                S. Xw 7 -.s.jXDX{.. .                         . VXcX|.[.x.L.y e f h.!.J M L ..A ( s  .{ f  .OX0.C g v ! l.s 6 a.u.7 ^ {.jXX                                                                                                                                                                                                 ",
"  h.pX0XiXmX+X+.U z U m.b.O.@.T <.>XtX8XuX7X<.U  .h h.F.T h U [ m.$.T Y o.T.2XnXrXtX=Xo.l l H n.k.U U k ,.,XuXpXpXaXM., : g f I h h H r.G./ C Z U U.CXrXtXuX>X[ f h h x.~.U h h U M.wXrX9X7X<XE f g f ,.v.H h h &.*X1XiXrXuX/.H f f ] ~.$.l U T Q.yXrXuXuX@XO.U x R H.h.P R U c.M.O.#.:.<.;XuXuXuXiXv.Y R R c.m.+.[ R 1.;XrXwX6XZX-   .   [ KX|.S S S d A &XBXPXSX,.X L $Xa.6 w w 9 0 0 8 v D D |.A.9 w p p c u 0 9 ) ~ s.$Xb y b n n n p q p XXBXGXPX4X=.=.l.$XHXLXLXFXDXDXDXDXVXDXvXDXDXvXvXvXvXvXvXvXcXvXvXvXvXvXvXvXvXvXDXvX#X'.d.9.8.( _ 8.C.^ 6 q u 0 w 0 7 b A.N # 8 q 3 q 3 4 p p.3 o 1 4 4 3 3 1 ~ Q @ @ B ^ 1 GXKXKXKXKXKXKXKXV.  #XGX#X' ` ) -.y # b 9 ~ kXUX6 % :.H.n.Q 7 ` $XcXkXe.3.'.$XN.D m b `.DX.X  .         .    X5XQ s =.XXvXHX].                            o VXlX#X[.B.[.y , g h.E.J .. .A  .=.Z  .} d ! $Xp.P K a d Z i 6 p.p.V 6.'.jXO                                                                                                                                                                                                 ",
"  h.MX6X0XyX@X;.R T E U.b.O.>.o.1.>XaXrXtXwX<.[ [ L z.H.O.] / #.V.r.] O.O.T.iXCXuXuX<X@.W U Y G.v.' ' Y b.2XpXuXpXaXH.g = r C r.OX@XY.b.G.V.oX}.G.T.wXtXiXyX@X<.G.L.K.L.Y./ J I J M.yXrXeXrX3X:.h.x.<.n.V.x.V.m.m.;XiXeXuXyX).T h h E Y.#.U E U Q.uXdXdXnX;X@.U k R U.,.T ] H c.m.O.>.:.1.;XdXgXuX1XM.Y E E c.M.;.o.+.<.;XeXrX:XpX-   .   | KX$X5.b d m Q &XFXSX4X..X  .$X` 6 9 9 9 0 0 4 9 a m |.C.6 y p 0 0 u 0 7 Q S s.$Xd 9 w n b p p q p .XBXGXPX4X-.a.l.lXLXLXDXvX#X.X X'.g.s.f.f.w.F w.w.w.f.w.f.f.f.f.i.i.i.s.g.'.'.XX.X{.s.d.0.9.9._ _ N.^ 6 7 8 0 0 0 q p B.N * 8 4 3 4 3 1 y p.3 . # & 1 2 3 * D D # + 4 3 u JXKXKXKXKXKXLXKXF.  #XHX#X=.=.d.$X8.` cXlXkX[.( 3 7 { F.J.L 7 % 1 1 c v D 9.3.D S p S cXHX|.                OXcX` S s..XvXJX|.  .                         . bXvX#X}.0.V.y 3 g } !. .Z Q ..` =.S L -.d  .OXV.=.L s a m d e p.x.[..X.XjXX                                                                                                                                                                                                 ",
"  h.MX,X0XnX@X+.k H ] H.v.] [ E <.,XfXeXuX,Xb.E [ ! V.L.O./ Y h.L.e.] ] O.T.nXCXMXfX<X;.R Y ] G.V./ ' E M.0XuXuXpXsXM., : i C e.>.c.>.>.G.OXmXbX@X~.6X8XwXrX@X^.mXmXbX!.}.K.%X%XOX!.wXaXtXuX2XY.bXVX4XOXV.z.}.}.T.3XnXuXtXnX(.T z H E OX>.E E o.Q.wXfXrXCX;X@.o.U ] Y.v./ ' T b.m.$.>.:.,.3XdXdXuXwXM.] ' [ k.n.:.[ E <.;XaXrX7XZX-   .   | KXkX'.S d s L &XFXBX=.- o ` $X` 7 9 9 q 7 1 # 1 = 9 |.C.3 8 y 8 8 0 9 7 b s a.$Xb 8 p n p p q q p .XVXGXPX&X .=.D.5XFXcXg.) F F n n n n w w q q q q w F w F n n b F N F S b S S F D D ) 9.9.0.9.4.5.B.~ 6 3 8 0 0 0 4 q Z.s O * 1 3 3 0 4 8 p.8 o & # # * 4 1 S ) * + O & V LXKXKXKXKXKXKXKXF.  #XHX$X{ { D.i.y S.VX$Xp._ K 7 > ( J.S.Q y 6 0 1 & # # 1 1 9 S F F .XDX.X  .         .   OXcX ...f.5XvXJX.X                            o bXUX[.0.C e.e 2 e } oXI ..L S Q =...A ( d ( #XL.z.P d d ^ a 6 0.0.^ XX|.jXO                                                                                                                                                                                                 ",
"  ,.ZXrXtXCX@X[ Y Y } G.v.I I Y b.<XuXrXuX,X<.H G I V.G.I t f | V.e.Y I O.Y.mXnXyXyX=X@.Y H / L.z.I C l c.2XCXnXpXaX2., : r j C h j h %.I.r.j.x.,.I.aX9X9XrX@X,.h.k.=.M.!.j.k.z.k.U.aXaXiXpX<Xk.P.P.,.F.k.I j j &.*XdX1XrXpX/.H C ] O.OX$.} <.;./.iXCXdXCX@X@.C h / }.x.C C I V.G.E P P $.3XdXtXuXqX!.K.#XOXE.J.S.E.L.G.@XyXrXwXZX>   .   { KX$X$Xs.d 9 L %XGXbX=.> .  .$X` 6 9 9 7 1 # @ & O = #XN.2 q 8 8 8 3 3 1 e 7 -.$Xc 8 w 9 w q q 1 p  XbXGXLXOX.. .a.s.D.{ -.f.s.Z.'.'.`.{. X{.].XXXXXXg.XXg.g.].{.].`.'.XX'.Z.g.s.s.f.d.d.d.9.4.8.4./ x.( y 3 8 0 8 0 q q Z.b o # & * 4 4 1 8 p.y o & & # & * & n ) * o 1 B 3.JXKXKXKXKXKXLXKXF.  #XDXs.Z a.N.& ` s._ 6 & s l.m * { P.L.| s _ d.* u B 3 i q 7 m S b S.vXXX            .   |.5XS s a..XvXJX|.  .                         . VXlXV.i 8 ^ e e g u.OXP G Q ..L ` a d K d P &XB.{ ^ M m _ i e { 4.e A.XXjXX                                                                                                                                                                                                 ",
"  h.pX7XiXuX@XU.%X%X&XoXF.L.oXE.U.>XuXeXdX2XU.G.}.K.K.K.V.Y.K.J.V.0.I P O.Y.mXnXuXyX>Xm.oX^.Y.Y.v.j.j.j.U.2XMXuXaXrX2., : e h $.I.m.1.2.m.o.k.k.[ M.tX8X8XdX<X;.>.b.o.b.U.o.;.<.o.I.rXtX9XaX:Xo.R @.h >.M.Y T %.%.;X8X8XeXaX/.J C C / OXe.C R R ~.iXnXdXnX<X$.f g P }.x.f g h V.G.C f f o.;XrX7XwX0X^.OX4X$XE.E.E.@X%XQ.+X0X0X6XZX-   .   | KX$XkX#X{ s ..OXVX@X=.> . ( &XQ 7 9 4 & & & # * + = #Xl.2 7 8 4 2 1 & # * @ ` $Xp 7 u c 0 8 p 1 q g.%XBXJXE.> Q `..X|.|..XkX$XjX$X.X#XjX.X.XjX$X#X.X5XjXXX.X.X.XXXXX.X.X.XkX.XkXzXzXkX#XjX'.4.3.^ K { Q y 3 7 0 q 0 7 q f.a X @ # # # * 1 1 8.u X & & & & & & 3 B 4 + v 4.4.JXKXKXKXKXKXLXKXF.  .XDX|.m Z u.m { 7 & 2 = & s ' Z =.l.D.! e * 3 O 3 B B D B 3 ` d.s.vXHX#X  .             |.4XL b a..XvXHXg.. .                         . UX#X[.B M z.R x.[.!.oX( d K d Z u.0.L A ..L $Xx.0./ A _ J.A e { u.& 8 N s.X                                                                                                                                                                                                 ",
"  :.rX>XwXyX>XY.%X>XOXH.F.OX%X@XQ.,XrXtXdX3XQ.+X%X%X!.!.+XqXqX&XK.V.e.e.r.Y.0XaXyXtX;X!.4XbX%XL.K.&XmX%X+X3XMXmXCXrXI., : e h >.m.I.@.@.m.:.P.k.+.I.tXgX8XdX<X1.>.m.o.b.U.+.c.c.;.I.rX9XtXfX;Xo.E j.z $.m.Y +.>.%.3XdXeXtXpX(.E C H $.OXj.k k U +XiXdXdXnX%X$.h h ' }.x.C h H V.m.Y U P O.;XuX7XwX0X^.^.4X@XE.F.E.&XOX!.+XwXwX6XZX-   .   | KX$XkXcX|.` a  .f 6 > $ o { #Xd * 2 & & & & & * X 3 oXa.* 2 2 & & & # & & X =.#X9 q c c 0 q q q 9 -.z.5XGXS.$ Q $XlXkXkX.X.X.X.X XXX{.].'.A.].g.g.s.g.g.'.s.g.'.'.'.].{.[.{.|.XX.X$XjXkXlX{.^ V D B a s 3 2 3 4 q 0 q 7 i.p O @ & # # # # 1 D 8 @ # 5 & 5 & # & 3 4 8 3.9.4.LXKXKXKXKXKXLXKXF.  #XFXVX` A s.d s 3 * = * & y y L a.=.} Z 7 & 2 e i a v 8 3 u XX$Xs.vXFX.X            .   OX5XS ..a.|.vXFX X.                           o lXz.C.C i [.&X%X%XOXK.I f A s d 0.=.Z Z s A %XB.K.#Xl.Z ( s 2 { ` @ @ 3 d.+                                                                                                                                                                                                 ",
"  ,.aX,XyXyX@X@.E E [ G.k.=.;.=.1.>XtXrXtX2Xb.+.[ R n.n.E W R :.V.x.] O.$.T.0XpXtXuX<Xc.,.k.$.F.n.#.+.:.m.2XnXuXfXyXU.r : r h } $.$.o.$.U.#.} =.W I.eXtXtXdX>X>.$.>.Y b.~.:.+.#.;.m.aX9X9XaX:X@.o.%.z b.L.| #.=.%.@XfXdXuXuX@XT I k ] OXj.k H U /.iXnXdXnX>X$.H H T }.c.C C I v.G.O./ / $.:XtXeXtXwX^.H.OXOXE.H.].&X&X!.@XuXtX7XfX-   .   | KX$X.XcXcX`.{ 6 X X X X o =.#Xi * = * & * * & * o 3 |.{ & * & & & & & * % O { $Xu 8 u 0 q 7 q 7 7 $ ..4XFXs.$  ..XkX.X[.'.'.s.s.f.f.f.f.6.6.i.w.` ) ` ) ) ) Q 3.3.` 6.9.6.d.d.s.'.{.|..XzXZ.B B B B 8 1 1 3 4 3 q 4 7 7 ` a + # & & * # # & 3 1 # # # # # # # 4 8 B 3.9.9.3.JXKXKXKXKXKXKXKXF.  #XFXOXL { 0.m ' L d d y s | = *  .a.u.L g 3 b M B i 3 6 N B p 7 F vXFX.X            .   &X5X..s -. XcXHXXX  .                         o $X0.L e - P [.OXOXC.P.Z s m 7 9 d y y Z y f OX0.K.lX Xd d s * { ' @ % 2 s.X                                                                                                                                                                                                 ",
"  h.CXwXyXuX;X+.T z U U.k.E +.R <.>XuXrXuX1X<.o.' I k.n.T U k ] L.r.Y / o.I.wXuXeXdX<XO.T T Y m.v.T H T r.3XnXuXfXiXT.X.* g M I h h H $.U.| Z J W M.tXdX7XuX>X+.Y Y I v.OX' f l x M.rXaX9X9X:Xo.h h k r.U.V.|.!.!.>XyXrXuXfX(.U T h R ~.#.h k U ~.iXnXnXnX3X$.T E E Y.k.h h H m.T.T T E >.<XtX8XrXwXM. . .R n.G.=.' E >.+XwXwX,XZX-       | KX$X].lXkX4XOXF.{ e * % X ( 0.2 & 1 & 1 1 * * 2 X 3 l.d & 5 & & & & & * $ X 8.$X7 3 0 8 q 7 1 1 > q s.vXBX=.$ b N.g.6.4.3.A F F N n b p p w q 0 w w 9 q q 0 9 0 0 w u c n b n V V D q.e.e.3.u c B c p 2 * 4 4 4 4 q 4 7 7.b + # 4 # & # # # # # # @ # O 4 3 c N ^ 4.6.6.3.3.LXKXKXKXKXKXLXKXF.  [.DX#Xi.C.A.L Z =.p.p.p.a.a.` Q =.z.0.K m B d u b y 2 u N v 7 q g.vXFX.X            . . |.5X..p f.g.zXHX|.                            . [.| s = & % e L e.! ' g e s & = i * = s e s B.! C.[.a.d y > X Q =.% 6 d {.O                                                                                                                                                                                                 ",
"  h.fX6XwXiX@X@.O./ / Y.v.O.h.[ b.3XdXdXCX0X<.[ ] G z.G.R R U O.G.r./ O.%.T.eXdXtXdX<X@.O.o.T V.v./ T E <.,XnXdXnXiXI.r = g f #.b.b.r.r.T.v.z.P.k.I.rX8X7XuX>X+.I I I r.OX^ h M l M.yXpXtXtX:X@.&.&.%.b.m.E.$X$X^.4XyXwXiXnX(.U J l W OX[ l U k Q.iXnXnXCX<X@.E R T Y.j.C h H b.U.T ] E ;.<XuXgXrXrXM.Y ] ] v.m.] I / O.+X2X1X1XCX>   .   | KX$X`.#XkXcX%X%X$XE.0.K s g s X O O @ @ O & % & @ * e 2 * $ * * 5 & * 2 & X u.#X9 q 9 7 3 3 3 4 2 d Q u.N.D 1 7 0 8 q 3 7 7 7 4 4 3 q 4 3 1 4 4 3 3 3 4 4 3 4 4 4 3 3 4 4 1 4 3 3 4 3 8 0 3 4 3 0 5 * & # $ 5 # 4 1 1 1 B v + + # # @ @ # @ & & 5 2 7 u n D 4.4.4.4.4.4.3.3.LXKXKXKXKXKXKXKXF.  #XGXDX#XB.B.a.{ ..s Z K ` C.u.! 0.0.{ L s y i & & * 2 i N.[.u * XXDXDX.X. .             #X$XS y 8.|.zXHX[.  .                         o &XC.0.6 3 % O - = = = & % * % & * % @ * * = M y d d 6 7 = * O J =.s S a `.@                                                                                                                                                                                                 ",
"  ,.pX6XeXuX<X>.T T O.K.x.] ' ' b.2XnXnXCXwXb.] | ' F.G.o.Y U :.[.r.e.O.O.T.eXnXuXpX;X$.O./ [ H.v.R E E c.6XnXnXCXuX2., > r h } M.I.M.<.T.oXsXbX@X^.6X9X7XwX@X+.P Y H z.OX| I H U b.iXwXtXtX:X%.C z z b.F.OX4X4X4X0XaXiXeXnX*XE W l R ^.,.J W J ~.yXnXuXuX<X+.+.O.Y Y.z.H Y H v.m.+.} } >.<XtXdXtXyXT.E } } v.G.| Y O.r.+XwXiXwXpX-   .   | KX$X|.|.#X$X$XlX4XcX%X#X XA.' A d > * % @ X X & X o X X o @ @ + o O @ O @ X Z { 6 2 1 1 & # + + @ & O + & 3 @ @ @ # # $ 1 1 4 1 q 8 3 3 q q 0 q q 8 0 0 8 0 8 8 0 8 0 8 q q q 4 4 4 4 5 5 & O # # # @ + @ O # # # + & 5 3 3 # & & 1 5 2 3 u c v N ~ 3.3.4.6.4.6.8.4.3.~ 3.'.LXKXKXKXKXKXLXKXF.  jXFXlXK 6 x.].D.Z & & & e 0.d s | u.h.^ e * 3 * & % 4.|.$Xp.O # jXDXDXXX                |.%XM i p..XvXHXXX                            o $X5.^ A _ i 3 6 & & % % % % X O % O @ @ @ O % @ * & & 2 6 y = 9 s L ` p A.O                                                                                                                                                                                                 ",
"  ,.MX6XwXyX@Xo.h C [ K.x.I Z G b.3XnXiXuX3X<.I J G n.G.T h l [ L.e.I H T U.iXnXrXtX;X>./ J ' L.P.L l H ,.qXMXuXdXrXI., - e t H t t j o.T.c.H.E.M.I.6X6X7XwX;X:.T ' Y j.oX] Y / T I.rXtX9XtX6XW X.X.: b.v.n.oXoX^.4XuXtXdXiX;XT J G [ OXh.J l J ~.yXnXiXCX@X+.W k Y Y.k.H G k v.U.E Y ! @.<XuXeXtXiXT.Y H P v.L.} H I $.+X1XiX1XpX-   .   | KXlX.X|.J.#X$X$X4X$X%XlXlXqXcX4X$XOXL.N.p./ ( D m i e 6 6 7 & = 3 3 & = 7 & * 7 6 6 7 1 # & * 2 1 2 & * 1 3 3 7 0 0 c c 9 y w n n n V V V N F V V F F V N N N N B V n n N n n c n n n u p u u 3 8 8 0 8 q 8 8 u n w i c v a n V N V V ^ 3.3.4.4.6.5.4.9.4.6.5.4.4.^ ~ 3.4.{.LXKXKXKXKXKXLXKXF.  #XFXlXQ y L L ..0.A * 2 y y 2 s 0.u.0.B 3 * 2 * @ 9 kXDXVXN.o 1 kXDXDX|.  .         .   |.5XN c e.zXvXHXXX  .                         . #X8.Z 0.0.y s b M m Z a s f d 2 = e 6 y 6 6 * = 6 6 6 i Q _ 9 7 7 b ) d A.O                                                                                                                                                                                                 ",
"  h.aX0X0XnX/.:.#.$.z.J.z.e.=.=.V.>XiXiXnX1Xc.#.h.:.L.G.:.+.=.k.L.x.#.| :.U.wXCXaXsX<X#.! I ( F.n.[ R [ ,.0XMXrXrXwXI., , r t ,.M.R.1.;.M.+.k.P.=.M.8X8X9XtX>X;.$.k.O.v.T.$.$.r.O.I.tXtX9XfX9Xo.&.r.k +.H.J Y [ ;.=XCXgXdXnX(.J f f | OXh.f t H T.0XnX1XnX@XE l t J }.z.g t f v.U.C h f R @XrXeXtXiXm.f r t r.L.E f h O.;X1X2X1XfX>   .   | KXlX.X|. X XOX#X&X%X%XlX%XcXbXVXbXbXbXbXcXlX%X$X$XoX X XJ.J.J.Z.A.Z.N.N.p.u.s.i.` 8.d.9.8.9.i.6.6.i.8.| 5.4.7.4.6.9.5.9.f.4.3.f.4.5.4.7.4.4.) 7.3.3.4.3.~ 3.4.4.3.3.3.3.4.w.3.3.3.3.3.3.~ ~ ) ~ 3.~ 3.3.) 4.4.3.3.7.4.3.3.3.4.6.4.9.9.4.6.q.6.5.5.4.4.6.4.3.3.3.~ D 4.N.9.XXLXKXKXKXKXKXLXKXF.  #XFX$X{ J.$Xa.l.N._ = y A.i.y m ( | 0.d = 3 7 @ @ # v q.9.v $ * s.vXDX X                |.cXw.V e.zXvXHXXX                            . #X_ a _ ~ i a d B.C.m Z Z ! F.F.^ _ L ( ! ( N._ u e i a _ N.a 7 y A ) w Z.;                                                                                                                                                                                                 ",
"  h.ZX0XiXnX@X!.qXbX&XK.L.%X4X%X~.3XuXuXrX,XQ.@X%X%XE.H.+XqXbX&XL.OXUXmX@X+X0XpXfXCX>X$.| / ] L.E.&X2X@XOX;XuXuXuXwXI., > e f c.T.T.@.@.G.$.n.L.[ 2.tXgX8XtX>X;.;.m.@.$.T.@.b.M.@.2.8X8X8XdX:X%.%.r.H %.H.U T +.;.=X8X9X1XtX(.G.L.K.K.oXL.OX%X~.+X0XMXwXfX@Xm.OXOXK.K.F.j.z.k.K.G.R ' P ,.@XtXwXwXwX!.j.F.F.F.H.' f h T +X2XeX1XfX=   .   | KXlXjX$X.XS.E.E.|.$X%XlX4XcXcX4XcXcXcXcXcXcXlXlX%X$X5X$X&X#X#X|.#X|.[..X[.[.'.'.`.S.Z.'.Z.Z.Z.s.s.N.x.s.s.d.e.9.9.6.9.9.9.8.6.6.9.6.6.6.6.4.4.7.4.3.3.3.3.3.3.3.4.4.3.7.4.3.3.3.w.3.~ 3.~ 4.~ ~ _ 4.4.) _ 3.3.3.4.3.3.7.3.4.3.4.4.4.4.4.4.4.4.5.4.4.4.4.3.~ D D 3.V 9.XX'.{.LXKXKXKXKXKXLXKXF.  jXFX$X^ { a.$XDX$XOXQ 1 7 v i m A L e.d * 3 * % & 5 9.lXlX9.e + 7.DXvX'.  .         .   .XkXA c 9.jXvXJX#X  .                         o $X9.A 4.4.m i 7 A.p.i L p.u.u.cXz.^ =.u.{ Q #Xl.s S d 6 Q x.d q p A ` b `.@                                                                                                                                                                                                 ",
"  ,.aX6X2XnX+X>.,.:.k.n.n.:.k.k.b.3XuXeXeX,XM.c.n.k.n.G.>.<.k.k.G.G.V.V.v.I.wXCXnXnX3X<.} ] e.G.G.n.U.m.U.,XfXeXdXyXI.r - g f +.e.%.%.j.Y.} h.$.E M.tX8X8XdX6X;.@.$.O.b.~.@.@.@.%.I.1XeX9X8X>X>.%.r.T r.V./ [ O.o._.1X1X1XeX).T.%X%XoX!.H.&XqX/./.6XrXrXaX@X!.sXqX&XK.E.&X4X&X!.H.m.&X|.H.@XrXrXiXqX/.&XbXqXoXF.h.$.$.j.+X1XeX1XpX-   .   | KXlXXX$X XE.4X5XOXE.#X&X$X%X4XcX4XbXcX4X%X$X$X$X$X#X&X|.|. X X X]. X`.`.L.'.Z.A.C.Z.N.N.s.s.s.p.s.i.p.9.9.d.9.9.9.9.6.9.9.6.9.6.5.6.7.5.4.4.4.4.4.7.3.5.3.) 3.3.3.3.3.3.3.4.3.3.3.3.~ 3.3.~ 3._ 4.3.) 3.3.4.) 4.3.3.4.4.q.4.4.4.5.3.4.4.4.4.4.4.~ ~ 3.~ D D ^ 3.5.~ 6.#X].'.KXKXKXKXKXKXKXKXF.  #XFXVXN.a 2 a.S.N.lXl.7 & 3 6 s Z ' l.g % e 2 1 u y c q..XkX{.4 q.FXFX.X                9.'.c u w.q.jXDX{.                            o $XB.e._ A i = 3 A.u.6 ` u.{ N.cXp.A i.p.) Z #Xp.* y 9 3 ~ x.y * 7 A ` b `.O                                                                                                                                                                                                 ",
"  ,.aX7X1XAX<X%.T z T m.b.U E U ;.<XeXeXaXwX1.W ' J k.G.T h C ] V.r.O.O.%.m.wXuXdX1X<X@./ I Y v.v.T U T ;.,XuXdXgXyXT.r - r f I C C G e.Y.' G I H M.rXeXeXpX@XH.OX&XOXY.}./ h h H c.iXtXwXdX0X+.! G I r.L./ C h Y ;XfXeXeXCX(.W U k [ OXj.J ,.W I.aXrX9XtX@X@.+.[ +.H.G.[ =.R n.T.+.:.h.,.(.tXgX9XrXI.=.,.>.c.U.x.r.j.k.+XdXuXiXfX-   .   | KXlX.X$X].OXBXVX4X&XJ.K.|.#X&X%X$X$X$X$X%X$X$X$X#X#X#X|.#X|. X XE. X[.[.].].'.Z.B.D.Z.B.N.s.s.Z.p.d.d.d.9.9.9.9.9.9.9.6.4.5.q.7.4.3.3.4.4.4.3.3.3.w.3.) ~ ~ 3.3.3.3.3.3.3.3.3.3.3.3.~ 3.^ 3.~ ~ 3.~ ~ ) 3.~ 3.~ 3.3.3.~ ~ 3.^ ^ ~ ~ ^ D V D ^ D A ~ ^ ^ 3.4.6.d.9.3.4.#X'.'.LXKXKXKXKXKXKXKXF.  #XDXVX0.e + A.DXVXcX` y 3 7 3 = Z { B.d = 3 6 * i 8 8 3 4 q..X6 B DXFXXX  .             D w.3 4 c w.q.zXd.                            . $X0.9.9.5.M y y u.{ i s = y L %X=.s y 2 a m [.a.& 2 * 6 ( _ s q e ` a.S S.O                                                                                                                                                                                                 ",
"  ,.uX7X1XdX;X@.o.T T U.>.W :.E >.,XuXtXaXwX<.W [ P k.n.O.T T O.}.r.$.$.$.I.tXuXuXgX3X$.T T T v.V.O./ E <.,XCXuXtXiXR.r - e g I Z K L e.Y.' P P R M.rXtX7XpX@XH.%X%X%X}.G.e.| ] } v.qXuXwXdX6X,.' | 0.V.C.! L G ] ;XCXdXrXpX@XU U U R ~.+.W ,.U R.rX9XdXgX;X@.T U k !.c.l E k k.I.W W [ o.*X8X9X9X9X2.W W E ,.T.=.Y ] $.+XiXwX1XZX-   .   | KXzX#X#XJ.#XDXBXBXvXL.L.&XoXOXOXOX|.OX|.|.OX X X XJ.J.].J.S.S.D.s.P.B.C.N.9.x.d.9.6.6.q.9.i.6.` ) 5.9.5.5.4.3.7.~ ~ ~ ~ D ~ D 3.D ~ 3.~ ~ ~ D D ^ w.D w.D D D D D D D D F F D V V V D F V N A V V N V A A N V V A V ^ V N V D N N D 3.^ 3.3.3.3.4.9.3.4.d.N.d.B.d.4.3..X{.'.LXKXKXKXKXKXLXKXF.  {.VXVXkXy + .X$X4.a 6 b b i 6 6 e y | d = 2 = 2 3 1 3 i c B c & 9.DXDXXX                2 0 4 4 w w c w.V   .                         o #Xx.9.e._ i e S D.l.` m s G =. X_ L s 6 d ` N.! 9 a i u 8.p.a > q Q f.A '.X                                                                                                                                                                                                 ",
"  h.pX9XwXyX@X;.E T E H.v.' ] R c.2XuXwXuX2XM.O.#.' z.G.#.] } j.G.r.G.V.<.!.yXMXuXpX>X,.E T ] v.v.} [ E <.0XMXtXuXtXR., - r g | h.0.[ j.Y.j.j.z.:.I.7XtX8XaX@X!.bXmXqX[.L.&XbXNX%XE.0XaXaXaX6X!.%XbX4X^.P.E.4X4X@X6XyXrXpXyX@XE U U O.+Xe.] r.T Q.rXrXdXdX<X<.o.o.W Y.M.Y +.U c.T.E E R o.(.tX8XtX8XI.W ,.W <.!.:.| [ $./.uXiX1XfX- . .   | KXkX.X#XS.#XBXBXDXBXF.E.4XcX4X4X4X4X4X5X#X5X$X5X&X.X#X.X|.#X XJ.S.s.s.Z.s.'.'.f.s.s.Z.d.d.9.f.i.d.f.5.6.a.s.d.9.N.B.s.s.s.s.s.d.d.d.s.d.9.9.9.9.d.d.d.g.g.d.f.d.q.9.9.9.9.9.q.9.q.q.q.d.d.9.9.6.6.6.3.~ 6.3.3.9.9.9.9.d.d.d.d.d.i.i.'.9.g.e.9.d.9.Z.0.4.9.B.9.N.d.) ~ #XXXA.LXKXKXKXKXKXLXKXF.  #XDXDXVXg 1 9.B 3 y i i B M a s i e M M 2 2 2 * * 2 3 1 3 i 4 & 9.DXFX|.  .             + + 5 5 5 5 5 5 4 .                           o #Xl._ ~ ^ s a m #Xl.S ! A C.|.cXa.u.=.S Q u. Xi.y p i y ` N.d * q Q -.N A.X                                                                                                                                                                                                 ",
"  >.aX6XwXaX@XW h f Y L.z.h d C $.<XuXuXdX1Xb.;.k.h.L.G.] I P :.}.}.&X2X&X/.sXaXyXaX>X@.U C Y V.V.I h k ,.qXMXaXuXyXI., - r t | } } } $.U.@.>.k.@.I.eXtX8X8X@XM.!.^.Y.m.!.F.!.OXE.I.6XrXtXgX6XM.E.OX^.M.P.P.E.OX!.>XaXrXaXmX@X] h I | oXz.I Y / H.rXrXeXuX<X@.T k W Y.G.H / G v.Y./ Y / W @XtXwXrXrXQ.J W  .k.U.#.Y / $.+XiXnX1XZX-   .   | KXlX#X#XA.oXIXBXIXcXP. XbXbXcXcXcXbXVXNX#XcXcXvXcXvXvXvXvXvXvXVXcX#X|.$XkXkXkXzXcXkXkXkXkXkXkX5XcX.XA.'.].{.XX[.{.{.{.{.'.[.{.'.'.XX#X'.d.d.s.g.d.d.d.s.d.s.d.d.d.d.N.{..Xd.9.9.Z.9.9.d.s.s.s.d.s.s.9.B.{.d.9.d.d.d.d.d.9.q.9.d.5.i.{.Z.9.9.N.9.9.9.9.4.9.B.9.9.e.4.~ #X|.Z.LXKXKXKXKXKXLXKXF.  #XDXDXDX0.3 B B v i e 3 6 s y e S K / B 2 = = * 2 3 6 i c ^ B u B '.DX$X                + + 5 5 5 # + 5 4                             . #Xp._ _ _ M L Q #Xa.d L a.u.C.bX{ Q A.A D A .Xa.7 S a s _ i.a q s Q p.Q '.@                                                                                                                                                                                                 ",
"  >.NX6XqXnX@X:.] ] e.L.B.0.| ] b.2XdXuXtX6XI.G.Y.L.K.G.$./ ( =.A.L.}.+X/.^.qXMXyXaX=X,./ / ' F.V./ Y / v.2XMXMXuXuXT.r - r f =.v.F.c.>.I.%.$.v.E I.wX9X9XtX>X,.R R R <.H.,.k.k.=.M.aXaX1XdX9Xo.U ] l o.M. . .=.+.;XuXuXuXnX<XE f f ' oXh.g e f n.0X0X0XtX>X' g t C [.V.f B f z.K.I d Z R +XnXwXrXyXH.g s g h.K.' f h T ~.nXdX1XpX-   .   | KXlX#X.XA.&XIXVXIXVXP.|.bXcXcXbXcX4XmXbXs.].$X5XcXcXcXjXkXcXcXDXDX$XZ.`.`.'.g.S.`.'.'.'.'.'.{.].5X#X) ) 3.3.~ V V D D V V N n N c 3.[.4.c n V n n n w n w w c c n c V B.'.V V n V v n c B N n n b n n 4.'.4.V V V V n n n b V V N D {.e.9.9.9.9.9.N.9.4.9.B.9.9.N.4.D #X|.g.LXKXKXKXKXKXLXKXF.  #XFXVX[.) ^ B y 8 3 3 1 6 s 7 7 d f _ s * = = O & p 4.B 3 0.9.N '.A w.9.                . + 5 4 5 5 5 5 c                             o #X_ _ 0._ s d D l.u.( A.K.l.a.%X8.` D.N.5.{  X=.d ) ^ L u.{ y 7 7 A i.Q A.X                                                                                                                                                                                                 ",
"  h.MXsXyXmX@X!.lXUXOXL.L.$XlX&XT.2XdXdXfX7XQ.^.%X&X}.L.G.Y. XJ.L.K.%XmX@X^.qXMXrXrX<X!.+XlX@XY.K.$XbX%XOX>XyXMXpXyXT.r : e t k.Y.F.@.>.m.%.<.n.E I.7X9X9XtX<X;.E [ E j.U.;.P.c.o.M.9XdX9XdX1X%.U +.l @.m.J J =.%.+XdXdXuXCX@X#.' ( =.OXV.0.:.>.^.qX0XwXaX%Xj.| } 0.[.F.e.x.l.L.K.[ ( ! [ @XnXyXrXmXH.=.| u.V.E.' f h E +XeX1X3XaX-   .   | KXlX.X#XS.#XBXNXIXcXP.OXbXcXbX4X4X4XVXcX( a.XXXX#X.X$XXX.X.X$XvXVXS.~ 5.5.~ 3.f.7.4.7.4.7.q.) 3.#X`.b n b V n u c c c c c c w c 0 F {.D 3 u 0 c c c w w w w 0 c c w v 9.'.c 3 c w c c c c c c 0 0 p 0 V Z.3.c n n n b n n n B V v S '.d.9.9.e.9.9.d.e._ 9.'.9.9.9.8.D .X.X'.LXKXKXKXKXKXKXKXF.  $XVX^ i B v i i e * * 3 i s d d y i 0.l.M % 2 l.S m ^ a 5 & & c [.zX{.^                 + @ 5 5 5 # 5 w.w.  .                         . #X~ A d._ 9 2 y  XA.` a.5.p.N. X{ s.a.a.N.a.A.) S S m V p.s.s * 7 ` 8.F '.@                                                                                                                                                                                                 ",
"  j.CXwXyXuX@Xb.$.r.v.V.V.z.F.j.m.2XuXfXCXwXM.c.H.F.F.G.j.h.h.z.L.n.G.U.M.T.iXuXuXuX<XI.Y.}.K.[.K.L.oXY.Y.2XMXMXaXrXQ.t = r f =.:.h.R h.T.@.;.=.W I.9X8XtXtX6X,.E +./ k.T.v.m.n.<.2.6X9X1XgX1X@.O.$.T :.m.] ] +.+.(.dXdXuXpX<Xk.h.j.x.OXJ.F.K.n.~.0XwXwXuX@XH.+X&XoXoXK.OXlX%X}.L.h.z.0.:.@XpXeXwXyX^.^.%X%X!.H.} I Y +.+XiXtX7XaX-   .   | KXkX.X#XS.OXBXBXIXcXl.OXbXcXbX4X4X4XNXcX-.s..X#X5X$X5X.XXX XXXcXVX].~ f.4.f.g.q.q.f.f.5.f.f.~ f.$XXXN N D V V N V V V V n F n F w F ].D q c n c n c c n n c c c n c n e.{.V i c c c c c n n n v u c 0 D '.3.i V B n n n V b V S N S '.d.8.9.d.9.9.9.9.3.8.B.8.9.9.9.D XX.X'.LXKXKXKXKXKXKXKXV.  9.4.'.[.B 4 3 d i 3 Z ( B e ! ^ 6 g ! J./ O & F y 6 i a i 3 & # & 8 9.4.  .             O 5 # # + + 4 q.~                             . #Xu.^ 4.A e 7 s &Xs.Z s d S Z.cXZ._ ( D D a.#Xs.s q y y i.N.s * 7 A _ ~ XXX                                                                                                                                                                                                 ",
"  ,.fX1XrXrX;X@.z z Y U.c.E ] T $.2XuXtXuX7X<.U ]  .z.V./ / / } G.h.U U E M.2XCXuXuX<X>.I H Y V.V./ Y E <.2XMXpXaXaXI., - r t l f G l [ U.E J  . .M.rXtX8XaX6X[ l G h j.T.OX4X4X%X!.6XrX1X8X7X;.k h h r.H.| G l Y (.uXuXuXaX@XE H H / }.z.H J W T.3XiX9XuX@X<.;.#.[ G.G.0.$.+.v.T.+.[ } +.(.uXgX7XuXI.W :.+.c.T.#.I ' O.~.uXiX,XfX-   .   | KXlX.X#XS.$XDXNXIX4XP.OXbXcXcXqXcXbXVXbX-.S.$X#X5XXX.XXX XXX.XcXVX`.` i.f.7.q.f.q.q.f.7.7.f.w.3.#X XN S F V V V n V w w F n V w q ~ {.) q c w w w w w c c c n c c c V 9.{.B i c c i c c c n n c 0 c 0 D '.3.c N V n V n n V N F N F '.N.8.0.9.e.e.B.N.~ q.N.9.6.9.9.D |..Xs.LXKXKXKXKXKXLXKXV.. c zXlXe.1 3 6 d K s = * a a s i y i L d & @ 2 $XA @ 3 = @ O & # + o 5 e                 2 9 4 & + O v '.8.                            o |._ L 9.A 1 7 Z S.i.s D S L p.VXN.K i 6 b Z #Xs.9 d b q D i.9 7 7 D 4.Q `.O                                                                                                                       .       .                                                                 ",
"  ,.dX:X1XuX*X@.T T &.v.c.] $.E <.3XuXuXuXwXM.R | P z.G.O.[ / O.G.c./ +.o.m.iXMXuXuX;X@.U U Y V.V./ / E :.0XCXaXrXyXQ., - e ..( ' P L } K.[ R  . .M.wX9X9XaX>X=.G H H r.L.^.%X&X^.U.6XaXeXtX6Xo.h f C r.V._ Z M R @XaXyXrXyX/.E h H T }.j.T T T I.1XgX1XdX3X;.T o.U U.c.U T U <.M.o.[ [ o.(.8X9X8XeXI.x U k >.T.[ U E %.(.1XeX6XfX- . .   | KXlX.X#XD.&XBXBXIX4Xs.&XNXcXcXcX4XcXBX4Xf.5XcX#XjXXX X{.XX.X#XcXVXS.Q f.7.7.q.q.q.q.7.f.w.7.) ` #X`.N N F V n n V n V w n n n n w F {.3.3 c n w n w c c c c w c c c n 9.{.n w c c c c n c c c c c c 0 V '.3.c B B V V n n n N F N A Z.N.9.0.e.9.9.e.p.D 4.B.9.8.9.8.S  X.XZ.LXKXKXKXKXKXKXKXF.  9.e.i # % 2 * * * & & & [.C.f M ! f s f & @ & VXcXu.OX#X#XA & O % & o +                 Q 5.u 7 3 u 3.$XN.  .                         . #X8._ p.Q 2 7 e =.( = Z P.{ ! #X0.8.u.0.s.Q D.` ..Q p * S ` q * y ) i.a..XX                                                                                                                                                                                                 ",
"  :.dX:XeX1X;Xb.$.O.#.Y.v.] $.] b.2XuXtXfXrXM.o.} / V.L.$.O.} j.G.v.$.$.+.I.wXnXuXMX:X<.E E E v.v.] O.E <.,XpXtXtXuXQ., - r f D.cXcXcXK.F. XcXcX@X^.0XaX6XrX@XH.OX&X&XY.K. X4X4X5X_.qXrXrXrX6XU.&XUX&X}.L.J.OX&X^.2XyXrXaXsX@XO.z H O.T.V.T T o.T.1X8X9XgX;X<.%.@.o.H.b.o.O.T v.I.+.;.[ o.(.9X9XtX8XR.U W W >.U.] T T %.+XnXeX,XZX-   .   | KXkX.X#XA.$XIXVXIX5X,.&XVXbXqXbXcXbXVX4Xs.5XcXcX$XXX'.g.XXXXXXcXvXS.) 4.f.7.q.f.w.q.7.7.i.7.w.f..X XS F D V V V N V V F F n n n w ~ {.3.0 c c w c c c c c c c c n c c 9.'.v u i c w c c c n v c c c 0 D Z.3.u V V n n n V b N F N V '.B.0.9.9.e.9.N.s.^ 4.B.9.5.d.8.F '..XN.LXKXKXKXKXKXLXKXv.  8 # o X @ @ e N.OXE.0.% e._ 6 * y 3 e a & @ @ N A * 3 y = & & a N..X#X^                 N..X_ S ^ 3.Z.cX'.                            . VXkX Xs.A y 2 y .Xa.& y ) S L [.S m ` 0.! y s.` q 9 = * Q D.D p b D s.'.lXO                                                                                           . % X X X X ; O X X X X X X ; % $ O ; % % % % % % ; X X X X @ X X X X X O % O o o X , e e e e e e e e ",
"  :.pX6XyXiX<Xv.O.Y ] }.V.I K C >.2XtXuXdXtXb.U R P v.F.U h h } L.#.C Y W U.qXaXyXaX>Xo.l f Y v.v.H h H k.>XuXfXdXuX/.r - e f h.E.E.H.c.H.M.!.OX!.I.6X9XrXtX6XI.+XOXOXH.!.H.oX+X~.I.wXtX8XtXrXQ.+X2X+XK.H.L.&X&X^.<XrXrXuXuX@XE h C / }.V.I H z I.1X1X1X8X2X<.Y T Y H.F.Y | P n.U.[ ' ] E /.wX8XeXrXQ.T H H x.}.O.J T E ~.iXeX1XZX-   .   ' KXkX.X.XA.%XIXNXBX5XP.&XNXbX4XbXbXbXBX4XS.cXVXvX5X5X'.g.XXXX.XlXVX'.~ 6.6.q.q.q.q.f.7.7.w.f.7.6.#X].V C C V w.B n V V w w w.F w w F XX` 3 w w c c c w w w V w w w w w f.XXb w c c c c c n c n c w w 0 D '.5.u n V n V n n V n V N D Z.s.9.9.e.0.e.9.l.^ 5.N.9.8.9.9.D A..Xs.LXKXKXKXKXKXLXKXz.  O & ..K a @ @ * y * O % @ % % & & % = g * & @ + O O X O @ @ X.0.9.^ N.p.  .             [.vX[.`.`.`.|.VXZ.                            . $X$X$X[.x.! d m  X{ 6 s 7 d ! |.Z d d d Z 7 P.=.2 * * 7 M a._ D ^ 9.A.[.kXX                                                                                           * J.s d A C.C.p.{ ..A i.s.N.( A L L ..l  .' =.=.'  .l d d M ~ d y s ! u.i.5.D p a p FXKXKXKXKXKXKXKXKX",
"  k.ZXyXMXmX+Xj.| ] e.}.V.0.e.' I.rXuXuXCX2X~.T.!.v.Y.oX!.G.z.z.Y.Y.Y.m.M.~.MXMXuXwX=XH.P.k.h.L.L.F.k.:.I.iXnXnXpX0X<., : t H >.<.<.;.;.M.o.O.Y E Q.8X9XtXtX^.W ] o.+.j.<.[ [ E @.Q.rXrXtX7XQ.o.R Y R :.:.R [ [ M.0XuXuXfXwX/.n.e.0.e.Y.$.H C %.+X2XuXuXwX~.@.U H #.G.j.( R ] G.j.' P Y b.<XuXwXeX+Xb.H H / c.V.} H T j.,XuXtXwXrX-       | KXlX.X.XA.%XIXVXIX4XP.5XNXVXsXvXvXsXBX5Xs.cXIXvXcX.XXX'.`.]..XlXVX'._ i.f.q.f.q.q.w.7.7.q.w.w.q.#X{.V V w.V B V V B w w.V w n n w w.g.) 8 w c c c c w w w w w w n w n f.].n w c c c c c c c c c w c w F g.5.c n n V n n n V V V N S B.N.6.9.0.9.9.B.N.D 4.s.9.5.9.5.S Z.#Xs.JXKXKXKXKXKXKXKXF.  u.$X XN.` ! A.cXu.@ % & & % % % - & = e % O & - * & - * & & 4 a {.lX{.S             .   %XHXVXVXvXvXvXDX].                              .   . . o       .           . .               .                   .   . .                                                                                             X A s d s s Z L ( l.l.a.l.D.L e d  .W  . .x l x x k k J P Z d i s S K m e 2 * 1 y 1 BXKXKXLXKXKXLXLXKX",
"  M.SXpXMXuX/.c.U.G.Y.+XT.OX+XT.@XfXMXMXAX@X@XNXmX@X+XOXmXNXmX^.Y.2XIXNX@X>XCXMXMXyX/.iXAXBX+X~.@XBXNX>X,XZXZXZXZX6Xz , r h :.n.m.,.+.M.#.E $.U @.7XfXdXfXwX>.U @.U E U.W J R l +.6XeX9X8XwX@.f [ f U m.J l U ;.0XZXMXMXpX@X!.bXNX2X}.b.%.$.%.R.iXuXuXuX3Xm.+X@X^.!.H.OX%X/.~.M.M.oX+XI.;XuXeXtX1XI.b.~.!.Y.I.m.Y.U.M.>XCXfXrXuX@X;   .   | KXkX.X|.S.5XDXVXBX4XP.$XVXbXbXNXbXbXBX4Xs.4XDXVXVXcX.X'.{..X$XvXVXA.` 7.7.q.f.q.q.q.f.w.7.f.7.f.#X[.C V 3.V 3.c V V V V V w n F w ~ ].) 7 0 n c c c w w w w w w w w c 9.{.N w c c w c c c c c w 0 c w V '.6.u n N n V n V n N V N D Z.B.9.8.9.9.9.9.N.^ 4.B.e.4.9.9.D N..Xs.LXKXKXKXKXKXKXKXF.  { Z.s. XvXDXlXL * = = * = = - & % % = y % & * - * * 2 2 2 1 & O 1 A.vXs.  .             B.lX#X#X|.[.[.#X0.  .                                                                                                                                                                                                 O Q y s e 6 = = g l.|. XJ.S.C.P.=. .R t t l J J s e > f g i f K K ^ K s * * 7 2 3 9 IXKXKXKXKXKXKXKXKX",
"  c.SXtXuXpX^.;.O.O.j.OX<.o.,.<./.fXCXuXZX>X@.$.+.+./.b.U [ [ H.Y.e.j.j.M.>XMXpXMXyXR.;.c.,.b.T.M.c.m.M.=XZXZXCXCX6Xo., : f #.k.k.>.#.m.j.O.j.O.<.=XtXtXtX0X<.R :.Y [ T.:.W :.k ;.<XeX7X8X7X,.k h.J W G.W W o.;.@XMXyXpXpX=X!.@X2XOXT.b.T j z <.1XdXdXuX>X~.0XyX+XU.G.2XqX2X~.G.OXNXiX~.+XtXwXuX8XQ.@XyX2XY.m.+XbXbX~.@XuXrXwXuX>X%   .   | KXlX|.|.A.$XIXNXBX$XP.%XBXbXbXVXbXVXNX4XS.cXVXvXvX5X.X.XkXlXcXvXcXA.) f.f.7.w.q.q.q.7.f.q.q.7.i.$X'.N V V V V 3.V V V V V w.V F w 3.{.-.q w c c c c w w w w V w w w 0 6.XXn w c c w c c c c c w w c w V Z.6.u n n V n V V n V V N F N.Z.8.0.0.e.e.9.N.^ 4.B.9.9.9.4.D s.#Xd.JXKXKXKXKXKXLXKXC.  A S.C. XA.| @ X @ % % - - = - = 2 = = e = & = = * - & % % & & @ + X a m                                                                                                                                                                                                                                       - C.y y d u.| d L { x.P.S.H.oXE.P.=.R e - e H J e * - e 6 a M Z m s d s e y s a 6 8 GXKXKXKXKXKXKXKXKX",
"  n.SXgXtXaXQ.o.E O.$.}.>.o.<.<._.pXCXpXAX@X@.+.E [ ~.k.k U x m.K.[ O.$.$.>XpXpXMXyXI.T %.H $.T.@.R o.@.+XMXdXuXuX>XU , e h | #.h.>.,.m.V.r.j.e.c.3XeX1XeX,Xm.+.j.O.r.Y.c.+.#.+.,.>XtX9XeX7Xb.E #.[ +.H.E o.W ;.;XmXyXpXfX(.;.R T O.U.b.z j z <.1XnXeXdX<X@.@.o.+.G.n.W >.[ M.I.:.j.v.<.+XuXwXtX,XI.b.U.M.V.m.M.m.M.M.+XaXrXiXuX>X@       | KXkXXX XD.%XIXVXBX4XP.4XBXbXbXNXbXNXBX4Xs.cXVXcX4X#X.XzXvXvXcXcXvXA.` i.q.q.q.q.f.q.q.q.f.f.7.f.#X`.N V D D V V B V V V V V V n w w.{.3.8 w c c c c w w w w w w w w w 6.|.V 0 w w w w n w n c w w w w V g.9.c n V n V n n V n V N N s.Z.9.0.0.x.9.d.e.! q.d.9.4.9.9.A d.#Xi.PXKXKXKXKXKXLXKXF.  ].cXS.` A.p.S.A.a.L s g = = 3 X.e 2 = 7 = e e 6 7 7 6 m i.].#X$XlX$XcXkX                                                                                                                                                                                                                                      % u.s s f ( 0.d s { x.[ ( | =.k.P.=.=.J...e ..P s = g s e e d i e s B e 2 e e 3 y 8 FXKXKXKXKXKXKXKXKX",
"  m.PXgXfXaX/.@.@.$.M.+XM.>.M.M.@XfXCXZXAX>X<.k.+.$.+Xn.R [ W m.Y.$.r.e.c.<XuXpXfXiXI.%.$.%.b.~.>.E +.>.+XCXCXCXCX,XW , X.h ] | j.,.>.m.m.$.e.#.c.;XdXeXdX2XM.O.#.#.r.Y.<.] R [ ,.<XdX1XdXeXb.E [ E ,.H.+.[ o.;.@XMXwXMXCX;XW l H T M.v.T T &.<.1XdX8XuX;Xo.W E k n.k.l U l M.U.U R [ @.(.fXwXtX7XI.@.,.+.v.b.#.+.#.c.@XCXuXtXpX>X;   .   | KXkX X XA.$XIXBXBX$XP.4XVXmXmXVXVXNXBX4Xa.4XvX5X#X#X$XvXcXzXkXcXbXA.4.f.q.q.q.q.q.q.f.q.w.q.7.9.#X'.N V F D w.^ V V V V V V V V n 7.'.w.0 w c c c w w w w w w w w w 0 6.{.V w c w w w w w w n w w w w n B.9.v n N n n V V n V N N N N.Z.8.0.9.9.0.x.Z.~ 4.B.9.6.0.4.D d.kXd.HXKXKXKXKXKXKXKXn.  7 y 7 = y g e e e e > % ; X X X o o o o o X X o o X % 2 > e e e i y g =                                                                                                                                                                                                                                       & N.g g e > e = = { J.a.[  .R  .d e g L ..Z K ( Z = e g * * 6 s s s d e * * O & 3 8 IXKXKXKXKXKXKXKXKX",
"  n.SXfXfXZX+Xb.m.v.L.OXG.j.v.m.(.fXZXCXAX<Xc.c.>.c.+Xm.<.<.>.G.Y.r.j.j.c.<XnXuXuXiXR.$.b.$.m.~.b.$.>.k.@XZXZXZXZX,XW : : C #.#.k.<.j.m.v.r.e.$.b.=XeXeXtX,Xm.k.r.r.V.T.U.Y.~.~.M.<XtXeXdX7Xb.] | ] :.U.E E W @.@XyXqXuXuX;Xo.E Y O.m.b.o.T W I.2XfXdXCX3X@.o.+.W n.n.R W k c.T.E @.;.>.(.uXuXdXiXI.;.c.$.v.m.r.:.,.c.+XuXrXtXpX<X;   .   | KXkX]. XC.%XIXVXBX$XP.4XBXVXbXNXNXNXIX5X-.4XcXcX$X$XkXcXlXlX$XcXcXA.5.f.9.f.q.q.f.f.f.q.f.f.7.9.$X'.B F w.V V V w.V V V V V w.V w w.'.3.w w w.c c c w w w w w w n w 0 7.].b 3 w w w w w w n w w 0 w c V '.9.v v V n V n V n B V N N d.B.0.9.e.9.0.p.Z.3.3.B.e.4.9.6.A 9.zXd.JXKXKXKXKXKXLXKXv.  .                                                         .                                                                                                                                                                                                                                                   @ _ y e f L e % 7 u.L.L.P.u.u.' e 6 e i e g A } { = e s = = y a m d M i * & % 1 e * FXKXKXKXKXKXKXKXKX",
"  m.PXZXZXZX@X:.z.v.}.&Xr.c.b.v.+XrXCXnXAX@X<.>.j.c.oXm.k.k.k.U.T.v.v.j.c.<XCXuXdXuXR.$.r.b.m.~.b.:.>.<.@XZXZXCXfX>XU r X.C / #.c.>.>.M.v.r.c.j.b.3XdX8XtX1XT.@XUX3XOXT.~.qXNXqX~.;XeX1XeX7XM.$.h.,.,.G.c.!./.^.0XpXwXuXyX(.@.] $.$.G.H.#.o.E I.uXAXdXAX2X@.+.E +.n.n.E R U n.T.] [ $.>.+XCXuXdXtXI.@.@.[ v.I.>.#.:.k.+XyXwXuXfX@X%   .   | KXkX'..XZ.%XIXVXBX&XC.cXBXmXNXVXVXVXIX5Xf.cXcXcX$XcX$XlXkX$X.XkXvXZ.5.f.q.q.f.q.q.q.q.f.q.f.7.d.$X'.b V F V V V V V w.V V V w V w 7.Z.3.4 w w c c c w w w w n w n w 0 7.{.F 0 w w w w w w w w w w w w n B.9.c B V B V V n V V V V n d.A.9.0.p.p.p.p.e.3.3.e.9.4.9.9.V 9.kXe.PXKXKXKXKXKXKXKXC.  .       .     .   .                                             .   .                                                                                                                                                                                                                                         X d e s L h.g & e ( L.K.P.h.h.} f e s P d d Z ( C.Z g g 6 = y p e e s e = 6 % & y 1 BXKXKXKXKXKXKXKXKX",
"  I.SXCXAXNX+Xc.V.G.G.OXG.G.b.V.@XaXaXaXMX>Xb.c.>.>.+Xm.<.c.b.U.Y.j.r.r.b.<XnXfXnX1XT.b.G.m.m.oXG.m.m.b.;XAXZXCXCX,XW , , h ] +.;.W W M.<.E E Y ;.=XtX8XaX6X2.,.j.$.$.I.j.#.#.+.>.<XtX7XtXwX<.Y '  .+.U.;.,.b.2.@XMXiXuXZX>X<.O.$.e.L.Y.$.E W c.2XuXuXnX2X;.E U ] G.V.j.j.j.H.T.] [ @.@./.uXuXdXtXI.E R R j.M.+.E E ;.+XuXrXuXuX>X%   .   ' KX].s. XC.%XDXBXDX&XE.4XIXsXBXNXNXNXIX%X=.$X4X$X$XkXlX%XkX$X#X$XcXA.q.9.q.q.q.w.q.q.q.q.f.q.w.g.kXZ.b F F F F V V V V w.V V F n b w.{.3.w w c c w w w w w w w w w w 8 4.{.V 8 c w w w w w w c w w c c n s.d.v n V n n V n V V V B B 9.'.9.e.x.0.p.p.B.) ! e.9.4.0.0.N 4.lXB.HXKXKXKXKXKXLXKXn.  .       .     .         .                 .         .     .     .       .                                                                                         .                               .         .         .                   .       .         .           .                                     % =.y g g y = = e u.K.=.e = s I g = i Z i d Z Z z.i 3 g = = y e & * = = = 3 * & 6 3 IXKXKXKXKXKXKXKXKX",
"  2.SXfXCXuX/.Q.+X+X+XoX}.<X3X+X(.tXpXaXMX>X<.b.c.c.OX~.OX%X/.^.T.V.v.j.M.<XnXtXCXnX*X+XUXUXOX~.OXbXmX@X+XCXAXCXfX>Xz , , t #.,.,.W W M.;.H Y z @.=X8X9X9X6Xc.U R Y E T.O.H U l W >XfX8XdXtX1.f f , R H.U t z %.+XMXuXnXMX<X:./ [ e.L.Y.oXOX!.T.,XyXiXuX2X$.E T ] F.Y.@X2X@XY.T.[ E :.#./.nXtXdXtXR.<.U.H.H.n.<.n.n.M.@XCXfXuXuX>X%   .   | KX8.4. XD.%XBXVXBX&XP.VXIXBXBXBXBXBXIX&X-.#X&X|.#X%XlXlX$X#XoXkXvXZ.q.g.q.q.f.g.w.q.f.q.w.f.w.g.$XZ.N F F V V V V V w V V V V F n 7.{.D 3 c c c c w w w w w w w w w w 4.'.V w w w w w q w w w w w c n p Z.f.n v N V n V V n n V V B 9.'.9.9.9.0.x.p.N.3.3.s.9.4.9.6.V 4.#XB.PXKXKXKXKXKXLXKXC.                                  .                                                                                                                                                                                                                 .                                                           @ ( y e 3 e 7 = = g e % % , L ( g = > e 6 g K ! x.d , g = * 9 e & & * & & * - * 2 & DXKXKXKXKXKXKXKXKX",
"  M.SXdXtXpXQ.@.$.o.k.+X<.@.@.<.(.pXZXMXAX@X>.;.+.+.+Xn.,.c.,.I.T.r.r.$.>.<XuXuXnX1XR.>.m.c.M.OXm.c.T.b.+XCXZXfXfX>Xo., X.h #.:.=.o.o.M.<.U U U ;.=XgX9X8X6X<.U h z +.I.@.h l k +.>XpXtXdXtX<.h j r k U.T l z @.<XCXdXuXuX;X>.#.:.h.L.oX2XmX%X/.0XyXrXuX3X>.W U O.v.Y.%XmXUXOXT.:.k.k.>./.nXuXdXtXQ._.qX2X!.m.!.2X2XOX+XyXtXuXCX>X%   .   ' KXD ~ J.A.$XDXVXIX&XE.VXIXIXIXBXNXIXSX4X .^.#X|.$XcXUXlXkX#X.X%XvXB.q.9.q.q.q.q.q.q.w.q.q.q.3.d.kXZ.N F D V w.V V V V V V V F F n w.{.^ w w w w w w w V w w n w w w 3 3.{.w.5 c w w w w w w w c c w w n g.d.n n n N V n n V V B V v 9.{.e.9.p.0.p.x.l._ ^ 9.9.q.9.5.^ ~ B.^ PXKXKXKXKXKXKXKXvX4.s.5.! ( a.N.D.l.l.l.h.u.u.u.0.0.0.8.8.| | _ _ _ ` ` ` ` ` _ ~ ) ~ ~ ^ D A N v c c 3 8 3 2 * & # O O + + O O @ # # # # & & @ # + + # + # # + + @ + O O @ + + @ + O + # # # & 4 & 4 1 3 7 u y u u u i p n v v v v v v v v i c B v v B v p a i a v B v v v p v b v v m v v v a a v v i 7 # @ @ 4 * &             X S s e e G y % % - e G  .' P.P...e s P d i Z ` z.Z e i 7 = y d a d s 3 - & O % * @ DXKXKXKXKXKXKXKXKX",
"  F.PXuXtXMX).E O.O.$.+X>.$.$.>.@XpXZXZXZX0X+.+.E E +X>.U E U M.T.O.] @.;.<XCXuXnXnXI.o.E k >.~.@.U %.@./.CXZXCXpX,Xo., , C $.j.W W ;.c.n.R k U 1.=X8XgX8X6X2.U t h >.U.b.h e l ,.>XpXuXdXeX1.l t g H U.o.k h @.>XZXnXuXyX;X+.Y U E G.m.[ +.;.<.>XuXrXnX3X$.U z ] m.G.j.k.$.G.U.+.#.k.,.(.dXeXeXeXI.<.M.k.n.m.n.n.n.c./.uXrXuXnX@X;       ' KXb b D.D.cXDXNXBX&XE.sXIXBXIXSXIXIXFX5X-.&X$X#X$XvXbXlXlX$X#XkXcXN.9.9.g.q.q.f.f.w.f.q.f.q.w.d.zXN.n V V V V V V V V F V V V V n 7.'.3.0 c w w w.c w w w V w w w w 0 3.r.w.w c w w w w w w c c w c c c s.s.N v V V V V V c B V V v 0.{.e.9.p.0.0.p.l.4.^ d.e.4.6.9.^ 3.C 8 HXKXKXKXKXKXKXKXFXjXvXzXZ.Z..X$XcXVXcXcXbXbXcXcX%X%XlX$X$X$X$X#X#X#X#X.X.X.X.X X X[.|.[.XX[.XX'.'.'.'.'.s.d.d.9.3.3.3.^ S b V n V n n n c c 0 0 0 0 q 3 q 0 0 0 0 0 0 0 c c w b n n F F V D D D D 3.3.3.4.q.6.6.q.9.q.7.9.d.9.q.q.9.6.6.6.6.6.4.6.6.5.6.6.6.q.q.9.q.q.q.6.9.9.9.9.q.9.6.6.q.4.4.9.d.d.^ 8 & 5 $ 5 4 0             % u.s d s f g % % y { C.E.F.F.C.G e ..u.G s G ( h.e * g 7 = s Z Z Z Z e = * * * 2 8 GXKXKXKXKXKXKXKXKX",
"  n.PXfXCXuX(.o.T T >.+Xc.O.O.b.@XfXCXMXZX6Xo.z k o.~.M.H j k I.U.$.h U <.3XZXfXCXuXR.O.E z >.~.c.U o.>.+XAXZXCXCX6X@.: X.h O.j.=.o.o.<.c.E W R ;.*X8X9X8X,XM.o.U U +.b.<.T k U @.@XpXdXfXeX1.k t t J m.+.U z ;.2XAXMXuXpX<Xo.k k z M.c.W E o.1.>XuXuXuX<X;.E T U c.n.l x l >.T.W ' ,.;.).tXtXeX9XR.W ;.;.k.m.@.[ :.>.+XnXuXuXnX@X;   .   ' KX6 6 s.D.4XIXBXBXOXE.IXIXIXFXIXIXIXSX4X=.4XcX$X4XvXcXcXlX$X#XlXcXZ.q.9.9.q.q.f.q.q.q.f.q.f.3.d.kXZ.n V F F V V V V w.V V V V w w 7.{.w.w w w c c c w w n w w w w w 0 3.'.V w c c w w w w w w w w c n c Z.d.N n V n n V c V n V B B 5.'.9.9.e.d.0.x.N.4.A s.9.4.8.5.D 3.M & HXKXKXKXKXKXKXKXDXXXzX.XZ.N.5.) p.#X$X$X$X%X%X%X&X#X&X&X#X|.[.[.[.[.[.J.J.`.'.'.'.'.'.Z.N.N.Z.s.Z.Z.'.Z.Z.s.N.s.N.d.d.d.s.p.d.9.f.9.9.9.9.5.q.5.6.9.9.6.7.3.3.4.4.4.4.4.4.6.6.4.7.7.7.4.6.4.7.7.3.5.7.3.7.3.4.7.3.3.3.3.3.3.3.3.3.3.3.3.w.3.^ w.^ w.3.3.4.7.3.3.3.3.3.3.3.3.4.4.3.3.3.3.3.3.^ V ^ 3.F q # + 4 0 V V D             %  Xd f e g s e 6 = % g C.[.Y.n.d = e g e s A 0.h.y = y = * g B M d e 1 2 e 3 3 8 u GXKXKXKXKXKXKXKXKX",
"  n.SXCXAXyX+X@.T E b./.c.o.+.b.@XCXCXpXZX>X;.l j +.oXm.h r k M.U.$.r j <.2XCXCXZXMX).@.x U c.+Xc.U o.;.;XCXCXCXCX0X%., , C | j.k.,.o.M.<.+.k.[ +.*X8X9X8X6X1.E $.+.T U.>.O.k.R +.>XuXtXdXpX<.J l f J G.E T E ;.<XAXuXpXpX<X;.U z z M.c.o.T o.b.,XuXuXiX,X<.T l H n.c.k h l c.I.U x +.;.).uX8X7X9XI.;.1.;.n.G.c.,.k.<.@XuXeXeXdX2X%       ' KX* 7 a.l.cXBXVXBXOXE.IXFXIXSXSXSXSXSX5Xa.cXcX%X%XcXbXbXlX$X$XcXcXN.5.9.q.9.q.f.q.f.f.w.f.q.7.f.kXs.B V V V V w.V V V V w.V V V V w.'.w.w w w c c c w n w w w w V c 0 w.'.V 8 c c c w w w n n c c c n w g.f.b n N n V n V V B V V v 4.'.0.0.9.0.p.p.l._ M s.0.4.4.5.^ ~ B & HXKXKXKXKXKXKXKXDXjXzXjXs.A.d.a 2 Q |.4X$X#X$X$X&X$X$X$X#XOXOX[.#X|.].[.].].].'.'.A.Z.A.Z.B.s.N.Z.d.s.d.s.s.d.d.d.9.d.d.i.d.d.9.9.9.9.d.9.f.9.9.9.6.9.9.f.6.9.6.6.5.3.6.6.5.7.4.7.4.7.4.3.4.3.3.3.3.3.3.3.3.3.3.~ 3.3.3.4.3.3.3.3.3.3.3.3.3.3.3.3.3.3.3.3.4.q.3.3.3.3.3.3.3.3.3.3.4.3.3.4.6.3.v n n 0 # + # 0 f.XXZ.g.            @ u.Z s d ` ..= e G G > > f n.L...> y s e 6 d G h.L e y : 3 s M e * 3 e 3 e e 3 y 3 IXKXKXKXKXKXKXKXKX",
"  G.PXdXuXuX/.+.o.+.>.OX>.$.>.b./.pXZXMXMX6X+.o.T E ~.M.E H U c.U.$.H T <.<XfXtXuXiXQ.;.R W >.~.>.T E $.+XCXCXCXCX0X@., : C } j.M.<.>.M.c.$.k.:.<.;XtX8XtX7XM.>.k.>.>.U.c.+.>.[ >.<XuXgXtXtX1.k x f J U.E R E o.+XZXMXpXpX:X1.U l W I.M.+.z T I.3XuXeXuX0Xb.j , k M.M.l , t <.T.W t x :.(.tX7XrX9XW.;.o.,.G.m.<.>.:.n.+XuXeXuXtX>X%   .   ' KX= 7 a.D.5XDXVXVXOXE.IXGXFXSXPXSXSXPX5Xl.bXlX#X$XlXbXcXlXlX$XbXlXB.q.9.q.g.q.q.q.f.q.f.f.f.7.f.$Xs.n V V V V V V V V V V V V V n 3.{.^ w w c c c c w w w n w n c w 3 ~ '.V 8 c c c w w w w w w c w w w f.d.N n F n n n w.V V V B v _ L.9.9.e.x.0.0.x.4.M p.d._ 4.5.^ ^ B & GXKXKXKXKXKXKXKXDXjXzX.Xd.5.i.S * 7 =.#X4X$X&XOXOXOX&X&X&X#XoX#X|.oX[.[.].`.[.].`.'.A.A.Z.Z.Z.Z.Z.g.e.d.s.g.s.s.s.d.9.9.d.9.9.9.9.9.9.9.9.6.6.5.6.9.5.9.9.6.5.5.4.4.7.5.4.4.4.4.3.4.4.4.3.3.3.~ 3.~ 3.3.3.3.3.D w.~ 3.3.3.4.3.3.3.4.3.3.3.3.3.3.3.3.3.3.3.3.4.4.3.3.3.^ 3.3.4.3.4.4.4.4.3.3.V 3 4 4 & # 5 3 F {.zXXXXX            X Q Z f Z u.=.d y { |.L.' G P.E. .d  .P. .6 , g =.d - s 3 2 m L B m Z s e 8 y e y 0 IXKXKXKXKXKXKXKXKX",
"  b.SXCXnXZX^.@.<.#.k.OXb.I.b.c./.pXZXZXNX@Xo.<.+.E oXm.:.,.E M.G.O.j.,.,.<XpXuXuXyXR.;.>.E j.~.>.+.<.;.+XMXZXZXZX0Xo.: e Y Y #.P.<.<.b.M.$.k.:.<.<XgX8X7X6XQ.^.qXqXOXU.k.+.:.+.>.;XuXeXtXeXM.>.n.,.,.m.M.^.^.Q.0XAXMXpXMX=X;.o.E W M.M.:.E %.b.2XdXeXuX,X1.x t J n.n.J l h >.T.R W ;.;.(.aXrX8XaXI.;.;.,.M.U.;.:.,.c./.iXeXwXtX<X%   .   ' KX2 > a.S.4XIXVXBX5XE.IXGXGXGXSXGXSXPX&Xa.%X&XOX$XqXcXUXbXlXkXcXlXe.q.g.q.q.f.q.f.w.f.q.q.f.3.d.zXZ.n V V n w.V V V V V V V V V n 3.{.D w c c c c c w w w w w w c c 0 w.'.D w c c c w w w w w n c n b q f.s.N w N n n V c c n V V v ^ A.0.9.9.9.p.p.x.4.B 9.9.4.4.8.D V N 1 PXKXKXKXKXKXKXKXDXjXzXjX7.w D ` S q p u.$XVXVXbX4X$X|.|.OX#XoX|.|.[.|.[.].`.].].`.'.`.'.'.Z.A.Z.Z.B.Z.B.s.s.s.d.d.9.9.d.9.9.f.9.9.9.q.9.9.9.9.q.6.6.6.4.4.6.4.6.4.4.3.4.4.5.4.7.4.4.4.4.3.3.3.3.3.3.3.3.3.3.3.3.3.3.3.3.3.7.4.q.3.3.4.4.3.3.3.3.3.3.3.3.3.3.3.3.3.3.3.3.3.3.4.5.4.4.4.4.3.^ v 4 & @ # 1 7 c D s.'.XXXX            % s.d f s 7 e e g =.E.].E.E.E.S.x e .. .G f d f u.g % s = = a A A M M i 2 = * 1 3 8 GXKXKXKXKXKXKXKXKX",
"  c.SXiXCXMX~.k.c.k.n.~.v.c.m.b.+XCXAXnXMX>X>.b.b.k.oXH.:.k.;.m.Y.r.V.b.b.<XZXfXfXpX_.;.,.,.k.^.c.>.b.$./.nXAXZXZX>XW : r G ' v.!.H.M.b.U.Y.Y.K.m.(.eX9X8X:XU.^.@X@XoXY.c.$.#.[ k.@XeX1XeX1XR.@XqXbX%XM.n.@XqX>XsXZXMXMXpX>X@.o.>.E c.m.:.>.;.<.2XCXuXpX,Xb.o.U E v.v.R [ H >.T.o.$.k.@./.CXpXtXfXW.;.M.>.b.I.$.:.<.c.+XCXuX1XmX3X;   .   ' KX* 3 x.C.cXFXBXBX X^.GXHXSXGXPXSXPXGX&X=.5X&X&X4XbXcX4XcXlXlXVXlXp.6.9.9.g.q.q.q.f.f.f.q.f.w.s.$Xs.b F V V V V V V V V V V V V n 7.{.D 9 w n c n w n w c c c w w n w w.B.w.3 c c c n w n w c c c c c 0 f.d.V v N V V n n B v V N v ^ Z.p.9.x.9.p.e.x._ a 9.e.4.4.9.D B B 4 GXKXKXKXKXKXKXKXDXjXcXjX7.7 b a.i.Z 9 d C.cXIXFXGXbXh.j.}..XOX}.}.[. X[.[.'.[.{.[.'.'.'.'.B.'.B.Z.Z.e.{.Z.N.s.s.d.d.s.p.N.9.d.9.9.6.9.6.d.9.9.6.9.7.q.4.4.4.6.4.4.4.4.4.6.6.6.4.4.4.3.4.4.4.3.4.3.3.3.3.4.3.3.3.3.3.3.3.3.3.3.3.3.3.3.3.3.3.^ 3.w.C 3.3.3.3.3.3.3.3.4.4.7.4.4.q.4.4.4.3.^ c 4 & + # 5 i i c c n w.'.XX            % i.d f s f d > s ' F.P.P.P.E.E...> e g s s Z  .,.G 7 i 3 = s Z M v s i 3 3 g e 3 3 FXKXKXKXKXKXKXKXKX",
"  k.SXuXiXnX/.>.>.k.G.!.n.v.b.v.~.dXCXnXMX3Xb.H.M.b.!.n.:.j.k.m.G.r.r.j.<.+XpXfXpXaX).,.n.M.H.!.j.c.b.c./.NXMXnXMX>XW , r G e.+XsX0X^.M.~.iXNXmX+X;XtX8XpXwXQ.@XmXbX+XY.oX@XqXqX~.;XdX1XrX7XU.@XbXqX@XM.M.%XrX4XqXZXsXaXMX:X$.[ +.#.F.n.:.$.@.M.6XMXfXMX2Xb.$.+.O.V.n.[ #.] k.T.O.$.j.$.+XpXpXaXMXI.;.c.+.k.m.$.>.>.c./.nXdXgXiX+X%   .   ' KX* = u.p.cXDXBXBXE.E.GXGXGXGXSXSXPXGX5X=.&X5X4XcXcXbXcXcXbXlXbXlXp.q.9.9.q.q.q.q.f.q.q.q.q.3.d.kXZ.b F N V V V V V V V F V V V n 7.XXD 9 w c c w w w w c c n n V w 3 V '.D 8 c c c w w w w n c c c n q 7.s.N c b N n n V V V V n p ^ A.p.0.9.0.9.9.9.8.B 9.d.3.~ ^ N i i 4 GXKXKXKXKXKXKXKXDXjXjXzXg.D i.`.A.{ m y b ].VXJXPXBX[ C e.r.L.V.].K.[.A.A.V.L..X'.'.V.{.B.'.B.{.e.g.{.e.s.s.s.s.s.s.s.d.d.d.d.9.f.i.i.i.f.9.6.6.9.9.5.6.6.4.6.4.6.4.6.6.6.4.4.6.4.4.4.5.4.4.4.4.4.4.3.3.4.4.4.3.3.3.3.3.3.3.3.w.3.D D 3.V 3.^ 3.3.3.3.3.3.3.3.3.4.q.6.4.4.4.4.4.4.4.3.B i 4 & # # 5 c v c 3 # 4 7.XX.X        .   X Q d d M u.h. .A { l.u.,.h.F.E.Q s K =.L .. .{ =.G e g e 3 i a s s g e 3 i a y y 0 FXKXKXKXKXKXKXKXKX",
"  v.SXnXNXnXT.c.m.n.G.~.H.T.U.T.).nXnXnXAX<Xb.b.>.c.!.G.[ } @.m.}.V.}.}.I.=XaXaXaXrX).;.k.k.n.~.n.:.>.b.OXAXAXMXZX0XW , r C R k.M.n.<.n.m.m.K.H.M.;XpXtXtX6XU.n.Y.G.V.Y.G.!.OX~.b.;XdX1X8X7XW.E.&X+XY.G.P.^.+X^.@XZXaXaXCX6X>.[ [ $.G.n.$.Y T b.0XMXaXCX2Xb.>.@.r.V.V.O.] #.v.Y.j.r.$.<.+XuXMXpXMXR.;.+.] c.m.>.@.:.k./.uXdXeXiX(.;   .   ' KX* 2 ` u.|.cXBXIX XE.GXHXGXPXPXSXPXPX&X .OX4XcXcXcXcXbXcXcXlXVX%Xs.7.9.d.q.g.q.q.q.f.q.f.q.w.s.kXs.p N F V V V V V V V V V F V n 3.{.~ q w c c c c n n w n c c w w 3 w.e.w.8 c c c w w w n c c c n n q 3.d.S c N n B V V n n V V c D N.p.8.9.e.0.9.x.9.B 5.4.B u 8 3 8 u & PXKXKXKXKXKXKXKXDXjXjXzXXXA..X|.Z.s.( d > A #XGXJXGXc.j T O.e.e.r.e.r.t.r.e.r.r.V.V.r.{.V.B.'.e.{.e.e.{.N.s.d.s.p.d.s.s.9.s.x.d.d.9.i.f.9.9.9.9.9.9.9.5.6.4.4.0.6.4.4.4.4.3.3.5.3.~ ~ 3.3.3.3.3.3.3.^ 3.3.D 3.3.D 3.3.3.^ w.D 3.3.4.4.3.^ 3.3.3.3.q.4.3.4.q.q.4.4.4.4.4.4.4.4.3.3.D v X.1 & & 5 4 u n B w 3 # q g.jXXX            % i.d d d f Z d 7 L P.u. . .' } ' Z G } L f  .' h.g = g 3 2 y i i s a 6 * 1 = * 3 u GXKXKXKXKXKXKXKXKX",
"  n.SXAXAXMX@X@XmXmX%XoXOXmXBX2X+XdXCXnXCX2X~.,X2X%X!.Y.!.&X!.Y.}.2XSXAX%X@XpXaXaXrX/./.mX%X+X~.OX2XqX@X+XMXAXMXMX,XW , e h Y } ,.W [ <.>.E :.' +.(.tX9XtX6XM.U Y U ] m.:.z +.W %.;XeX1X9X7X;.l x t U G.R l W W /.ZXMXaXMX0X$.Y / } G.F.x.V.r.G.0XMXuXuX2Xb.Y E O.V.V.O./ ] v.T.e.| r.:./.pXtXpXMX~.[ ] / k.U.j.} #.>./.uXdXuX1X+X%   .   ' KX= * L ! ( l.oXcXE.#XHXPXPXPXPXPXPXGX^.=.5X4XcXcXsXbXcXcXcX%XbXlXa.q.d.q.q.q.q.q.f.w.f.w.f.3.d.kXs.n N F V V N V F V N V F V F n 3.XXD 9 w c c u c w n c c n c w w 4 w.{.3.8 c c c w n n w c c c c w q 3.d.A p N n B n n v V N V n D Z.s.8.9.p.0.0.x.9.p ~ B 1 1 & 4 4 4 & GXKXKXKXKXKXKXLXDXjXzXkXjX#X|.s.` u.s.( 7 7 ` bXGXLXOXh / r.O.O.$.e.%.3.e.0.3./ 0.e.e.r.e.e.9.{.e.e.e.e.e.x.x.p.a.i.4.4._ 4.4.5.5.9.9.6.6.6.5.6.5.6.5.4.4.3.3.4.4.3.3.3.4.5.5.3.5._ ~ ~ ^ 3.^ 3.^ 3.3.D D 3.3.^ 3.3.D q.9.9.e.s.e.'.'.4.w.C 3.4.3.3.q.4.4.q.4.q.4.3.3.3.4.4.3.^ B c 3 5 * 4 4 X.X.v n c 0 w w 7.XXzX.X            % S.d i e > = * -  .J.P.=.=.' L s e s s g g L ( u.L > g 6 = 3 s s a a e * % & 2 1 0 GXKXKXKXKXKXKXKXKX",
"  m.SXMXAXMX+XM.U.G.G.~.U.Y.T.I.).1XnXnXnX3Xb.Q.OXT.~.Y.Y.oXQ.T.}.Y.+XOXI.;XZXfXtXtX*XT.2X2X~.!.^.@XqX+X@XMXfXfXMX,XR , r k Y #.,.=.O.c.k.O.c.#.@.(.8X8X8X7Xb.W ] E E m.+.U :.E O.*X8X9X8X8X;.l U t h U.E h O.T Q.CXaXaXCX2XV.L.L.Y.H.!.bXIXNXOX2XCXeXnXnXr.z k I V.V.e.e.O.b.~.j.| #.>./.tXtXrXnXT.O.[ / j.Y.j.} +.k./.uXfX8XwX>X%   .   ' KX* % d m s 6 G C.l.&XJXJXPXPXPXPXPXPX5X=.4XcXvX4XVXcXcXcXcXcXbXlXi.3.9.q.q.f.6.7.7.f.7.) f.D f.kXs.v V V V V V V V n V V n N N v 3.].D w p c p u w c i c c w w w w 4 V e.w.3 c u c w w w 9 w c c c w q w.d.A n b N V B V n V V B c S A.N.9.0.9.p.0.d.0.v K p & & 1 * & & # PXKXKXKXKXKXKXKXDXjXjXjXjXkX`.S 3 K N.C.` 7 @  .cXLX@Xh z r.r.r.&.e.e.e.O.e.*.C z C T &.^ C C *.C 3./ &.^ / / 4.l.'.N.s.p.9.x.d.0.5.5.6.6.6.6.5.~ 3.4.4.^ ^ 3.4.3.3.4.3.3.4.3.~ ~ D 3.3.4.3.3.3.3.3.3.3.3.3.7.4.3.3.D 9.{.[.|.{..X.X[.4.V V 4.4.4.3.4.4.4.3.q.4.3.3.3.3.^ D B X.3 2 & * 4 8 i v i c u 4 w 3.g.XX.XzXXX.           & K.d g f u.Z % = L P.F.F.z.u. .s e y m ..s Z ( k.( y g e 3 8 a i i f e = = & = 3 8 GXKXKXKXKXKXKXKXKX",
"  m.SXuXCXMX/.+.o.E <.~.r.%.O.@.T.CXdXdXdX;Xo.o.T o.T.b.U U U c.T.O.z &.@.=XfXtXtX7XR.o.H Y >.Y.,.R [ o.Q.ZXnXfXpX2XW , , l Y [ :.+.+.v.M.@.j.$.>.;XgXtXdXrXI.E ] ] ] b.,.U [ E $.;XpX8XgXrX2.U ] k T m.] Y O.T Q.ZXaXaXnX2XI.Y.oXU.H.U.OX@X+XY.2XCXdXdX2Xr.z C T V.G.r.O.O.v.Y.$.O.$.>./.tXtXtXnXY.%.O.] k.T.j.#.$.k.~.yXrX1XwX;X%   .   ' KXe & e s Z 2 * ( l.$XLXPXPXPXLXPXLXPX&XP.cXbX4XvX4XbXcXbXcXlXbX$Xi.3.9.f.9.q.7.6.7.f.w.f.4.) f.kXd.u B B N B v n V V V V n N N c ~ `.D 0 0 9 w c u c c c c n c n c 3 V e.7.3 c w c w p n w 0 0 u c w 3 D 9.D p n v n B n n n B V u M Z.N.4.5._ 4.5.4.5.v A c & 4 1 5 & & 4 HXKXKXKXKXKXLXKXFXxXzXjXjXkX.XD + y p. X Xu.e $ f }.G.e j O.e.r.e.%.&.r.O.&.O.T *.C C C C C g f g j X.X.X.i X.i B.VXcXlXkX$X$XkX.Xd.4.9.i.i.9.9.~ 3.9.B.9.9.9.4.4.9.9.B 3 3 0 8 3 3 N 6.4.3.3.3.3.3.3.3.3.3.3.3.3.V 3.{.|..X|.|.XX.XL.3.n C 9.4.4.4.4.3.3.q.7.7.3.D V V c c 4 1 5 1 5 X.u n V a 3 4 & + c g.zXjXjXjXXX            X ` d d d =.d % = L P.l.=.J L ( g > s K G ..I  .u.J 3 s e = e i = 2 e 3 1 = * & 8 3 IXKXKXKXKXKXKXKXKX",
"  n.SXdXCXnX/.+.+.+.j.~.b.$.@.>.).dXnXiXCX3XO.+.o.T T.V.T H h <.}.$.U T O.;XpXeXtXwXR.o.E U $.!.$.' +.E ~.nXnXCXCX>XU : , l k R [ ' [ n.m.] ] [ ;.(.8X7XeX7XM.E ] Y $.G.m.v.G.F.v.@XtX7XtXwXI.[ [ [ :.L.#./ [ E (.ZXpXuXnX3XO.h H h b.b.O.Y C r.,XuXeXeXgX$.z C H b.b.H C h $.T.O.I T o._.rXtX8XdXT.%.#.E j.Y.r.O.O.k.).iXeX7XuX2X;   .   ' KX^ O % 6 f S e l.l.$XLXLXLXLXLXLXLXPX&XP.cXbXcXvXcXcXbXcXcX4XvXcXi.4.9.q.q.q.7.7.7.7.4.f.f.~ f.kXf.0 V V A V D V D A F F D D D A 5.{.` b m S N V V N N V V V V N V n D 9.4.c B n v n n b n n n c n n 0 D d.V u b n v B B c n B v u B 9.^ v n B n B v B c a c & & & # # 4 u LXKXKXKXKXKXKXKXDXjXzXjX.XzX$Xd.O 3 0.|.$X$XE.L 6 X.- X - X.j / r.O.O.%.r.&.&./ C &.*.C C C C < f X.f X.*.X.: X.e.vXVXlXlXUXlXcXkXN.5.N.N.d.d.i.6.9.B.'.g.Z.9.9.q.9.9.0 & 5 1 & # & c 9.4.3.3.3.3.3.3.3.4.3.3.3.3.B 3.e..X[.XX|.|.#X'.^ B 3.4.3.4.4.3.4.q.w.3.D n v 0 3 4 4 5 4 3 3 3 i v B B 0 4 5 # 4 D {.zXjXjXzXXX            X D d s e e = = =  .C...= % g G y = 6 s g s L | =.s = i = * X.3 & % & & & = * = 2 2 GXKXKXKXKXKXKXKXKX",
"  n.SXmXMXMX(.>.>.#.v.~.v.>.k.c.).nXnXuXAX3X>.>.+.O.Y.G.] / E v.}.r./ O.@.@XCXaXfXuX~.O.#.O.j.OXv.] +.] T.nXCXCXZX0XW , , M  .k.n.P.c.v.V.M.v.n.c.).7X:X7X,XM.:.:.j.j.n.Y.%X2X%X~.+XwX7X7X0Xm.:.=.[ h.F.e.} [ O./.pXtXuXuX1X%.h T k b.b.O.T h $.,XuXgXdX3X$.z z k v.r.z h h +.T.E U ] o._.9X8XrXdXT.%.O.o.k.T.$.O.+.j.T.wXeXeXuX2X%   .   | KXC.* % & e a m P.S.4XPXPXPXSXSXSXPXSX5Xa.bXvXbXbXbXbXcXcXcX$XcX$Xi.D 7.q.7.3.7.7.7.w.3.3.7.) f.$Xd.A ~ ~ D A D A V N N N n p b v B i.S n w 0 p 9 9 u 8 u 0 3 0 3 0 8 c 3.D c c i 8 q q w 0 0 n n n V v D q.N 8 n w c c v c v v n c B 3.v 3 3 8 3 3 3 3 3 3 3 # & & 5 3 n D JXKXKXKXKXKXKXKXDXjXzXjXzXjXkXXXv 2 d N.J. X&X$XL.f X.X . X ; & X.C C O.*.e.e.&.&.C z &.z *.< C r *.j < r X.X.X.8.vXcXlXUXlXlXlX#XB.8.Z.A.N.s.d.N.g.s.N.9.e.9.0.9.9.e.c 1 2 4 3 1 1 c 6.3.w.3.3.3.3.3.3.3.3.3.3.3.c ^ '.[..X[.[.|.jXe.^ v 3.4.3.3.3.3.3.3.*.c 0 3 4 4 & & 1 3 i c c 8 8 v B B 4 & * 3 n 6..XzXzXjXzXXX        .   % a.d s = ..s & = 7 - % > g | { g = e e y g L ( u.L e e 3 = 6 e 6 3 2 * - & % & * @ DXKXKXKXKXKXKXKXKX",
"  k.SXpXAXAX+X$.$.#.k.!.v.k.k.k.^.yXMXnXMX2Xc.b.c.c.~.G.e.e.#.v.}.r.e.O.r.@XMXpXnXnX).$.e.r.v.OXv.} #.@./.MXMXAXAX2Xo., , l [ &XVXmX&XG.^.qXBXbX+X(.7X:X6X>X^.2XBXNX%XU.Y.bXNXVX/.+X6X9X7X,XQ.%XcXqX&XF.V.%X2X@X3XrXrXrXuX,X>.Y ] E M.n.j.O.T c.2XfX9XfXwXM.o.E T v.m.] Y U :.T.@.] W ;._.tXtXtXdXR.$.$.+.<.Y.j.O.+.j.Q.0XtXtXpX7X%   .   | KX$XZ * O % 7 e s.P.OXbX4X@X&X&X5XqXBX$XP.cXcXcX%X%X$X$X$X&X X4XkXi.) f.7.4.4.) D F D N N F v D 9.D 3 4 1 3 3 4 1 & @ O + + O & # 5 4 4 & # $ # # # & 5 # # # + + + + + # + + 5 & 5 # # # # 5 $ 4 5 5 * 3 c 3 5 3 3 2 3 3 3 4 q 3 q 8 B 3 1 * & * & 1 @ # # & & 5 1 8 B 3.6.LXKXKXKXKXKXKXKXDXjXzXjXjXcXjXjXs.b = m S Z u.#X%X#XK.( g % o o X ; - : t C C I C j *.j C *.j j X.j X.r X.r X.X.C UXUXlXlXlX%XlX$XN._ N.Z.Z.B.d.d.B.d.d.N.9.9.5.5.9.e.3 & & & 5 # 4 v 4.3.3.3.D 3.3.3.3.3.3.3.3.^ V 3.'.{.[.[.[.[..Xe.V c ^ 3.V N N B c 3 3 1 5 1 5 4 3 3 8 c B c 3 4 3 B B c 5 5 8 B w.g.jXkXjXjXjXXX            % 0.m d 7 f f @ ; = m { x.k.C.L.l e ..( G s P Z { L e g 6 = s M M M M e & % @ & 3 & BXKXKXKXKXKXKXKXKX",
"  n.SXCXAXMX+Xv.Y.G.L.Y.F.Y.Y.H.+XuXMXnXnX>X>.j.$.k.}.G.x.r.j.G.}.r.0.#.v.@XMXMXMXnX~.O./ O.U.oXv.#.j.:.~.NXnXAXAX2XE , , f  .G.!.Y.m.n.U.U.OX!.H./.9X:X:X:XQ.!.&X+XY.G.Y.OX&X+XH.@XwXrX7X6XQ.OX%X%XOXC.V.%XUX%X>XyXpXrXCX2X<./ R [ U.m.$.] Y j.2XCXtXtX6XM.o.+.] G.G.#.' U ,.~.:.R [ ;._.9XaXaXnX~.$.$.E P.!.K.&X%XOX/.yXtXeXuX2X%       | KXcXC.s & X @ * Q =.=.=.-.[ =.=.=.P.4X&Xl.OX|.K.A.x.a.l.p.i.=.S. X) Z m b p 3 1 3 1 # O # 1 O # @ o X O & 5 # + O @ % 4 1 2 3 3 3 3 1 3 8 3 q 3 3 q 3 0 0 3 3 3 w 3 w 3 4 5 & 5 4 2 1 4 4 # # # # $ 5 O + @ # @ # # & @ + # 5 @ + # # & 5 # # # 5 # # # & & 1 3 u B D 3.6.9.LXKXKXKXKXKXLXKXDXjXjXzXzXjXjXcX.Xi.Z Z e & 6 N.#X$X$X%XoXx.J e - X o . X % - X.X.: X.r j j r j C X.*.X.j X.X.X.C zXVXlXlXlXlXlX$XZ.~ x.N.d.d.s.N.N.d.d.9.9.9.4.4.4.4.a 3 y 8 u 8 a V / ^ 3.3.3.3.3.3.3.3.3.3.3.D B 0.{.|.[..X[..X}.e.c X.B c 8 3 3 4 4 4 & 1 3 8 i u c c v v v X.& 5 X.c u 1 O 5 8 n ^ g.cXjXjXjXzXXX            X Z ..d g s s = @ > m =.oXE.K.K.L 7 s K Z s ( P } g 7 g 2 * s K K N M 6 = 2 2 2 3 3 FXKXKXKXKXKXKXKXKX",
"  M.SXdXnXnX@X@XBXmX%X!.oXmXIX2X+XuXMXyXMX>XI.Y.~.T.}.+X2XBXbXOX}.%XmXUX+X;XnXaXuXyX).b.v.k.G.~.OX2XqX@X+XnXnXCXMX0XE , r ..J :.k.h.+.v.k.R $.[ o._.9X1X7X:X<.U [ ' T b.$.H R J [ (.rX7X7XwX<.J ' H R n.] Y O.O._.ZXaXpXnX3Xj.e.>.k.U.n.k.#.] b.2XMXrXrXiXb.R R +.F.V.} R R j.!.,.| =.=._.rXrXaXnXT.@.Y J k.!.oXsXbX@X+XyXtXwXiX,X%   .   | KXVX$XN.S = X @ 2 > % = > , e s , ..S.s.R ( K d 6 7 6 > 7 = & s s $ & % X o + % @ O @ * * * & 2 e u i A N w.V D D ^ 4.q.3.4.3.3.3.3.3.) ~ 4.3.3.) 4.3.3.3.3.3.3.3.3.3.3.3.3.D D I V F D V n N n w w c c c 3 q 0 0 3 4 3 4 4 1 4 4 * 4 # 4 3 4 1 3 3 3 3 c c B A ~ 4.4.q.9.9.JXKXKXKXKXKXKXKXDXjXzXjXzXjXjXkX.XZ.A.[.( - 2 x.#X%X%X&X&X&X+X[.e.| M = % X . . o X X % - - : : X.X.X.X.X.X.X.% C $XVXUXlX%XkXcX%XA.( p.B.d.d.d.d.d.9.6.9.5.0.4.^ B v B B a v B v v c X.c 3.3.D 3.^ 3.3.D w.^ D V v 9..X.X[.[.[.'.e.D 4 % 4 1 5 5 1 3 3 4 3 8 c v a c i B c v u 2 O 5 4 1 & # # 8 u c V '.jXjXjXjXzX.X            % s.s s e d i 6 e e - - ( F.E.E.m = > 7 e e  .=.u.Z = g 2 * i N a 3 1 = 3 3 7 7 3 3 FXKXLXKXKXKXKXKXKX",
"  c.SXCXnXuX+XU.+XOXY.~.T.OX+XoX/.tXnXnXnX>XT.@X@XOXoXY.@XUX@X~.OX+XUXmX+X@XMXuXpXuX+X+X2X2X+XoX+XbXmX>X+XiXnXuXuX>XE , r h P j.v.k.} c.c.o.,.' W (.7X1X9X6Xc.W j.$.Y v.#.Y :.U W /.rX8X8X7X1.l R h h M.E C ] T I.CXaXpXAX3X~.bXBX2X!.K.%XBXbXOX2XyXwXaXqX+X@XbX%X}.K.&X%X%XoX!.}.%X4XOX_.6XrXaXnX~.Y.Y.E.E.E.E.5X4X&X^.yXrXeXtXwX%   .   [ KXvXcX$XC.( a & % o X o O O O - X $ , > % O @ X o X X X o o @ @ X * = $ 7 y v N n F ) ) ~ 4.9.d.9.9.9.9.9.e.e.9.9.9.9.9.9.9.9.9.6.9.i.i.9.6.6.7.4.4.4.5.4.3.q.4.4.3.3.4.6.4.6.4.4.4.6.7.4.4.3.7.7.7.3.3.3.3.3.D ~ D D ^ D D D F F V N A N V D N D ^ 3.D 3.) 3.4.9.9.9.6.d.7.LXKXKXKXKXKXKXKXDXjXjXzXjXzXjXkX.XZ.D.#XC.i @ Z J.#XJ.( K l.oX&XOX&XOX[.V.| d e X.% o X X X o o X ; ; ; & - % X i .XDXvXcXcXcXbXvX].K 8.B.B.9.q.3.4.5.6.0.4.4.4.^ i 1 3 3 3 4 2 3 1 & 1 i C V V N V B B c u c u 3 4 B ^ D B B B 8 2 & & & 1 1 4 8 c v 8 3 3 8 8 u u i c c v B 8 5 % 2 8 3 & 5 3 n 8 u w.XXzXjXzXjXjXjX            -  Xs s f x.( = 2 { l.M 7 = =.OXJ 6 ..' ..6 I =.z.d g g 3 = f M e 3 i i 3 e y 8 9 7 FXKXKXKXKXKXKXKXKX",
"  c.SXdXCXZX/.o.o.U $.Y.j.o.T %.R.uXCXuXCX<X%.T T E Y.b.Y H T j.Y.$.Y T o.@XpXaXuXyXQ.@.E +.k.!.j.] +.@.Q.yXnXuXuX2XE , r l H $.:.+.[ v.M.$.v.#.>.*XdXgXtXwXI.+.j.r.$.m.c.>.c.+.;.@XtXgXdXtXI.[ :.z U H.E U O.o.Q.aXpXpXAX,XI.OX&XoXU.L.OX%X+XY.2XyX0XwXqX~.+X2X+X}.}.&X2X@XOXY.oX%XbX+X/.rXrXrXiX~.+XbX2X~.!.!.sXbX&X/.yXuXtXfXwX%   .   | KXcX4XcX$X#XA.8.f i 6 - $ - % % @ X $ - @ % % = 7 > y q y ..S A _ a.i.a.s.s.Z.Z.Z.B.Z.Z.Z.s.'.d.g.Z.g.Z.d.N.d.d.9.9.9.q.q.q.6.6.6.4.7.5.4.4.5.) 5.4.4.4.3._ 3.4.3.3.3.3.3.3.3.3.3.3.4.3.3.3.4.4.4.4.3.3.3.3.4.4.4.4.3.5.6.4.7.6.4.3.4.q.6.4.q.0.4.q.q.9.9.9.6.9.9.q.6.9.9.3.JXKXKXKXKXKXLXKXDXjXzXjXjXzXjXjX.Xi.i.A.l.Z % % s { ! = % e x.E.OX#X&X$X$XOX[.`.V.e.9.4.C g e 3 * o o X X + + . + i 4.e.N.'.L.J.V.I & 2 6 y u 0 3 8 i v v i i u 6 2 1 * 1 1 5 = 5 % O 5 4 3 3 3 4 4 4 4 1 4 4 4 5 & 5 & & O O # & 4 1 X.i i 8 i c B B 8 3 3 3 4 5 2 6 i B c i 6 4 3 0 8 8 3 w c V 8 w 3.jXjXjXjXjXzXxX            % a.s g ..{ =.Z 6 { oXoXH.{ P.OX' s Z k.( , s L k.2 > i 3 = B ^ C K C f 6 X.1 * y 3 IXKXKXKXKXKXKXKXKX",
"  P.SXuXCXMX+X+.E E $.T.>.%.O.%.I.rXfXuXnX1X@.o.z H I.v.I C T @.U.$.I T o.=XpXtXtXuXR.o.T k +.T.+.H T T /.MXCXuXuX2X[ : r h H Y U Y ] k.G.r.j.r.j.(.dXtXeXwXI.O.O.' e.G.OX%XmXbX/.@XaXaXtXrX_.+X4X4X^.^.} ' [ ] U.rXrXrXuX,X%.h h H M.b.E k h +.2XCXrXuX2Xb.h T H b.m.E Y U @.T.@.O.O.O.W.rX9XaXtXR.<.$.+.c.!.,.,.,.k./.yXuXtXuXiX%   .   | KX%X$XcXcX%X%X#X XL.F.a.=.=.=. . .( [ ` u.=.l.k.l.A.C.S.S.S.]. X`. X X].`.`.'.'.'.'.s.Z.s.s.d.s.9.9.9.9.9.9.9.q.9.q.9.9.q.9.6.6.5.6.7.4.5.6.4.4.4.) 3.) 3.3.~ 3.3.3.3.3.3.3.3./ ^ 3.~ 3.) 3.3.) ~ 3.3.3.3.3.3.3.4.4.4.4.4.4.5.3.4.5.4.4.4.4.4.4.4.4.q.9.4.4.4.9.6.9.9.6.3.n HXKXKXKXKXKXKXKXDXjXzXzXkXjXkXkX.X5.L l.C.l.( = & { S.| 6 e =.|.#XOX[.x.4.0.x.L.[.[.[.}.[.A.C.B.e./ | ^ C C a 0 X.3 8 i X.* & % % O O X X O # & 5 * & * & & & # & # & 5 & & # & & * * 5 3 3 3 4 3 3 8 3 3 3 8 8 8 3 X.c c c i 8 8 8 3 3 6 i i 8 v B c 3 c c 1 # # & 3 i X.3 5 # O & 4 X.n B B B c 3 8 q.zXcXjXzXjXzXXX            X S d s s = * 2 7 =.oXE.E.oXE.K.G = g m d 7 ..Z u.f = e 2 & i ^ A A B i 2 & * 1 7 1 FXKXKXKXKXKXKXKXKX",
"  P.SXuXMXMX@X$.+.[ k.Y.m.$.$.$.T.uXfXtXCX2Xb.$.E O.Y.G.] / o.k.}.r.] $.+.(.pXpXuXnXQ.@.+.Y :.!.k.Y o.o.~.iXuXdXfX6Xo., e f J j.z.k.k.v.V.| | [ >.+XuXeXyXwXU.] Y P O.V.oX2XbXqX&X@XaXtXpXwXQ.&XbX4X5XP.=.| ' E m.0XwX6XuX,X@.k H h M.k.E z l o.,XMXuXdXwXb.z z H b.m.T h h ] U.O.P Y R I.6XrX6XiXQ.%.+.R >.!.+.R [ :.~.yXuXtXuXiX-   .   | KX|.#XcX4XlXcXcX%X%XcX4X4X%X&X5X@X$X$X$X$X%X$X$X$X$X&X#X#X#X|..X X].`.].{.Z.'.'.g.s.s.s.g.s.d.9.d.d.9.9.9.9.9.9.9.9.9.9.5.5.5.6.6.4.6.4.5.6.7.4.7.5.4.3.4.3.4.4.3.3.3.3.3.3.3.3.3.3.3.3.3.7.3.3.3.7.q.3.3.3.3.3.3.3.4.4.3.4.4.3.3.6.4.3.3.4.4.4.4.4.4.4.4.5.q.9.9.9.6.D N 2 PXKXKXKXKXKXKXKXDXjXjXjXzXjX$XjXkX5.y 8.C.J.C.` d u.#XJ.P e K V.OX`.8.a % * f _ x.B.B.B.B.x.0.0.x.l.z.B.B.B.e.e.'.r.e.9.^ N K ^ _ 8.4.^ D ^ A b n b b c i c c i a c 0 3 3 8 8 8 v B B V B B B v B N V B B c B c 8 8 i v B i w 3 8 i 8 8 1 & 5 8 i B v B V B 3 4 3 c a 3 # + + + & 3 i B B B v v 8 5 1 3.jXzXzXjXjXjXXX            @ ` y s e  .L 7 e Q l.P.C.L.K. XG = e d s e L ' a. .6 i e 3 a N B a i y e 6 s y 7 3 FXKXKXKXKXKXKXKXKX",
"  c.SXuXMXMX+X$.#.#.V.Y.V.#.#.e.Q.uXnXnXNX2Xr.$.#.e.Y.F.O.[ +.k.}.r.#.>.,.@XuXuXuXuX).b.n.n.H.!.U.v.m.v.).iXtXuXfX6Xo., r f ' &XNXNX@XG.V.c.V.v.b.(.eXeXeXwXT.:.j.j.v.G.oX%XbXmX^./.yX9X8XrXQ.%XbXqX@XM.n.&X%X@X@XwXrXrXuX1X@.E E U V.m.:.E U ;.0XAXdXnXiXb.%.O.E k.V./ I H O.T.$.] [ +.Q.wXrXwXiXT.$.:.[ :.U.+.[ [ =.Q.yXuXtXuXiX%   .   ' KXD.A.4XcXlX$X%XcXcX4XcXcXcXcXqXcXcXbX4XcX4X5X#X$X&X#X|.|..X|. X'.`.`.'.g.A.s.s.Z.Z.Z.Z.s.N.Z.d.s.d.d.e.9.9.q.9.q.9.9.9.9.6.6.6.6.4.4.4.4.3.3.5.3.7.3.4.4.3.4.3.4.3.3.3.3.3.3.3.3.3.3.) 3.4.4.7.3.7.3.4.q.4.4.4.4.4.4.4.4.4.4.4.3.4.4.3.4.q.4.4.4.q.5.4.q.9.4.3.3.3.S w 3 5 HXKXKXKXKXKXKXLXDXjXjXzXjXjXjXkXkXs.6 S a.F.A.L.l.i.0.P 2 X @ * i | [.x.f 2 v 0.B.`.`.z.0.a * y M D _ 8.| 4.6.e.9.4.^ 4.^ N A 4.8.9.0.5.) 4.4.~ ~ D ^ D B V A D N C B B c f B B B B B B n c u c c B V N B B B i X.4 4 8 c X.X.4 i i 8 6 5 O & 3 X.c v B i 3 1 3 u B i 4 + # 4 X.8 v B V v c c 8 4 # @ i d.jXcXzXzXzXXX            % u.s s s a.p. .s ( u.{ ( =.h.F.{ ..L P.( e L  .P.f e f e 3 i a i y i 6 = 3 3 3 6 1 BXKXKXKXKXKXKXKXKX",
"  v.SXnXCXAX+X+.' [ j.Y.L.G.G.G.).dXCXCXCX2X$.+.T [ Y.F.Y U R c.}.r.r.r.r.+XuXiXiXiX(.OXcX4X@XE.&X4XqX@X/.sXpXfXMXrX>.: r f Y F.!.!.M.M.m.M.K.G.M.(.tXgXtXwXQ.M.~.oXm.G.Y.+X2X%X!.(.7X7X8X7XQ.+X4X4X^.M.G.&XbX>X;XrXrXtXtX1X$.H U U G.n.#.Y U >.2XAXnXnXnXT.$.O.] v.F.] I Y e.Y.:./ | $.^.wX6XwXiX~.$.J J h.Y.+.R E [ T.iXuXdXuXyX%   .   ' KX{ i.|.cXcX$X$X4XlX$XcXcXcX4X4XcX4X4X$X$X$X$X#X#X|.#X|. X XXX`. X`.`.'.A.'.A.g.'.A.'.Z.s.s.s.d.s.d.9.9.6.9.6.5.4.3.4.4.D D D w.F F F F F n F V n n N V V V V N V V V V n V V A A V A D D w.D ^ 3.w.D 3.3.3.3.3.3.3.4.3.4.4.4.4.3.4.3.q.q.4.3.q.q.q.6.4.4.3.~ F B c 7 1 5 3 JXKXKXKXKXKXKXKXDXjXzXjXjXjXzXkX#Xd.p * s s.P.J.F.N.0.! P i & O X e $XlX%X_ m ^ 0.C.L.x.( a * * p _ 8.p.0.9.9._ a & & y v v C ^ ^ D ^ N c 6 i v B B V B B B c i 8 3 8 3 i i i B a c c X.3 # # 1 3 a B B c B c i 4 # # 5 3 8 c C B v i 3 = 6 i c 3 4 & # O o + # 4 3 3 3 8 i v B a c a v y y 3 & @ 4 5 + 0 g.zXzXjXzXxX.           X Z a a y 6 i g @ Z J.u.L I L  .P d d ( L > L ' l.e 2 i X.2 3 i i i a 6 & * % & 3 2 IXKXKXKXKXKXKXKXKX",
"  M.SXnXCXCX@X>.c.v.G.Y.}.mXNX2X+XeXCXuXMX2Xm.U.U.K.U.H.G.G.m.H.}.G.}.r.G.;XiXwXwXwX(.@XbXqX&XE.^.4XqX4XOXmXMXnXMX0X@., r f C #.>.o.W c.b.E $.[ o.).8X1XeX1XI.T #.+.E v.j.T ] ] o._.7X7X8X7XI.U [ x  .n.[ Y $.O.I.tXrX8XdX1X<.! Y | K.C.} Y Y <.,XAXnXAXnXG.O.E ] v.F.' G H #.G.$.K / } !.rXaXaXiX~.] h f [ !.] f f J Q.nXdXtXfXqX-   .   | KX` Z a.OX4XlXcX$X4XcX4X4X4X$XcX$X4XcX$X$X$X&X$XOX#X#X#XXX X X|. X].`.`.`.S.Z.'.Z.s.s.f.d.f.6.3.3.D D D F n n c u u 0 w q 8 4 3 7 4 5 $ $ 5 # 5 # 4 5 $ 5 5 5 4 4 4 4 4 4 4 4 4 4 3 4 3 3 3 u 8 0 w w u c n V V n V V V N V V D D D ~ D ~ 3.3.D ^ V V N B c c 0 4 4 & 4 3 V LXKXKXKXKXKXKXKXDXXXzXjXzXzXzX.X9.F Q = % g =.J.`.F.x.0.x.0.8.) K M C _ ( 3 X O O * 3 M l.Z.l.^ K _ 8.0.9.e.4.^ i 1 3 u B ~ 4.4.3./ ^ v & + & c B V C V D B v 8 * # 1 X.0 i c i B B v 8 4 # & 1 8 c v a v B c X.3 4 3 X.3 8 i B X.5 * 5 4 6 i 3 & O O + & 5 5 3 8 8 c B B B B c i u i i 3 5 O @ 1 6 3 + + n XXzXzXjXXX.           % { e y e s e & @ ..J.P.h.{ ' L s e e s s = G { x.f = i 3 1 3 c g a i e & & % = 3 1 IXKXKXKXKXKXKXKXKX",
"  v.SXuXAXnX@XU.U.!.!.Y.Y.+X%XOX(.rXuXtXnX0X~.3X2X@XH.!.%XqX2XoX}.+XmXbX<X;XnXuXwXuX+X+XVXqX&XoX&X4XbX4X/.aXCXCXZXwX@., r h C $.,.;.W <.<.o.>.+.o.).9X9XeX1XM.W >.O.T M.$.U E U o./.wX8X8X8XI.k W l k n.] C / %.U.rX7XwXfX1XI.bXVXqX!.F.%XbX>X~.2XnXiXnXiX~.+X%XOXT.L.oX&XOXY.U.Y.OX&XoX/.aXpXpXyX~.G.~.!.H.U.n.U.!.n.^.yXuXrXuXyX-       ' KXi.y Z =. X$X$X4XcXcXcXcXcXcX4XcXcX%X4XcX%X$X$X&X#X#X#X.X|. X X`.'.A.Z.s.d.a.i.w.D S F n y 7 7 8 7 4 & 5 * 1 1 4 1 & # # & 4 4 4 4 4 4 4 q 4 0 0 0 q 8 3 3 3 3 4 4 4 4 3 3 4 3 4 4 & 5 4 4 5 4 5 # # 5 4 4 4 5 4 4 4 3 4 3 3 0 3 y u y 0 0 u 0 w 0 3 3 3 4 4 & * 5 3 w F 7.LXKXKXKXKXKXKXKXDXjXjXjXkXkXzXi.& 0 l.a.> o s =.J.L.l.0.0.0.0.e.N.p.| Q a 6 e 6 * % o & 3 d K u & & 1 * & 1 X.N 3.) ^ v v B N V B V v v v v a c v V B B B V v i X.c 8 i u c B c c i i w i B v i 8 3 3 3 2 4 4 5 4 X.4 X.4 & 2 2 @ + o + % 4 3 4 5 3 i c v B f B B B v a c i v i u i 8 4 # O # 5 8 X.X.5 + 3 d.zXzXzXXX            - J.y e s z.m @ * A z.C.x.h.=.[ s 6 e K M e s Z C.P 3 i 6 2 X.i X.6 e X.* 2 & * 3 1 FXKXKXKXKXKXKXKXKX",
"  c.SXuXCXnX/.+.[ E #.K.c.] [ +.I.8XCXuXnX>X;.T U ] v.n.R k T $.}.r./ O.$.+XnXuXuXuX+X>.r.:.k.Y.k.,.k.>._.MXAXCXpX0XO.: g h I r.<.,.;.<.b.+.c.h.<.(.tX8XeXwXU.o.,.:.O.G.b./ +.E o.(.tXgXdXeXI.U =.U R v.$.' $.] T.rX,XwXCX1XI.&X2XOXH.H.&X2X@XQ.;XiXiX1XUXT.;XUX%X!.L.+XbX2XOXY.OXUXbX@X/.aXfXpXuX/.@XNXmX+XI.OXmXNX2XQ.>XiXwXtXiX%   .   | KX|.S s s Q s. X.X$X4XcXcXcXcXcXcX4XcX4X$X$X$X#X.X|. XE.`.Z.s.i.8.5.D b b n 7 1 7 7 * + # & 1 4 1 5 4 8 9 p p c n v n V V w.D D ~ D w.D D D D D 3.D D D D ^ 3.~ D w.~ D V A V V V B v n n c c 8 8 w 4 3 3 3 3 3 4 5 4 * 5 4 5 @ 4 5 # 5 # 5 & 5 5 4 5 & 5 1 3 4 3 v n D 4.q.LXKXKXKXKXKXLXKXDXjXzXjXzXkXg.8 o 6 l..X` - O > G 0.x.p.0.0.8.0.0.u.u.p.x.p.u.{ | P A s 3 i 6 1 & % % @ O O O & 3 e 3 & O O O O O X @ 4 c 3 X.& O + + O O O O & 4 2 4 % O # @ # 5 O O O # 5 5 & # + + + + + o X O O 5 & 5 & % & * 3 y i c a B B C B B B B B B B B v i c a c c i 3 4 & O O # 4 X.c c 4 & + O w Z.zXzX.X            $ a.i e d P e & = Z l.h.L > g L g > y G M s f m F.i = f 2 1 3 8 & & = = & = * & 3 * BXKXKXKXKXKXKXKXKX",
"  n.SXrXnXnX+X;.E R +.K.c.] O.#.I.rXpXuXMX>X@.T l J v.v.J l k #.Y.] I I W @XCXCXCXiX/.o.H C $.Y.,.H U o.R.nXCXdXtX,Xo., r h C #.M.P.,.<.c.O.} [ ,.(.rX8XrX6XU.o.#.$.e.U.m.O.e.#.$.+XdXeXeXtXT.O.=.,.,.n.e.e.r.$.^.MXaXaXMX0X;.h h h G.m.Y U k +.,XCXiXtXnXm.%.O.J k.G.} E R :.U.$.] $.>.Q.rXtXtXiX).b.$.+.c.U.k.>.k.k.T.iXuX1XtXyX%   .   | KXlXa.S * $ s L { k.E. X XOX&X#XOX#XOX|. XJ.S.D.a.i.-.L A S 6 = 8 * O & 1 @ + * q 7 1 q c N b F ~ 3.3.7.4.6.9.9.6.9.9.9.q.9.6.9.9.9.6.6.6.6.6.6.6.6.6.6.6.7.4.4.4.q.3.3.4.7.3.q.4.4.3.4.~ ~ 3.3.3.D V 3.V w.V V B n n n c c u 8 3 0 3 4 3 4 3 4 4 3 0 0 w u c B V 3.q.9.q.9.LXKXKXKXKXKXKXKXDXjXjXzXkX{.w # # * A K.J.=.6 ; X * g L 0.l.u.a.h.u.0.0.0.{ { ` _ _ ' _ 0._ ^ Q ! ^ D M M N b a y u y 8 X.8 8 3 3 3 4 & # # & 5 # # & & 5 @ 5 & & 5 & 5 5 5 * 1 4 5 & 5 # # % & 2 3 X.8 3 8 u c B c c c B B v i i N C V C N B B f c c v B B C B N v c i i X.3 4 O O + O & 3 i c 8 8 8 4 # o + c {.zXjX.           X d e e X.2 2 - * f  .7 % % 6 f 6 = > e e 2 f ! z.M = e 3 = 1 3 % O & & & * & & 2 + DXKXKXKXKXKXKXKXKX",
"  z.SXtXnXnX+X>.,.} h.Y.v.$.e.$.R.eXpXnXnX2X$.O.Y E G.F.[ E Y :.}.r./ %.o./.pXaXuXuX/.%.O.T $.Y.n.R +.o.T.iXdXdXtX,Xo., r f C O.:.,.,.P.v.} R | ,./.rXrXrXwXM.[ [ | j.G.v.Y Y Y +.+XtXeXeXtXT.E J J =.F.0./ _ / U.mXpXMXMX0X;.j h h v.b.E U j W 0XpXuXpXiXm.T U j >.n.E l h W m.O.H ] E R.wXdXtXuXQ.@.%.+.>.T.j.E [ :.Q.uXCXwXiXyX-       | KXbX|.a.s $ * 2 7 6 y Z Q L ` A  .L L f ..s s y * 7 & $ 2 @ + 1 # @ 8 u 0 c S ~ ~ 3.6.d.d.d.d.N.s.d.s.s.s.d.d.i.d.9.9.9.9.9.9.6.6.6.6.6.4.4.7.4.3.4.7.3.7.3.3.3.3.3.3.4.3.3.3.3.3.4.3.6.4.4.3.3.4.3.3.3.3.4.4.4.3.4.3.3.4.3.3.w.3.D D 3.V D ^ V D D w.D ^ 3.3.4.q.9.9.9.9.9.LXKXKXKXKXKXKXKXDXXXkXzX.XD # & * & 2 0. XJ.h.Z > X . X = d ! =.l.N.l.h.u.0._ { ' ! ^ ! ! ! ^ _ _ Q K ^ _ { _ ~ D K _ 5.3.^ ^ D ^ ^ ^ ^ ^ ^ V C C 3.D B B B V C A C D V I ^ D C V C C B a v C V V ^ V A V C ^ 4.3.^ B V B N B a B B B a a c a v a i i B D ^ V N B c X.4 5 @ + + + O & 1 3 u c i 8 X.X.5 * # O + V jXjX            X Z e 6 & C g % & * % * e f [ ' g 3 7 d s 2 e _ C.! 3 e 3 = 3 e 3 6 2 & % % O O X.o NXKXKXKXKXKXKXKXKX",
"  c.SXuXnXMX+X#.Y Y j.Y.V./ / | U.iXuXnXMX2Xr.O.] :.Y.G.] ' E c.oXj.] $.@.).pXuXtXiX+X@.O.O.j.!.k.E O.o.~.uXnXfXdXwX@., r f ' OXNXbX&XL.oXlXVXbXOX/.wX7XwX0X!.&XbXbX&XY.v.[ } } j./.uXuXeXtXT.O.| | :.n.V.}.%X&X%XMXrXqXnX0X<.h T k H.m.+.] k +.>XyXiXyXiXI.o.o.H :.m.[ J k E G.;.Y ' O.Q.eX8XeXuX+X>.j.$.c.T.c.:.,.:.^.yXuXtXtXmX%   .   [ KXvXcX.Xs.Q 7 2 * * X * * & % @ % $ @ X @ X = X * = * y 9 p D ~ ~ 6.i.s.Z.Z.Z.'.A.g.Z.Z.g.s.s.s.s.d.d.9.d.9.9.9.6.6.9.6.5.5.6.6.7.6.4.4.4.4.4.) 4.4.4.4.3.4.3.3.3.3.3.3.3.3.3.3.3.^ 3.3.3.3.3.3.3.4.3.3.3.3.3.q.q.4.4.q.4.q.4.4.6.4.7.4.q.q.9.q.4.9.4.6.6.6.9.9.6.9.9.9.9.q.LXKXKXKXKXKXKXKXDXjXzXzXs.4 @ 4 * $ @ Z l.S.L.F.a.! e %   X O - g Z ( | 0.u.u.u.0.| | _ ( _ ( ^ ^ L B B ^ _ K A M m K _ ^ A D N B ^ D ^ D V C B V B B B B B ^ 3.^ D D D C B B v B B B v i a v B B B B c i B C V B i v X.v B v a a c i u v B B a i 3 3 X.i c X.3 2 & O O + + O # 5 X.3 3 8 i i X.4 & 1 3 1 & # + 4 '.jX            O A y i e f s & X = d { k.l.l.P.Z 7 g ' L e s ! F.g 3 i 3 * e s f f s X.& % % & 3 & DXKXKXKXKXKXKXKXKX",
"  c.SXiXAXAX+XO.] } c.L.V./ / O.R.iXMXuXNX2Xj.] Y #.Y.F.] J Y c.}.r./ O.$./.pXpXuXiX/.O./ } v.oXn.} :.,.T.iXdXuXCX7X@., r g Y G.OXOXm.M.T.~.%X&XQ.(.tX8XrX6XQ.T.%X%XoXU.v.$.$.#.$./.eX1XeXiXT.$.#.#.=.n.Y.@XmXyX0XmXyXrXnX,X<.P Y / L.Y.%XqX%X^.@XmXyXiXiXQ.OX2X@XK.Y.oX+X%XU.Y.Y.OX&X~._.wXrXrXwX).+.O.] >.Y.>.] E R Q.yXuXuXuXyX-   .   ' KXlXcX4X$X Xs. .K d e > > 2 * > 2 > = y > S Z Q { =.N.s.A.[.`. X X X|.XX].].'.'.A.'.s.'.N.s.d.d.s.d.d.9.9.9.9.6.9.6.q.9.9.6.6.6.9.6.6.6.5.5.4.4.4.3.3.3.3.3.3.3.3.3.3.3.7.3.3.3.3.w.3.3.3.3.3.3.3.3.3.3.3.4.3.3.3.3.4.3.3.4.4.4.5.4.7.q.4.6.q.q.q.6.4.4.9.9.q.q.9.9.9.9.9.D JXKXKXKXKXKXLXLXDXjXzX{.c # & & & @ @ i { l.L.S.F.J.J.u.f 7 % . o o X & = 6 d M K ^ ( ! ! 5.8.| Q S u i M ^ ^ Q Q D A ^ 3.^ C A B N V C B B B B B c i v B v B B B c C B n B v v i v v v v c i c i i i c c a B B B c v B v v a v i i i 6 0 3 X.3 4 & # @ O O + + + + O # & 2 8 i 8 8 w X.8 8 3 4 # % & 2 1 & # + + N XX            o e e e y y g 6 * 2 = f C.z.k.z...= > d s e f M z.a = e = & 6 a s i e * = 2 2 = 6 * BXKXKXKXKXKXKXKXKX",
"  k.SXuXnXmX+XOXbXbX&X}.}.lXbX&XOXwXnXmXMXqX^.%X2X&XL.E.&X%X@XOXY.}.+XOX~.+XpXpXuXiX/.>.} :.G. XoXOX@X+X~.yXnXCXCXrX+., r t H #.1.;.=.1.b.T ;.+.o.).8X9X8X7XI.W O.] E M.c.T ] E o./.iXeXeXeXT.T ' I Y v.[ U E E U.mXmXrXyX,X<.G H ( F.H.%XbXmX^.@XMXrXaXmX^.%XNXbXE.K.$XVXmX&XE.^.4XmX5X_.6XpXaXyX^.' ..t =.Q.+.l l U !.0XrXtXtXnX%   .   | KX$XlXcXcXcX#X#XJ.[.A.l.p.a.P.P.s.s.D.E. X X#X#X#X#X#X$X#X#X.X#X|. X X].'.'.'.g.s.s.s.s.s.s.d.d.d.d.i.9.9.9.d.9.9.9.9.9.9.9.6.6.6.9.9.6.6.7.4.7.4.7.4.3.3.3.3.4.4.3.3.3.3.3.3.3.3.3.3.3.3.4.3.3.4.3.3.3.3.3.3.3.3.3.3.3.4.3.5.3.4.4.4.3.7.3.3.7.7.7.6.q.6.6.5.6.9.6.9.q.~ w HXKXKXKXKXKXKXKXDX.XzX9.# O * & & % y i i K B.[.F.C.K.#X&XC.} P d e % O . . o . X O % % * * 3 y e 3 = 2 8 v a B B N N M B B B B B B d a B B B B v a a B B B B B i i i a v c f v a c i i i u 8 c i i i i i 8 8 8 6 8 3 3 4 3 5 * * & # O # O O O O + O O + + O & 4 3 8 8 v B V v X.3 3 6 3 = & # O # & 1 3 1 & # + 4 f.            o e e 3 6 f g = 7 s 6 - y M k.J.s = = = 7 > s L l.( 3 e 1 * e s 3 & * 2 * = 2 1 3 & IXKXLXKXKXKXKXKXKX",
"  P.SXuXyXsX+X~.@X%XOX}.}.2XUX&X/.rXMXnXMX0X^.2XNX%XY.}.2XVXqX^.}.&XNXAX3X/.fXpXtXnX*X~.4X%XOXoXOXbXNX%X+X0XiXuXtX6Xo.r g t P c.P.,.W 1.c.E j.#.o.).gX9XeXrXI.U @.+.T v.k.T +.E T ).wX8XeXeXT.k P h C v.[ h W E I.yXrX6XyX,Xb.j.k.k.H.G.&XqXqX!.@XZXwXpXbX!.&XqX%XE.J.oXcX%XoXE.E.%X5X^.^.aXaXrXmX/.H.H.H.n.Y.>.H k E U.0XwX7XwXMX-   .   | KX#X$XcXcXcXcX%X5X%XlX$X$X%X4X4X4X4X4XcX5X4X%X5X$X$X$X#X#X#X.X|.]. X`.'.`.'.A.A.'.s.Z.Z.Z.d.s.N.d.d.d.s.d.9.9.9.9.9.6.4.7.3.3.3.3.D 3.D D F D D D D w.D w.D D V D D D ~ 3.w.^ D 3.D 3.3.3.4.3.3.3.3.4.3.3.3.3.3.3.3.4.3.6.3.4.3.3.3.3.3.3.7.6.4.6.6.6.9.8.6.9.6.4.4.3.V u & GXKXKXKXKXKXKXKXDXjXzX9.& + & % % 2 M a % O f e.C.C.[.OX&XoXC.F. XOXl.' M f b i = - % % X O X X o + O + X o o o + O O O O @ & O O & & % * & * * & 4 4 4 5 & & 4 4 & 1 5 & & & 5 & # # # # O # O O # # + O O O + + + + + o + + o X + O O O & & & % O % 4 X.X.c B B B B B B B C c c 8 X.3 4 & O O @ % & & * 3 & @ # + w.            o e 3 6 f 0._ e = P 0.! e % L H.I , s [ M e s ( l.G e e 2 * y y e 3 e X.1 X.= 2 3 & DXKXKXKXKXKXKXKXKX",
"  z.SXtXuXpX/.@.o.E $.U.m.O.O.+.R.uXdXdXMX>X<.o.O.O.V.m.+.' [ ,.H.j.e.r.$./.uXaXuXuX).$.c.v.v.Y.G.>.M.<.Q.0XuXtXtX6X;.r r t P h.,.,.,.<.n.} :.#.$./.tXeXeXrXI.R :.#./ G.m.] $.+.%./.dXgXeXeXR.T ' H h k.:.Y o.E R.yX0X0XuX<XU.&X%X&X!.H./.sXqXQ.@XaXrXaXmX~.&XmX4XoXK.&XbXbXOXH.OX4XVX@X_.rXpXaXsX+X&XNXNX+X!.M.~.+XT.^.,XwXwXuXpX&   .   | KX[. XvXcXlXcXkXkX4XcXcXcXcXcXvXcXcXcXcXcX%X$X$X$X#XXX|.|.|.XX].].].`.`.`.'.A.'.Z.'.'.Z.Z.Z.Z.d.d.9.9.9.5.~ 3.3.3.D N N V V c u 0 w 0 0 0 w 0 w w 0 0 0 0 q 0 0 w 3 3 c c c c u c c v n N V V V w.V 3.w.3.3.3.3.3.3.3.3.3.3.3.3.4.4.q.q.3.3.6.4.4.6.6.6.q.4.4.3.D N c 3 1 5 JXKXKXKXKXKXKXKXFXjXzX3.& # & & & s I 3 % X & 3 B _ ].#X#X[.x.u. X#X XL.[.}.&X}.A.C.z.0.| Z v i e 3 1 @ & 2 1 & & % # @ % & @ O O + + + O O O + O O O O O O O + O O @ # O O O O O O O # # # # @ O O # # # & & # & & 4 2 4 4 2 3 3 6 X.0 i i i i X.1 X.i c i B B B B a B B B B i 3 3 3 3 = & O O @ # % & * 1 5 & # + c             o e 3 3 e s f g 6 K p.x.a.=.u.z.G e f  .L e s K l.e * e * * 3 s y y e 3 2 & & % * & BXKXKXKXKXKXKXKXKX",
"  k.ZXtXdXfX(.@.T E O.m.b.O.O.o.I.uXCXnXAX2X@.W U T V.v.Y I l #.Y./ I Y E ~.tXpXuXiX).o.H U +.Y.k.k U W Q.uXuXfXfX9X;.r r g I #.=.=.=.P.F.| ' | #.).tXtXrXwXT.[ #.#.$.G.m.#.h.$.j.).iXeXgXdXT.$.k.j.r.v.>.E o.T U.yXrXwXrX<X1.x J k n.n.' =.U o.6XpXwXaXyXM.R @.R c.H.:.[ R ,.G.,.=.,.=.Q.aXdXdXaX/.M.v.z.b.Y.M.n.G.n.!.2XwX7XrXMX-       | KXN.a.$XcX%X$X4X4XcXcX4XcXcXcX4XcX4X4XlX4X$X&X#X#X#X#X.X|..X|. X`.XX X`.'.A.A.Z.s.s.d.9.9.6.4.~ S N N n n u 3 3 4 4 4 4 3 4 1 1 # # $ 5 $ # # # # # # # 5 # # 5 4 4 4 1 1 4 5 # # & 5 4 4 4 4 3 0 3 4 X.4 c X.c c B N N V F A F D ~ 3.3.3.3.D ~ w.D D D F A N n 9 2 4 5 1 0 JXKXKXKXKXKXKXKXFXjX9.3 & 1 * & 3 K f & % & & @ % & i ! A.#XL.N.[.OXK.C.V.].#X[.A.L.J.B.N.l.l.N.0.4.^ u N 0.0.^ ^ ~ K B B B B B G K a i c B B v u i 8 i i i i c 8 i a v c v c a v v a B B B V B B v i X.X.8 i i c a V ^ C V a a a B a c i v a a 3 4 6 i f c i i v v c c c i X.4 & & * 3 X.5 % @ @ % % & & * 1 & # @ 5             . 1 = * = & & & 1 s L ( ` { h.u.s = > 7 > * 2 Z u.g * X.= * 2 e 8 6 6 2 & % = & * % BXKXKXKXKXKXKXKXKX",
"  k.AXuXfXfX@X1.O.O.$.Y.v.#.r.#.m.uXdXCXMX0X<.+.[ E z.P.Y P U #.}.e.Y / R ~.yXtXyXiX/.$.o.E :.T.<.U W W U.rXpXtXdX7X;., r f I z.M.P.<.P.P.` ! Y [ ).iX7X7X0X!.M.K.K.G.G.v.$.O.#.$.).1X1X9X1XR.$.#.$.r.m.$.T z U I.yXyXwXrX,X@.k f t v.k.J R h W >XMXtXuXuXM.j z j ;.m.U h j z U.;.J } T I.eXdXdXdX/.$.O.%.O.T.r.] [ +.T.2XwX1XwXyX-   .   | KXu.) A.$XcX4XcX$X4X4XcX4XcX4XcX4XcX%XlX%X$X$X$X$X$X#X#X.XXXXX|.`.`.A.Z.s.d.9.5.~ A V p p 9 4 1 1 4 3 4 & # # # 1 3 3 3 0 3 3 q 3 8 0 0 w 0 u u c c c c c c w 0 w 0 3 w 3 3 0 8 3 1 4 5 1 1 4 4 5 & 5 4 & 5 5 4 4 4 1 4 3 3 3 q 0 0 3 i c c w p 0 w w 0 3 3 4 4 4 5 5 3 c w.PXKXKXKXKXKXKXKXDX{.0 O * * * * B C 4 @ & & & & % O X & i B G ! z.[.|.F.`.}.[.B.| | 0.0.z.N.A.].'.4.4.X.N 0.4.I ^ ^ M N C ^ ^ A ^ ^ M v B N B B i D D B c i B C B v N D A V A V V ^ N B ^ N A A B v u i c i v B B v B C A B c i a i 8 8 u i i i 3 2 6 u X.u 8 i i i X.X.X.5 & @ O @ & = X.4 & O O O % # % & & & # + +             . * * * 2 y e 2 2 6 y d S Z ( ' s = 6 s e 7 e s u.! 3 6 2 = = 3 2 2 2 = * * * * * O BXKXKXKXKXKXKXKXKX",
"  k.SXiXZXMX@X>.} ] j.K.F.e.e.#.T.wXnXnXMX6Xk.,.[ [ G.E.h.h.k.v.}.j.] O.+./.yXtXtXiX(.$.O.+.k.T.n.E E ;.U.rXpXrXaX7X;., r g ' K.qX4XOXP.H.&X%X+XH._.1X9XwX,XQ.!.2X%XOXG.U.Y.@XOXT./.9X1X1X1XR.I.@X@XOXm.>.;.<.;.).uXiXwXuX1X1.Y H k v.v.] #.x +.>XMXtXnXMXI.z T k j.m.] l k E I.1.Y :.E I.7XdXeXeX;Xj.$.O.r.T.v.+.+.,.~.,XuXwXwXyX%   .   ' KXp.m A D.&X$X$XcX4XcXcXcXcXcXcXcXcX4XcXcX%X$X$X$X$X&X.X X].S.D.a.f.) D N p u 8 # # 5 * @ + @ 4 3 3 4 0 0 c c V F F V 3.w.D 3.7.q.6.7.4.7.6.3.3.4.4.5.3.3.3.7.7.3.3.3.3.3.w.D w.D D ^ N n v v c v 8 3 3 8 8 4 4 2 5 5 & 4 # # * 4 5 5 5 1 1 5 * * * 5 & 5 # # & 1 3 u v ~ q.@ X X X X X X o M d.& & * * % 6 I X.% # & % % & & & & y 6 @ O % = i M L 9.e.e.3.^ 4.0.0.0.p.C.[.r.3.A 1 6 4.^ B B M B M D B B a B B B u i B B X.i C ^ B i v B n c 8 B D A A A B ^ ^ ^ C N B N D v c X.i B a a i i i a B c i i i a a i i i X.y 3 3 3 3 X.3 3 3 3 2 2 5 & + O O O @ % O & 3 8 & % & % @ % & & & & # + #             o = * * = 3 e 7 e e e y y s s d d e s L d e y y } s = e 2 * = 2 2 = = * * = & & % O NXKXLXLXKXLXKXKXLX",
"  k.AXnXAXNX@X#.P / e.[.B.| ! / H.rXnXyXMX4X1.=.,.,.F.E.F.F.F.H.}.e.' [ @./.nXCXnXnX(.O.H Y k.!.k.J E E T.qXuXtXdX6X@.r r g Y v.!.^.H.1.!.+X%X%XT.).7X9X1X1X~.~.%X@XOXU.G.OX2X@X^./.9X1XgXgXR.2.U.Y.U.U.k.<.b.<.Q.fXuXrXtX1X<.] / / F.G.j.c.E $.@XMXnXdXnXT.o.@.O.v.K.$.] [ #.Y.c.:.h.+.I.7X7XwXiX+X:.O.O.$.Y.b.>.#.+.T.iXtXuXeXyX%   .   | KXZ.S 7 s s.S. X#X4X$XcX4X4X4XcXcXcXcX4X$X$X$X.X XS.D.s.i.Q D c 2 7 1 @ # * 1 O @ 3 c 3 8 v D D ~ ~ 5.6.6.9.q.9.d.9.f.d.d.9.9.q.f.d.i.8.6.6.6.6.6.9.6.5.q.4.4.q.7.3.4.q.q.4.q.q.6.6.q.3.4.q.3.3.3.3.3.3.3.V D V B v n c w u 0 0 3 3 4 4 5 4 1 4 4 1 1 1 1 1 4 0 c V D 3.q.d..               i q.@ * * - * d B 1 # % % & & & @ O e I f y = O + O % & 2 X.8 X.a i g e 3 e a C C c 8 & 2 B N B i i a a a i X.8 i i e 3 6 i v X.8 B B i u i u i X.3 X.C B B v v B C V B B B B C v i 6 6 u X.8 i e 8 y y 3 3 X.3 6 6 3 X.3 1 = * = * 1 * * * 2 5 # # O O O O @ @ @ % @ @ = X.X.; O & # % @ & # & & 5 +             . & % & & * 2 = 2 2 3 e y y y e 6 2 7 6 6 * e d | s - X.* % & = 2 2 * - & & & % & X BXKXKXKXKXKXKXKXKX",
"  z.SXmXmXmX@Xh.#.0.v.[.V.| } 0.m.rXsXyXaXqXk.,.,.l.F.E.H.F.n.G.}.e.#.#.$./.dXCXnXnX(.b.k.k.L.!.k.[ +.;.U.iXtXfXfXrX@.r r g G $.1.,.=.,.c.E $.=.W ).9X1X9XwXR.E +.+.O.v.v.[ } } +.Q.7X9X1X1XI.z j t h b.O.j k x <.iXrXrXeX1X<./ Y / G.F.} #.Y @.>XnXiXuXmXY.Y R / v.[.0./ ! e.L.oX%XcX&XQ.wXpXuXuX@X#.Y Y #.Y.m.~.OXH.+XqXnXuXwXwX-   .   | KX#X) p = y Z  .a.S.S. X#X#X&X$X#XoX X`.A.D.a.` ` m p y * 1 * o @ * + * 6 u v V ~ 5.q.9.s.s.s.d.B.B.s.d.d.s.s.d.9.9.9.9.9.q.9.9.6.9.9.6.5.5.4.4.3.4.5.3.4.4.3.4.4.3.3.3.3.3.3.3.4.w.3.4.6.4.3.3.3.3.3.3.4.q.q.4.7.4.3.3.3.3.D w.D A F N N B v c n V b b V F D ^ ~ 4.9.6.d.9.o           .   3 D & & * & 3 M 8 & % % % % % & @ & M K 3 % % % O O O & & & & * 1 2 3 1 % O O & - 4 * & & * & * 1 1 * & & & & 1 * & & * & - 5 & 4 4 1 = 5 - 5 4 * 5 5 4 3 1 * & & & 4 & & & 4 1 1 1 2 * 5 * * 1 & & 2 3 * & & * & & & 5 & & @ & & & % # @ * 3 X.& + @ @ @ @ % @ @ @ @ % & 4 X.5 @ @ @ & % % & % # # +             . % % % % % % * * * = = 7 7 e 6 = * * 6 > * = d 0.! 2 X.1 - & * = = * & & % % @ & O } L.v.F.F.C.V.V.V.",
"  k.AXyXyXmX+Xj.j.k.v.K.L.r.V.r.T.uXuXnXCX2Xb.c.n.v.H.Y.oX+XoXL.oXv.j.v.<./.MXMXCXnX+XOXbXUX&XoXL.P.H.n.~.0XiXiXuXwX@.r r r I k.H.M.;.<.<.E j.#.%.).1X1X9X7XU.z E E T b.k.J =.[ E R.7X9X9X1XI.z U H h k.+.U $.@.m.iXtXrXuX,XM.Y.OXE.!.F.[.@X@XY.2XnXyXyXNXU.:.h.k.z.K.F. XY.n.E.Y.&X%X&XT.yXCXuXnX@Xh.' Y $.Y.K.OX%X@X^.qXCXtXwXiX-   .   | KXlX`.` 9 2 > 6 9 s S `  .R  . .Q A Z Z e y = 7 # @ & o * 4 * 9 S S D i.6.s.A.Z.'.'.{.B.'.{.Z.B.d.d.d.d.d.9.9.9.9.9.f.9.q.9.6.8.6.6.6.5.6.4.6.4.4.6.4.4.4.4.4.3.3.3.3.3.3.3.3.3.3.3.3.3.3.3.3.3.q.3.3.3.3.3.q.4.q.4.4.4.q.4.4.e.q.q.3.3.3.3.4.3.3.q.4.4.q.7.6.9.9.9.9.q.9.q..           .   * b * * & = X.g 1 & # % & % % & @ X.^ i % O @ O @ O O @ # # @ O + 6 B c * % & & & & & & @ % & 5 % & & @ @ & X.X.1 % % % % O @ # & 5 % & & # @ & # & % * 3 6 4 @ @ & & & & # & 5 % & 5 % & & & @ @ # 2 6 3 & & & & & @ @ @ @ # # & # O O O & 3 i 3 & % @ O @ % O @ @ @ @ @ X.X.4 % @ & % % @ & & @ # #             . % O O O O O % % % & * * * 2 2 3 2 = 6 e 7 & e ( y * X.& & & & & & % % @ & % % @ % .                 ",
"  k.SXtXnXtX/.@.o.O.$.T.V.O.#.#.T.1XeXiXnX3X<.%.E E b.G.+.] ] k.}.j./ ] O.).uXMXCXCX*X;.v.v.v.Y.n.E +.+.U.wXtXwXwX2X;.r r g I r.k.<.+.c.m.O.c.#.o.).eX8XwX7XQ.] ] ] ] v.n.E +.[ [ ~.tXeXgXtXQ.Y / P H z.=.R @.+.m.yXMXmXCX6XQ.&XqX@XE.K.&XBXbXOX%XyXnXuXmX~.~.%X&XH.E.OXbXbXOXH.!.%XVX@X~.uXuXuXuX@Xc.j.e.j.Y.Y.%XUX&X+XyXpXuXuXmX-       | KXvX$X X=.d y > $ O * * - $ * & = % % X $ @ & * * s 9 d _ 8.a.s.A. X`. XXX].'.'.'.'.Z.Z.d.9.N.9.d.d.9.9.d.9.9.f.9.9.q.9.6.9.6.4.6.5.7.4.4.5.3.3.4.4.5.q.4.4.4.3.3.3.~ 3.3.~ ) 4.) ) 3.3.3.3.3.3.3.3.3.3.3.3.4.q.4.3.3.q.4.4.3.4.3.3.q.q.q.4.e.q.q.q.6.9.9.9.9.9.9.9.q.9.q.q..               = u & 1 & 1 6 2 & % & % @ & & @ & B K 3 O % % @ @ O O @ O % @ O # X.B X.@ @ % % & & & @ @ O % @ % % % @ @ 4 8 8 2 % @ # @ @ % & % # & % & & @ # O O O 5 8 i 3 % O % @ @ % # # & % & & % @ @ @ @ O @ 2 y e & O O @ % @ @ @ @ % @ O O @ % * 3 3 u i 8 & @ @ O @ % @ % % @ O & X.X.& # @ & & & % & # # 1             o * & % & - O O @ @ @ % % & & * * = = 2 > = = 6 ( * ; X.- % & - & & % % % % % % O O o . . . . . . . . ",
"  P.ZXyXMXnX(.O.T T O.V.b./ / T b.1XuX1XuX<X@.T I T V.m.k h l W Y.%.C H T ).uXdXtXdX(.o.H U $.U.>.h z z I.yXuXdXCXyX<.r e t I ' =.=.[ j.G.O.j.#.@.).tXeXeXiXQ.@.#.} #.V.m.R ' W [ _.rXdXeXuX_.[ / } #.V.z.k.,.+.U.yXMXnXnXwX<.U T I v.F.] $.[ @.>XuXuXuXmXI.o.:.[ k.K.:.[ [ :.m.n.:.z.j.I.tXtXuXuX@Xj.} / #.U.v.v.V.M.Y.iXnXuXuXnX%   .   | KXvXcXkX.Xl.` Z y 7 * = * % $ * = 2 2 s m ..` -.s.D.A. X X#X.X#X|.XX.X].'.'.'.Z.s.s.B.s.d.N.B.d.d.d.d.9.9.9.9.9.9.6.q.9.9.q.6.6.6.4.5.5.7.4.3.4.4.5.5.4.3.4.3.3.3.3.3.3.3.3.3.w.3.D 3.3.3.3.3.3.3.3.3.3.3.3.3.3.3.3.4.3.4.3.4.3.3.4.3.3.q.4.4.q.e.q.5.6.7.6.6.q.6.6.q.q.q.q..           .   * 3 % 2 & - - & & % & & % & & # 8 C i & @ % % @ @ @ @ @ & 4 B C ^ C v 3 + o + O @ @ O O O O O O O @ O O O 1 X.u * O O % @ @ O O @ @ O O O O O O O @ O & 3 c 3 & O O @ O O @ @ # @ @ @ @ @ @ @ @ O @ & e e * O O O O O O O O O O % & X.X.3 1 = X.3 X.& O O % % % & # @ @ O % 5 8 3 % % & & & # & # # 8             . & - - 5 = & % O O O @ @ % * & & & * = * & & 6 ` M * X.& & % % @ % % % % @ @ @ @ @ .                 ",
"  >.BXrXMXMX+X$.O.] $.U.v.O.O.O.m.iXnXuXuX>X<.o.%./ b.G.E U x [ Y.e.T O.T Q.uXuXuXdX(.%.T E #.Y.j.k W R I.0XdXfXfXwX,.r X.g C I U U E k.U.' / / O.~.7X1X9XwXQ.E ] ] #.m.v.Y J J [ Q.iX7XeXuXQ.R M G ' n.k.[ +.[ T.mXMXuXMXiX<.j h j k.G.H H h T <XuXiXeXyXI.k k l :.H.Y h f U !.>.h ' Y I.eXdXdXuX@X<.O.O.$.T.j.E O.#.Y.qXfXeXtXiX-   .   | KXcXjXcXcX$X XA.s.a.` (  .L ' =.u.l.l.S. XOX#X%X#X$X#X$X.X#X$X|. X X].A.`.'.'.'.s.'.Z.Z.N.d.d.d.B.9.9.9.d.d.9.9.9.9.9.9.9.9.i.6.6.6.6.4.6.4.4.6.5.q.4.6.5.4.4.4.4.4.4.3.4.3.4.3.3.3.3.3.3.3.4.3.3.3.3.3.w.3.3.3.3.3.3.3.q.3.3.4.4.4.4.4.3.q.4.q.3.q.6.5.6.6.q.4.4.6.q.q.q.9.% X X X X X X X e 0 & 2 & & & - % & & % & @ @ * B C 2 @ % # @ @ % % # & & & 5 X.V B C / C i & # O @ # @ O X O O @ @ + o o 2 i 6 % X O O O + O O @ O ; 5 & % O + O O + & 3 X.3 @ O O O O O O @ O O O + O O O @ O O X $ 3 6 2 & % O @ @ % & = & O & 4 4 = & O % 2 8 2 % O @ % # # @ % % @ @ @ & 3 X.5 & & & & # # * $ #             . & & & ; % % % % % % 2 = ; & & % % % & * % @ & P C & & % % % % @ & @ @ % @ O O ; + }.2X%X%X%X%X%X%X%X",
"  k.AXyXyXmX+X$.O.] j.Y.V.#.' ] T.2XAXnXZX0Xb.c.G.V.V.G.} Y W ,.}.r./ O.$.~.yXMXuXdX(.@.O.O.r.Y.z.[ +.E Q.qXnXuXuX0X1.r , g I j.G.H.n.n.U./ / ] @.).1X1X7XwXI.E E ] $.m.!.!./.&X!.^.6X6X9X7XQ.!.oXoX!.G.v.K.+XOX@XmXyXyXuX7X<.z k h k.G./ / U O.@XnX7XtXyXI.U E H >.G.R h k T U.>.J [ E I.tXgXfXpX@X>.[ +.+.I.j.O.O.$.T.2XdXeXwXiX&   .   | KXlXkXcXcXcX$X$X$X&XOX|.|.|.$X&X$X%X4X4XcX%XlX%X$X$X#X.X|.#X|. X{. X].`.'.'.'.s.'.s.B.s.g.N.9.g.g.9.N.d.s.d.d.9.9.9.f.9.i.6.i.6.6.5.9.4.6.9.4.6.6.4.4.4.4.4.3.4.4.4.4.4.4.4.4.3.3.3.3.3.3.3.4.3.3.q.3.3.3.3.3.3.3.3.3.3.4.3.3.3.4.3.3.4.4.q.4.4.4.q.4.4.6.q.4.7.7.q.q.q.7.q.LXKXKXKXKXKXLXKXlX3 # 2 = % @ & & % & & & @ O X.K a & % # % % % % @ % @ % O + @ X.v X.3 c X.X.5 & 5 X.% & & 4 4 3 a s b f X.8 a 6 & O & X.2 2 i X.X.c C C V i & % 2 2 2 X.8 3 * % % & % & = 3 X.X.X.3 4 = * % @ * = 6 6 6 y 6 3 * - = 1 X.X.1 % O @ @ O @ O O * X.3 & @ @ % & % # % % @ & O @ 4 X.4 & % # & # & * 5 o             . * % O O @ @ @ % % & * 4 % X.f % + O O @ & @ X s = X % % % @ @ O O @ @ % % @ @ % X BXKXKXKXKXKXKXKXKX",
"  k.SXuXAXMX+XO.U H #.K.v./ G I m.nXCXdXpX6X<.k.V.}.K.G.' J  .,.}.e.I / %.~.yXuXuXuX/.@.} } k.}.v.} [ E U.iXMXMXyX,X;.r X.r I G.@X@X^.M.v./ $.} @.Q.wXeX9X6XT.[ [ [ } v.!.&XbXsX_._.6X6X6X6X@X@XBXBXbXK.G.2XNXnX2XyXuXyXtXwXb.T Y Y V.L.] $.E >.@XaXtXaXnXT.U W E M.m.G.K.Y.M.T.M.J | E I.eXdXdXtX<XH.Y.Y.H.T.V.O.$.O.T.iXuXuXuXnX-   .   | KXlXkXcXcXkXlXcXcXcXcX4X4XcXcXcXcXcXcXcX4XkX$X%X$X$XOX|.|.|. X X].].'.'.A.A.Z.Z.'.Z.B.N.B.Z.Z.Z.e.Z.d.N.d.s.d.d.d.9.d.d.i.i.6.i.9.6.4.4.4.9.4.4.4.4.3.3.4.) ^ 4.~ 4.3.4.3.3.3.4.3.3.3.3.3.3.q.3.3.4.3.3.3.3.3.3.3.3.q.3.q.3.3.3.4.3.3.4.4.4.4.q.4.4.6.3.7.6.7.6.6.q.q.q.3.9.LXKXKXKXKXKXKXKXVXu 6 u 6 2 & & - * * & & # & i C 3 @ % % % @ & & & @ & & O # 4 B i & + + O @ @ @ & # % @ % % % & * * * X.8 e e 3 & @ & & * * 1 X.5 = 5 - 1 1 % & 1 & 1 3 8 3 * & % % & % & 5 & 5 = * = * & % @ & * * = 6 6 * @ @ % & % @ O @ # % O @ O % % O & 3 3 * @ @ % @ % % % # # & % @ & = = & & % % & 4 * $ o             . % O % ; O % @ @ O % % % % * 2 & @ O O O O @ @ s e O O % % % % ; % % % @ % % ; 5 + BXKXLXKXKXKXLXLXKX",
"  P.SXuXnXnX@Xm.V.G.G.K.K.|.}.L.).1XnXyXpX0Xm.n.}.[.L.L.k.l.,.n.Y.e.I / / ~.iXuXuXiX/.O.Y / x.oXz.J J R U.yXCXuXrX>X@.r : r C #.,.,.[ <.m.Y ] [ E Q.eX8X9X7X!.W R Y T k.P.[ ;.=.=.Q.wXwXrX7XQ.E | [ ] v.,.+.>.>.R.yXuXiXuX1Xb.T P J F.K.} | R :.@XpXaXrXyXQ.z k C b.Y.%XBXIX+X}.c.h ' U I.uXdXtXyX@X@XNXNX2XY.b.Y I Y U.iXCXeXtXuX&   .   { LXcX.XcXkXkX%XlXlX%X4XcXcX4XcXcXcXcXlX4X%X$X$X#X$X#X#X#X X X X].].`.].`.'.A.Z.'.Z.Z.Z.Z.Z.d.B.d.'.9.d.d.d.s.x.9.d.9.9.6.6.6.6.5.5.4.4.3.4.4.3.3.4.4.4._ 4.) ~ ~ ~ 3.~ 3.~ 3.3.3.3.3.3.3.3.3.3.3.3.7.3.^ 3.3.3.7.3.3.4.4.4.3.q.3.4.4.3.3.4.4.4.4.e.q.5.6.7.q.7.q.q.4.6.7.q.{.LXKXKXKXKXKXKXKXVXZ.0.B a M 3 & & & & * * * 2 i X.& & & % & % & & % % @ % % # X.v i 5 @ & % % % % O @ @ O @ O O O O O X 5 3 e * X O @ O O O @ O O O O O + O O O @ O O & 3 X.3 & O O @ @ @ @ O O O O O O O @ @ @ @ X @ # 3 6 * % O @ @ O O % @ O % & & & # @ % @ 2 e 2 % @ & # % % @ % % @ @ & @ 5 * & & & & & 4 5 # #             . @ % & % % % & % & & % % @ O @ % % % % % % % & K ^ % X ; @ % @ % & % % % O % % & O BXKXKXKXKXKXKXKXKX",
"  k.SXfXyXqX@X+XmXNX%X!.oXbXNXbX+X2XCXyXMX6X+XqXNXUX}.}.4XNXbX@XK.e./ / $.~.nXuXuXuX+X$.#.e.j.}.n.} j.@.!.yXMXuXtX,X@.r X.g h h.k.,.[ >.M.Y #.@.W W.tX8XrX9XQ.W E ] U b.<.J W W x W.rXrX8XtXU.h t g t k.#.t k W c.2XuXuXwX,XM.Y J Y F.L.| [ Y :.@XaXaXtXmXT.U k C j.G.K.2X%X}.Y.V.v.L.n.I.iXdXuXaX@XoX%X%XOXY.v.j.k.k.Y.iXCXiXiXuX-       ` KXcXjXkXcX$XlX$X$XlX$X4X4XcXlXcX%X%X$X$X%X$X$X$X#X#X|.|. X X].`.].`.[.].'.'.'.'.Z.Z.Z.Z.B.N.N.N.9.g.s.d.9.9.9.4.8.9.6.6.6.6.4.4.4.4.~ ^ ^ 4.) ~ 3.4.4.4.4.4.~ ~ ~ 3.~ ~ ~ D ~ ~ D ~ 3.3.3.D 3.3.D 3.3.3.3.3.3.3.3.^ 3.q.3.3.3.4.4.q.4.4.q.4.q.4.q.q.6.9.6.7.4.q.q.7.4.q.d.XXLXKXKXKXKXKXKXKXFXzX8.* y B C r 2 & & % & * 1 3 & & & & & @ & @ % @ % @ % % & X.X.3 % & & & % 5 & & @ % % % % % @ & @ @ * 3 2 & & % % @ @ @ @ @ # % % O @ % % @ % O % * 3 3 2 & O % @ % @ @ % % @ # @ ; % @ % # % $ % @ = 6 3 % @ % % @ # @ @ % % & & @ % & O O & 3 3 * @ @ % @ & % # % & & & & % & & & * 1 3 & @ 1 n             o * % O ; & & - & % % % O O O @ @ O % & % % % & * & O O O O O @ @ % % 5 % % & 5 - X BXKXKXKXKXKXKXKXKX",
"  P.ZXyXMXnX+Xj.j.j.z.G.v.h.h.,.I.1XnXiXuX>XM.M.G.V.L.G.P.M.k.n.Y.e./ T ] ).yXuXtXiX(.@.$.j.j.Y.v.j.v.,.Q.yXCXCXfX,X@.< : g h #.>.,.[ ,.c.] $.:.W W.rX9X9X7XI.U [ @.Y >.c.U +.E z Q.rX8X9X7XR.k l f h k.+.h R o.<.,XwXwXwX1XI.T / T V.G.} #.[ ;.;XuXtXtXMX~.} $.#.F.L.&XBXNX%XY.oXbXBXbX~.rXtXfXyX@X&XbXbX%XE.!.qXBXqX&XqXtXtXiXiX-   .   | KXlXjXkXlXkX$X%X%X%X$X$X5XlXlX%XlX%X%X$X$X%X&X#X#XOX#XoX|.|.[.[.[.`.[.{.'.'.A.A.Z.Z.Z.Z.9.'.e.9.9.e.9.5.) ~ 4.9.5.5.5.6.6.6.4.~ 6.6.3.3.4.4.4.5.D B F D N F ~ 4.3.3.3.3.3.3.3.) 3.3.^ 3.D 3.~ ~ D 3.~ 3.D w.D 3.3.w.3.3.3.3.3.4.3.4.4.q.4.4.4.6.4.4.6.6.4.3.3.3.3.w.q.f.{..XLXKXKXKXKXKXKXKXFXjX_ 1 O 3 M K K b e = * & # @ O % % @ & @ @ % @ % @ # & @ & 2 & & & % O % @ O O @ @ @ O O @ @ O % @ @ & * & & % % O @ @ @ @ # % @ & & % # % & % @ O & * & & & O % O O O @ O % O O @ O @ @ O @ O @ & @ & * & & @ @ O & # % % & % & & @ @ & % # & * 2 * & & & & & & & & & & & & & * & 1 2 7 3 + + V 9.            X P s X.X.2 & @ @ O @ @ @ % % % & & & & % % @ % % % & & & % @ % @ O @ @ & & = y 2 @ BXKXKXKXKXKXKXKXKX",
"  ,.SXrXMXCX+X+.H H O.U.k.P J J b.,XwX1XtX@X;.z H H v.n.x t l +.m.O.H H T Q.iXrXwXuX(.&.h I ] Y.:.k U U M.yXCXtXeX:X@.j : t C O.:.,.;.,.m.+.k.:.o.).7X9X6X7XQ.o.[ [ E b.b.E O.E W R.7X9X8X8XR.T G l J c.:.U o.+.I.0XiXyXdX1XM.T C C V.Y.E E T %.+XtXeX8XnX!.#.h.} F.L.z.l.z.e.}.G.z.F.n.I.rXpXaXsX@XM.E.L.c.H.H.L.!.G.^.qXuXuXwXiX-   .   | KXkX.X$XkX%XkX$X$XkX$XcX4X%X%XlXlX%X$X$X$X$X#X#X$X#X#X#XoX|.[.[.[.`.].].`.'.A.B.A.B.Z.e.Z.e.'.e.e.e.8.0.9.N.B.B.s.4.9.9.9.d.4.~ 9.s.N.9.9.4.5.9.c 4 3 7 4 3 A 9.4.3.3.3.3.3.3.3.4.4.3.D 9.9.9.9.d.9.~ ~ ~ ~ 3.3.3.3.3.3.3.^ 3.3.3.3.3.3.3.3.4.4.4.4.4.3.3.w.D 3.q.9.g.XXjXjXLXKXKXKXKXKXKXKXDX.X|.5.3 O @ 2 b Z ^ ^ i X.8 X.* & 1 % & & & & & & # & O @ @ @ & & * 1 - 5 4 & 1 = 1 1 1 2 2 2 3 6 3 = * 2 e e 7 3 3 3 3 8 u X.3 3 3 3 2 2 2 1 2 2 3 3 3 & * 2 7 3 3 2 3 3 1 2 2 * 2 = * * * & & & 1 * & & # O # # @ O O + O O O O O O + @ @ @ # % @ & % @ O @ @ @ % @ @ @ & & 1 1 1 * 1 # # + 4 s.XX    .       X s y B ^ g 2 - % ; @ @ % % & & & & % % X X O O O @ @ % - & & % O O X O X O & 6 3 + BXKXKXKXKXKXKXKXKX",
"  k.ZXaXpXMX/.o.U z E b.<.T E W b.3XiX1XaX=X,.W U k c.m.U l x o.U.] C H o.R.wX8XwXeX).T z C E U.>.l z z I.uXfXeX7X3X<.r : f C ] ;.:.W <.M.E E Y E Q.9X9X9XwX_.Q.%XqX@XY.m.E E U o.Q.7X8X8X1X).O.Y Y R v.z.[ [ E M.rXpXuXdXwXb.z j j j.m.C U h z +XwXwXwXyXI.l j t >.U.Y h f h T.b.r k k <.8X9X8X9X=X;.z T o.U.c.U T W I.iXuXiXwXmX%       | KXkX#XkXkX$XkX$X$X$X$X$X%X$X$X%X%X$X&X$X$X#X&X&X#XOXOX.X.X[.}.[.L.'.].J.A.Z.'.B.B.e.e.e.0.0.9.4.e.L.#X#X#X.X$X$X`.3.i.d.9.d.4.8.s.Z.N.d.9.3.q.9.6 # 5 & # O v 9.3.3.3.3.3.3.3.3.3.3.D ^ '.{.[.[.[.'.4.D ^ 3.3.3.3.3.3.3.3.3.3.^ 3.3.3.D w.~ 3.3.4.3.3.4.3.w.w.9.g.g.XX.XjXjXLXKXKXKXKXKXKXKXLXLXLXLXGXFXIXFXGXGXGXGXGXGXHXHXGXGXGXGXIXGXGXGXGXIXFXGXFXGXIXFXGXGXGXGXGXGXGXGXGXGXGXGXGXGXGXGXGXGXGXGXGXGXGXGXGXGXGXFXGXFXGXGXGXFXGXFXGXFXGXSXFXGXFXGXGXGXGXGXGXHXGXGXGXGXGXFXGXGXGXGXGXFXGXFXGXGXFXGXGXGXGXIXGXIXGXIXIXFXIXFXIXFXFXIXIXGXBXGXGXIXGXIXIXFXFXIXIXIXGXFXFXFXFXFXGXFXGXIXGXBXIXGXGXLXJXBXBXBXBXBXBXBXGXBXFXGXGXGXGXFXFXFXIXFXSXFXSXFXIXIXIXIXIXGXIXFXIXIXFXIXSXFXIXFXFXIXIXIXIXFXGXIXBXKXKXKXKXKXKXKXKXKX",
"  k.NXwXaXpX(.o.T z E U.v.T R E I.1XuXeX8X6X1.x U U b.M.U l l E Y.O.Y T E Q.wXrXeXeX).o.H T E U.<.k U z <.1XeX8X8X,Xb.r : g h / R R [ ,.v.#.u.} :.Q.rXtXwXrX^.OXqXbX%XK.z.} ' R [ !.yXwXtXtX~.[ P P ' P.V.} e.#.H.0XrX7XeX1X2.h j g :.M.H H l W (.iXwXiXrXI.z l h $.H.T h h z T.b.t H k 2.tXgX9XtX@X;.J E T m.c.T R E U.wXuXrXtXyX-   .   | KXlXjXjX$XkXkX%X$X$X$XcXcXlX%XlXlX%X%XlX%X%X%X$X$X$X#XOXoX#XoX|.`.`.[.J.J.F.V.V.B.e.e.0./ / ^ i C #XvXcXvXlXbXlX[.8.s.Z.s.B.9.B.Z.Z.N.d.N.9.9.e.i 2 3 8 4 3 N 9.q.3.q.4.4.q.5.4.4.6.3.D '..X[..X.X.X9.D 3.4.9.6.4.6.q.3.9.4.q.q.4.9.t.3.4.4.3.9.4.^ ~ 9.g.s.{.{.XX.XzXjXzXzXLXKXKXKXKXKXLXKXKXKXKXKXKXKXKXKXKXKXKXKXKXKXKXKXKXKXKXKXKXKXKXKXKXKXKXKXKXKXKXKXKXKXKXKXLXLXKXKXKXKXKXKXKXKXKXKXKXKXKXKXKXKXKXKXKXKXKXKXKXKXKXKXKXKXKXKXKXKXKXKXKXKXKXKXKXKXKXKXKXKXKXKXLXKXKXKXKXKXKXKXKXKXKXKXKXKXKXKXKXKXKXKXKXKXKXKXKXKXKXKXKXKXKXKXKXKXKXKXKXKXKXKXKXKXKXKXKXKXKXKXKXKXKXKXKXKXKXKXKXKXKXKXKXKXKXKXKXKXKXKXKXKXKXKXLXKXLXKXKXKXKXKXKXKXKXKXKXKXKXKXKXKXKXKXKXKXKXKXKXKXKXKXKXKXKXKXKXKXKXKXKXKXKXKXLXKXKXKXKXKXKXKX",
"  k.AXwXyXMX+X@.O.] $.Y.G.O.O.O.I.3XnX1XuX>Xc.+.] / V.L.:.:.,.P.}.O./ / $.~.tXiXwXiX).O./ ] $.Y.j.H R W I.7XeX9X8X7X1.r = t C h.H.n.P.>.K.&XqXcXOX_.wX8XrXrX^.^.bXbX%X}.K.OX2X%XOX/.yXeXeXwX).m.oXoXU.F.n.}.&X@X@X6X6X6X6X6Xb.U h f j.m.U U U W (.rXwXeXyXT.z k h :.G.] H h T Y.r.h Y U M.tXdXdXfX>X,.R [ W m.m.E ] O.G.3XeXrXrXyX-   .   | KXLXKXKXKXKXKXKXKXKXKXKXKXKXKXKXKXKXKXKXKXKXKXKXKXKXKXKXKXKXKXKXKXKXKXKXKXKXKXKXKXKXKXKXKXKXKXKXKXKXKXKXKXKXKXKXKXKXKXKXKXKXKXKXKXKXKXKXKXKXKXKXKXKXKXKXKXKXKXKXKXKXKXKXKXKXKXKXKXKXLXKXKXKXKXKXKXKXKXKXKXKXKXKXKXKXLXKXKXKXKXKXKXKXKXKXKXKXKXKXKXKXKXKXKXKXKXKXKXKXKXKXKXKXKXKXKXKXKXKXKXKXKXKXKXKXKXKXKXKXKXKXKXKXKXKXLXKXKXKXKXKXKXKXKXKXKXKXKXKXKXKXKXKXKXKXKXKXKXKXKXKXKXKXKXKXKXKXKXKXKXKXKXKXKXKXKXKXKXKXKXKXKXKXKXKXKXKXKXKXKXKXKXKXKXKXKXKXKXLXKXKXKXKXKXKXKXKXKXKXKXKXKXKXKXKXKXKXKXKXKXKXKXKXKXKXKXKXKXKXKXKXKXKXKXKXKXKXKXKXKXKXKXKXKXKXKXKXKXKXKXKXKXKXKXKXKXKXKXKXKXKXKXKXKXKXKXKXKXKXKXKXKXKXKXKXKXKXKXKXKXKXKXKXKXKXKXKXKXKXKXKXKXKXKXKXKXKXKXKXKXKXKXKXKXKXKXKXKXKXKXKXKXKXKXKXKXKXKXKXKXKXKXKXKXKX",
"  z.AXiXMXMX+X+.T P O.Y.v.} / e.T.3XnXiXnX>X<.] ] 0.V.}.@XqX4X/.Y.| C C T ~.iXtXuXiX(.E K P | K.z.I H W M.yXZXfXuX6X1.< : g C V.OX/.!.c.m.Y.OXOXH.Q.eXrX7XaX/.U.@X%XOXG.Y.}.%X%X^.^.rXtX1XtX;XOXqXqX+XU.m.OX2X2X4X6XrX6XrX7XM.Y Y Y v.G.+.] E +./.eX7XeXyXQ.E E J j.Y.} / I / Y.j.I | Y M.tXtXfXpX@X<.R [ E U.H.] +.O.I.2XeXwXtXrX-   o   G GXmXBXNXVXNXVXBXNXmXNXVXNXBXBXBXNXVXNXNXNXVXNXVXNXNXVXNXNXVXVXmXVXmXmXNXVXNXVXmXVXmXVXNXNXVXNXVXNXNXVXmXVXNXVXNXNXVXNXVXVXNXmXVXmXVXVXVXmXNXNXVXNXVXNXNXNXVXNXVXmXNXNXBXVXmXNXNXmXVXVXmXVXmXNXbXVXNXNXVXNXmXNXbXVXNXNXVXVXmXVXNXmXVXmXVXNXbXmXVXVXmXNXmXbXNXVXmXVXmXbXNXNXbXNXNXNXVXNXbXbXmXmXVXbXmXNXbXmXVXbXbXbXmXmXbXmXmXNXbXVXmXbXmXbXbXmXVXVXmXbXbXGXFXGXGXFXFXIXGXGXGXFXGXFXIXFXFXIXFXGXGXGXGXGXIXGXGXGXGXGXFXFXGXGXGXGXGXGXHXGXFXGXGXGXGXFXGXGXGXGXGXGXGXGXGXGXGXGXGXGXGXGXGXGXGXGXGXGXGXGXHXGXGXHXGXGXGXHXGXGXGXGXGXGXFXFXSXGXGXGXGXGXGXGXHXGXGXGXGXGXGXGXGXGXGXGXGXGXGXHXGXGXGXGXHXGXHXGXGXGXHXHXGXGXHXGXGXPXGXHXGXGXPXPXGXHXGXGXIXGXHXGXHXGXHXHXPXHXGXHXPXGXGXPXHXPXGXPXHXGXHXPXGXHXHXGXHXGXPXHXGXHXGXPXGX",
"  k.AXyXMXMX@Xc.m.G.G.L.K.OX%X+XOX1XuXrXuX,Xc.E / #.v.L.OX4X%XOXL.r.I C o.~.iXuXuXwX+Xr.x.B.C.[.V.{ 0.h.n.qXNXMXaXrX1.t : g f } :.,.o.$.b.E +.[ W R.9X6X7XwXR.=.O.+.o.c.m.[ :.@.E R.8X8X8XeXW.o.] o.o.c.$.E +.+.2.6XaXaXpXwXm.T P Y v.H.$.$.@.;._.eX8X8XyXQ.E E Y k.L.' Y I / Y.v. .{ R M.uX8XrXaX@Xk.J J R G.v.I H T b.iXiX1XeXyX-       X * & & - * & & - & = * % % O X O & * * * - * * * * & * * * - 1 = * 2 1 = = = = 2 2 - * = = = * * = = = 2 = = = > = 2 3 = 2 = = X.2 = = 2 3 2 3 3 2 = 3 3 3 = 3 = 2 = @ O & 2 2 2 = 3 X.3 3 3 3 X.2 2 2 2 X.3 3 2 2 3 3 3 2 X.3 3 e 3 2 e 2 X.2 2 X.3 3 e e 3 e = 3 e 3 e 6 6 2 & % & 2 3 X.3 6 e 3 e 3 3 e e e 3 6 6 6 3 e 6 3 e 6 7 e 3 e e 6 e 3 6 e 3 / 9.0.9.9.p.0.0.0.0.d.e./ B i u 4.9.8.9.p.0.0.p.0.8.8.p.p.a.e.e.d.d.9.N.e.9.x.e.N.s.0.9.l.x.9.N.x.N.l.s.N.x.9.B.N.l.B.B.e.A.B.N.B.B.N.N.B.x.C.B.N.C.N.N.C.N.B.B.z.l.! y B 0.N.N.N.N.B.B.l.C.B.B.A.B.B.B.N.B.B.B.A.B.s.D.D.D.'.B.B.F.B.B.`.B.B.A.B.A.A.A.A.A.B.A.V.C.A.B.B.A.`.l.^ A 8.N.B.'.A.B.A.B.B.B.B.A.V.V.'.C.'.J.C.J.A.A.'.C.A.J.C.A.A.A.A.A.C.A.Z.A.",
"  z.SXaXpXaX@XOXqXbX&XK.}.%XmXUX+X1XtXwXtX>X<.@.$.e.V.Y.&XsXsX/.Y.}.OX+XoX^.0XiXiX1X*XOXbXbX&X}.oX%XbX2X~.mXMXMXaX6X1., : t h #.k.,.W >.c.T +.] W T.9X9X7X:X).E R ] R j.v.R >.[ R I.1X1X1X1XR.z Y T z <.$.z T E 1.6XaXaXuXwXT.b.n.V.G.H.o.U z %.).8X8X8XiX!.E U H c.L.z.G.L.v.Y.H.K.oXE.m.rXtXrXaX>XG.n.F.v.L.n.k C H b.iXnXiXwXsX-       e #X[.[.].[.[.[. X].[.#X|.9.A ~ B.[.[.[.|.[.[. X[.].].[.[.[.[.}.|.|.[..X[.[..X[.[.|.|.[.|.|.[.[.#X[.#X|.|.|.[.|..X|..X#X|.|.#X|.|.#X|..XoX|.}.#X|.|.OX|.|.oX|.#X|.[.L.^ A B.}.|.|.|.|.|.[..XOX#X|.|.|.|.|.[.#X.X#XOX[.|.[.[.XX.X|.oX#X[..X#X#X&X#X.X.X|.|.#X#X.XOX|.#XOX|.#X#X$XB.0.'.|.XX.X#X#X|.#X[..X|.oX.X#X#XoX#X#X#X#X#X#X#X#X|.#X.X#X|.oX.X#XoX#X#X[.[.[.[.`.[.[.[.[.[.[.$X#X9.9.L.[.[.[.[.[.[.[.[.[.[.].[.]. X[.'.[.[.[.[.|.[.[.[.[.[.[.[.[.[.`.[.[.`.].].].[.[.[.[.[.[.[.[.{.[.[.[.[.[.`.`.`.[.[.`.`.].`.].].[.].].[.A.8.8.'.'.L.L.].[.`.[.[.[.`.[.[.`.[.'.[.[.'.[.[.`.'.A.`.`.[.[.`.[.[.[.[.[.[.[.`.].[.`.].[.[.`.[.[.[.].[.#X[.A.[.[.`.].`.`.[.[.[.[.'.[.`.{.[.'.[.[.`.`.`.].[.].[.].[.[.[.'.L.`.[.[.[.[.`.",
"  k.ZXrXuXpX@X<.:.,.,.F.n.,.j.$.I.,XrXrXuX>X1.+.$./ v.U.j.c.c.G.}.V.V.G.b.~.1XiXiXwX+Xc.m.G.v.Y.V.v.G.M.I.wXCXuXfX6X1., , t G #.,.:.W <.v.T $.[ E W.9X8X8X7X_.E [ [ R k.M.] :.@.E Q.rX8XgXeX).T T o.z >.$.T E T <.>XtXuXAX1X).OX%X%XoXU.k : < z (.3XeXeXuX~.%.z H c.Y.oXbXbX@X}.Y.%XbXqXT.wXtXtXyX@X~.qXmX@XY.n.T ] O.m.,XyXrXwXyX-       e .XA.].A.A.S.].S.J.S. X#X`.B.[.`.'.[.'.].`.`.S.].S.`.`.[.`.`.'.A.'.J.A.].`.`.L.`.A.`.`.`.].A.B.'.A.`.`.A.'.`.S.A.A.`.A.J.`.`.`.`.J.].`.J.A.L.L.'.`.J.'.A.J.A.A.A.J.].D.a.S.S.A.Z.A.].A.S.S.J.S.A.A.A.A.`.S.S.A.S.`.`.J.B.'.A.S.`.A.S.`.S.S.'.A.S.A.'.A.A.A.`.].A.S.S.L.S.S.]. X].].].S.S.A.S.A.S.S.S.S.Z.A.A.S.S.A.A.S.s.S.S.'.S.S.`.A.`.`.`.A.A.].A.A.J.'.`.`.].`.A.].].S.S.A.[. X[. X].'.`.`.`.S.].].[.J.].A.`. X`.].`.`.].J.'.].'.J.`.].`.`.].].].`.A.'.].'.'.A.`.`.S.`.'.`.`.`.`.`.].`. X`.S.].A.].A.].].'.].`.`.J.S.A.`. X`. X].A.A.A.`.S.`.`.`.`.`.A.S.S.`.`.`.`.S.].`.].].`. X[.].`.`.S.S.`.`.A.`.S.`.`.`.`.S.`.`.S.S.].S.`.`.].].[.].`.A.].].S.S.S.S. XS.A.S.`.S.`.`.`.S.S.Z.Z.J.S.`.'.S.`.].].Z.A. X`.`.A.`.",
"  z.SXtXtXuX/.;.U U E H.v.E O.Y m.1XpXuXpX>X;.W O.C j.v.k f f [ G.O.C / O.T.2XwX1XwX(.T H U T U.>.h z z M.iXfXdXpXrX1., > f C Y P J U ,.M.E ] ' R R.tX7XeXrX/.E J Y R c.G.Y Y R E Q.pXtXeXdX(.o.Y ] T v.j.Y / E <.2XuXdXnXeXm.] ] ] k.T.T h j %.*XeXeXwXiXT.z t t $.H.h.$.$.:.H.H.r.C.z.M.wXtXeXaX2Xc.k.v.k.U.G.O.b.$.I.iXpXrXwXyX-   .   e .X].].].A.`. XS.`.J.].[.[.].`.`.].`.`.`.`.].]. X XA.`.[.[.[.].].].].A.].`.`.`.`.].].`.[.[.'.A.].].].`.`.`.`.`.`.`.`.].`.`.`.].].`.].`.'.`.`.'.'.`.`.`.`.`.`.`.`.'.`.`.]. X`.S.A.`.`.].`.`.S.S.S.S.S.'.`.`.`.`.`. X`.[.A.]. X`.S.`.`.S.`.S.S.S.`.S.]. X`.`.S.S.S.S.].`.`.S.`.`.].`.`.`.`.`.`.`.S.].]. XZ.`.`.S.`.`.S.].S.S.s.S.S.S.`.`.`.`.].'.Z.].].`.A.'.[.].[.`.N.`. X].].].J.].`.'.`.`.].`.`.`.'.A.].[.`.A. X X`.].`.`.`.].A.].`.'.S.'.].].`.`.].A.A.[.`.].J.A.].`.S.S.S.S.A.`.].`.`.`.S.`.S.J.`.'.`.A.A.A.A.A.A.A.A.`.A.A.`.S.A. XA.Z.A.S.S.A.A.S.S.A.A.A.A.`.A.'.A.S.`.`.A.s.`.].A.A.A.D.S.S.S.A.A.A.A.A.S.S.A.A.Z.Z.A.`.A.A.A.A.A.'.A.'.Z.A.Z.S.S.S.S.S.D.s.S.S.Z.S.'.A.S.Z.Z.Z.Z.Z.Z.S.S.Z.D.`.s.s.A.A.A.A.A.",
"  z.AX1XwXfX/.:.T T ] G.v.O.$.O.m.3XCXtXaX6X1.o.O./ V.r.U k l [ L.e./ / E Q.iXuXwXwX(.o.U U T m.<.k z U I.tXCXfXfXrXM.r - g M I G l R ,.P.Y I J R Q.wX7X6X6XQ.R G J Y v.G.J f G E U.rXeXeXwX~.E P P / V.j./ I C >.qXnXnXCX1XI.h j h $.b.T T z o.+XiXnXeXnXR.&.U h >.G.E h h U m.M.l ' J M.tXgXtXtX>X>.U ] T M.M.R @.@.b.2XuXwX7XyX-       e .XZ.].].s.D.].`.`.S.A.A.`.A.'.`.'.`.'.'.L.'.`.S.S.A.A.'.[.`.S.'.A.'.A.].'.'.A.`.A.`.J.Z.'.A.D.A.'.A.A.A.S.`.A.A.A.A.Z.Z.A.A.A.'.A.A.A.N.A.A.A.Z.A.A.A.Z.'.Z.Z.A.A.A.S.S.C.S.Z.D.D.A.A.A.D.A.A.A.C.A.Z.A.Z.Z.A.Z.A.Z.Z.s.B.'.S.D.D.D.A.A.A.A.A.Z.Z.Z.A.D.Z.Z.D.N.Z.A.A.A.Z.A.Z.Z.A.Z.Z.Z.s.Z.S.A.D.D.D.s.Z.A.D.Z.Z.Z.s.S.s.S.s.s.s.D.A.N.p.Z.N.8.Z.Z.A.B.B.B.N.Z.D.i.s.Z.D.A.Z.Z.B.A.A.Z.'.s.'.Z.Z.Z.Z.s.s.N.a.s.Z.Z.Z.Z.Z.A.A.A.A.A.Z.B.Z.N.N.N.s.N.B.l.B.Z.A.Z.B.B.A.Z.Z.Z.Z.s.Z.s.Z.D.D.Z.Z.N.N.Z.Z.N.D.D.Z.N.A.A.Z.Z.A.Z.D.D.D.D.D.s.s.D.A.Z.Z.D.A.Z.C.D.D.Z.Z.Z.D.Z.s.s.N.s.s.s.D.D.B.B.D.D.D.A.A.Z.'.g.s.D.D.Z.Z.Z.s.D.Z.A.Z.Z.Z.Z.Z.A.'.Z.Z.N.s.S.s.S.s.s.s.S.Z.Z.s.Z.Z.A.`.S.A.A.Z.D.Z.Z.s.s.Z.s.d.Z.A.'.A.Z.",
"  j.MX,XwXfX+X;.E / $.U.m.O.#.#.I.2XuXuXpX6Xb.:.e.e.V.}.+.R R ,.G.r.| / O.T.iXCXuXuX+X%.T E +.U.j.Y U R M.2XnXCXpXsX1., : s G F.$X&XOXC.K.oX%X%X^.Q.6X6X6XwX^.k.z.V.v.F.G.z.F.P.k.!.wX7X1XuX(.m.L.L.L.L.B.z.L.G.!.rXiXiXnXiXI.H h k $.I.&.&.T o.(.nXnXnXuX).&.T z $.U.] H f k U.c.H ' J <.uXtXeXrX>Xc.E $.] H.m.E k.#.G.iXtXwX0XMX-   .   6 ].s.N.Z.p.i.N.N.B.A.D.Z.Z.A.Z.'.Z.B.B.B.N.B.s.a.s.s.x.N.B.B.Z.C.Z.A.A.A.Z.Z.B.Z.B.N.N.l.N.B.p.N.B.Z.A.Z.s.Z.A.A.A.Z.D.Z.D.Z.Z.B.B.A.Z.N.A.Z.B.B.A.Z.B.A.J.B.A.A.A.Z.D.D.D.D.D.s.D.A.A.A.D.A.S.A.S.S.A.A.A.Z.Z.D.s.D.Z.s.D.Z.C.S.S.C.A.D.A.A.A.'.A.A.S.D.A.A.A.Z.Z.A.A.A.A.S.A.A.S.S.S.S.S.D.S.S.S.S.D.D.A.S.'.A.A.A.`. X X].].S.S.D.A.`.Z.Z.A.Z.A.A.'.'.A.B.D.Z.A.N.D.D.Z.A.A.A.A.'.`.'.`.S.A.'.A.A.Z.A.Z.A.A.Z.S.S.A.A.A.`.`.A.A.'.A.A.A.`.Z.A.S.A.A.B.A.'.`.A.'.'.S.`.`.S.`.S.`.S.S.A.'.`.`.A.J.'.].`.`.].].A.].].S.`.`.`.`.S.S.`.`.`.J.].].].]. X].]. X X X`. X`.`.A. X X`. X`. X X].]. X XS. XS.].]. X]. X X]. X]. X X X X].].].].].]. X X X X X X]. X|. X X X X X X]. X X X X X].]. X X].].|.|. X X X X`.'. X].",
"  k.AXwXiXnX+X+. .U #.Y.z.P I T I.2XnXyXMX>Xk.+.e.O.V.G.+.W W ,.G.z.V.V.v.~.iXuXuXuX+X@./ e.r.L.z.J Y / G.qXMXNXNXqXM., : a C ].4X%X&XP.H.OX%XcX+XT.,X7X6X0X/.!.2XbX%XY.K.&XVXmX@X/.rXaX8XeX;X/.qXmX%XL.F.&XmXbXqXrXaXwXuX1XT./ / / z.G.| ' +.;.+XuXdXnXnX).@.T / r.L.$.Y I E G.M.Y } T b.1X9X8XuX;Xv.O.,.#.m.m.R h.[ n.qXuXeX7XuX-       e |.A.A.`.`.S.'.`.`.].].`.`.].`.`. X`.].].`.'.`.].`.`.`.].`. X].].].].].`.`.].].]. XA.'. X X].[.].].].`.`.].].].].`. X X`.`. XA.`. X X[.].].].].]. X].`. X X].].`. X].A.`. X X X[.]. X]. X X|. X X X X X X[. XJ.`.|.|.|.|.|.|. X]. X X X X]. X X X X]. X]. X X X X X|. X[.[.].[.]. X X|.|. X].[.J.|. X X X X`. X X X|. X X].].].]. X X`.|.|.|.|.|.[.].].].'.'.[.[.`. X[.].[.[.[. X].].S.`. XS.`.S.|.`.`.|.].`. X`.`. X X`. X`.].].].`. XJ.]. XZ.S. X]. X X`. X[.`.`. X`. X].A.`.`.'.`.].Z.].[.].].'.].`.`.].`.S.S.S.S.`.].S.S.S.s.S.S.S.`.`.A.`.A.`. X].`.`.J.S.`.A.`.S.Z.A.A.`.`.S.S.A.A.A.S.S.S.A.C.`.A.Z.Z.Z.C.N.A.A.A.A.A.A.Z.Z.D.Z.B.N.D.Z.Z.Z.N.s.a.D.D.s.D.s.N.s.D.N.D.D.D.N.N.s.Z.s.s.C.a.l.D.N.N.N.s.s.s.s.s.",
"  c.SXrXnXmXOXc.P.n.P.L.V.z.k.j.U.2XnXuXMX6Xc.' | / V.}.j.=.=.P.Y.K.OX+XY.(.wXuXtXtX(.O.! ' e.L.z.I I / H.qXAXnXaXrX2., X.g h #.:.;.;.,.M.=.j.,.+.R.9X1X9X7XQ.;.j.b.$.b.m.@.>.>.;.Q.wX8X8X8X_.;.:.,.+.c.k.$.j.b.M.;X6XwXuXiXI./ K I z.L.' Y R :./.mXuXnXnXOXT U C e.Y.} J C ] G.v.J ! Y b.iXtXwXuX>X#.f f l H.G.l l k P.qXyXeX7XdX&   .   e [.Z.].A.A.].A.A.`.`.S.].A.A.'.A.'.A.A.Z.A.Z.A.`.S.A.Z.A.A.S.A.Z.A.A.A.A.Z.A.A.Z.Z.N.d.Z.A.A.A.Z.Z.A.A.s.Z.Z.Z.A.Z.D.D.D.s.Z.s.N.s.Z.Z.N.N.Z.Z.N.N.D.s.s.s.s.D.D.s.s.a.i.s.s.s.s.s.s.s.s.N.N.s.s.s.p.l.s.s.s.a.i.d.a.s.a.a.s.a.s.s.s.a.l.p.s.d.i.i.i.i.{ a.s.p.a.p.s.p.i.i.u.i.i.i.a.a.8.i.8.-.=.i.u.a.i.f.a.8.p.8.i.f.a.a.a.a.a.i.i.6._ i.a.8.8.6.8.9.8.8.8.8.9.8.u.i.8.i.9.i.8.i.8.i.a.a.i.a.i.5.{ i.6.i.i.` i.i.a.i.8._ i.8.8.8.8.8.8.5.5.5._ 5.8.4.` a.` 8.8.` ` 5.4.i.i.` 5.{ ) _ 4.` 5.8.4.8.5._ i.8.5.i.4.` =.` { ` ~ 5.` ! -._ ) _ 5.) 5.5._ _ ` ( 8.` { i.{ 5.` ) _ 5.` 5.5.` i.5.{ i.{ i.{ 4.8.8._ 4.-.` u._ 8.i._ i.8.5.0.8.` u._ { 0.{ 8.-.=.i.a.=.a.a.f.f.i.i.=.8.u.u.8.i.i.a.f.-.i.` i.8.8.9.8.i.i.8.8.",
"  j.SXyXaXMX+X@XbXbX@X!.Y.qXNXbX+X2XiXuXCX,XM.$.e.e.V.}.&XmX4X_.G.}.2XUX&X/.wXrXwXwX;X$./ e.e.L.}.%XbX@X}.qXNXnXMXwX<., : r h $.,.;.W ;.M.O.,.j.E R.8X9X9X7XQ.o.$.>./ c.M.U [ +. .I.rX9X9X7X_.W Y J t ,.k.Y [ E <.;XrX9XtX1XR.v.V.v.F.Y.v.z.n.c./.iXnXiXnX}.j.r.r.V.}.r.z.e.v.K.G.e.N.k.M.wXuXaXaX@Xk.[  .{ F.G.W  .R k.0XMXiX1XuX-   .   = 9.) _ _ _ ` 8._ _ 4._ _ 8.-.` 4.` ` 5.` _ _ 4.5.5.4.5.i.8._ { _ ` 5.5.| 8._ ` { 5.4.` 5.` ` ) =.8.{ i.` ` 6.i.` 5.5.` 6.` 4._ 5.4.i.8.4.0.5.6.i.i.` -.=.i.{ ` =.` 6.8.` _ 0._ 8.u.` 8.i.i.8.i.{ 8.u.8.u.i.0.a.i.a.a.a.a.a.a.a.s.a.a.s.a.p.p.p.N.i.i.p.a.p.s.s.a.s.a.N.s.p.N.p.s.l.u.s.N.l.N.s.s.S.a.s.P.s.s.N.N.N.N.s.P.a.s.D.s.D.D.s.N.s.s.l.l.N.s.N.Z.9.p.p.u.a.s.a.a.p.p.a.s.p.s.p.a.a.a.a.d.s.a.a.p.s.l.D.s.l.l.a.s.N.s.s.N.N.N.D.s.N.D.N.N.D.l.D.D.N.D.D.N.Z.Z.N.D.D.s.A.A.N.D.D.N.Z.Z.B.'.B.C.Z.D.Z.D.s.A.A.D.S.Z.D.A.A.Z.A.C.C.S.A.A.S.C.A.].A.S.J.Z.S.S.A.S.S.A.S.A.S.S.A.S.S.S.J.J.S.J.S.J.].A.`.A.A.S.`.A.].S.S.].S.J.J.A.].J.A.].A.J.J.J.E.J.S.S.A.A.`.A.S.`.D.S.A.A.S.Z.D.S.A.S.J.C.J.S.A.J.Z.A.A.Z.A.Z.",
"  x.AXrXmXsX/.M.M.G.n.F.m.F.T.H.T.1XuXtXuX>Xc.$.r.] L.Y.Y.oXE.H.L.L.oX^.!._.0XrXiXuX(.$.] e.e.K.L.oX@XOX~.iXCXiXZXuXM.e : r C r.>.:.W ,.n.+.k.j.E R.eX1X7XrX_.E :.j.Y c.U.Y #.#.W I.wXrX9X8X/.T Y R l ,.v.] +.:.<.=XaXrXuXiX).@XNXbXOXH.+XmXNX@X@X2X1XdXnX+X%XUXUXOX}.#XbXmX&X}.}.2XVX%X~.0XrXrXaX4XE.qXNX%XH.!.@XmXqX!.2XuXwX7XtX-       6  XN.A.D.A.A.B.Z.Z.Z.A.A.B.D.S.D.Z.A.Z.Z.A.Z.A.A.D.A.S.D.S.S.D.A.A.Z.A.`.A.J.A.A.`.S.A.`.S.A.`.S.A.A.S.A.`.A.Z.S.A.S. XA.S.S.C.S.J.Z.J.A.A.].S.A.J.S.S.].S.A.A.A.S. XA.S.J.A.S.J.S.J.C.A.J.S.C.[.A.J.A.A.C.S.D.A.A.C.A.D.N.A.S.D.A.C.F.S.C.C.B.N.Z.D.D.A.D.D.C.D.C.C.N.D.B.N.C.l.N.C.l.z.N.N.P.s.a.P.s.s.l.s.N.l.p.l.s.s.s.a.p.l.p.p.p.p.a.a.s.s.p.p.p.p.B.N.N.N.N.N.B.N.N.N.N.N.N.l.s.N.D.D.s.a.s.N.s.s.p.s.s.s.a.s.s.x.l.p.p.x.N.l.p.x.p.a.p.p.s.a.i.a.u.i.a.a.i.p.i.i.a.a.i.a.u.i.u.i.0.p.0.0.0.8.u.i.a.i.i.=.u.u.{ a.u.u.8.{ 8.0.{ 8.0.8.{ _ { { { ` 8.{ { { _ ( ( ` ` { ` ` ` ( ` ` ( ` ( ( ` ` ( ( ! _ ( Q ` ( ( Q ! Q ( ! Q ( Q Q ! Q Q Q Q  .S Z L A Q Q L Q L L L L Q L A ! L L L A A A D A Z K L A L ^ A ! ",
"  j.NXwXiXwX+X>.R E ] H.b./ O.E I.3X1XeXtX>X1.R E I V.G.Y H U o.m.#./ / O.T.rXpXtXyX+Xo./ / / G.v.Y E U m.wXuXCXdXyXM., = g C O.;.@.+.j.m.#.j.h.[ R.wXeXeXrX~.+.} #.] v.U.[ #.+.+.~.uXdXdXuX(.o.| ] k k.v.} O.O.<.>XuXrXwXwXT.@.,.W <.m.,.k.c.c.).yXuXeXiXOXb.b.c.v.K.n.G.G.n.H.H.H.K.L.I.,XrXtXaX@XH.H.E.F.H.U.m.OXU.m.0XqXwXwXuX-   .   = N._ { 8.{ 8.8.{ 8.{ 8._ 8._ ` 8.8.` _ ` _ { 4.` _ ` ` ` ` ( { _ ` _ _ _ { ( ( ` Q Q ` ( ` ~ A Q Q Q ( Q Q ` Q D Q Q D ~ L A Q L Q Q Q Q Q L Q ( D Q L L L L L Q Q D A K L Q L L Q D A L L L K K Q A K K A Z Z m A L A A A A L A A Z Z A L A G A A A M M K A Z A Z A A K A Z S Z Z Z Z Z Z ..d Z Z Z Z S A A Z Z Z Z ..L A K A A Z m ..Z S Z Z L Z Z D L S A A L K K K L L A L D Z L A A K A A A S d D A A A A A L Z Z L A Z D A A L Z Z S m b M S Z m ..A S m Z S Z S Z Z S m m S d d m m Z Z Z Z A S Z Z S Z Z Z Z S Z S d b d M M Z Z d L Z M Z M Z A K M m M M d f d d S A A Z L L ..A Z Z Z  .A Z M M M ..f Z Z Z Z A L L A K A S Z L G ..Z Z m d ..Z L D K L ! A Z L L L  .( Q Q Q L K ..A Q ! ! 0.{ L ( ( { u.",
"  k.AX,XiX2X@X@.W U ] H.V./ ] T b.3X1XeXrX=X<.E ] Y c.V.R Y U :.U.e./ T O.Q.rXuXtXtX;Xo.T / T G.j.T @.O.c.0XMXCXCXyXM., : g C O.] E E >.G.$.e.h.:.U.7X7X7XwX/.[ } [ } v.G.O.} } $.T.iXeX1XtX).+.] } [ k.k.e.r.$.M.0XfXwXwX1XI.k h ..=.m.' x W o.~.tXuXdXnX~.T k l :.G.+.J H R M.c.H R T b.1XeXeXaX;X<.W E E H.m.U #.] c.>XwX7X6XMX-       % A A K A A L L Q L D L K L ! L S A A L S m S K A L A D ( A Z A L A L ( A L A A Z m d d S m S S L  .m Z Z Z Z L ! Z Z ..Z Z m m M M Z Z Z Q A Z Z A Z A ( Z Z Z Z Z d m ..Z A A Z L Q m Z Z Z A ! K M Z Z Z d d S A A L G Q { Z A G Z ..{  .Z Z Z ..G B M Z K K K ' ` L L L A M (  .Z l Z Z ..m Z L L Q L | L Z L ( P ` =.Q ( ( Q  .Z Z ` ' ( u.l.( ' ( } Z K ( Q L L ( { ! ( Q ( ! { { ! D L Q ! Z S Z D L Q L 8.{ K K L L  .{ { L Q ^ L Z M m Z A A Z A =.` Z L L L G u.' A L K G K d Z A Z A K  .{ L G G L Z { { A ..A G A Z M G K K K K { ! M Z K Z ! { L G A Z M Z ..A Z K K Z u.{ Z  .G G  .=.K H G M Z Z Z Z K L K P =.' Q ( L M I { L G G G H ..S K L L L ! 0.K Z Q  .( } 0.L ( Q ( L Z P { ' | C.h.( { ( h.C.",
"  h.CXwXuXuX@X>.+.Y $.U.b.O.O.] M.:XuXwXrX<Xb.+.O.] v.G.] E E $.G.e./ O.@.T.iXuXuXuX(.o.T E T Y.k.E +.+.b.wXCXuXCXyXm., X.g C / Y U U k.G.] | } =.Q.6X6X,X,X^.E I Y Y v.G./ Y ] +.T.nXwXeXdX+X+.P R R n.v.O.' O.b.0XtXwXiX1XT.U x x =.c.[ W o.E Q.uXtXuXtXQ.o.z l +.H.+.J J U n.<.U / E b.1XeXgXtX<X<.U $.T I.G.R :.+.c.2XwXwX,XZX-   .   & ( ! Q Q  .L { ( ( ( ( ! _ u.( K L Q ! D S d A L Q D ( u.Q G L  .L ' u.L Q L ^ K S M Z K Z A L { a.Z L Q Q L { u.L L L A L Z M G K Z K ( =.( A I L G ( h.Q Z Z G K K Z Z G L L G | { Z Z G Z K { ! G G Z Z G f Z G G A A  .u.L  .L G G =. .G I Z Z Z M K K K L I ' { L  .P K G ' ( G L Z G A f Z L L ! L { | d L ( P  .a. .Q  .( ' Z Z ' ' ' h.z.' | R =.L P  .L L K ( } ( ( ( ! L 0.0.L A L L Q D f Z A L ! K 0.0.K K L  .Q { =.L  .L L K S M A L A A L u.{ A  .( ! Q =.{ A L K K L Z Z G G G L ( } L L K I G ' } G ..G Z Z M Z G K L L G u.! d M K Z L 0.I C G G M ..f G Z K L Z } ' L L L ..L =.P G G A Z G K A L K K P } {  . .L G L } L L I K K Z d L L L L L u.J ..P ( G =.u.L ( ( ( ( M I ' ( ' z.=.( | ' } C.",
"  j.AX1XuXfX+X>.] ] $.Y.V.O./ O.I.<XeX7XrX,XM.%.O./ V.Y.[ E E j.}.r.O./ @.T.iXdXtXuX(.O.] $./ Y.v.+.:.+.b.0XCXuXCXyXM., : r h Y T U U ,.G.r.k.z.;.R.:X7X7X7X/.:.[ h.$.v.Y.e.$.r.>.T.1XwXgXdX(.;.[ #.#.n.V.e.j.b.I.2XuXuXuXiXQ.T J k :.G.:.o.+.+.~.tXwXtXrX_.o.z k +.H.$.[ E [ M.M.R O.O.b.1XgX8X8X6Xb.E $.T b.U.R <.} c.qXuXwX7XAX-       - ( !  .P K  .} ' (  .! ^ ' x.! K L L ! L Z m A Q ! L ( a.( L L L L ( x.( L ! P L Z N Z L Z A L ` u.G L (  .L ` =.L K L G L Z M Z K K G L =.' G L K G L =. ...G Z Z M M Z G L L G ( { Z f Z Z G } ( C G G M f ..d Z Z A  . .=.L L L G Z =.' G L G Z G G M L ^ K L ' u. .( P L G { ( H L J G K M Z Q L L A | | ..G  .L  .l.! ! ! ( ` A Z ' ( ( u.z. .{ ' { G L ( ( L ^ ( { P ! P ( P { 0.K K K L ! L S Z A ^ ! K ` 0.K A L L G { u.L L P ^ K M M A L m L A =.{ Z I ! ! G =.{ Z G K K L Z Z Z A A H ( 0.J Z G Z Z ( | G Z Z Z G G M M C L I Z {  .Z f M Z H | I M G M M ..d ..G Z K Z { ' G P L ..L } I G L Z G M Z Z K K G L } [ L P ( Z I u. .G G G K Z d G L L L G 0.L m I I Z { 0.K ! ! ! ! Z G | '  .x.h.P '  .} C.",
"  k.AXiXuXnX@X@.U H O.}.V./ Y E M.3X1X1XnX1X<.E E / L.}./ H Y j.}.r./ C %.}.iXuXrXrX(.@.} $.e.Y.V.O.[ +.m.0XnXnXCXpXM., , g f U t t h +.G.>.v.c.>.R.1X9X1X6X).;.>.k.>.m.U.@.>.k.;.Q.wXrX8XtX(.;.,.h.#.V.V.e.V.m.I.2XiXwXuXiXT.U l G :.Y.h.@.>.>.Q.wXwXeXyX/.@.o./ x.Y.e.| e.r.G.M.O.h.#.b.9X8X8XrX>Xc.+.n.M.U.U.O.j.[ k.2XyXwXwXCX-       - ! P ! K K I 0.! P ! ! ! ! 0.! Z K K L ! Z b Z L ! Q P u.( Z K L L  .u.( L ^ K L Z M Z Q Z Z ^ ' 0.K Z  .! K ( u.K K G A K K M M K Z K K 0.' M G G Z L [ L f G Z M G Z M M K K G ' { G d C M M ' ! f K M M M M f Z Z A Z P } I K L Z Z | / M G G Z Z N G G K G G ! } P P L L M } ' Z L M G G M M K L ^ Z _ | M G L G ! p.L ^ ^ ! ! K M / ' ( { V.P ' P ' K L ! I K G ! | L I P ! L ' 0.K G K K ^ ^ m m G L Q L _ 0.P Z K P K } u.K L K K K M M K K M L L { 0.M K ^ L Z u.| Z K K L K Z M Z K A G K h.L ..G G G ( } Z G ..Z G M M Z Z G G M { ' M M G Z H | I M M C f Z m Z Z M G M | { L K L M K } P M K M C N M Z K K G M | | L ! L G G u. .G L Z Z K M K K L L G 8.L M K K Z { u.K L L ! ^ Z K ( ! L l.x.P ( L ' C.",
"  x.MX7XuXuX@Xc.h.$.x.}.v./ / / b.<XeX2XiX2Xb.T ] / r.}.] H I j.L.e.C C %.).2XeX7X7X(.@./ } | Y.V./ Y [ m.qXMXuXMXrX2., > r h [ >.,.+.;.M.E :.#.o.R.1X1X1X1XQ.o.] +.E c.m.R [ [ E I.6X9X9X8X_.o.R [ Y k.v./ O.r.b.<XwXtXwXuXR.R I P j.Y.$.[ +.<.Q.wXeX8XrXOXO.T / r.Y.e./ C / K.V.] } ] b.,XeX8XrX>X>.E G.OXY.G./ / Y j.qXwX7X1XCX-   .   & _ P ! ^ Z L { ! L P ! P L h.' Z A L ! Q Z m A A Q L ! 0.' Z I L L  .l.( L ^ L L Z M Z D Z K K ( x.L Z L L K ( h.K K L K L K Z Z K Z G Z { | Z Z G G L } P M Z G K K Z G G M K M ! | Z M A M Z ' | M M Z M M Z Z Z M Z Z L { ^ G K K Z _ | M Z Z Z Z C M M K M Z P 0.L ! ^ L M | | M ^ K M K M M M A K M ! ' d Z L Z L h.^ K K L L S M L ! A ( C.L P K K ( L ^ K K K ! 0.L ^ ! ! L ( x.L Z K L L ! K ..D Q Q L _ 0.! Z K ! K { s.^ L ^ K A A M S K Z A L | 0.K A K ! d u.0.K K Z A A K M M K M N K 0.! Z M Z M ! { Z d Z M M N M M M Z Z M _ ! d d M m Z 5.K a M B d d m m d d m f ! ( m m S B M _ K v B B B M M d d d m d ^ _ m Z A d d { Z d M d m M a a B m m s ^ Z d M Z m ! _ m m m m m a d M M d | _ d Z d G u.",
"  j.NXwXaXyX@X^.%X2XOX}.V.e.e.} b.;X1X3XwX,Xm.r.r.e.V.}.O./ ' l.[.e.9.4.r.T.2XeXwX7X(.m.K.}.G.}.F.e.e.h.U.qXMXnXMXrXM., : r l ,.n.<.;.;.M.:.>.>.o.R.1X-X-X,X_.;.>.;.o.b.m.E +.+.W I.9X9X1X8X(.W E +.z ,.k.R | $.<.;XnX1XuX1X_.P.F.P.G.L.:.' O.>.Q.rXuXwX1X+X%.T T r.}.r./ ^ e.L.K.| ' ' b.,XwXeXwX>Xj.I / z.Y.K.] / P h.2XwX7X,XfX-       = _ Z K K M K 8._ K ^ ^ P K x._ M Z L D L K m M Q L K A 0._ m Z Z A D u._ Z Z M M S M Z S Z M Z ^ 0.L m Z L m K p.K M Z S Z Z m B M B S d ( ( d d d d m ( K s d d a B d d d d m d M ^ M s d d s ^ K y a a y a d s s s d s m ! M i d d s K C p f a p a f a s s b s d _ d m M d s ^ A a a d a d b s b B B a S A d M M m Z ! M b m v d m s B M s A { M M m M S d B M M v M | Z m M G B K 8.m d m m Z M a s m S Z m Z ` Z s m m s L ` M m m d m s v m m m m S L ! s a m M i L L M B b m B m v a b B b d ^ m d d s d m Z m s d a s M B d a d d m K A B d d m m L M v B B a m d m M m M B N K M M S B M ^ C M A B M K K K B A A S ! ( L ( Q A Q ( Q Q ^ Q ! ^ ^ ( ^ _ ^ ! { ( _ ` ` ` | 8._ _ _ ( ( _ ! _ 8.Q 8.0._ { 0.0.8.",
"  k.ZXrXyXnX@Xk.>.j.x.K.V.| / / I.-X1XnXuX2Xm.$.r.0.V.}./ / Y e.}.r.e.r.e.m.1XnXwXrX(.<.v.V.V.T.G.[ +.+.U.wXCXnXCXaXM., : r l :.,.:.;.;.m.;.;.:.+.R.8X8X8X8X(.;.@.$.+.j.T.O.+.,.W I.aXrX9XtX*Xo.+.+.W k.n.} #.>.<.<XCXdXnXnX_.E.OXOX!.Y.j.#.>.b./.uXdXdXnX+X%.h h O.}.V.e.r.e.G.G.#.#.+.b.,X8X9XwX>Xm.r.b.v.Y.}.L.K.v.F.>XnXeX1XCX=   .   % M B b m B d ^ L f m Z M d _ A d m d m S d d Z N M A Z Q ( m S Z d A ` K S Z N Z M B Z Z S Z A Q _ m d A A m A ^ K K A A A S M S M A K m ! ^ Z K A A L Q L A M D K M L L A L L K _ ) ^ ^ ^ ! ^ ! _ Q ^ _ ! ! ! ^ _ ( _ _ _ 5._ 5.4.4._ | 0._ 5.5._ 8.0.8.5.0.0.0.8.p.u.p.p.u.0.p.p.x.l.p.d.l.e.s.l.x.l.x.N.x.l.N.N.N.N.N.B.N.l.B.l.l.N.N.B.N.N.N.B.N.C.C._ ^ _ ) ( _ _ 5.| _ _ _ _ _ 0._ _ _ _ _ _ _ 5.8.8.{ 8.0.u.i.0.0.0.8.p.p.u.8.8.p.8.p.0.0.p.0.u.p.p.p.0.p.p.p.a.s.p.p.N.x.p.x.p.p.d.e.l.x.p.x.l.p.l.l.l.N.N.x.N.N.N.N.N.l.z.N.N.N.N.Z.A.B.B.A.B.C.N.B.F.Z.A.A.C.A.Z.A.J.A.].`.'.'.[.`.`.'.A.`.`.`.'.V.`.`.`.[.].J.].J.].[.J.J.[.J.[.[.[.|.[.[.[.[.|.[.[.[.[.[.[.[.[. X].[.[. X[.].[.[.[.].J.[.[.].[.[.[. X[.[.",
"  P.ZXrXuXMX+X@.T H E G.j.E +.R <.,XuXdXfXwX<.E Y h j.M.z h l E m.$.z o.&.I.1XiX1X7X(.o.C z H I.k.U U U b.,XuXuXfXyXb., - g h / R P / $.U.$.$.>.>.R.eXtXtXtX@X] U ' Y v.Y.Y ' ] ] !.rXrXdXnX;XO.| r.I.b.V.$.j.#.<.>XtXtXuXtXQ.W J H $.K.$.U O.%.).nXfXdXfX(.&.j j o.I.#.Y R %.m.m.] O.[ <.:X8XeXeX,Xc.#.,.$.Y.U.+.E E ,.>XpX8X9XZX=   .   7 A.0.s.l.l.d.x.x.l.s.s.s.p.l.N.N.s.N.N.p.N.N.N.N.D.B.B.B.N.A.N.D.B.B.B.C.B.N.Z.Z.B.J.B.A.A.A.Z.A.B.A.'.C.A.A.B.A.A.J.`.A.A.'.A.'.`.A.J.A.C.A.S.S.J.S.J.S.S.J.].J.S. XA.L.L.`.`.].S.].].].[.].K.S.S.[.J.].[.`.].`.`.[.[.[.[.[.`.[.[.].[.].[.].[.[.`.].[.`.[.[.[.[. X]. XJ.`.].]. X X`.|. X]. X X]. X[.[.[.]. X].].[. X`. X`.|. X].S. XS.J.].].`. X]. X].].].].S.].[.].'.S.J.].A.'.].S.A.].].`.].`.].].`.`.].].S.].A.`.].J.A.S.A.].`.'.J.A.].].].A.'.].'.`.A.`.`.`.`.'.`.`.`.`.`.`.`.`.'.L.`.`.].A.].A.A.S.S.S.J.S.S.S.].].].J.].A.A.].J.`.`.A.].`.`.`.J.J.A.J.J.].].S.`.A.A.`.`.'.A.'.'.].L.'.A.`.`.C.'.`.A.A.L.'.A.`.`.S.S.S.S.S.S.S.S.J.S.`.].`.`.`.`.`.'.`.].`.`.`.`.`.`.`.S.S.`.`.S.J.S.S.S.S.S.S.S.`.'.S.`.'.`.S.",
"  k.ZX0XyXuX(.@.T T ] Y.v.} $.[ M.,XuXfXfXwX2.E R I j.m.T U P ] G.$.o.O.%.T.nXdXuXeX).o.T I Y V.b.U T Y b.2XuXuXnXiXI.X.: g C I I P / j.Y.V.}.[.F.T.iXrXrXuX@XR M C I z.K.I f M  .H.yXrXeXeX;Xr.e.r.%.b.m.b.n.v.m.6XrXtXuXyXQ.k h j O.Y.O.H T O.T.CXZXfXfX(.%.o.W +.M.o.k k H b.b.E #.] <.,XdXgXuX<X<.E O.] v.m.U U R >.6XtX7X6XZX-   .   y #XB.`.[.].`.'.`.J.`.A.A.S.S.A.`.`.'.'.].].'.S.`.`.'.'.J.A.A.J.L.A.A.J.A.'.A.A.A.A.A.A.A.A.A.A.A.A.A.J.'.A.A.A.A.J.'.L.A.A.A.V.A.`.'.A.A.J.Z.A.S.C.S.S.A.A.A.S.S.A.S.'.Z.L.`.J.A.A.A.A.A.A.J.S.A.A.S.J.A.A.A.A.A.A.J.A.A.'.'.'.'.'.`.A.A.B.A.J.A.Z.A.A.J.A.J.`.A.A.S.`.`.S.S.S.S.S.S.S.'.`.'.'.A.'.`.`.`.].`.`.S.A.S.S.`.`.S.S.S.S.S.S.A.`.`.`.`.`.`.S.'.A.Z.A.`.A.A.A.A.S.A.A.A.Z.A.A.A.A.A.Z.S.A.S.Z.A.`.A.S.A.A.A.A.A.A.A.A.A.A.A.'.A.'.A.A.Z.A.].A.A.A.A.'.A.A.A.A.A.L.`.`.'.J.A.'.'.A.].A.A.A.A.S.A.S.S.S.S.A.A.A.A.A.S.S.S.A.J.`.'.A.A.A.A.A.A.A.S.A.A.'.`.A.A.A.`.A.A.A.A.A.'.'.'.'.'.`.A.J.'.A.J.A.'.A.'.A.`.`.`.S.`.].].`.`.`.S.`.`.`.`.`.`.`.A.A.`.].S.].].`.`.S.`.S.].`.`.`.S. XS.`.S.D. X`.`.S.`.`.S.S.S.",
"  h.MX6XrXyX@X>.O.O.e.K.v.#.#.[ M.6XCXfXCXeXM.+.} ' V.L.#.] [ h.H.j.O.%.%.T.2XnXuXiX;XO.Y ] ] G.j./ E E M.wXnXCXCXmXm.e X.e I V.OX%XOXV.Y.+XbXbX&X^.uXuXiXnX@Xk.B.V.F.L.L.k.z.C.z.U.sXtX8XdX;X%.C z &.I.M.Y.%X@X(.6XtXeXpXyXU.U H H O.}.} Y E [ ~.CXnXtXuX(.1.%.O.@.G.#.T ] E v.M.#.j.+.<.,XdXeXdX2Xb.+.$.r.v.m.E :.:.<.@XrXwX6XZX=   .   e .Xs.`.A.A.A.'.A.'.A.A.A.A.A.A.A.A.A.A.A.J.A.D.`.`.'.`.A.'.J.'.A.A.A.'.A.'.`.].'.'.].A.A.].'.A.A.A.'.'.A.A.A.A.'.'.S.'.'.`.L.'.'.`.`.A.'.A.].J.S.S.S.S.S.A.A.`.A.S.S.'.'.`.].`.`.S.S.'.'.A.A.A.S.S.S.].`.A.A.A.'.A.`.A.A.'.`.'.'.A.'.'.'.`.L.A.'.A.A.A.'.A.`.`.`.S.S.`.`.].`.S.S.S.S.`.'.S.A.A.A.A.`.`.`.`.`.`.`.S.`.'.S.S.`.J.S.S.S.A.D.`.`.`.S.'.`.A.`.`.A.A.].'.A.'.S.A.S.S.A.'.A.A.A.A.'.'.S.A.].Z.N.`.].].A.'.`.`.'.J.'.A.A.A.J.'.'.A.`.`.Z.A.`.S.A.A.A.`.`.A.A.A.'.'.A.L.`.'.A.`.A.B.`.'.A.Z.'.A.A.S.S.C.S.S.A.A.A.A.A.S.A.A.A.`.J.A.A.`.S.S.A.A.S.A.A.A.J.S.A.Z.A.Z.A.A.A.A.A.A.A.A.A.Z.Z.Z.A.Z.A.Z.A.Z.Z.B.A.`.S.S.A.S.S.S.`.S.S.S.S.A.A.A.A.A.Z.D.A.A.Z.A.A.A.`.A.'.A.A.A.A.S.S.D.D.A.s.a.A.S.S.s.A.A.S.A.A.",
"  k.MX0XMXMX+X$.E E O.}.z.' / ' M.2XiXuXdX1XM.$.h.u.F.E.n.U.L.K.K.$.] ] %.~.nXnXnXuX@XO.I / | L.z./ ' E M.qXnXnXCXyXb.e : g M j.G.[.V.v.Y.Y.@X&X!.Q.iXrXrXtX@XH.+X%XOXU.Y.oX%X2XOX~.wXtXgXdX=Xz X.: X.$.U.Y.%X2X@X0XpXwXyXnXQ.R Y Y j.}.F.F.E.F.~.iXyXyXaX(.@.o.E $.Y.j./ O.$.G.G.$.#.+.b.1XgX8XeX,Xc.E [ O.V.T.+.E E >.>XaXtX7XZX-       6 |.D.].'.A.A.A.A.'.A.A.'.Z.A.Z.A.A.A.A.Z.`.A.s.A.].A.A.A.S.S.`.A.`.'.A.A.'.L.`.`.A.'.A.B.A.'.A.A.Z.'.'.A.'.B.A.A.A.A.'.A.A.'.Z.B.Z.A.A.Z.Z.Z.Z.C.Z.Z.A.D.C.A.Z.A.D.D.B.N.B.B.A.A.Z.A.A.A.A.A.S.A.D.A.Z.A.A.A.B.B.B.Z.Z.A.Z.Z.Z.A.Z.Z.B.B.Z.B.Z.Z.A.Z.B.B.B.'.S.A.A.A.S.S.S.`.S.S.D.S.A.A.A.A.Z.D.Z.'.A.A.Z.A.S.A.A.'.S.Z.S.A.A.A.D.S.D.s.D.S.S.Z.Z.A.A.A.A.Z.Z.'.A.A.Z.Z.Z.D.A.A.A.Z.Z.Z.A.A.Z.Z.Z.A.s.s.Z.A.Z.Z.Z.A.A.A.A.A.'.A.Z.'.L.L.A.Z.A.Z.B.Z.A.A.D.Z.A.A.'.A.A.B.B.Z.Z.B.Z.B.B.B.s.N.Z.C.Z.Z.N.N.C.s.C.C.D.D.D.Z.Z.D.N.l.s.N.N.Z.A.A.A.A.A.A.S.A.Z.D.D.Z.Z.Z.N.N.s.Z.A.A.Z.A.Z.B.'.A.'.Z.A.Z.A.Z.A.A.Z.B.B.Z.S.'.S.A.S.S.S.'.S.S.S.S.A.A.'.A.A.A.Z.A.`.S.S.A.S.'.A.'.`.`.S.'.S.S.S.S.S.A.A.S.`.`. X`.S.`.S.S.",
"  h.MX0XNXMX@XM.G.L.G.}.v.e.e.h.I.2XuXwXfX2XT.OX&XOX|.E.^.%X%XOXY.v.v.U.m.).mXnXuXyX@X+./ } 0.L.V.P I [ c.2XMXiXnXiX<., , , t } e.e.[ k.m.o.,.z.o.R.8XdX8XtX@X@.E :.+.b.U.o.;.;.o.I.9X9X9XgX-X&.j z h <.v.R :.,.c.,XfXuXuXuXT.] ' ' k. X X&X4X&X/.sXyXwXrX+XE h h #.[.e.K C / G.V./ P U >.>XeXwXuX>Xj.h C I v.G./ h H :.>XrXrX7XZX:       e  Xs.Z.S.'.Z.N.Z.Z.Z.A.A.A.Z.A.Z.A.Z.Z.Z.Z.D.a.s.Z.A.B.A.Z.A.A.Z.A.A.B.B.Z.A.A.Z.N.B.B.N.D.A.Z.Z.A.Z.C.'.A.A.A.Z.Z.Z.B.B.B.B.Z.N.s.Z.B.A.A.B.D.D.D.D.C.A.A.C.D.A.A.D.N.C.N.Z.A.A.A.A.A.J.A.S.S.A.A.D.D.A.A.C.D.N.A.A.A.A.`.`.'.'.`.`.`.`.'.`.'.J.`.`.A.Z.A.'.`.`.].`.`.`.`.`.`.`.`.].`.S.].].`.`.`.].].`.`.J.`.`.].].].`.`. X].`.`.].].`.S. X`. X X].`. XD.s.D.'.`.`.A.Z.A.A.'.'.A.'.Z.Z.s.A.A.D.a.A.D.N.a.s.`.Z.B.s.N.A.A.s.Z.].s.s.'.'.p.s.B.8.p.`.`.'.].`.`.]. X`.[.].`.'.`.S.`.`.'.`.`.].].].].[. X`.S.`.S.S. XS. XS.A. XJ.J.].J.[.].].]. X`. XS.]. X XS.].].S. X X].]. X X X`.|.|.[.[.[.|.[. X X X[.[.[.[.[.[.|. X|.|. X X]. X X]. X X X|.`.]. XXX|. X X|. X].]. X`. X X X X`. X].].`. X X X X]. X X X X X`. X`.",
"  h.MX0XnXmX@X!.2XbX&X}.L.%XUX%X~.2XuXeXuX,X~.qXBX4XoXE.OXbXbX&XY.k.k.v.b.).2XnXnXnX;XY.%XbX%XK.L.oX@XOX~.0XMXyXnXiX<., = r h :.r.b.j.>.c.o.<.v.o.I.gXgX8X8X_.o.+.$.o.>.I.W E ;.o.2.9X9X9XgX=X&.&.%.j >.v.H ' k.<.3XfXpXuXiX).V.oX!.E. XH. XOX!.^.qXyXuXiXOX#.Y Y h.Y.z.h.j.j.L.V.r.0.[ b.>XtXwXyX2Xk.C f I V.K./ f h #.%XyXwX7XZX-   .   3 '.D.'.`.`.].].`.].].`.A.`.A.A.i.s. XZ.a.Z.A.Z.s.8.`.Z.B.s.i.Z.[.N.p.[.'.9.]. Xd.d.A.9.4.'. X X X X X[.|.|.[.[. X].].[.[.[.[.[.[.|. X X X|.|.|. X|. X X X]. X XJ. X X X|. X X X[. X X X X X X X X X X X`. X X X X]. X X[.|. X X X X X[.[.|.[.[.].]. X X X|. X|.|. X X X`. X]. X X].]. XS.`.]. X.X`.].].].`.S.S.`.`.`.`.S.`.A.S.D.S.S.S.S.A.A.A.A.A.A.Z.Z.a.`.`.].]. X|.|.|..X|.[.[.[.S.A.5.A..Xs.a. X X].i.Z. XA.A.p.Z. X].s.Z.|.N.Z.|.'.d.].].4.N.|. X|.|. X|.|. X X[.[.|.].]. X]. X[.[.|.[.]. X X[. X X X X X X XS. XS.A.S.[.[.].J.].J.J.J.`.A.A.A.A.S.A.A.A.Z.N.D.Z.A.D.D.Z.D.Z.Z.Z.Z.B.N.Z.B.B.Z.Z.N.s.N.A.Z.N.N.N.D.D.s.s.s.s.N.s.s.N.s.a.a.8.s.a.i.i.d.d.a.a.a.a.u.i.i.9.a.` i.i.-.i.=.-.a.` i._ 5.6.8.f.` ` i.",
"  u.NXrXiXmX@Xk.j.r.z.Y.v.z.v.x.I.,XuXiXtX2XI.k.n.h.L.K.j.k.z.F.G.O.j t h T.iXnXuXMX<Xk.V.K.G.L.L.n.!.n.I.qXMXMXfXsXM., : r h } e.j.$.j.M.+.<.,.o.I.8XtX8XtX(.o.+.:.O.v.U.[ +.:.W 2.6X9XhXgX=Xo.o.T z @.n. .[ ,.c.<XdX1XwXuX).}.4X%XOXoX X%X%X+X+XnXCXdXaX&XH.OX^.E.!. X%XbX&X!.U.&XbX$X~.2XuXuXMXqXv.K C ! V.[.x.e.e.k.>XyX7X:XZX-   .   = A.`.'.]. X].|.|. X X`. X].`.A.a.s. X'.s.A. X].s.D. XA.].N.N.].'.B.B.`.'.N.'.B.p.Z.].a.p.].J.`.`.`.`.`.A.'.].`.].A.N.A.B.'.`.A.A.'.Z.B.'.Z.Z.'.Z.A.A.D.A.D.s.D.p.l.D.D.N.N.l.l.s.p.s.s.p.p.p.a.a.a.a.a.5.{ i.u.a.i.i.a.a.i.i.i.9.u.8.0.0.9.8.8._ 8.9.i.6.5.a.a.a.f.=.8.i.i.8.i.6.i.` 5.` ` 8.) ` 6.8.-.8._ i.8._ 6.5.-._ ` f.` ) =.) i.-.` 5.5.5.8.` 5.{ A i.d.d.f.s.s.s.s.s.s.s.x.p.p.5.5.a.a.{ i.i.i.i.8.s.p.i.p.i.i.i.9.8.p.p.8._ 4.^ 4.9.8.4.8.8.i.8.9.i.i.i.i.0.9.p.8.9.5._ 5.{ 8.8.8.8.8.8.8._ 5.0.i.-.i.` i.' ` { ` ( 8._ _ { ` { | _ { { _ 8.{ ` { ` ` ` Q ( ` { { ` ` a.` =.9.5.| 4.0.0.u.| 8.4._ 0.9.0.9.8.u.i.a.a.d.a.p.8.a.a.f.a.s.a.a.a.s.s.a.a.s.a.s.s.p.N.p.s.s.s.s.s.s.N.s.s.s.D.D.D.D.D.N.N.D.s.s.s.",
"  k.ZX0XyXnX;X$.Y z / Y.v.' } R c.3XuXeXrX,X<.R J Z k.G.J h l [ m.$.H T o.I.iXMXtXuX=Xo.H Y U V.c.H l U ,.0XpXpXpXaXI., : g f / / / / j.Y.E R ' W I.rXeXtXrX@X+.R ' / k.~.oX%X%XOX^.qXrX9XrX4X1.OX+X/.m.P.R R R >.1XnX1XdXiX).] ] ' j.Y.k.R #.k.~.nXdXdXfX@X,.;.=.>.H.k.j.c.<.G.m.c.v.k.m.,XfXdXtX0XM.H H Y b.U.c.n.b.b.<XwX9X6XfX:   .   & 4.5.i.i.` 5.i.6.i.6.i.i.4.` ) Q 5._ ~ ` _ _ 5._ ` 5._ _ 8.5._ 5._ 5.8._ ~ _ Q ~ 8._ 5._ _ 4.5.` 8.5.8.8.8.8.a._ 5.8._ 5.8.4.{ 8.8.5.8.8.5.8.` =.i.{ i.` =.=.i.{ _ _ 0._ 0.0.8.u.u.=.i.a.u.p.a.u.a.p.a.u.u.l.a.a.p.a.p.s.l.l.l.s.s.l.N.N.N.N.N.s.N.B.N.N.D.N.D.D.s.S.D.Z.D.D.A.C.Z.S.Z.A.S.D.'.A.A.S.A.S.A.D.S.A.Z.S.A.D.S.S.S.S.D.S.D.S.J.A.`.S.S.J.Z.S.5.f.i.a.i.a.s.s.i.p.d.p.p.8.8.8.i.u.a.i.i.i.i.p.p.i.p.a.a.s.l.p.N.p.s.s.s.p.B.N.l.N.N.N.N.p.s.D.N.N.D.N.C.Z.C.A.Z.B.A.D.A.S.B.Z.A.Z.Z.A.Z.A.A.D.A.L.P.S.C.S.S.C.C.A.C.A.J.A.J.J.C.'.C.S.[.A.S.J.S.J.K.S.S.J.S.J.S.S.J.S.`.J.'.`.J.J.A.A.`.].A.].`.A.].A.A.`.A.S.A.A.S.A.C.S.S.S.C.Z.A.C.D.A.N.D.D.s.D.D.s.s.a.l.s.s.s.p.a.s.p.p.p.l.p.a.u.u.a.p.a.u.a.i.a.a.",
"  k.ZXrXrXpX@X;.o.Y E U.c.O.#.[ b.,XuXeXtX1X<.E E I j.m.T H H E M.#.o.%.%.R.wXCXuXuX;Xo.E E Y U.k.H J x <.0XyXaXaXaXH.e - f f / I I I j.Y./ I L R H.rXiXwXnX&X[ G K P V.K.OX%XqX&X^.0XtXwXaX<XH.%XbX>XoXz.P M l [ 6XNXaXCXiX).T j h O.T.E h z o.U.uXdXdXpX;Xo.z z R !.,.U H U b.b.W U J <.1XdXdXfXwXm.+.:.:.M.M.@.;.>.<.;XrX9X6XfX=   .   3  XZ.s.s.D.D.S.A.Z.'.J.B.A.B.N.B.Z.B.A.Z.B.A.A.Z.A.A.A.A.C.L.'.A.J.'.A.`.A.`.].`.`.].`.A.].`.S.].`.]. XS.]. XJ. X[.].[.[.].].S.]. XS.].J.J.].A.S.[.J.S.J.J.J.S.C.J.S.L.J.S.S.L.C.C.S.C.C.C.N.A.C.C.C.l.D.C.C.l.D.l.C.l.l.C.N.l.N.l.N.N.l.N.l.l.N.p.s.p.p.p.p.a.p.a.u.p.i.0.a.u.a.0.{ i.{ 0.8.| 8._ ) _ { ` { _ ( ` ` ` ( ( ` L Q { ` ` ! Q Q ! Q ! L Q Q s. X`.C.`.`.S.S.`.A.'.L.Z.A.C.N.Z.N.N.J.B.C.Z.B.N.D.l.N.N.l.N.N.l.N.N.p.N.s.p.x.p.N.l.N.p.N.s.l.l.l.l.l.u.l.l.l.N.s.u.x.p.p.x.p.p.l.u.i.a.u.u.u.0.8.0.{ u.{ ` ` ' { u.` | ` ( ( ` ! ( ( P ! L (  .L L Z Z Q L A L L L Q A L A S D L K L A K A Z Z S Z A Z S Z S Z m Z S S m Z S Z S d m d S Z S Z S m A Z S A Z S Z S Z Z Z m s Z A S Z A Z Z Z Z Z S Z A L ",
"  =.MX7XrXuX;X;.E R O.Y.v.#.$.$.m.6XfXuXfXeXM.o.#./ v.U.%.T P #.U.j.$.O.O.~.iXnXuXuX=X;.] / ] Y.v.R Y Y c.2XMXpXpXsXM., = g f / / Y P ,.L./ / ' ' Q.iXeXwXtX@X#.Y / / v.Y.OX%X4XOX^.rXaXrXfX@Xm.%XlX&XK.F.F.K.oX!.0XsXrXiXnX).T H U +.~.+.H W E R.rXuXuXuX+X+.U k W G.,.R U U b.M.o.=.;.,.3XgXeXnX2Xb.#.j.,.M.n.#.j.>.c.>XyXwX6XZX-   .   2 Z.a.a.a.s.a.a.a.i.a.0.p.0.8.8.0.| _ 0.8.8.| { _ _ ` | ` _ _ ( ` _ ( ` Q Q Q Q Q _ Q _ Q Q ( ` ( ` ( ( Q Q ( _ ` Q ! Q ! ! ! ! Q Q ! A L ! Q ^ L A L A Z G Z ..d A K A m Z Z m Z G M Z d Z M d Z ..d s s d d d f m Z S d d ..d d Z d d d d d d s M m Z m M M f S d Z d G Z d d S S f s d S m S S K L Z A K A A K K A L A Z S d ..Z Z S (  .A L A L ( A Q D S A K A A A A S A M M Z m M Z d s a s B B d d f s d d d d m a m d d M d a a s m m a a m d d d d S m S A d m Z d m d s d d d d d G Z d m M d d Z ..S f s f d g s d ..d f Z G f ..Z d m L Z d m m ..d s g ..f d ..A L ..d ......I G d d ..m d d M ( ! Q ! ! ( Q L  .P L }  .L L H K G Z L K A Q L u.{ L (  .P { { (  .( ! L ..Z L L Z ( h.`  .( ( u.0.L ` { ",
"  :.MXrXiXnX@X#.R P #.[.z._ ] / M.2XfXuXnX,Xb.#.| | V.K.O./ / h.K.x./ / #.+XiXmXnXyX;X@./ ' $.L.z./ Y ] v.qXuXuXZXaXM., : e f Y Y ] R ,.U./ Y ( E Q.rX8XwXtX@X+.[ } [ v.~.OXqXbX@X^.rXtX8XtX>X!.%XbX2XK.V.oXmXUX4X0XaXrXwXuX).E U Y #.oX:.U E @.Q.0XwX1XwX+X,.@.E :.H.H.K.U.n.H.m.:.+.' <.<XuXwXiX2XM.#.#.} n.H.h.#.#.k.>XaXaX6XZX-       & Q L L A S Z Z S Z Z M M d m m d s s a s d d d f d s a d m M m M d m m M d d s m m m d M M m d d d m Z ! Z m m d S Z s d d d d Z K ( Z M Z Z M L L Z ..f m Z d s G Z Z ..G ' J ..A A G ( { Z Z Z Z Z f d d Z Z ..G { L ....G Z ( ' G Z G Z G d G | { { ' ' u.' ` ' ' ( h.{  .( P L L G L ( L ! ^ 0.p.(  .(  .' u.{  .' ( ( G Z Q  .L L u.u.Q { ( } l.(  .( u.x.0.' ^ L ( ( =.| ( K Z K A K d d K L K G L P L K Z G L L | ^ K K K K Z m m Z K L L ! ! K Z Z Z G ` u.A L A Z L A M G L Z K L a.{ L L P L ( u.| I I L L G f ..L P L L [ =.L L P P ! u.{ I G L L L ..Z K L P L [ u. .G Z K  .u.} L  .P L L ..L { | | ( } x.[ | ` { ' x.` ( ' ! ! L L ( ' ( ' ' h.} ( P ! ( { =.{ ' { ' P L G (  . .' h.{ ' { { k.h.( ' ' ",
"  P.MXrXuXCX@X+.H C [ Y.z./ K I b.>XtXtXdXwXb.Y / ! V.K./ I I e.L.e.Y Y O.Y.2XnXtXyX(.;.[ O.$.K.V.' Y ] c.0XMXpXaXsXM., : g h [ ,.>.;.,.m.E [ #.o.I.tXgX8XtX=Xo.+.$.o.k.T.[ +.,.=.I.rXaX8XtX;X@.} :.[ c.v.] r.b.1.(.rXrXtXiX).k g g ' OX} h h R T.wXyXuXrX@X!.&X&XE.].oX4XVX4XoXk.H f f E <XuXtXuX0Xc.f g G v.F.( f f +.@XsXrX6XpX=       = C.P.P.=.' { ( { u.u.} ( G L L L G d I _ ! ! ! ( ' P L I P L } } L L I ^ K M d G G L ( ( | ! G L K L ( l.Q ( P A L  .Z L  .L L L =.l.( !  .P  .h.h.P  . . . .G f J  . .P ' u. .L P P P { =.L G I L P I ..L P  . .' l.=.L G L P { a. . .( P  .Z Z ( ' ( L ( k.{ { ' { ' u.} P ' ( ( L K  .' ( ( ( u.h.( P P ( ( u.=.| { { ' I A  .( ( ' =.=.[ | { =.z.| ' { P.n.z.} } { | =.a.e.h.P K P P P M M ' _ / ' ( | ( P P I ! ' u.' P P ^ L K M f Z K / _ { } ( L L P L 0.x. .(  .L '  .A ( ( L ( ' l.=.'  .( ( ' x.}  . . .'  ...Z  .(  .( =.=.P I  .' P } ' G L G L L Z Z P P (  .=.l. .J L P  .=.{ I ' L P P d Z ' P L K ' =.' ( | | ' =.' P (  .P L G ! ( ! ( ( u.0.P L ! P ( h.} { } { ' L  .( ( ( ( u.} { ' | =.u.' ( ( ",
"  =.CXwXyXMX@Xc.k.v.n.L.G.V.G.M.U.6XuXtXfXiXc.] } ' F.K.O.Y P e.].r.T O.$.T.2XnXuXtX;XT.%X2XOXoXY.@XbX@X~.,XMXaXfXaX1., - X.h $.c.M.,.,.m.$.c.n.O.R.8XdXgXtX;X;.j.b.O.b.U.E ,.,.W I.rXaXgXfX:XW U [ h $.M.H $.$.;.(.tX9XtXaX).,.h.e.x.oXk.h.k.v.+XiXeXiXyX@X!.&X&XoX].E.&X%X&X!.F.,.k.k.c.@XfXfXnXqXn.J I ' c.F.' G I :.@XnXrX6XfX>   .   * F.n.z.e.#.| | } =.h.h.' K I ! ' L f P | ' | / ' / P P ! / ! 0.{ ! P ! P K M M Z K ! ' { } | L L L P | l.( ( ( L ! ( G Q ' P  .' =.l.' (  .' / u.h.( '  .' ' ..f L  . . .| h.' K P / P [ } K G K G K Z Z K J  . . .h.{ G G L L ( u.P P I L I C d P ! K K L 0.|  .( ' ( } { I ( P L H G L ( P ! ! | h.! L P P P { 0.| | | ( L K ! ( P L } h.' ' ( | u.'  .| n.n.k.e.0.| ' ] e.h.h.P I L ' ( G f ' } | | ' | / P ! / ( ' 0.| ! ! ! ! K Z G K L ' _ } 0.' L K L P u.h.( ! ! L ( ( G (  .L P ( h.u.( P ( ! ' h.} P  .J ( P d f L P L P { } I I P P I } | G Z G G G M f K G L G  .x.J f Z Z G ' ' f L H G Z M M ! K K Z P 0.! L P P K } ( Z P G Z G Z L ! L L L } u.L L I P ! 0.| ! ! ! ^ G K L L L H u.} P ( I P u.P L ! ",
"  :.MXiXuXyX@XM.m.U.m.U.m.T.Y.T.U.6XtXtXdX1Xb.+.} | z.G.] Y Y #.G.r.O.O.$.~.1XCXuXtX=XI.+X@X~.Y.K.+X%X+X^.,XpXtXpXrXM., , r h e.<.k.;.,.m.$.c.j.@.R.dXdXgXpX(.:.j.v.$.b.~.[ k.>.W I.rX9X8XtX>Xo.R [ z >.m.T @.$.,.:XaXtXtXaX_.OXbXbX&XoXoX%XmX2X+X2XnXwXuX&XOXqXqX&X!.E.%XbX%X!.Y.%XbX%X+X,XuXuXnXiX+X%XVXqXoXE.&X%X%X~.@XyXaX6XpX-       = F.m.c.$.} { R ( } h.e.[ I I P ! I M P } ' ' | _ ' ! ! ! ! ! 0.} ! ! ! ! K G G M L ! ' | u.| L I L G ( x.( P  .K P ( A G ( L K  .' x.( P P ! L } h.I P P L L d f G P L I P } I G I L G ! u.G G G Z Z d f Z Z G Z Z =.[ f ..Z f G } f G Z Z ..M M K K Z Z H } { G K I A ' } K K K Z l Z K Q L L L P x.! K K L L } 0.L ! ^ L K Z G L K Z ' h.Q ! ^ I { | A ( n.n.:.] | '  ./ } } } / C G L I Z B P | / / ! / / I L I ^ ! 0./ L P I K M Z M Z K I ! ( } ! M G G Z { u.Z L K M K L M L L Z L L } } L L I K I e.| H L K J H f M G L H G P { G Z K G M { { K G G M M Z M Z Z Z ..Q u. .f M Z d ( | f G Z M G Z M K A Z G ! e./ G K K K 0.| Z I Z Z M Z K D A K S | x.G M K K K x._ A K K M Z S Z G M M { 0.A K L K } K m A ",
"  h.MXwXyXnX@X+.U k U H.b.O.@.T 1.<XtXtXuX,X1.R J H k.m.T k H $.G.$.I T %.R.iXCXtXrX=Xo.Y U R n.k.' R W <.>XpXaXuXyXM.e : g h I H k J ,.V.O.I ! T I.CXeXdXnX>X+.I / Y v.~.R W U  .I.rX9X7X7X<X+.H H k ,.m./ T T W =XaXrXaXtX/.+.[ +.x.!.j.} $.b.Q.1XtXtXaX@X<.P.c.P.Y.C.z.P.k.G.H.c.F.n.b.;XdXdXyX2XT.v.H.F.m.G.F.G.G.M.3XyXrX7XpX=   .   - z.v.j.' | | ! P | [ [ | G M K K I f M / / ! Y / | I I K P K | { K K ^ K K M M M M K L ! | _ M Z Z Z L x.! K K Z M ^ G A P Z K L ( a.P K L A M | h.K K G K H M ..A K L G A } ' M K M M I u.L G M G M G M m Z Z G G { { d d Z Z G h.m M f m Z M M M Z M K Z 0.} A K K Z ' 0.Z Z Z m S M Z S M Z S M x.L d M K M _ { M Z A Z d M m m m d L 0.m M M m ! A s L k.k.[ ! | | L ! _ | } ! M M L K Z f C ! C I ^ _ | K C K K K | ! K K M I K Z M m M Z L P _ ^ f M M Z ( x.! K G M M L G K K Z G K { 0.K Z Z M f u.} d Z G M m d d m M Z f Z e.G B C M s ! ! d M d d d d s d s f d d { G s f s g L ! s s s a s d a s d d s M ' K M d m d L ! d m m s m m d b d m d Z | s s m b B ! M B M M B B M m d m d ^ L a M m m L d S M ",
"  h.nX0X0XyX+X@.T U E I.b.O.,.W <.=XtX8XdX,X1.R  .G h.G.U H I [ V.$./ T O.T.2XnXtXtX=Xo.H k H v.v.Y R J ,.6XpXtXfXnXm.X.: i f / Y R E >.}./ I I / I.nXdX1XiX@X[ G C C j.~.H f l x M.wX9X9XeX>XR f s l ,.V.T C k W (.8XrXtXaX).H f f E oX#.k T T ~.nXrXuXaX@Xo.k l J H.:.J Y H k.M.[ [ ,.<.;XdXeXtXiXM.Y Y E c.m.[ E o.<.;XiX7X6XfX-       & u.h.} P / | ^ ^ ! ! | _ C M M M N f B K G K K ^ ( K M M M M ^ ! K M M M M M M a m M Z Z ^ ! d M d M G 0._ M m d M Z G Z Z M m ..K u.L d d m g I u.f s f f d s i i d d g d ( P i d d a d ! f f s s s s i s g s d s L ! g d i g d ! g s y s d s B v a d s d ^ K M B m m Z Q Z m Z m m S m M S m A Z 5.K M S K S ! Q A A Q L D Q ! Q L L Q _ L ^ Q L ` ( Q m L _ K M I ^ d B G M L K s s a a d y i d B d d M M v a s a d N K a a d i a d a s a d d B D Z s f B s Z ` m s b i d M m m d s m s L ` s d d a s ( Z d g s d s i i d M m d Z _ M M N K M K L Z M Z N M M Z Z A K ! Q { ( L L K D ( ! K ^ I ^ ! ^ ^ _ _ _ _ { 0._ 8.5.| 5.8.0.8.{ i.u.8.i.8.i.p.p.p.l.s.l.l.l.N.l.N.N.l.N.B.B.C.C.A.B.B.A.B.A.`.B.A.C.A.A.A.J.",
"  k.MX6X0XyX@X>.U Y ] U.b.O.:.O.<.,XpXtXdX7Xb.+.[ I z.Y.O.O./ r.G.r.O.O.$.T.iXCXnXnX:X@.R Y E F.v./ ] R c.,XuXpXfXyXG.r = r C V.@X2XOXm.H.Y.UX%XOX^.wXaXtXaX@XM.%X4X%XE.K.#.:.:.=.M.rXrXeXtX>Xn. XOX!.H.V.V.+X+X~.<XtXiXuXiX).T h h T oX>.T E W Q.rXfXuXfX@X@.T z Y U.k.T E T b.b.$.>.:.;.<XdXdXdXwXM.W W [ c.G.:.;.o.<.=XtXrX6XpX-       % Z Z S d M A B v B M B M v i a a a i s i B B d B M v B a B B m K m d B d s M m d m M S M L L M B Z S Z ( Q m Z m Z A Z S Z S Z Z S | A Z L D M ! ( L G Z L G Z A Q ^ ! ! ! { | ` | { 0.| { { { | { 5.8.{ 0.8.u.0.p.p.u.p.u.u.p.p.p.u.u.x.p.p.l.9.l.B.N.N.N.z.N.N.Z.N.B.B.B.C.B.C.A.A.A.'.A.`.].A.].J.J.[.`.[.[.`.[.`.[.[.].].[.[.[.[. X[.]. X X]. XK. X|.D D Q A ^ ! ~ ^ ^ ^ ! ) ( ) ^ _ _ Q _ _ _ _ 5._ 0.8.4.0.9.8.0.8.9.8.4.8.0.8.0.8.8.0.p.p.p.p.p.p.p.x.x.s.p.u.p.x.p.l.s.0.p.x.p.p.l.p.l.l.x.N.N.N.B.V.l.P.C.l.C.N.N.C.B.A.A.C.Z.J.L.S.J.J.A.A.K.`.S.].J.S.K.A.J.].L.].A.K. XJ.[.K.J.J.J.K. XA.].[.`.[.[.[. XJ.[.[.[.[.[.[.[.].[.[.[.[.[.[. X X|. X X[. X[.[.[.[.[.[.[. X X X[.[. X].]. X[.[.].].].J.J.J. XS.S.",
"  h.MX6XiXMX@XE l k E U.c./ Y E <.>XpXrXtX2Xc.Y R ! V.L.] H I e.V.e./ / O.Y.nXCXnXuX;X+.R U / G.V./ Y Y v.0XMXuXfXyXm., : r h / H H U @.U.T.%X%X^.W.6X9X9XrX@XU.4X%X@XH.oXK.$X%XOX^.qXuXiXMX>XH.%X4X4X!.z.0.e.$.b.3XnXtXiXuX+XU T T O.+X:.O.o.+.Q.iXdXuXfX<X>.T T / Y.v.Y Y Y V.m.r.$.+.>.<XfXdXuX0XH.=.=.:.P.P.:.[ [ k.@XyXtXwXZX=       2 a.i.8.0.p.x.e.9.p.d.l.l.N.B.N.N.N.z.N.C.z.B.B.B.A.A.A.L.A.B.'.Z.Z.A.B.C.A.A.A.A.A.A.`.A.'.A.J.].J.J.].J.J.J.A.[.].J.S.S.J.J.A.J.J.A.J.`.L.`.[.L.[.].K.E.C.J.J.S.A.J.].[.].S.[.J.].[.J.`.[.J.[.[.].[.J.].S.J.J.J.K.J.J.[.].K.J.J.J.[.].].].A.[.[.`.[.].].`.`.].].].].`.L.`.].[.`.].].].].].[.].[.].].].].].].`.[.`.[.].].].].].S.'.].].].].].S.S.S.S.S.S.s.'.[.[.].[.[.[.[.[.[.|.[.[.|.[. X|. X XOX[.[.|.[.|.oX[.|.XX|.|. X X X[.[.#X X[. X X[. X X|.[.|. X X X X X X[. X X X[. X X].[.].J.[.].].J.].].J.J.J.F.S.z.=.h.N.B.B.Z.L.L.J.A.J.A.J.A.A.A.L.A.S.S.S.A.S.A.C.A.C.C.A.L.A.D.A.C.A.S.A.A.A.A.A.Z.A.A.A.A.S.S.S.A.A.A.A.A.A.A.A.A.'.J.`.`.].A.`.`.].`.A.].].].].[.`.].J.].`.`.`.`.`.A.`.`.S.`.S.S.S.S.S.A.'.A.A.",
"  h.ZXwXuXnX@X>.:.h.j.L.V./ / ' b.;XtXiXdX2Xb.T I / V.F.T f h { V.0./ I [ Y.iXNXuXuX;X>.] ] } Y.z.G h l v.2XCXMXaXrXM., : r h T E U z ;.M.+.#.:.=.2.aXrX9XaX<X,.=.,.W c.!.@.$.#.+.I.aXtX8XpX6X;.#.#.W P.V.C j h &.*XgXeXtXpX_.J C I | OX#.' j.@./.iXCXdXnX2X+.h f Y }.x.d f C V.L.Y Z C +.<XuXrXtXqX!.oX%X%X|.H.E.&X&XY.@XyXwX6XZX-   .   2 ]. X|.[.[. X|.[.|.[.[.[.[.oX X[.[.|. X[.|.[.[.[.[. X X[.[.[. X[.].[.[.[.[. X].].[.[. X X X X].[.[.].L.].].].[.]. X]. X XJ.J.J.A.S.].`.A.J.J.J.A.F.C.S.u. . .{ u.N.B.A.C.A.J.A.J.A.A.Z.A.A.A.A.S.S.C.A.L.C.A.Z.C.C.Z.A.C.A.C.C.C.A.A.A.A.A.A.A.A.Z.'.'.J.J.'.J.A.A.S.A.`.A.`.J.`.`.`.].A.A.].`.`.`.`.].].`.].`.[.[.`.].`.].`.S.'.J.J.S.S.A.A.S.A.A.S.A.A.d.'.].`.].`.[.[.].'.[.[.[.].[.[.`.{.].'.].[.].[.].].[.].].].].`.[. X].].].].].].].].[.[.[.].J.[.].].J.`.].].].].[.].J.S.`.].J.J.J.J.].].J.J.J.J.A.L.E.L.u.m d ^ 8.N.Z.A.A.A.J.].A.A.A.J.S.A.A.S.S.A.S.A.A.C.A.C.A.A.A.C.A.A.A.A.A.A.A.A.A.A.A.A.A.Z.].'.'.J.S.'.A.A.A.A.A.A.A.`.`.`.A.`.A.`.`.'.A.`.'.].].A.`.`.].].'.`.`.S.'.A.A.`.`.A.S.S.S.S.A.S.S.`.'.`.",
"  ,.uX,XiXyX@XT.qXbX%X[.F.+XlX&XT.2XuXtXuX3XT.+XlX$XoXY.OX2XlX&XL.e./ Y #.T.qXMXyXuX@XQ.%X2X&XK.G.L.OXY.~.qXMXyXfXaX2., - r h j.m.R.<.1.M.+.P.v.[ I.gXgX9XaX=X1.;.I.;.1.I.+.<.<.;.I.9XtX8XfX6Xo.E :.l >.M.Y O.@.%.*XeX8XrXpX/.T C C O.OXe.h H U ).iXuXuXnX@XO.f f Y }.x.f g C V.V.H f h +.;XeX9XwX2X!.E.%X&XE.H.E.OXOXT.+X0XwX6XfX>   .   6 XX'.S.{.`.`.[.{.].].[.{.[.[.[.{.[.[.`.{.[.[.[.[.[.[.].[.[.[. X[.].[.[.[. X`.].].].].`. XS. X].[.K.`.[.].[.`.].].].].S.S.`.].].J.J.J.].J.J.`.].J.J.L.K.L.Q s S ` p.Z.L.A.A.A.S.J.A.A.].J.A.A.S.S.A.S.A.A.C.F.Z.A.A.L.C.J.A.A.J.A.A.A.A.A.A.A.A.A.B.`.].'.`.'.`.`.S.A.Z.J.A.A.'.`.`.S.`.'.'.`.S.].'.J.`.S.A.].`.[.`.L.S.`.`.A.S.A.'.`.`.S.A.S.S.S.S.S.`.S.'.XX'.'.{.[.{.[.].[.[.{.[.[.[.[.[.[.[.].[.XX[. X`.].[.[.]. X[.[. X`. X].[.].].].`.].[.[.`.].].].].[.[.[.[.].].].[.`. X X`.S.].].`.[.J.J.J.'.S.`.J.J.u.u.l.f i S 0.N.`.J.J.J.A.A.J.A.S.].].J.J.S.J.J.J.J.L.A.J.A.J.J.J.J.[.J.].J.].].].'.`.`.`.`.A.A.].[.`.{.].].].`.'.`.].`.`.'.`.`.S.`.'.A.`.`.].A.`.].`.'.`.`.].'.A.A.S.J.A.A.Z.Z.`.A.Z.A.D.D.D.D.Z.s.N.N.",
"  :.rX>XrXyX@XU.!.~.G.G.V.H.!.!.I.>XyXeXrX,XR.T.OX~.!.H.U./.+XE.L.v.r.e.r.Y.iXpXyXtX<XT.&X%XOXG.Y.OX%X+XT.2XnXuXZXaXM., : g f j.b.b.@.$.U.:.k.j.o.I.9XtXtXdX;X<.$.V.O.b.Y.:.<.c.;.I.rXrX9XaX;Xo.o.r.U $.G.Y [ :.$.<XdXdXdXuX(.] C / :.oXj.H k U +XiXnXdXnX<X$.C h / oXj.h C H V.G.O.Y Y @.<XtXtXeXwX^.OXbX%X!.F. X%X%X^.;XmX1X1XfX=       9 .X'.'.].[.{.].].].`.[.{.{.[.[.{.].[.'.{.[.[. X`.`.]. X`.].[.[.].[.]. X].].].].J.].].].].].S.S. X]. X[.].[.[.].].].]. XS.S.].].J.].].].`.].A.A.].[.{ s  .S s m ` s.A.`.].A.].A.A.].A.A. XJ. XJ. XJ.S.J.[.C.A.J.C.A.C.L.[.J.].J.J.].`.A.A.A.A.A.Z.Z.'.'.'.'.'.A.A.A.Z.A.'.A.B.B.B.Z.Z.Z.N.N.D.Z.D.Z.Z.Z.Z.Z.B.N.B.B.N.s.N.N.s.s.p.a.a.N.s.s.s.u.u.i.{ 5._ d.'.{.].[.`.[.].{.'.'.'.'.'.'.'.'.'.'.Z.'.'.|.[.'.`.].].].].].].[.].]. X].`.].].A.]. X`.].].A. X X`.].].`.[.].`.].`.A.`.A.`.].Z.A.S.A.`.J.A.Z.Z.J.C.= X % s ( L | N.s.l.N.N.l.l.p.x.i.u.p.p.l.l.p.p.=.u.0._ ( ` ( ( ` { u.{ ` _ _ 4._ _ 8._ 8._ _ 5.5.4.5.` 5.5.4.8.8.9.8.5._ 5._ 8.8.4.4._ 5._ ` 4.4._ 5._ _ _ _ 4.` ` ` ` 5._ ~ ` ~ ` ` ` ( ^ ~ M b v p N ",
"  :.pX6XyXyX@X$.T H E m.j.[ =.W >.3XtXtXrX6XM.R R J k.m.W x H | V.e.I O.$.T.1XnXrXdX<X@./ ] E m.v./ U o.b.2XCXnXfXrXm.r = g h / O.O.%.@.U.} ' | =.M.8XtX8XpX>X;.O.#.Y r.OX[ R E [ M.rXwX9XtX:X@.T T k b.Y.=.k.h.$.3XuXtXdXnX+XT H h E OX,.l J W ).iXnXdXnX2X$.T U Y }.v.C C U v.m.O.' E ;.>XtXeXrXwXU.P.n.F.F.H.P.E.H.G.+XiXiXwXfX-   .   2 g.'.'.{.'.'.{.`.{.'.Z.A.A.'.[.'.'.'.'.B.'.'.'.'.'.A.'.`.'.'.`.`.`.`.`.`.`.A.A.A.A.'.S.S.'.Z.A.A.A.A.'.Z.A.Z.D.Z.Z.s.D.N.N.D.N.s.N.p.s.N.x.s.p.x.l.d o . = Q Z S i.{ { 8.0._ ( ! L L Z Z D Z A A S m s s d y y s e s i a d s y a a a B B S S S m S S S A S D A D D ` ~ ^ ~ ~ ~ ~ ` ` ~ ) ) Q ) Q Q ~ Q Q ) Q ^ ~ _ _ Q ` ` ` 4.` ` -.! _ ` ` ` Q L m y 3 7.q.7.6.s.g.s.{.`.{.'.`.'.'.|.|.{.Z.{.'.'.{.D 9.{.Z.i.i.s.d.s.s.l.d.s.p.s.s.p.i.p.p.i.i.a.8.=.i.8.8.5.5.8.8._ 5._ _ 5.` ` i.5.9.{ _ _ ^ _ 4._ ` _ _ y * s G d * S Q Z D Z M d s y 6 e 7 7 7 * 7 = * 2 & & * * * * * 3 % O * = 1 e 3 9 y 9 a p v B b S D S D D Q Q ~ _ _ _ 5.8.5.0.0.i.i.8.8.i.u.i.8.9.0.0.p.p.p.p.p.p.s.s.p.p.N.l.s.s.a.N.N.N.A.N.p.| 7 1 2 ",
"  k.CX7XuXiX;X%.T T T Y.k.] :.[ c.3XuXuXdX1Xc.E ] G k.n.U T k ] G.r./ / O.I.1XdXtXdX3X%.Y Y T G.r.T T T r.1XuXeXfXiXT., - g f P h j H $.L.[ G J W M.tXtX7XuX2X:.U I I v.oXP f f k M.rXfXrXaX:Xo.j h z r.G.L.&X&X^.6XuXwXuXnX/.z T l R ^.+.h l z Y.nXnXnXCX2X@.E E T Y.k.h C H M.I.T U Y ;.<XtX8XrXwXM.W  .Y k.G.[ P R :.+X1XwX1XZX-       7 s.D ~ 9.s.i.Z.XX].{.].[.A.Z.'.].'.'.{.[.|.) N '.'.8.8.8.p.0.i.p.p.9.p.9.0.p.8._ i._ _ i.5.{ i.` 5._ _ _ 8.^ 4._ _ { 5.` i.5.8.8.` 8.( ~ 8.| { ` ` ( Z ` x.A > m ` L Z m K Z Z d s a s s i y y y e e y 6 y y g y y y e & 2 a s a B N M S S Q Q Q ~ ) _ 4.4.8.{ i.a.u.s.d.x.B.l.d.p.s.D.Z.Z.N.N.Z.B.N.A.N.Z.A.C.A.Z.A.S.A.S.S.S.S.S.S.A.A.].J.].[.A.A.S 6 4.) A ^ 4._ ) 0.i.i.s.u.| A B B 3.9.0.9.d.p.Z Q 0.4.Q ` ` ` ) 5.4.| 4.8._ 8.8.` { 5.Q _ _ _ ` _ _ 8._ ` u.` _ 8.8.8.a._ i.a.0.0.9.8.0.0.8.0.x.0.p.0.p.C.J.l.( ( u.u.! s m _ 8.0.8.0.0.0.{ { 8.8.0.8.8.8.8.0.u.0.u.8.{ 5.( 5.N.0.p.l.u.p.N.p.N.N.l.N.N.N.Z.C.C.C.z.A.F.A.A.A.A.l._ L 8.N.A.`.A.A.S.A.J.Z.Z.L.A.J.L.Z.S.S.S.`.S.S.J.A.S.S.C.A.Z.A.L.`.B.9.| 5.",
"  h.pX7XiXuX;X%.o.E ] Y.c.| :.E M.3XiXuXCXiX<.+.| J v.L.E E U O.G.r.e.e.O.I.iXnXuXdX<X$.O.] Y G.v.O.T O.r.2XnXuXCXuXm.r : i C j.}.).T.c.U.H.OXOXH.Q.7X8XrXuX@X+.I I K v.oXR G G l 2.aXaXtXtX:X@.%.%.%.b.H.E.$X5X^.4XaXwXdXnX(.T Y h U ^.=.l U k T.iXuXnXuX;X@.E E T Y.k.h U k c.V.O.O./ >.;XtXdXaXsXM.W [ [ v.n.| P R @./.2XwX,XZX-   .   y .X`.'.'.`.].S.S.J.J.[..Xp.A _ N.{.`.[.`.[.A.].].A.A.].A.`.`.A.].`.`.[.[.`.[.[.J.[.].A.].].A.S.S.J.[.J.].].`.[.[.`.[.].].].]. X].[.[.].].].].[.[.[. X X X X[.[.[. XZ._ S N.[.].].[.[.[.[.[. X X X X X X X[.[. X].|.[.`.`.[.[. X[.[. X[.|.[.[. X[. X[. X X[.[. X[.[.[.[.[.[.|.#XB.l.`.].].'.].].[.[.].].].].].[.].].[. X].J.J. X X].].]. X].[.].`.[.].[.[.`.].[.].A.].J.J.J.A.J.|.'._ A 4.Z.[.[.`.`.J.[.[.].A.J.].].].[.`.[.[.[.[.[.].[.[.[.[.[.].[.[.'. X[.[. X X[.[.[.[.[.[. X X X[.|.[.[.[.[.[.[.`.[.[.].[. XS.A.[. X|.].J.l.A Q A.].].].].].[.[.|. X[. X[.[.[.[.[.[.[.[.[.].].].[.[.[.[.[.[.[.[.[.[.[.[.[.[.[.].[.[.].].`.[.`.J.[.#X[.9.N.`.`.A.].].A.].].`.`.`.`.`.].].]. XS. X`.[.].].J.J. X XJ.[.`.].].]. X X X",
". ,.aX6XwXuX@X@.T Y } Y.x./ ! Y c.2XfXdXnX2Xb./ ' ! F.G.E U k :.G.x.| ] [ Q.uXpXuXuX;X>.[ ] ] L.z.R R R c.6XpXpXfXrX2., - e f Y &.%.o.%.U.!.bXqX/.^.<X9X1XwX@X+.Y Y C V.oX' Y Y T b.iX7X8X8X:Xo.j X.j r.V.}.UXcX%X0XaXwXrXrX;XO.R J ] OXk. .R J /.iXuXuXpX>X@.O.E E Y.k.I Y P v.U.O.} [ :.<XtXtX8XrXT.] [ } v.G.#.Y ' $.+XiXiX1XZX>   .   e .XS.].].A.`.].`.].S.[.#X].`. X'.`.{.].].'.].J.].].].`.`.].].].`.`.`.'.].].`.J.`.`.`.`.`.].`.A.'.].`.`.`.`.`.`.S.'.S.S.].`.].].'.].].`.J.`.`.`.`.L.L.S.`.A.`.S.S.`. XS.D.].`.A.A.`.`.A.A.].`.`.S.S.A.A.`.`.].S.`.`.`.].A.`.`.`.].S.`.].S.].`.S.`.`.S.].S.S.].].S.S.J.J.`.].]. X X[.].S.`.`.`.S.S.S. X`.A.`.S.`.A.S.`.S.S.A.S.S.S.S.S.`.`.].].'.A.[.A.].A.].`.'.`.`.A.].].S. XS.|.|.].[.[.[.'.].].`.`. XJ.].].`.`. XS.L.`.`.`.`.'.].`.`.`.`.L.'.].].`.A.A.`.'.S.`.`.`.`.'.'.S.`.`.].`.`.].`.].].S.`.J.J.A.`.A.`.`.`.S.S.S.S.]. XA.A.`.A.A.A.].'.A.A.].`.A.A.A.S.`.`.S.`.S.`.'.`.'.S.`.`.'.].'.S.`.`.].`.`.`.S.`.`.S.S.J.].A.`.`.J.`.]. X X[.[.].S.`.].`.J.`.].].S.A.`.`.`.S.S.S.S.A.A.S.'.`.S.'.`.S. X`.C.].[.`.'.A.J.",
". ,.fX6X0XaX@XW h h [ L.x.G f G j.2XnXeXdX2X<.H H G V.G.U l ..| L.e.C G U G.rXpXyXtX>X,.! L  .H.P.J l l :.6XMXyXaXrXI., , r t E U z z o.I.,.P.P.,.H.6X9X9XrX>X@.E ] / j.}.[ / O.E M.wXdX9XaX6Xo.< j j r.b.r.z.v.M.>XaXtXuXdX(.U M h +.OX:.l t k !.iXuXiXnX@X+.H f P !.k.f f h v.U.U I I +.<XdX8XrXyXU.G f h r.Y.] h H $.;X1XiX1XpX-       e .X].].].A.S. X`.J.`.[.[.[.`.`.`.`.].].S.].`.]. X].S.`. X[.].].].].`.`.`.].A.'.`.].].].].[.`.Z.].].].`.`.`.`.`.`.S.'.`.S.`.].].].`.].`.`.`.`.`.`.'.'.`.`.`.S.`.S.A.`.S.`. X`.`.A.S.S.`.].].A.S.S.S.S.`.`.`.S.`.`.].].].A.`.|.`.S.`.S.S.S.`.A.A.'.`.`.`.`.`.S.A.A.A.`.`.J.S.S.'.`.A.S.A.`.S.A.].A.S.`.`.N.`.`.A.`.`.`.'.S.Z.Z.Z.S.'.].`.A.A.].A.N.`.].].A.`.].[.[.].Z.[.[.J.`.S.J.].].[.'.'.[.`.'.`.].`.]. X`.S.`. X].[.`.`.[.].`.].A.J.`.`.].].].].].A.A.].`.].`.`.`.`.].`.`.`.`.S.].].].].`.].`.`.].`.].`.].`.`.S.S.S.`.S.`.S.S. X`.].A.A.S.S.].].`.S.S.S.S.'.S.`.S.`.S.]. X X].s. X X`.`.J.S.S.`.S.A.`.'.`.`.`.].S.S.A.A.S.J.].S.`.A.`.`.'.`.`.'.A.`.`.A.S. XZ.Z.`.A.'.S.`.`.S.A.Z.D.S.A.S.S.S.A.S.`.B.Z.].].A.A.'.",
"  ,.aXqX0XmX+Xn.K.!.K.E.C.K. XH.U.3XuXuXdX2XI.V.L.L.!.H.m.H.K.K.L.V.F.L.G.Q.0XpXyXpX>X+.P I ' F.F.z.z.v.M.@XMXaXaXrXW., - r t j.T.T.<.;.m.+.c.F.[ I.8XtX9XtX>X1.:.m.$.b.T.@.b.r.%.I.tXtX8XfX1X@.O.V.z %.U.I J +.@.3XfXdXtXuX(.E G C 0.oXz.I P E ~.qXMX6XuX@X+.R J R  Xz.h h f v.G.C f f E ;XtXwXtXiXG.h g h x.Y.' f f T ~.iX1X3XpX-   .   e |.D.S.S.p.N.`.A.A.'.Z.A.J.B.'.'.A.'.A.A.A.A.Z.Z.Z.D.Z.A.`.S.A.A.A.'.A.`.J.'.A.A.C.A.A.N.Z.A.N.D.A.A.A.Z.Z.A.A.Z.Z.S.Z.Z.Z.Z.Z.A.Z.Z.B.N.A.A.B.B.B.Z.Z.Z.A.D.Z.A.Z.A.A.C.D.A.N.N.Z.Z.A.Z.N.A.A.D.Z.C.Z.Z.Z.N.Z.D.s.D.Z.a.s.A.D.D.D.D.Z.D.Z.A.Z.Z.Z.Z.Z.D.D.Z.N.N.D.Z.Z.Z.N.A.Z.Z.Z.Z.A.Z.D.D.A.D.D.D.D.a.Z.A.Z.s.D.D.Z.S.A.D.s.s.A.s.Z.D.i.N.N.8.N.Z.B.Z.A.A.A.`.A.p.A.`.'.A.S.A.A.A.'.'.'.'.'.S.S.`.A.Z.Z.Z.D.Z.S.S.J.A.A.'.'.A.A.'.A.A.Z.A.`.Z.N.Z.Z.D.A.A.A.Z.Z.Z.A.A.Z.A.Z.D.Z.Z.Z.A.Z.Z.A.N.B.A.A.B.Z.Z.Z.Z.Z.A.Z.Z.Z.Z.Z.A.A.D.A.s.N.Z.A.Z.N.N.A.A.D.A.D.Z.A.Z.Z.Z.s.s.s.s.s.D.A.Z.D.N.D.D.D.D.A.Z.Z.D.D.Z.D.Z.Z.N.N.Z.Z.Z.Z.Z.Z.Z.Z.A.Z.Z.B.N.B.A.D.D.D.s.s.D.A.D.D.D.Z.A.A.A.Z.Z.Z.D.D.Z.s.f.B.p.9.B.Z.B.Z.N.",
"  ,.MXrX6XsX+XU.%X%XOXF.H.&X%X&XT.,XuXrXdX3XT.+X2X&XK.H.^.2XqXOXK.OX2XbX%X_.wXfXpXfX,X,.} | } G.Y.&XqX>X^.>XpXfXaXrXI., > e h j.U.I.@.<.U.:.P.F.W M.tXgX8XtX>X;.>.b.%.r.T.@.<.b.@.2.9X8X8XgX:X@.O.r.C %.m.U ] ;.%.*X8X1X9X7X_.Y.%X%XOXoXoX%XNX@X+X6XuXrXfX%XG.qXqXOX!.H.[.OXoX!.H.#.z.u.j.@XrXrXwX0X^.!.%X+X[.G.O.h C o.+X1XiX1XZX-   .   6 `.s.N.Z.s.i.N.Z.B.A.Z.B.A.'.A.Z.'.Z.Z.Z.N.B.s.s.D.s.s.D.Z.Z.A.Z.A.A.A.Z.B.A.B.A.B.B.D.N.D.Z.s.N.Z.A.A.A.Z.Z.A.S.'.S.A.Z.Z.A.N.Z.A.A.B.B.A.A.'.A.A.'.A.S.S.S.A.A.A.A.D.A.A.A.Z.N.A.S.`.A.S.S.S.S.S.S.J.J.'.A.A.Z.A.Z.S.Z.Z.A.S.S.S.D.S.S.A.S.'.'.`.`.].A.S.].`.'.A.].`.`.`.S.A.`.].[.].].].`.S.S.].J.A.`.].]. X`.`.].].]. XS. X`.].`.`.`.`.S.].'.].].'.].Z.N.N.N.D.i.s.N.N.Z.A.Z.Z.A.A.B.A.A.Z.S.s.s.Z.N.N.N.s.s.Z.Z.Z.Z.B.A.A.A.A.Z.Z.A.Z.B.N.D.N.D.D.s.D.A.A.A.Z.D.Z.A.A.A.Z.A.Z.Z.Z.Z.Z.A.A.B.Z.A.A.A.A.A.A.A.S.S.A.A.S.A.A.D.D.Z.A.D.Z.A.A.`.A.].S.S.S.A.S.S.S.A.A.S.A.S.S.`.s.A.A.S.S.S.S.S.S.A.S.'.`.`.S.S.S.S.`.S.A.`.].A.].A.`.S.`.].].].].S.].A.S. XS.S.S. X`.].`.A.].`. X].].`.`.`.`.`.].S.[.`.`.].].'.].].",
"  ,.pX6XwXnX@X@.E T ] v.P.E [ [ <.<XtXeXrX7X<.[ =.[ k.G.%.T / O.V.V.e.r.$.I.wXCXuXdX1X$.[ / | G.V.$.$.+.M.,XfXdXgXsXI.r = r f / Y o.T b.Y./ | } E I.eXeX8XtX>X<.>.c.#.c.~.@.o.o.o.b.wXiX9XeX,X>.[ #.Y h.F._ / / O.;X1X1X1XdX(.M.H.K.G.^.n.H.~.m._.wXtXtXtX@XM.@X&XH.E.H.E.&XoXH.U.G.OX Xn.@XrXtXrXsX_.!.%X+XK.L.j.j.v.v.+XiXyXwXpX-   .   e |.`.].].].].`.].[.].[.[.]. X`.]. X].].[. X'.]. X X X].`.|. X`.].]. X X].].[.[.]. X`.A. X X[. X].]. X`. X X{. X].]. X X`. X X'.`.|. X[.].[.[.[.[.[.[.`. X`.]. X`.]. XS.S. X`. X[.].].[.[.|.|. X X X X X]. X].].]. X XXX X X X XS. X X X XS. X X`.].]. XJ. X X X]. X X[.].].].`. X].].].[.].`.S.S.]. X`. X`.S.].`.`. X]. XS.S.S.S.S. XA.`. X].].].'.].'.S.S.S.].].`. X].`.].]. X].].].[.]. X`.].]. X].`. X X`. X]. X X[.[.].[. X].].].[.[.[.[.A.`.|. X X].]. X X`. X X X X X X X X`.]. XA. X X X].].[.[.[.[.[.].]. X`.]. X]. X].A. X X]. X].]. X[. X|. X X X X X X]. X].`. X X]..X].]. X X X X X X XS. X].].[.`.[. X X X X[. X X].].].].].].]. X].[.].`.A.J. X XS.`.`.]. XS. XS.S. X`.`. XS.`.].A. X X].].].`.'.'.'.A.",
"  h.uXwXiXuX3X%.T z U I.<.U o.z ;.3XuXiXuXrX<.W [ k P.M.T C H %.G.r.O.e.%.m.1XnXeXgX<X@.Y T H V.V.T U T <.,XuXtXtXrXR., - g f G B f Z 0.}./ C C l M.rXeXrXpX@XH.%X%X%X!.Y./ f f C c.iXyXwXuX0X+.K Z I k.L.P f f U >XCXiXuXfX+Xz k l R OX:.H +.W I.aX9X8XtX>Xo.W U W H.n.R R k M.U.E R ;.;.(.9X8X9X6XI.W ] E <.T.j.} } $.+XuXeXwXZX-   .   7 '.p.Z.N.D.D.N.D.A.B.N.Z.D.s.s.Z.s.Z.s.s.D.s.s.s.s.s.s.N.D.s.N.s.N.N.s.l.s.s.N.s.s.p.i.p.s.s.s.s.s.a.s.a.a.s.s.a.s.a.i.s.i.d.i.a.a.s.p.p.d.i.d.p.p.p.a.a.a.a.a.a.i.i.i.` i.a.i.8.i.8.8.i.u.i.a._ a.i.i.i.0.i.8.` 5.u.i.a.f.=.a.a.a.u.i.a.i.i.{ i.8._ ` Q i.8.8.i.8.9.8.8.8.6._ _ 5.{ 8._ 8._ ` ` i.-.i.{ 6.8.5.i.0.-.8.{ 5.i.-.i.i.5.4.` ` i._ 8.4._ 8.4.s.s.N.B.s.Z.N.N.Z.Z.s.D.Z.N.N.B.N.N.Z.s.s.s.s.s.D.s.s.s.s.s.Z.s.s.N.N.N.N.N.s.N.s.N.i.p.s.s.s.s.s.s.s.a.a.d.d.s.a.a.a.d.f.a.p.i.i.a.d.p.d.i.d.p.p.d.a.a.a.a.a.a.a.f.i.5.` a.i.i.i.0.8.9.i.i.i.u.{ a.i.i.a.i.a.` ` f.=.a.a.i.i.i.u.a.=.i.u.i.6.i.8.{ 4.` ` a.5.8.8.8.i.8.4.8.8._ 5.{ i._ _ 8.` ` { -.=.i.-.f.8.5.8.5.i.i.{ { i.-.i.5.5.` ) 5.8.` 5.4.8.8.4._ ",
"  ,.uX9XeXtX<X;.%.T E U.c.E :.[ <.3XuXtXdX7X1.[ [ P k.F.e.T / r.T.r.r.$.%.I.iXCXnXdX<X@.] Y T V.V.[ O.] >.2XfXtXtXiXQ., - , g L ! ! P h.Y.$./ ' R U.iXtX7XuX@XH.%X%X%X XL.V.F.F.n.n.rXaXwXuX6Xk.k.C.P.H.P.=.e.h.k.@XMXuXuXnX@XT Y U E OX$.Y c.T I.rXwXdXtX;X;.W W z Q.b.k [ k b.I.o.W ' o.=XgX9X9X9XR.W o.W ,.T.#.' O.$.).nXwX1XfX-       = i.` _ ` 8._ 5.8._ _ 8._ 8.8.5.` ` ` i.5.` ` i.5.i.i.5.a.i.{ { 8.8.0.8.5.i.0.0.8.8.8.i.u.{ i.a.-.a.i.i.a.i.i.i.i.i.a.i.a.=.6.8.i.i.p.i.p.p.p.p.p.p.i.a.s.a.a.a.a.a.a.a.a.a.a.a.a.s.s.s.s.l.s.s.s.x.l.x.l.N.s.s.s.N.s.a.a.C.D.s.C.D.D.D.N.N.C.s.C.C.N.Z.D.D.A.D.C.A.N.A.C.D.C.A.D.A.D.C.A.A.A.A.A.S.s.D.S.Z.A.A.Z.A.C.Z.A.C.N.C.C.'.A.D.A.A.Z.A.Z.A.A.Z.].5._ ` ` 5._ _ 8.4._ 5.5.` 0.5._ 5.` 4.i.` ` 5.5.5.i.i.i.=.i.8.8.8.5.8.8.8.0.0.{ 8.8.8.i.8.8.i.=.u.i.u.i.i.6.i.i.i.i.i.a.a.i.8.i.i.p.p.p.p.p.i.p.d.i.i.a.a.a.a.a.a.i.p.u.u.a.a.a.p.s.a.s.N.s.s.l.p.l.p.p.N.l.s.l.s.s.s.s.N.D.p.D.D.l.s.D.D.C.N.C.A.N.N.Z.D.D.Z.C.A.Z.Z.A.C.C.A.N.A.Z.l.C.A.A.S.A.A.J.D.A.A.C.A.S.Z.Z.D.A.A.D.D.D.D.S.C.D.S.Z.Z.A.B.A.A.A.J.Z.",
"  ,.pX6X7XiX;X;.T k ] K.z.J  .J c.2XuXrXrXwXM.[ =.' V.F.O./ e.r.G.V.G.Y.U.T.mXnXuXnX,X$.T T E m.v.] E T c.,XMXtXuXyXR., - r f [ e.e.} r.Y.j.k.v.,.I.7XtXtXtX@X^.qXbXqXY.Y.OXbXBX2X!.0XaXtXaX6X^.bXbXqX^.F.E.cXbX@X0XuXtXnXyX+X] H T ' +Xj.] #.E T.yXuXgXdX<X1.o.E E U.n.R +.H v.U.W R [ W =XdX9X8XrXI.W ,.[ c.U.e.| O.$.+XiXiX1XZX>   .   e .XN.A.A.A.S.A.Z.'.Z.A.S.A.C.S.A.S.S.Z.Z.`.Z.Z.'.D.Z.S.D.A.A.C.A.Z.Z.A.A.A.J.A.Z.'.A.Z.S.A.C.J.C.C.A.D.D.A.D.D.A.s.A.A.A.D.D.N.C.A.B.Z.A.D.A.A.Z.A.Z.D.A.D.N.D.D.C.A.N.A.D.l.C.A.l.D.l.N.C.D.l.D.D.l.D.l.l.N.s.l.N.s.s.s.a.s.s.a.a.l.a.z.a.l.p.a.p.p.a.s.p.p.p.a.u.p.p.p.u.i.a.u.0.p.u.u.u.u.` =.a.i.=.=.0.8.0.0.0.{ 0.{ 8.8.8.8.` 5.=.{ 5._ { 8._ _ { _ A.A.A.A.A.J.J.A.A.A.A.S.A.A.A.A.A.S.A.A.A.Z.Z.A.A.Z.A.A.s.S.C.N.A.A.Z.A.A.A.S.Z.A.`.A.A.S.A.D.A.D.D.S.D.A.A.Z.D.Z.D.A.S.D.D.A.N.C.Z.B.Z.C.Z.S.C.Z.A.C.D.A.D.D.D.D.D.Z.C.Z.C.N.C.C.N.D.l.N.C.N.l.C.N.D.P.l.l.D.s.s.l.s.N.a.a.l.s.a.l.a.s.l.a.p.p.a.p.p.a.s.u.p.p.u.a.a.p.p.u.i.u.u.u.u.a.u.u.0.{ { i.u.{ 8.0.{ { i.{ =.{ { i.{ { i.{ 5.{ 5.5.| { 0._ _ 5.| { ",
"  h.aX6XrXMX@XR f g / L.x.M B C $.<XnXtXuXwXb.<.n.P.K.G./ G K } E. X+X4X@X/.sXsXrXaX@X;.H h P G.V.C f h r.0XMXuXpXyXT., - , t | } h.#.e.I.%.>.k.+.I.8X8X9XrX@X<.k.v.c.v.H.P.P.n.,.m.wXtXrXtX:X1.k.P.<.k.P.=.,.P.c.>XtXrXuXMX@X] h l ' oXj.G f J G.rXrXwXaX2X+.h h H }.F.C H C k.Y.T G P E +XuXeXrXrXU.l l l k.K.} H P O.+XiXuX1XZX-   .   = 8.Q Q ( ! ` _ Q Q ( _ Q _ Q Q ( Q ^  .D D Q Q L Q ! D Q Q Q Q Q L Q Q Q ! D L L A Z A A Q D Z Z A S A A A A D A A A Z A S m Z S Z L A Z A Z A L A A K A A Z Z L S ..M Z Z K Z Z Z Z S A M Z M K Z M M Z Z d d d Z A S Z Z A Z Z Z Z G A G Z G M A M d m M S M Z M K Z A A Z m Z Z ..Z Z d d d f S A Z S A A S K A G Z L K L D A A d d A Z Z K ! Z K L ^ ! Q ( Q ( Q ( Q ` ! Q Q Q ) Q Q ` ~ Q Q D L ` Q Q Q D Q Q ! Q Q Q L Q Q ! ! K L A Z S A K ^ S Z A A Z L S A K A A A A Z A S d A Z A L Z A A Z A D Z A A A Z Z A A Z m Z Z Z K Z A A M Z S M Z Z Z S M M Z m d d m Z A Z Z S Z Z Z ..Z Z L Z Z Z Z M M m M M Z Z Z A A Z A Z ..S G M ..Z d Z d d Z Z A S Z L S ..A Z Z K L A L D Z Z d Z Z A Z Q ! Z A L ! ` ",
"  ,.NX0XsXmX@XP.G.G.V.L.J.F.C.V.I.2XuXuXuX1XI.H.!. XK.G.r.j.a.z.P.F.OX&X^.^.0XNXsXaX@X<.e.e.h.K.F.x.V.x.G.2XMXMXyXyXT.r = r f h.G.G.c.<.m.%.>.P.W I.7X9X9XrX6X;.R E R >.!.;.P.P.,.m.rXdX9XgXwX%.z [ j +.H. .x =.O.;XuXrXuXMX@XE d f ' OXu.f g h n.qXsX6XaX@X[ g f G [.V.M m M V.[.Y m M ! @XnXrXrXmXH.f s s h.K.' g t T ).nXiX1XaX-       % D L Q L K L ( ! ! ^ L L L ` ! Z D L L S Z Z D K D D Q { L Z K L L Q ` L A L K A m m m A Z Z Z Q { ..A A L Z  .( A Z Z M K M M Z Z S A L ( L Z A K A L ' Z Z L ..Z S m M Z A K Z ( ` M M Z K K _ ! M G Z Z M S ..A K L A ( u.A K K Z ..{  .Z K M M M d Z K K L K ' { L L L K Z ' ( Z G Z G Z M Z L L ^ P { ( f L  .( ( 0.Q ( (  .( Z G { { ' u.C.( { ( u.S A Q L L L ! ( ! Q ! Q L ( ( L Z L L D Z S S K D L K ` ( A A L L K ( ( A K L D A m m M S S Z S ` L Z A L A A ` ! Z A Z A Z d Z Z Z A G Q ( A L L A A  .' G G Z A Z m m Z A K G Z { ! Z Z K Z ^ | Z Z G Z Z d m Z K L D A { { Z L A .. .{ G G Z M C M M M K A K L { ( L ! L Z G | L G G Z G d ..K L L L ^ 0.I Z P (  .{ { ^ ( Q ( Q Z L { ' | P.h.( { ( u.C.",
"  ,.NXyXyXmX@XK.+XlXOXL.F.#XlX&XT.2XuXdXfXwXR.^.%X&XK.L.G.K.E.J.J.K.%XbX@XOX0XaXrXuX>XQ.%XmX%XoX[.%XbX2XOX>XnXMXaXrXQ., : , f k.L.v.O.>.U.@.<.k.E I.9X8XrXeX@X;.E +.Y >.U.>.k.<.[ <.wXeX8XgX1X%.R O.z @.G.Y ' ,.+.(.uXdXdXCX;Xj.=.=.x.OXF.F.K.F.^.0X0X6XrX%XV.F.F.V.|.L.L.#X[.L.K.} 0.| } @XuXrXiXyXE.P.L.K.L.K.[ l I O.+XiXeX1XtX-       & ( !  .L L L { ( ' ! ( ! ` h.( A L ^ Q Q Z m A K Q L ( a. .K  .Q Q ' u.! ! L L L Z M Z D Z A L { u.A  .( Q L { =.Q L L K I Z M Z K G K  .} ( G K K G  .u. .G K G Z Z Z G K K L Z { { M M G Z K } / Z G Z M ......Z G A A  .u.L  .L G G =. .I H Z Z C G Z K L K L { { P ( P K G {  .G  .G I Z f G L ^ L K } ' ..K ( P ( l.! ^ ( Q ( G Z ' ' ( h.z.( } ' =.A ! (  .Q L ( { ! / ( ! P 0.u.L K L Q Q K m Z Z D Q K 0.0.K L  .Q  .{ u.L ! L L A Z M A K Z A L u.` Z Q (  .P u.{ L L K L K Z Z K Z Z L _ }  .G K G Z =.=.A G Z K Z Z Z Z G I L A =.! f M K M ! 0.I G A Z f M ..G Z A L Z =.{ L  .K Z  .=.L I Z Z Z K M M ^ L G P =.' L ( P Z L { L G L G K Z d K L ! P L u.L M P ( L =.u.L ( ! (  .M I { ( ' P.=.' | ' =.C.",
"  j.ZX7XiXuX@X,.O./ $.G.v.} $.O.b.3XnXuXfX6XM.:.k.:.V.F.#.[ [ h.G.v.:.$.,.I.rXaXtXtX<XM.h.j.h.L.G.j.z.j.m.qXMXaXaXrXQ.r - t f R ' [ R :.I.+.:.[ W M.rXtX8XtX6X,.R [ Y k.T.m.!.!.!.M.1XeX1XgX1X;.o.] T $.G.[ R [ %.+XdXdXuXnX@X$.} } u.OXF.h.j.e.^.0XrXrXtX@XH.!.oXK.}.K.}.&XOXY.Y.:.h.0.#.@XuXeXwXyXQ.H.&XOXY.U.} I T O.~.nXdX3XfX-       - ( ! ( P L  .{ ' ! ! ! ^ ' u.( Z K L Q Q Z m A Q ! L Q u.( G G L L  .h.( L ! L L S m Z L A Z L ` u.H L  . .L ` =.L L K K L K M G G Z K P 0.{ Z I K G L } L G Z Z Z Z M Z C K L G ' ' G d Z M G | / Z H Z Z M f m Z Z  .G Q [ L I L G Z =.' G L K M K G Z L L I L ' } P ( ! L Z } ' G L G K G M Z K ^ L K | { M G  .G ! x.P ! ! ! ( K Z ' ' ( u.P.J { R ' Z P (  .L L ' { ! ! ( ( L { u.K K K L  .L m Z D L ! K { } L A K L G { u.L ! ! L K Z m K L S A  .=.=.Z L (  .L =.` G L A G L Z Z A G H K ! h.L G L J G  .{ G Z G M K G ..Z G L L Z =. .M d Z G P | I M G G G ..f ..Z G L Z [ ' G L J M L } P G I K M G K G ^ L I P =.{  .P ! K I =.J L L G K G M K L L L K } L ..I P G { u.K ! ! ( ( M G | ' ( z.u. .{  .} F.",
"  h.dX1X8XtX;X@.H T T m.b.E O.E <.2XdXuXdX1X<.U ' P j.V.E / / O.L.r.Y E &.M.iXCXnXuX:X@.H H Y V.v.Y / Y k.2XMXpXaXyXU.< - e f Z d f f ' !.R l ..J M.rX9XrXtX0X;.f h h :.^.&X4XbXqXQ.6X6X7XtXrX+.h t f $.G./ f f x +XuXuXrXaX@XE h H / }.r.Y T T I.2X8X1XdX<X>.E E W H.v.R R Y c.U.O.E } E (.dXgX8XtXI.T R W ,.T.=.P E O.).uXyX1XpX- . .   & ' P ( L K L 0.! I I P ! ! h.! Z K L L  .Z m Z L ! ^ ! 0.( Z A L K  .u.P L L K ^ M M Z L Z G L ( u.K Z P ! K ( u.G Z K K K N M M K M G Z } ' M G G Z K } I M Z Z G Z M M Z K K Z ! | Z f Z Z M / ! f Z M f G f m M Z Z Z L } K K L G ..{ ' d K M N K M K M K Z Z  .} L P ! L d { | Z I Z K K M M K K L Z ( | Z G K G ! p.L L L ! ! G Z  .' ! { C.P ( ! ' K L ( L K K ! } P P P ! P _ 0.K G K K Q Q m d A L ( L _ 0.L Z L L G { u.K L L L K M M K K M K L } { Z L  .L K 0.' Z K K K K Z f Z K K K L 0.H Z G G Z  .{ G M C M M Z M M Z G G Z { ( M M G M G | L M G M f M M M Z M K M | ' L L G M K } K Z G Z Z M M C K Z G Z { | K ! ! Z Z u.P G I Z Z M M Z K A ^ Z 0.L Z G L G { u.A ^ L ! ^ M K _ / P z.h.! ' P { F.",
"  ,.gX:X7XeX=X@.&.T o.b.b.] $.] $.2XiXuXCX2XM.E [ ! V.G.} ] ] e.G.v.O.O.O.m.iXCXdXuX<X;.U Y Y V.V.] ' E >.,XCXtXtXaXU., - r f } V.l.z.h.L.,.x.l.,.H.rXwX6XaX@X,.[ ' e.k.P.E.&X&X^.E.4XaX8XrX6X;.' | ] z.F.8._ / =.@XpXyXrXaX@XE k k T }.r.T E T R.1XeX8XgX3X<.&.o.T I.c.T R U b.m.o.+.[ o.(.8X9X8X8XI.x T z ,.T.E U E O.+XiXtX6XfX-       - ' ^ L K K L { ! L ! ! P P p.! K K K Q Q Z S A ^ Q L L 0.| Z L  .L ( l._ K ^ L K K M Z K A G L ( u.! M L ^ M ( h.L K L K K L K M K C K Z { | M Z G M K 0.! M Z Z G Z C Z Z G K M ! { Z Z Z G C _ _ M S M M M Z S ..Z Z Z L { ^ G G N Z ` | M M C M M M M M C Z Z K u.K K K K f { ' M K Z M Z M M M M Z M ^ ( d M A Z L 0.L S S A A S m K L M ( z.G K Z Z L ! ! L K K ! { ^ K ! ! I ' u.K Z K L ! ^ Z Z A Q L K ' 0.! G L  .L { x.^ L ^ L K M S Z K Z L K 0.0.G L L ! M 0.0.K K K K ^ K A Z K K M L 0.! M Z K G ( } Z M M Z K Z Z G C G A M 8.( M Z C M G 0.I M M M M M Z Z M Z Z M _ ` A A A C K { ! m Z Z Z M M M N Z Z M ` { Z L K G Z u.K M K Z Z M M M M Z Z f _ L d M K Z ` { Z A M K K M M K K Z u.0.M G M ! l.",
"  :.uX1X1X1X;Xb.r.O.O.Y.v./ [ Y b.2XnXdXfXwXM.+.} ' v.L.O.] ] e.G.k.[ +.@.U.qXnXnXMX>X;.R T E M.v.] E E <.,XpXtXtXuXQ., > r f C.cXvXcXK.F.oXbXVX4X!.0XaXrXrX@X!.%X2X%X}.E.OX4X4X4X^.6XrXaXrX6X^.2XVXqXOXL. XlX2X@X0XrXrXsXaX@Xo.z H O.T.V.T O.&.R.3X9X1X8X;X<.%.@.O.U.b.E +.R M.U.O.>.+.o.(.9X9X8XeXI.W R Y c.U.] U T %.~.1XwX1XZX=   .   * ) M A S M M 0.! Z K K L M p.Q m Z Z A K Z d m Z K Z Z { ( d m Z S Z 0.! m Z B M B b m m m S M K | Z B M S d M 0.A M B m B M B v B a m d ! ! d d s d f L G s s a a a M a f a d s M ^ d i s d a K K i a s y i s s d i s a a ^ B a B a a S Z a B s p B B B s a d s m Q d M Z m d Q A m d d m d m m d M M m A K Z Z A K M _ K M Z M d Z m m K m L | S K K K ^ Z K A Z m ^ 0.K A K K K ^ 0.K B Z S K K m d Z A A M ^ 0.L d Z Z m ! 8.A Z Z m N m B d M M m S ( _ d m m A i _ ! M M B B M M b d m a B f _ Z d s f s S ! d i f a s m d s f s a d K K s s s a d P v s v i y s s s d s b i M ^ a s m s v K B s v i a v B f i s d s K ^ d Z Z d m ^ Z m d m m M B B B M M M ^ Z Z Z G A D ` Z M M M B M b M K m _ ! M K Z L _ ",
"  ,.AXiXmXnX@Xv.E C | Y.B.P K H <.3XdXuXdXuXM.T ' R G.L./ C C 0.L.j.J Y E U.iXnXyXrX<X;.l f Y F.z.I h H c.2XnXuXpXyXQ.r - r f $.c.M.<.,.Q.,.k.P.1.2.6X9X9XtX;Xb.F.m.H.M.H.P.n.n.2.I.9XaX8XtX6XM.m.T.m.n.n.z.K.G.G.>XtXeXuXaX@XO.C C ] }.z.I C z T.,X7X9XtX>X>.U H R H.F.P ' J n.H.] Y P E +XeX7XwXrXT.U I I j.}.#.H U O.+XnXwXwXfX-       & A M M M A B Q ^ Z S K K M _ L Z S S A A N Z L A D ^ Q _ _ L A Q Z Q 5.! ^ Q A ^ K K Q ! Q Q ~ _ 4.^ D ! ^ L _ _ ! ` ( ^ _ ^ ^ ^ ^ 3.` ^ ` ( ! _ _ ( { _ ! _ _ _ ( _ _ _ ( { 8._ 9.0.8.8.8.8.8.8.8.0.8.8.p.8.0.0.i.p.p.0.s.p.9.x.p.s.p.p.x.p.9.N.x.e.l.l.l.N.N.N.D.N.C.B.B.C.N.N.D.C.S.A.Z.A.B.A.A.A.A.A.A.A.A.A.J.A.J.A.`.].A.'.S.A.L.Z.S.'.A.A.].A.`.[.S B M M N M M ~ L Z S L Z K _ S Z S Z A A N S Q A L K ^ _ ^ A L D Z _ ` L ^ D L ^ K K ^ ^ ^ _ ! _ _ A ! Q Q L _ _ ! _ ! ! ) Q Q ^ ^ _ ! ! | _ ! ` ( _ | ` ( _ _ _ ! _ _ _ _ 8.{ _ 0.8.0.5.8.8.0.5.0.8.9.0.0.8.0.8.9.x.0.0.s.0.p.N.p.l.9.p.d.x.l.l.d.N.B.e.B.B.l.N.N.N.C.N.B.N.N.C.B.A.A.C.A.A.B.A.A.A.A.A.A.A.A.S.S.C.S.S.`.`.'.`.A.A.J.C.`.A.Z.`.J.'.[.J.J.",
"  ,.MX0XiXmX+Xv.F.F.F.}.z.I M G c.3XuXeXuXrXM.J R ! V.K.] G G { L.j.P I Y M.2XnXtXtX<Xc.=.} h.F.C.0.e.e.m.2XnXnXCXyXT.r = e h r.M.<.;.;.M.+.>.,.W 2.7X9X9XtX<X>.:.,.[ >.U.+.@.>.%.b.1XeXeX1X6X>.Y #.H +.G.Y Y ' %.*XdXuXdXdX<X] f f | }.z.M f h H.2X0XwXuX2X:.l f J K.C.Z Z m z.J.} ( / $.+XuXrXtXmXT.h h d e.[.Y f t U +XiXeX1XfX-   .   e  Xs.D.S.A.Z.B.C.A.C.N.C.Z.B.C.A.C.'.A.A.A.A.A.A.A.A.'.A.C.`.A.A.J.A.A.J.A.A.'.'.`.[.A.J.].'.'.A.S.`.].J.`.`.A.`.`.[.[.`.`.].L.'.[.L.].[.S.A.J.S.J.J.J.J.].J. X`.]. XS.S.J.].[.[.`.`.[.`.[.[.[.`.L.[.].].[.].].S.].].[.[.`.[.[.[.`.[.].[.`.`.[.`.`.`.`.`.[.[.`. XS.].].J.S.].].].].]. X[.].].].].`. X[.`.].`.].].].].S.`.]. X XS.S.S.S.A.`.`.S. X`.`.`.[.A.B.D.A.A.Z.C.Z.C.A.D.N.A.Z.B.A.A.Z.A.A.A.'.A.A.A.A.A.`.A.A.S.A.A.J.A.A.S.A.A.`.J.`.`.F.`.`.A.'.A.`.].`.`.`.'.J.`.`.`.[.`.`.'.L.`.[.].].J.A.A.].L.S.J.J.J.].]. X].].[.S.J.].`.`.[.J.].].]. X[.`.L.].[.].].].].`.`.[.].].].].[.].[.[.`.[.].`.].].`.`.`.`.`.[.[.].`. XS. XS.S.`.].J.].].].].].[.].].[.].].].].].].`.].`.`.].]. X].S.S.J.S.`.`.].].`.`.].].].].",
"  :.nXwXyXnX@XoXbXmX%XK.F.F.H.v.I.2XeXeXdX7Xm.M.K.F.L.Y.c.V.z.F.L.F.V.G.b.~.iXmXuXfX=X~.bXVX%X[.Y.%XbX2X+X2XAXuXfXuXR.r X.X.h x.n.,.W =.U.>.v.n.E <.eXeX8XeX,X;.#.m.#.:.T.+.<.b.%.R.1XgXeXdX,X@.R j.T O.G.] ] e.$.;XnXgXeXuX;XO.C C 4.OXB.G C Z H.2XqXiXpX%XL.OX&XoXE.J.L. XK.E.K.K.%X&XY.+XiXiXuXyXY.V.K.E.V.}.h.' | O.~.iX1X1XaX-   .   e .XZ.`.`.S.S.J.`.A.S.'.Z.A.A.'.'.`.A.A.`.'.A.A.`.`.A.A.A.L.A.S.A.Z.A.A.A.A.A.A.A.A.A.Z.Z.A.A.A.A.A.Z.A.A.A.A.A.A.V.A.J.A.A.A.'.B.A.'.A.A.A.A.A.A.A.S.A.A.A.A.A.S.A.A.S.A.S.J.A.A.C.A.J.A.C.'.A.A.A.A.`.A.A.A.A.A.A.A.'.B.A.'.'.'.A.'.'.A.F.'.A.J.A.A.`.A.A.`.S.S.S.S.`.`.S.S.S.S.S.].'.`.`.`.`.A.'.`.`.`.].`.`.J.'.A.S.'.`.S.S.S.S.S.`.S.].].].`.`.`.`.L.`.'.S.`.`.S.'.A.J.A.A.A.A.A.A.A.S.'.S.S.A.A.Z.A.].A.A.A.A.A.A.A.A.A.A.A.Z.A.'.A.A.'.'.Z.A.'.A.A.C.A.A.A.A.A.Z.A.A.J.'.A.J.C.'.A.A.`.A.A.A.A.Z.A.A.A.A.A.C.A.A.S.S.A.S.A.A.].`.A.A.A.A.A.A.A.A.A.A.A.S.`.A.A.A.A.B.J.'.A.Z.'.'.'.'.'.A.A.'.V.A.'.J.A.A.A.A.`.'.J.S.S.S.`.S.S.S.S.S.].].`.`.`.`.'.A.`.`.'.`.`.`.`.`.`.`.S.S.`.S.J.S.S.].S.S.`.'.].`.`.`.`.`.A.",
"  j.MXtXtXyX@Xb.k.k.k.m.G.k.G.k.b.2XiXwXuXwXQ.c.U.F.L.H.v.H.F.n.H.m.v.G.j.T.iXCXnXdX:XM.v.H.v.G.G.L.}.Y.U.>XMXpXpXaXQ., - r f } =.=. .=.K.e.e.#.W I.rXdXdXuX,X>.] j.O.r.W.%.%.%.&.r.gXdXdXCXwXk.e.e.O.$.G.} h.j.$.;XeXeXeXuX;X;./ 0.e.oXV.C H U U.2X1X1XtX@X!.2XbX&XE.K.&XbX%XoXK.!.bXcXoX(.6XrX9X0XT.%XmXVXoXY.OX%XbX+X+X1XeX,XfX>       9 |.N.`.S.Z.S.'.A.`.'.A.A.A.A.A.A.A.A.A.A.`.A.N.].].A.`.A.'.'.S.A.A.A.A.`.'.].`.L.A.].A.A.`.].A.A.'.'.'.A.'.A.A.`.`.`.'.`.`.`.'.B.].[.A.A.A.`.S.S.S.J.S.S.C.S.S.S.S.S.].A.A.].].A.A.A.'.A.A.A.S.A.J.A.`.S.S.A.A.`.A.'.A.'.A.'.'.'.A.A.Z.A.S.'.Z.`.'.'.A.A.A.`.`.S.`.S.S.S. XS.S.`.`.A.S.A.'.A.A.Z.A.`.`.'.J.].].`.A.`.S.'.'.S.S.S.S.S.S.s.S.`.A.A.A.'.'.A.J.B.'.`.'.Z.A.'.'.A.'.A.A.A.A.A.A.A.'.A.A.].Z.A.].].`.`.'.].S.S.`.A.A.A.].A.`.'.`.A.`.B.'.`.'.'.'.A.`.`.A.A.A.'.A.`.].J.'.].'.L.A.'.'.A.A.`.].`.J.].S.S.A.S.S.S.S.S.S.S.S.A.[.`.A.'.'.`.A.S.A.S.J.A.S.`.S.A.A.'.A.'.A.A.A.'.'.'.'.A.A.A.'.'.A.A.A.'.A.J.Z.`.].`.S.`.S.S.S.].S.`.'.A.A.'.S.'.A.A.B.J.S.S.`.S.`.`.S.S.S.S.'.S.S.S.S.S.S.D.s.`.A.A.A.A.A.J.A.Z.",
"  ,.fX7XwXiX;X<.W W R H.m.Y E T b.2XnXtXrXwX<.k ' R k.n.E U U E v.:.E o.o.m.iXnXnXuX3X<.R Y Y G.V.Y Y E ,.0XMXtXtXwXQ.r : r f P f t t [ K./ s f f <.7X9X1XdX2XO.h f H e.Q.j : : < %.gXdXeXdX0Xc.e.v.j.M.H.e.h.=.$.;XiXdXuXuX@X;./ T ] }.b.C H T I.3X1X7XtX>X<.o.;.+.H.m.;.=.+.M.m.;.,.:.+./.tX9X6X0XI.;.,.:.c.Y.z.z.j.j.OX1XwX1XgX-   .   e |.D.'.'.'.S.Z.A.A.A.A.'.A.A.Z.Z.'.A.A.Z.'.A.s.Z.`.A.A.A.A.'.'.A.`.`.A.A.A.A.'.`.A.'.A.B.A.A.A.Z.Z.A.A.A.A.Z.A.Z.Z.A.A.Z.A.Z.A.N.B.Z.Z.Z.D.D.D.Z.D.D.A.D.A.Z.D.S.D.s.N.N.N.N.A.A.A.Z.A.A.A.A.A.Z.C.Z.Z.A.A.Z.N.N.N.Z.A.B.Z.A.B.Z.A.Z.Z.D.Z.Z.B.Z.C.B.B.N.B.'.S.A.A.A.A.S.S.S.`.A.A.Z.A.A.A.A.Z.D.Z.'.A.A.Z.Z.A.A.A.`.S.Z.S.A.S.A.D.S.D.s.s.S.`.A.A.A.A.A.'.A.Z.`.S.S.A.A.A.A.A.'.A.A.A.A.A.'.A.A.Z.].N.s.A.`.A.B.A.A.`.A.A.`.'.A.A.'.A.J.'.'.A.A.C.A.A.A.B.A.A.A.A.A.B.A.B.Z.A.Z.Z.Z.Z.Z.N.C.Z.Z.Z.D.N.N.Z.D.S.A.D.D.D.Z.D.C.D.l.N.N.B.A.A.Z.A.A.A.A.S.A.Z.N.D.A.A.A.N.N.N.B.Z.Z.Z.Z.'.B.B.A.Z.B.B.B.D.Z.Z.Z.B.B.N.Z.A.A.A.A.S.S.S.S.`.S.A.Z.A.A.A.A.Z.Z.N.A.S.A.S.D.A.S.A.'.'.S.Z.S.S.S.D.S.S.s.s.A.S.S.A.A.A.'.A.A.",
"  :.fXgXeXiX@Xj.o.,./ G.m.E O.] b.2XmX1XuXwX<. .=. .P.H.+.U W E m.k.o.O.o.m.iXnXiXuX3X<.O.+.O.G.V.[ ] E <.2XpXrXtXrXQ., : r f / R ' R =.L.} ' '  .M.wX6X6XaX@X,.[ _ / z.Q.z - ; : %.gXdXtXtXaXk.| } E k.n.u.{ [ ,.@XrXtXaXaX@X+.T E E T.r.H T T m.1X1X1X8X<X1.o.E E m.b.W E Y c.U.+.E [ o.).7XrX9X9XQ.J =.U >.U.:.[ E +./.iXwX,XfX-       e `.s.Z.'.S.Z.Z.s.Z.A.'.A.Z.A.A.Z.Z.A.D.D.D.D.s.s.s.A.B.Z.N.N.A.Z.A.Z.A.B.N.A.'.B.s.N.N.p.B.A.A.Z.A.A.'.`.S.A.A.A.B.A.A.Z.A.B.B.Z.Z.A.A.'.A.A.A.C.Z.A.A.S.A.A.A.C.S.Z.Z.A.D.Z.S.S.S.S.S.S.S.S.J.S.S.A.D.S.A.S.A.A.A.S.`.`.].].`.[.[.[.].].].`.].`.].`.`.'.`.[.[.[. X`.S.].`. X`. X X].].`.]. X X X'.]. X].`. X].]. X]. X`. X X XS. X X X X X X X X X X[.[.Z.N.D.A.'.S.Z.D.Z.Z.'.'.A.Z.Z.A.D.A.Z.Z.N.D.s.s.N.N.A.Z.Z.N.Z.A.A.Z.Z.A.B.B.'.A.N.s.N.s.d.A.A.A.Z.'.A.`.'.A.`.A.Z.Z.A.Z.A.Z.B.Z.Z.Z.A.'.A.'.Z.S.C.S.A.S.S.S.A.A.A.S.A.D.A.C.J.L.].'.Z.`.A.S.J.J.S.S.A.A.A.S.S.A.A.A.S.`.A. X[.`.].].[.].].].J.`.`.].].`.S.].].]. X X`.].].]. X X]. X X`.`. X[.[. X`.|.].].].`.].]. X].]. X]. X X]. X X X X X X X X X[. X`. X",
"  +.CX1X1XuX2Xr.] [ O.Y.G.] $.| v.iXnXAXfXiXm.<.n.k.n.H.c.c.c.M.m.M.b.m.b.T.qXCXCXCX<Xb.+.#.$.L.G.$.#.$.c.>XpXyXpXpXT., - e C x.&X%X&XH.L.K.%XcX&X^.6XrX9X9X4XE.&X2X%X}.~.j : - < @.-XgX9XrX0Xc.#.e.:.c.H.E.%XbX@X2XuXiXrXpX<X;.&.] O.Y.b.U E &.I.1XdXeXgX>Xb.@.@.+.U.v.[ #.] v.U.:.+.:.>.).7XgXrXwXQ.o.[ ;.b.Y.,.#.+.>.).iXtX,XfX=   .   = `.A.`.`.].]. X]. X|.`.].].A.A.i.s.|.Z.i.Z.`.S.s.8.|.A.A.s.p.`. Xs.p.[.'.9.[.XXd.s.].9.5.].|. X|.|.|.|.|. X|.[..X[.].|.[. X|. X|.|. X X|.|.|.|.|.|.|.|. X X X XS. X|. X|. X X X[. X X X X X`. X X X X XJ.J. X X XS. X].]. X[.[.[.].{.].].].].].`.'. X[.[.[.`.[.].].S.`.S.`.`.`.`.A.A.S.Z.Z.'.A.`.'.A.Z.A.D.Z.Z.N.Z.Z.D.s.s.D.s.s.s.s.D.s.s.s.s.N.s.s.s.s.i.A.'.`.].]. X].]. X].`.].`.A.Z.5.A. Xs.s.'.`.`.8.s. XZ.A.u.N.].'.p.B. Xs.s..X`.p.B.A._ p. X X[. X|..X|.|. X|.|.|.[.[. X[. X|.|.|.|. X|.|.|.|. X X|. X X X]. X XS. X|.|. X X[.[.[. X X X X`.`.|. X X X].S. X X XJ. X X X X X].[.].].[.].].[.].].A.].[.].].].]. X`.S.`.`.'.].S.`.`.A.A.A.D.'.'.'.A.Z.'.Z.D.C.Z.Z.Z.s.S.s.s.s.s.a.s.s.s.D.s.s.a.s.s.s.N.s.s.s.",
"  } nX2XiXiX+Xr.Y I ] }.L./ / / r.iXnXnXfX0X^.4XmXbXOXH.^.qX4X/.U.!.>XbX@X+XwXnXpXpX:Xb.[ ] #.G.L.[ Y ] M.2XuXwXpXpXQ., : r f } ,.k.,.>.H.j.j.l.,.M.6X9X9XrX@X<.k.z.V.V.R.&.< : < @.:XrX9X9X0Xc.#.h.+.j.H.P.L.!.Q.<XuXeXtXnX;Xm.m.V.v.}.V.I I H V.2XuXuXnX>Xc.T T Y L.V.Y P I v.K.#.R Y O.Q.eXeX8X7XQ.E R U k.}.:.E U +.~.uXeX1XfX-       & Z.'.Z.A.A.A.].].`.`.'.A.A.A.Z.a.s.A.D.s.Z.`.A.s.Z.A.N.A.N.N.Z.Z.N.B.A.N.l.N.0.8.N.B.i.p.Z.N.D.D.D.Z.A.N.N.Z.B.B.Z.p.s.p.N.N.s.s.N.s.d.N.N.s.N.p.l.s.a.P.a.a.a.u.a.a.a.u.u.u.u.u.8.0.i.=.i.{ { i.5._ i.Q ) { ` =.{ ` i.8.{ 8.8.5.| 5.0.8._ _ 5.Q _ 8.5.5._ 5.6.{ i.8.f.-.{ 8.6.5.i.` ` ` ` 5._ 4.8.8.i.-.{ 5.i._ 6.6.i.5.` a.-.=.i.` =.i.-.a.8.i.i.8.i.i.) Z.'.A.S.`.'. X`.`.].A.A.A.A.a.a.Z.A.s.s.A.A.Z.s.A.Z.Z.Z.s.N.A.N.N.B.Z.s.N.N.8.p.Z.N.8.N.Z.B.D.Z.D.D.D.N.D.B.B.B.s.d.s.p.s.B.N.N.N.p.s.s.s.s.s.s.s.P.a.s.a.a.p.8.a.a.a.i.u.0.8.u.0.i.u.8.u.i.i.=.` { _ Q ( { _ i.{ ` i.{ 5.6.5.8._ _ 0.8.4.8.) Q 5.5.8.5._ i.` 8.8.-.i.i.` i.` i.8.` 4.` _ 5.4.4.i.f.5.i.{ i.=.4.i.i.i.i.` u.-.-.=.` a.{ i.i.i.i.i.8.a.i.5.",
"  :.CX2XiXmX2Xr.H I | }.V./ C I b.UXnX1XaX6XQ.^.&XOX!.H.H.OXOXE.Y.L.oX+X~.Y.qXMXyXtX<Xc.J f P F.L.P f H ,.>XiXiXpXpXQ.r : e h e.,.<.o.E U.@.E :.E 1.6X9X9XaX>X<.+.@.%.r.R.%.%.&.T I.1X9X6XrX6X1.R [ U $.H.' Y [ @.+XdXdXuXfX;XY.%X%XOXOXz.Z C C G.2XbXiXiX2Xj.l f K F.F.M d M z.K./ M f H T.uXeXwXwX!.k f ..:.Y.( d g Y T.mXuX3XaX-   .   * 7.) f.` ` i.i.7.8.6.i.8._ ) ` Q _ ` ) _ _ ` _ _ _ _ 4._ 8.5._ 8._ 5.9.5._ 5._ 4.8.8.8.8.5.8.8.5.i.i.8.a.i.i.p.8.9.p.8.8.p.8.9.p.u.i.p.i.0.p.i.a.s.a.a.a.a.p.a.a.u.u.l.p.p.l.l.s.l.s.s.s.D.l.D.l.D.C.N.l.N.N.D.D.D.D.D.D.Z.Z.C.N.C.A.C.S.S.A.A.A.A.].A.A.J.J.S.S.S.J.S.S.S.S.`.J.A. X].S. XA.].'.A.[.S.A.S.C.A.S.A.S.A.Z.S.D.S.S.A.A.D.A.S.C.S.S.C.A.D.C.~ Q 5.5.) ` i.` 4.i.i.6.8.` ` ) ` 5.) ) ` ( ` 5._ ` 5._ 5.8.5._ 8._ 9.8.4._ _ ) 8.8.5.9.5.| 9.8.8.i.i.8.a.i.p.p.8.i.i.8.p.p.8.0.9.9.a.a.a.a.a.a.a.a.a.a.u.a.p.u.a.u.u.p.p.l.l.N.p.l.l.l.C.N.l.l.s.D.D.N.D.D.N.D.D.l.D.D.D.D.C.A.D.C.A.Z.L.Z.A.S.A.A.].Z.A.`.S.S.A.J.].S.S.S.S.S.A.A. XS.S.].A.].A.S.A.A.S.A.D.S.Z.A.S.s.A.S.D.S.S.S.S.D.S.A.C.S.C.A.A.N.Z.D.",
"  h.nXwXiXnX>Xv.] P } K.L.' P Y V.iXuXwXuX0XQ.@XcXbXOXK.OX%XcX&X!.oX%XqX&XOXqXMXuXrX:XH.z.z.C.[.[.F.V.V.G.2XnXiXuXuXQ.r = r C j.H.<.W ;.I.$.@.,.E 1.9X1X-X9X1X<.%.v.O.b.T.$.$.j.%.b.1X9X9X9XhX1.R :.U +.n.] R [ @./.tXrXrXrX@X^.&X4XOX|.L.C.L.F.!.2X0XwXiX>XL.}.OXK.oXK.z.B.z.L.K.z.z.z.k.~.uXuXwX6X^.,.H.H.H.!.x.z.V.v.~.uXtX>XtX- . .   6 .X].A.`.].S.].`.`.`.[.A.L.A.B.A.A.C. X`.`.[.J.A.].S.J.J.A.'.[.`.].].A.S.`.'.'.`.'.[.A.A.].J.S. XA. XJ.S.].].J. X].A.J.S.J.J.A.S. XA.C.C.A.A.A.C.A.C.C.S.C.C.C.P.D.C.l.D.D.p.z.l.l.l.l.l.a.u.p.l.a.l.=.=.a.a.u.u.0.u.u.=.a.=.5.u.u.8.{ 8.u._ 0.8._ _ | ` ` _ _ _ ` ` ` Q Q ( _ ` Q ! ` L Q ( Q Q Q A L ^ L ! D A L D Q D A L Z S Q L L S A A Z L A Z A S s. X].A.`.`.`.].].A.[.`.J.].A.A.S.A.A.].'.].].A.J.].A.J.S.A.].].A.].'.A.S.A.A.`.`.].].'.S.].S.J.].J.].J.S.].].J. XS.J.J.J.S.'.A.].].A.A.S.A.A.C.C.A.C.C.S.C.P.C.l.C.N.C.C.l.l.N.l.l.l.l.x.p.a.l.a.u.u.=.u.p.=.u.u.u.a.u.i.=.0.{ a.u.{ i.{ { { 8.8._ _ { ` _ ` ( ` ( ` ` Q ` ( ( ` Q ! ( Q ! Q Q ~ A A ! Q Q Q A L A L L A D A S A Q A L A Z A Z A Z Z A A D ",
"  #.MXwXyXmX@Xc.[ ' :.Y.F.[ Y Y b.2XrXiXaXwXI.H. XE.oX}.G.K.].J. XoX XoXT.Q.qXuXuXpX:XM.j.k.P.G.K.j.j.j.m.3XnXfXCXMXQ.r : r ] e.u.} R :.K.,.h.,.,.<.6XhX-X9X-X;.T O./ j.}.O.] $.R 1.hX9X9X9X6X1.W [ U :.H.}  .[ [ ).1X1X6XwX(.H.OXOXE.OXE.K.+X^.Q.>X7X9XwX<XU.+X@XOXoX!.oX%X&X!.Y.U.@X%X!.+XwXeXrX6X^.Q.%X@XoXoXE.%XUX+X+X2XwX1XaX-       = a.` ` ` 5.{ ` _ _ _ ! _ ! _ Q ! D Q K L Q L L A Z A K A K K Z A Z Z L A m M m M L M A S S A K A A A A A A Z K A K A m Z A Z Z Z Z K S S K Z Z Z ..Z ..f d d s s m Z ..d ..G d d M d d d Z d f m m s s y d f s f f m m s d d s d Z f d f d d s s Z Z Z A Z Z M Z Z Z Z ! K Z Z Z Z M d m Z S A A Q ` K K L L L (  . .L L L ..m Z G A Z { { L Q L ( { L ! ) 5.` { _ { _ ) _ _ _ ( ! Q Q Q L D Q K ^ L K L Z S K A A L A Z K Z A K S Z Z m A A Z S Z S A A A K A A A A A L A Z S m Z Z M Z M K K d Z K Z Z M Z Z f d ..s s d ..Z d d Z ..d d d m f m d f d ..d s s s d d d s m ....s d d s d m d f d d d s f A Z A Z A Z Z Z Z Z Z Q Z Z Z Z Z d d Z S A A K ( Q A K L Q  .( Q L Q L K m ..Z G Z L =.~ L Q L { { L ( ` ",
"  #.nXwXwXiX@XM.:.,.>.U.H.@.#.+.<.,XtXyXaX6XM.o.,.] m.T.$.@.;.;.T.b.%.$.o.I.,XuXtXaX6X1.%.%.@.I.I.O.o.o.;.3XiXiXuXMX~.r - e e.0.C C f ' L.H.&X$X&XI.6XhX1XeX>X;.C f M 0.}./ C h G <.6X7X9X7X6X<.J J U @.F.:.| ' [ Q.:X1X9XwX<X<.W W ,.^.m.E R o.M.,X8X9X8X,X<.o.W W G.m.] [ [ n.H.<.#.e.$.).tXeX8XrXW.=.=.[ n.~.j.[ $.$.T.;X1X1XfX-   .   & _ ( ( L A Z A A L L K G M M Z m s s d d m d d Z Z d d m M G K K M M Z S M d m m M M Z Z K Z m d m Z G { A Z Z S Z Z d d Z Z Z Z ( { K G G G G ( ' G Z Z G G f f Z G K G L { P Z K I K ' } K K G G K M f Z Z G I  .=. .Z Z G G ' =.L G L G L Z G { } 0.` { h.{ ' ' { ' u.} ( (  .! L K L ( Q ( ! u.a.(  .! ( ( u.| ( ( ' ( K Z  .Q L ( u.=.( { ' } l.' ( D ( ( ( K A A A Z ^ K C M M Z Z d s s d M M m d Z ..d m M M K K Z Z Z A Z m d d m Z m Z G A Z S d Z Z Q ( Z Z Z S Z M s Z Z d Z K { ( Z K G K L '  .G Z Z l Z d d G I G Z ( { G I I K L 0.( A L Z L I f f Z Z I G ' 0.L G Z A L } ' G L G L A M  .{ { { ' } h.{ { ' { ' x.' ( ( ( L L L ( ( L ( ( l.u. .!  . .=.u.' ' ` ( P L G  . .L ' l.' ' { ` u.x. .' ( ",
"  0.nX1XwXwX*XI.<.I.<.U.T.j.M.k.b.2XyXrXtX7XI.;.I.<.b.T.c.I.m.<.T.b.b.b.@.I.iXyXrXrX-XM.>.;.$.M.U.$.<.$.@.@XtX7XuXmXOXr - r v.| M h f } U.n.&X%XOX!.6XrX7XtX,X:.C i f e.}./ B M G k.>XrXeXrX0Xn.h.x.>.n.H.}  .J W R.<X7XrXtX<X1.;.;.;.m.U.o.@.%.<.1XdXgXgX:X<.;.;.;.H.H.@.,.,.M.H.<.k.z.>.~.tXgXtXrXW.=.[ [ n.^.c.>.@.$.).1XeX3XaX-       = A.n.n.h.{ { { { u.h.0.' G L L ! G d L | ! ' ( ' | P I I ! P 0.{ L ! L P L M f M K L ( ( { ' H L L L ( l.( ( L K (  .G L ( L L  .a.x.( (  .( ( h.u.! (  . . .M ..I ( ( P [ u.( J P P  .{ } I G K K P I ..L  . . .` x.=.J L L  .{ a. .( ( P  .G d ( ( P P  .x.{ ' ' { ' =.}  .( '  .L G  .' ( ( ' =.x.( P ! ! ' u.=.[ } { ' P L  .'  .( =.=.{ { [ u.z.{ ' { P.F.P.} { { { 0.x.h.0.L H L ( L ..m / _ / ' ! { ' I L P P ! h._ L L P L K d M Z K ! ( | { L I L L L =.x.P ( L K (  .G  .( L P ( l.u.P !  . .| x.{  .( P (  .f G P  . .( } =.P L  ./ ! =.' Z J I L L Z Z !  . .( { k. .G L  .( u.=.L ' ( J  .d G ( ( P L { u.{ ' ' | | =.'  .' (  .L G ( ( ( ' ' u.u.P P ! ( ` :.{ | =.} ( L L ( ( ( ' u.u.{ [ [ x.h. .' { ",
"  #.iX1XwXiX+X<.<.<.$.H.U.:.j.$.b.2XiX1XnXnXI.@.v.r.G.}.j.k.j.$.G.V.r.b.$.I.1XnXrXtX<XM.v.c.k.m.G.k.M.<.,.(.pXrXfXpX^.r ; t H.} Y / I } G.m.%XcX&XY.wXtXuXnX2Xb.I C C e.oX| I L J v.qXyXrXdXrX!.%XbX2X+XH.H.%XqX>X,X6X1X9XwX;XM.<.c.>.Y.I.r.b.>.<.;XrXwX8X<XM.1.b.@.m.H.j.c.c.v.!.M.m.v.c.~.wXdX8X7XQ.,.,.,.M.^.n.,.<.,.).1X1X1XdX-   .   = F.n.k.r.e.| | | #.h.h.| I L P ' I f P | ' | / | / ! ! ! / ( } | ! ! ! ! L Z M K K ! | { #.| L L I P ` z.' '  . .( ( K P (  .L ' =.x.'  .( ( ' } h.! R P ' ' G f L  . .P ' u.' G P ! P ' 0.G G G G G Z M K L L  . .=.[ Z G G G ( } I J G H K d d L ! K K K } | P ! '  .{ { H P P H I G K ! ! L ! ' h.! ^ L P L } 0.' ' ( ( L K P P ^ L } h.( ( P ( } ' K { n.n.k.e.} | ' } h.h.e.! I I ( ( G f ' | / | / | / P P / ( / e.| P ! P P K M M K L / | } 0. .L L I P 0.x.( ( ( L ' ! G ( ( P  .' l.=.' ' ( ( ' h.} P (  .| ! d M  . .(  .} =.J I / ! I } | Z G G A G M Z G K P L ' u. .l G G G { ' G L G L H d Z ! L G G ! 0.' P ( ' P 0./ I  .L H G Z L ! L ! ! } 0.L I P P ! 0.} / _ ' ! L G P ( L L u.}  .( P | =.P ! ! ",
"  } mX1X0XqX;X;.h l E G.G.I M h $.2XnXnXnX2Xb.h T I V.Y.[ G I O.}.V.O./ T V.iXnXrX8X:XQ.%X4X&X!.H.OXqX@XW.4XpXaXpXpXR., - j ~.$.Y / Y #.H.k.k.N.j.M.iXaXeXuX2Xr.k I I e.}.} Y R  .k.0XaXtXfXwXU.F.E.H.H.H.n.!.+X~.(.,X:X:X7X(.,.W E [ ~.G.| ] E <.@XwX,XwX@Xb.,.@.$.G.G.} } #.v.!.c.v.$.>.).1XeX8X9XW.W [ ' k.^.<.[ +.@.~.1XiX1XfX-   .   = F.n.v.#.| ]  .' } h.$.} H G P ! L M I } | / ' / / ! ! P ! P 0.8.! P ! P G Z M G K ! ( ' 0.| H K K K ( p.! L L K G ( Z K  .K L L { h.! L P L H } e.L I L L L ..f Z I L H I } P G L K Z ! e.G G Z G Z M f M Z Z G Z } { f ..M d G u.d Z Z Z Z Z Z K K M Z H 0.] K K K K | 0.Z K K Z S A A L K K K L l.! G K L L { 0.K ^ K L K Z A L Z Z ( h.! L ! K } | Z ( n.m.j.} } |  .' =.#.e.' G H P ! G f ' 0./ ' ' ' ! P ! P ! ! 0._ L ! ! L K Z G A K ! ( | 0.( G L G K } u.L  .L Z L ! Z L L G L L =.u.L K L L P h.{ H L I I H d f K L K H ( { G G L G M | | l Z G Z C M f Z Z Z G L h.I d M Z f ( ' f G G Z S M Z K K Z Z ! 0.' G K K G 0._ M L G Z Z A K L K L A | x.L K K L L p.' L ! K K A Z A L K Z 0.} P ! L L u.! Z Q ",
"  } iXwXwXiX@X$.H H ' K.F.M m C $.3XdXiXnXiX<.H C C V.[./ f M / }.V.H C C V.2XiX6XwX<XQ.&X4X%XOXE.^.%X%X^.(.pXtXaXrXM., - k ~.k.$.$.E #.T.:.[ :.] b.rX9X7XtX2X<.E :.T j.Y.$.[ =.R k.6X9X7X9X6X<.J [ T ,.H.R J R E R.1X1X1X:X(.;.G G  .L.V.Z g ..:.@X0X0XiX<Xj.T C ] L.K.e.e.r.V.Y.j.] P ] T.7XwX9X6XQ.l t g =.!.[ f g l T.uXrX,XtX- .     = z.z.h./ | | ! ! ( | } | C M K K L f M / ! ! ! / _ P K C K K | | K G K L K M M M M G L ! ! _ Z Z M M L h.( K A Z Z L A G L G Z L ( u.P Z K G m | h.G Z J I G M d M K H G Z { ' f K K M I 0.L Z Z M M M M M f ..Z Z { { f f M d G u.f d d f M M m f M m M M { 8.M M M M ^ { M M N d B S Z m m m m d u.Z s m M d ~ _ d M M m d m d d d s Z { s B B s L Z s L z.v.} / | _ ^ ! [ ' | Y M Z K K Z d K / ! ! I / / K K K K K 0.( G K K L M M M M C K L ! | ! M Z Z M _ h.^ K K Z Z L Z L L A L L } } L K K Z G h.} Z I G L Z f m M K H Z K u.L M M M M | | G Z Z ..M M Z f d ....A u.P d d ..f ! | s d f d M m f M m M M K e.^ M M M M | ( M M m m m m m M m M d L 0.s d M d m | A B M M B m m d d d d ( ^ s M d d ^ d a d ",
"  | iX>X0XwX+X^.@XqXOXoXF.G M h @.dXiX1XdXiXM.C / / F.}.} I I | }.r./ T T b.2XiXwXwX=X~.&XqX&X XE.OX4X6XQ.@XrXrXrXaXI., : o./.M.$.j.R @.U.,.+.k.W 2.rX8X8XrX6X<.o.,.o.1.Q.,.W ,.W 2.4XhX9X9X6X1.W W T ;.I.' J [ ;.W.9X1X:X:X(.U.!.OXE.OXF.P H P :.>XiX,XwX@XM.b.V.j.L.}.}.&X&XoXY.h./ P ] T.1X1X6X6X^.,.P.k.m.oXP.x.z.k.Y.qXtX,XaX-   .   % ' =.| K ! 5.K M P ! ! ! m d M m M a s Z C M M K ^ M B d M b ^ ^ M d d d m M a a d b M M L ^ a d m d M 0.! m d a d M Z Z m d d f M 0.A d d d y K { f s s g s i y i a d s s ( K s d d s d L d d s s s a g s s s d d L ! s d f s M L d d s d m d m B m S m M ( ^ K K A Z K _ L M L K K L A D ! ^ ! Q u._ ! ^ _ ! | _ _ 4.| _ 8._ 0.8.| { 0.i.8.0.8.0.0.0.a.A | e.! C _ ' G K ^ P ' ^ d m m M M s f M M G M ^ K M d B M M ^ ^ M d d d M M a a d m M M ^ K s d d d L 8.Z d d s m Z Z M d d d d L { d d d s i ' L s t s s g i y a d a g d ' d d f m s M K s d s a s s s s s d m d ! K s f d s K Z d d i m d B m m m M m K ^ K ^ A M K ^ ! A K L A Q Q A ^ Q Q Q ` 0.! ^ ^ ( _ 8._ ( _ _ { { { { _ { _ 8.0.5.8.8.0.0.8.u.p.",
"  } wX@X,X0X+Xm.H.Y.H.G.G.I H H $.1XrXaXrX6XM.z / I V.G.O.C I O.Y.b.T T T I.1XAXrXtX:XT.!.oX!.K.!.H.OX/.Q.@XrXrXwX6XM., , 1.@X1.;.;.T @.T.>.E >.W 1.6X9XtXaX6X1.W ,.o.;.I.1.o.,.o.<.1XtXgXgX1X<.x [ U o.m.E R +.o.).1X:X:X1X(.Q.4X4X&X!.E.H.Y.U.U.(.,X1X9X;XU.+X2XOXoX!.&XqX%XOX!.k.#._ } T.wXiX6XwX~.!.2X%X&XOX|.%XcX@XOX2XwX:XpX-       % S S m d M A M v B M M M M a B M B a a B M N M M Q N N K S S K ^ A S S Z S K Z A K L ^ Q Q ! L A Q ! ! ` ( L Q ^ ^ ( L D ( D ! Q ! 8.` ! | _ ( 0.{ { [ ( { { ( ` { 8.8.0.0.p.p.u.l.p.l.p.a.l.l.p.l.l.p.N.s.l.D.l.C.C.N.F.C.C.B.C.C.N.B.A.C.B.J.B.A.`.A.J.A.A.L.J.`.`.J.`.F.J.`.J.`.[.'. X]. X X]. X[.[.[.[.[.[.[.[.[.[. X[.[. X X[. X|.|.].|. XJ. X X[. Xm m Z m M M N B d M M M G B a B m v s b B M M N K A N K N N S D L A M A S S A Z K D L Q Q ~ ^ ^ L ! Q ! { Q L Q L ! _ A Q Q L ! P _ 8.! _ | _ _ u.| { ( ' { ' ` _ 8.0.8.0.0.x.u.p.l.p.l.l.p.N.x.p.l.l.s.N.l.N.z.N.C.N.C.Z.C.B.N.C.C.N.C.J.B.C.A.N.`.'.A.`.F.A.F.'.`.L.`.'.A.A.].S.].`.].]. X[.[. X X]. X X[.[.[.[.[.[.|.[.[. X X X X X|.[. X[.[. X X[. X[.[.",
"  } iX>X,X>X@X@X@X/.+X~.~.OXOXOX).,XtX8X7X6XQ.@X+X~.OX).+X+XOX~.~.~.+X+X).~.3XnXtXeX,X)./.^.Q.T.Q././.^.Q.=XrX8XwXwXI.< < 2.@X<.;.;.U @.T.>.>.j.[ 2.9X9X9XtX0X2.o.<.;.1.Q.;.+.,.o.b.2XuXdXdXeXb.W :.o.o.m.[ R >.o.R.9X9X1X8X=XI.1.n.M.H.H.m.T.M.I.*X9X9X8X;Xm.m.G.n.!.H.n.H.H.H.G.c.v.j.j.~.2XiXrX0X).m.Y.Y.U.Y.G.V.G.c.I.<X6X:XtX-       = N.N.N.N.B.A.Z.Z.A.C.J.`.'.`.A.A.`.`.`.[.[.].[.`.].|.[.[.[.].[.[.[.[.].].|.[.[.[.].[.[.]. X]. X X X X X[.[.[.[. X X[. X XK. X].J.J.J.].].].[.].K.[.K.J.K.P.C.A.A.A.S.J.[.J.J.[.[.L.[.J.J.].J.J.].].].J.J.L.A.A.J.A.L.J.J.A.J.L.A.S.J.J.J.`.A.A.'.A.`.S.].`.J.A.`.J.'.'.J.'.`.`.`.[.`.`.`.`.].`.].A.].[.[.].].[.].`.[.].`.].].].'.A.].J.S.S.S.S.S.A.S.S.S.i.s.N.N.N.A.'.Z.B.A.C.'.`.'.`.J.`.].`.[.[.].`.[.`.[.[.[.|.[.[. X].[.[.].[. X[.[.[.].[.[. X X[.[. X X X X[.[.[.[. X X[.[. XJ.[.`.].].S.[.J.J.[.[.K.[.J.K.J.N.A.J.S.J.A.].[.J.].].J.J.[.S.J.J.J.].[.J.J.J.J.A.J.A.J.J.J.A.J.J.J.L.A.J.`.J.A.A.A.`.J.'.`.J.`.'.].J.`.'.J.`.L.`.].S.]. X`.`.`.`.`.].].`. XS.`.].].].[.`.[.].].].].`.A.'.].`.`.S.J.`.S.S.A.A.A.A.",
"  } rX7X0X,X:XwXuX,X;X;X(.>X,XuX2X1XtX9X8XtX6XfX2X3X;XT.;X3X3X+X(.+X>XiXnX3X1XnXrXtX7XtXnXwX2X/./.>X0XyXwX7XrXtX8XrX2.< t I.4X1.;.1.W >.T.<.>.c.[ 2.0X9X6XaX4X1.@.c.@.<.Q.<.,.c.+.<.,XwXgX1X1XI.E >.+.$.G.h.[ k.:.Q.wXdXfXdXtXrXaX0X@X/.(.;X6X,X<X6XrXrXrX0XiXyX0X;X/._.3X,X2X<X(.+X,X,X,X3XwXtXwX1X3X3X3X3X+X).@X2X@X6X*X=X9X=XrX-   .   2 XX[.[.[.[.[.[.[.[.[.[.[.[.[.[.[.[. X[.].[.[.[.[. X`.[.].].[.[.[.].[.`.].].].].J.].[.]. X`. X].]. XS.J.].].J.].].].J.S.S.].J.S.S.J.S.J.A.A.J.A.S.S.P.F.h.L Z ( 0.N.N.Z.C.A.J.A.J.A.A.A.A.A.A.A.S.S.S.A.L.C.A.C.C.Z.A.A.C.A.C.A.C.A.A.A.A.A.A.A.A.A.'.`.`.`.`.A.'.A.A.A.A.A.A.J.`.`.`.`.'.A.].`.`.`.`.J.].A.`.[.`.[.`.].`.`.S.A.A.].'.S.A.A.S.A.S.A.S.A.A.d.{. X X[.]. X X[.[.[.[.[.[.[.[.]. X[.[.[.[.[.[.[.[.].[.[.[.`.].].].[.].].].].J.].].].[. X].K.`.].J.J.A.].J.].].].].].J.S.S.].J.J.A.J.S.A.S.L.A.L.C.S.P.{ G K ` a.l.B.A.A.A.A.A.S.S.A.A.S.A.A.A.S.A.S.A.C.C.A.C.C.C.A.A.C.C.A.A.Z.A.A.A.A.A.A.A.A.'.].`.'.`.A.'.`.A.A.A.J.A.A.J.`.`.`.`.A.`.[.`.`.`.].`.`.].`.].].].`.`.`.`.'.`.A.`.S.A.S.S.A.A.A.A.A.A.A.A.",
"  #.uX6X,X:X,X:X:X3X;X*X(.:X1X1XnX1X9XaX9X9X9XwX1X2X3X+X*X1X3X=X(.;X3X7X2XeXnXeXtXtXeXwXtXiX,X<X/.>X6XwXrXrXrX8XaXrX2.j j W.=X1.E ' P x.Y.#.] { W k.6X6X9X6X6X1.] #.' e.!.,.[ =.=.M.<X8X8XgX1XI.E =.E :.oXk.0.=.$.~.1XeXgXdXtXiXrX6X;X(.=X=X1XwXwXeX8XrXeXrXwX7X:X*X_._./.;X<X_.R.).<XwXwX,X7X8XeX7X,X7X1X<X).)./.@XwX6X3X:X9X:XtX-       6 .XA.'.].[.{.{.[.'.].{.[.[.[.[.[.[.[.].[.[.[.[.[.`. X[. X X X X[.].[. X]. X].[.].].]. X]. XJ.]. X`. X[.[.].[.]. X].]. X].S.].[.J.].[.].J.J.S.J.J.J.S.A.J.( y m ` a.A.S.J.A.A.S.A.C.A.J.J.J.A.S.S.A.A.S.A.C.S.A.A.A.L.A.S.L.A.A.J.S.A.`.A.].A.A.'.A.`.].'.].'.`.].J.'.'.J.'.`.'.`.`.A.`.'.`.`.`.].`.`.].`.].].`.[.`.`.`.`.].S.'.A.A.].`.A.S.S.S.S.A.`.S.S.'.].'.'.{.[.].{.].].[.[.{.[.[.[.].[.].[.[.[.[.[.[.[.]. X[.[.XX X X[.[.]. X]. X[.].].`. X].`.]. X X].[. X[.].].[.].]. X].`. X[.].J.].].].].J.J.J.S.J.C.L.C.m y A 8.s.J.A.L.Z.A.J.A.C.S.J.S.A.A.S.S.A.S.J.C.A.J.C.S.S.L.A.S.J.A.L.J.J.'.A.S.S.A.J.A.B.].`.`.`.`.`.].A.'.`.'.A.'.`.`.`.`.`.`.`.`.`.`.'.`.].].A.].S.].].J.'.`.`.A.A.A.A.].].S.S.J.A.S.S.].S.S.`.",
"  #.iX<X:X<X=X;X3X-X:X:X:X1X1X2X3X1X1XgXgXgXtX7X6X0X7X6X1X8X7X9X9X8XtXrX7XeXtXeXwXiXuXeX9XwXrXtXuXrX7X9X8X8X8XrXeX1Xb.< %.,X2X$.f G M x.}./ C Z C j.3X1X9X7X,X,.h C M | }.#.G G x c.6XwXwXgX2Xb.Y P H #.}.h.I I U U.3X1X1X7XwX7XrXuXtX1X7X7X7X7X9XrXeX7XrX9X9X6X8X7XhX(.(.-X6X=X:X:X:X6X7X:X7X8XhX9XhXhX1X:X=X=X=XhX6X=X*X-X=X=XrX-       6 .X{.'.{.`.].[.'.'.'.'.'.'.J.`.'.'.'.'.'.'.[.{.S.A.'.].`.].].`.].{.S.].S.S.`.S.S.`.`.'.`.].`.S.].J.].].].].].`.].`.].].S.A.`.J.A.A.'.S.J.A.A.A.S.K.Q = s s d S _ s.D.S.J.A.S.A.C.A.C.N.S.A.J.S.C.S.C.C.A.N.l.C.l.z.l.N.J.C.C.N.N.N.D.x.N.N.N.s.p.s.N.s.Z.s.s.N.s.N.s.l.N.s.d.s.i.p.s.a.a.i.d.p.a.p.p.p.p.p.p.p.p.s.p.i.a.p.a.p.8.8.i.p.i.a.i._ 5._ ! ~ S s.XX'.{.[.[.].{.[.{.[.{.[.[.[.{.].[.{.'.`.{.|.[.`.`. X X`. X X[.[. X[.[.].].].].]. X X`. X X`. X X X X X[. X X[. X X X].].`.].].]. X].]. XJ.A.J.[.J.d 6 d d Z Q i.A.J.J.].J.].A.J.J.C.J.[.J. XJ.].J.C.J.A.C.D.C.l.D.l.L.[.A.C.C.Z.Z.D.N.Z.C.Z.N.N.N.Z.Z.Z.N.B.Z.N.Z.N.Z.Z.N.s.N.s.N.N.s.s.a.s.s.s.l.s.N.N.p.s.p.s.s.a.s.p.a.N.p.8.8.i.u.i.a.i._ _ _ Q D Q _ ",
"  ' 3X*X>X<X6X;X=X=X-X=X=X>X,X2X3X3X1X1X9X8X9X6X,X6X:X:X-X;X=X<X6X:X-X:X,X,X1X,X1X1XwX7X9X1X1XiXwX7X7X:X9X9X8X7X1X<X<.&._.eX>X@.h M B e.}.] h G H b.3XeX6X7X2Xc.I C C 0.oX| C C H c.>XrX1XeX2Xm.I I k $.oXj.Z C H U.,X1X1X8XtXuXuXrXtXtX7X6X,X6X:X7X7X7X9X6XhX-X-X6X:X=X=X=X=X:X6X9X6X:X>X:X6X-X-XhX-X=X=X1XhX=XhXhX=X=X*X*X=X(.1X-   .   3 {.s.'.[.XX{.XX.X[.XXXX[.].XX|..X[.XX[.{.XX'.'.|.|.`.`.].].]. X].]. X X[. X].`.`.].J.`.].`.A.S.`.S.A.'.Z.`.'.Z.A.B.Z.Z.N.Z.Z.Z.D.D.N.N.N.N.N.N.l.N.Z @ X s { Z Z 8.{ _ { { Q Q L Z Z m d S a m S s s s 6 s e 6 y 7 y g 3 y y e a p n n B N S S S F A Q D D ~ ^ ) _ _ 4.4.5.5.5.8.u.9.i.i.i.` 9.8.8.8.6.8.8.9._ L ^ _ ! ( ~ ` ` ) ` Q ~ ` ` ` | ` Q S y & w.q.d.d.g.s.s.'.'.s.s.s.s.N.Z.'.Z.s.'.s.s.'.6.d.'.Z.s.p.s.s.s.Z.s.s.s.N.N.N.s.a.p.s.s.d.a.s.a.p.a.p.a.i.i.d.8.8.9.9.6.i.8.i.8.8.5.{ { 4.5._ 5.{ ` ( *   X e Z 6 m L S S A S m d s y i 6 e y 7 y 6 3 6 * * = * * = * 2 = & 2 = 1 6 3 8 6 q y y y a u n v v n b b N S A F A L A D L D Q Q D D D Q A D D A D Q Q Q Q Q Q Q Q ! _ ) Q ) ~ ) _ ` ` { ` K b 3 * 3 ",
"  / +XOX@X@X@X@X;X=X:X-X:X3X3X2X3X;X1X3X=X=X6X(.@X@X@X:X=X_.).).@X>X>X<X,X,XwX1X3X,X1X1X1X<X3X3X3X3X:X:X:X:X:X,X=XR.R.2.1X1X>X;.Y ! K e.}.O.H ^ H b.3XeX1XwX3Xj.I C K e.}.e.P I P c.0XtXdXdXiXb./ Y Y $.}.z.P H T I.*X=X1X1X1XwX8X7X1X,X=X(.<X=X:X:X6X-X=X-X=X=X:X:X3X<X<X_.(.;X:X:X<X>X,X,X>X=X=X=X=X-X=X=X@X=XhX*XhXhX*X=X:X;X>X-       & v 1 1 y a u B D D A A ^ A A ^ D S S D L ^ 3 & m N e 9 y y y y y y e i y y i e 6 s 7 7 y 6 6 e 2 6 e 3 6 6 = e 7 7 e e 6 y 6 e y e e 6 3 e e 6 e e e e f d = o = y 7 6 = 7 = = * * * - & & % % % & % % @ % & & % % - % o X * * * = = = 3 = 7 6 e 8 e y s s i i s s d d m d M d m M d S Z S m m Z Z M A Z M m &XlX%XlXcXlXcX%XlXcX%XcXcXlXcX%XcXcX%XlXA._ #X|.A.`.#X#X#XzXcXcXcXcXcXlXlXvXlXlXlXcXcXcXd.`.lX$X X X|.#X|.oXOX|.|.#X XOX#X X X|.K. X XJ.|. XJ.|.[.J.|.J.J. XL.[. X[. XoX XoX|. XoX`.[.oX X X|.oXE.|.4X&Xu.' K. X X[.L.J.F.C.C.z.l.l.x.p.h.u.u.h.h.u.u.l.l.h.p.x.k.{ L 0.V.l.C.C.C.J.L.J. X X[.|.|.oX#X#XOX#X#X$X$XkX$X$XlX$X%XkX$XlX$X%X%XlXlX%XlX%XlXcXlX%XlX%XcXcXlXcX%XlXcXlXcX%X%XlXlXbXlXlX%Xp.5.8.",
"  | 2X@X%X%X%XqX3X1X<X3X3XQ.$.%.$.I.;X1X=XhX6XI.U.R.R.Q.).I.U.Q././.I.<.1.<.Q.1X7X,X,X<XI.<.b.m.+X3X,X:X1X=X2.@.;.W.*X:X9X1X<X@.l ' L e.K.%.T ' Y c.3X1X1X1X3X<.T I C e.}.e./ P R M.>XtXgXdXiXb.T ! T $.oXz.! P H b.Q.*X=X:X*X=X=X*X*X*X=XW.I.R.).(.:X=X:X:X;X_.T.R.Q.;XQ.M.b.b.).(.T./.+X/.;X<X=X(.(._.W.R.U.Q.*XW.2.W.hX2.(.Q.).%                                                                                                                                                                                                                                                                                                                 .   BXKXKXKXKXKXKXKXKXKXKXKXKXKXKXKXKXKXKXKXKXKXKXKXKXKXKXKXKXKXKXKXKXKXKXKXKXKXKXKXKXKXKXKXKXKXKXKXKXKXKXKXKXKXKXKXKXKXKXKXKXKXKXKXKXKXKXKXKXKXKXKXKXKXKXKXKXKXKXKXKXKXKXKXKXKXKXKXKXKXKXKXKXKXKXKXKXKXKXKXKXKXKXKXKXKXKXKXKXKXKXKXKXKXKXKXKXKXKXKXKXKXKXKXKXKXKXKXKXKXKXKXKXKXKXKXKXKXKXKXKXKXKXKXKXKXKXKXKXKXKXKXKXKXKXKXKXKXKXKXKXKXKXKXKXKXKXKXKXKXKXKXKXKXKXKXKXKXKXKXKXKXKXKXKXKXKXKXKXKXKXKXKXKXKXKX"
};
