/* XPM */
static char *Material_baseColor[] = {
/* columns rows colors chars-per-pixel */
"256 1024 256 2 ",
"   c #000000",
".  c #08090A",
"X  c #161717",
"o  c #23211E",
"O  c #1C2B39",
"+  c #1C272B",
"@  c #262727",
"#  c #242D38",
"$  c #29333A",
"%  c #343A3C",
"&  c #383938",
"*  c #35312D",
"=  c #1F1D22",
"-  c #483A37",
";  c #503122",
":  c #3C423B",
">  c #3D412D",
",  c #46463B",
"<  c #544B3A",
"1  c #684D3B",
"2  c #1D3347",
"3  c #2C3A44",
"4  c #2C3C4B",
"5  c #273644",
"6  c #333D44",
"7  c #353D47",
"8  c #2A3B51",
"9  c #181A44",
"0  c #463C47",
"q  c #7A197B",
"w  c #3C4343",
"e  c #34424C",
"r  c #3A454A",
"t  c #384854",
"y  c #2D4455",
"u  c #33506B",
"i  c #3E617D",
"p  c #434543",
"a  c #4B4C44",
"s  c #444B4B",
"d  c #4B4D4B",
"f  c #454846",
"g  c #554B46",
"h  c #4C524C",
"j  c #4A5148",
"k  c #53544C",
"l  c #585849",
"z  c #454C54",
"x  c #4C5353",
"c  c #495559",
"v  c #535553",
"b  c #545A54",
"n  c #5B5C54",
"m  c #545C5B",
"M  c #5B5D5B",
"N  c #565559",
"B  c #564C56",
"V  c #665A57",
"C  c #6C574D",
"Z  c #5C625C",
"A  c #5A6158",
"S  c #5E614C",
"D  c #63645C",
"F  c #6B6B5C",
"G  c #666657",
"H  c #77675A",
"J  c #76745B",
"K  c #68664F",
"L  c #4B5963",
"P  c #575B64",
"I  c #515370",
"U  c #675C68",
"Y  c #5C6463",
"T  c #5A6668",
"R  c #596973",
"E  c #636563",
"W  c #646A64",
"Q  c #6B6C63",
"!  c #646C6B",
"~  c #69696A",
"^  c #766967",
"/  c #6C726C",
"(  c #6A7268",
")  c #73746B",
"_  c #7B7B6C",
"`  c #777667",
"'  c #686A74",
"]  c #776B76",
"[  c #6B7676",
"{  c #747A74",
"}  c #7B7C73",
"|  c #767978",
" . c #886C5A",
".. c #866C65",
"X. c #877769",
"o. c #95786A",
"O. c #867976",
"+. c #977C74",
"@. c #866D73",
"#. c #A17A69",
"$. c #8B6436",
"%. c #7C837C",
"&. c #7A8278",
"*. c #7D816C",
"=. c #86846B",
"-. c #848374",
";. c #83847B",
":. c #8C8B7C",
">. c #898878",
",. c #978779",
"<. c #96957B",
"1. c #928C75",
"2. c #A6887A",
"3. c #AC917A",
"4. c #A99160",
"5. c #DBAB54",
"6. c #546C92",
"7. c #787A84",
"8. c #6C738E",
"9. c #5D6F9F",
"0. c #3C5C81",
"q. c #877A85",
"w. c #8E7C8B",
"e. c #A47D80",
"r. c #FF34FF",
"t. c #9D209E",
"y. c #7B8685",
"u. c #778795",
"i. c #668DBA",
"p. c #698EBB",
"a. c #678CB5",
"s. c #6D92BD",
"d. c #6991B9",
"f. c #7295BE",
"g. c #7599BE",
"h. c #7B9BBE",
"j. c #7996B8",
"k. c #708BAA",
"l. c #668AAC",
"z. c #6E95C1",
"x. c #6E98C2",
"c. c #7196C1",
"v. c #749AC2",
"b. c #7A9CC2",
"n. c #7999C8",
"m. c #718CC5",
"M. c #7EA3C8",
"N. c #848B84",
"B. c #8C8D83",
"V. c #878988",
"C. c #958A85",
"Z. c #8C928C",
"A. c #8B9287",
"S. c #939384",
"D. c #93948B",
"F. c #959A8C",
"G. c #9C9B8C",
"H. c #9A9886",
"J. c #898995",
"K. c #978A96",
"L. c #8B9594",
"P. c #949A94",
"I. c #9B9C93",
"U. c #979998",
"Y. c #A88C84",
"T. c #A69989",
"R. c #BB9B8C",
"E. c #B49689",
"W. c #A59A95",
"Q. c #B99C93",
"!. c #AD8E8A",
"~. c #9DA194",
"^. c #9CA29B",
"/. c #97A399",
"(. c #9DA18C",
"). c #A4A28C",
"_. c #A9A78A",
"`. c #A4A394",
"'. c #AAA694",
"]. c #ACAB94",
"[. c #A3A49B",
"{. c #A5AA9C",
"}. c #ACAB9C",
"|. c #A8A798",
" X c #B2AE9C",
".X c #B8A796",
"XX c #ADB19B",
"oX c #B4B29D",
"OX c #B9B59D",
"+X c #B8B799",
"@X c #B7A78C",
"#X c #839EBD",
"$X c #869CB7",
"%X c #9196A6",
"&X c #A79AA7",
"*X c #9CA5A3",
"=X c #8BA2BE",
"-X c #85A1BD",
";X c #95A7BD",
":X c #93A7B0",
">X c #A4AAA3",
",X c #ACADA2",
"<X c #A7A8A7",
"1X c #B2AEA2",
"2X c #B8A8A7",
"3X c #ADB1A3",
"4X c #ACB3AB",
"5X c #B5B3A3",
"6X c #B9B6A4",
"7X c #B6B9A5",
"8X c #BBBAA5",
"9X c #B4B5AA",
"0X c #BAB6A9",
"qX c #B6B9AB",
"wX c #BCBBAB",
"eX c #A9B3BA",
"rX c #BCBCB3",
"tX c #B7B8B5",
"yX c #ADABB6",
"uX c #C29D91",
"iX c #C6A699",
"pX c #C9B296",
"aX c #C8ABA4",
"sX c #C1BDAC",
"dX c #C5B9A6",
"fX c #C4BCB4",
"gX c #D4B7AC",
"hX c #E4BBA3",
"jX c #BDC1AC",
"kX c #BDC2B6",
"lX c #ADC0B9",
"zX c #BFC19B",
"xX c #C4C2AC",
"cX c #C6C4A8",
"vX c #C3C3B3",
"bX c #C8C7B8",
"nX c #D6C8B8",
"mX c #D5D0B7",
"MX c #E9CDB6",
"NX c #DAC59D",
"BX c #839EC1",
"VX c #839CD2",
"CX c #87A3C2",
"ZX c #96A9C1",
"AX c #91AED0",
"SX c #A7B4C3",
"DX c #B3B8C7",
"FX c #9CB3E2",
"GX c #B9C4CF",
"HX c #C8C9C5",
"JX c #D7D6C7",
"KX c #D4D3CD",
"LX c #E7D8C8",
"PX c #E7E5D3",
"IX c #E1E6E2",
"UX c #C7BDC4",
/* pixels */
"| | U N V U f f F X.J < > * @ G *.=.K - * * x ( F ` XX5X5X1X6XO.w m / ~ O.H.: p f , _ I.C.}. X1X1X'.g & a , l G.G @ , a < :.S.S.}.,X}.2X>.* , l < *.H.& a K l =.F.A.}.1X1X=.K J J J =.<.=.*.1.=.1.1.<.<.=.<.<.<.3.+X].].dXNXo                                                                                                                                                                                                                                                                                                   ",
"tXrX<X<X&XyX7.g F ` X., $ $ * Z X.=.K & * $ A *.-.:.3X5X1X1XoXX.d ( <.H.~.H.d v E A &.`.C.|. X XoX'.n , B f v I.D * v Q Q S.A.S..X X2X5X1.* h / / N.D.f N ) >.<.G.C.[.1X6X^ * , , g , < , < ` J J < < < > < < < S F F J J =.X                                                                                                                                                                                                                                                                                                   ",
"rXHX0X9X9XwX:.g F J ` a $ * # A _ X.H * $ $ b *._ >.,X5X5X X+X*.a W 1.<.).D.d Z A.S.G.`.S.}.}. XOX].l f v d x W.D % W &.-.I.S.S.].1X X0X>., P *.-.H.S.a Z =.=.H.G.A.}.}.6X` , a a g - a > S S.<.<., > > , k A V l v v d k g .                                                                                                                                                                                                                                                                                                   ",
"DXbX9X2XOXOX:., n n C , * $ $ h V K l & * $ j F F ` 1X9X5X}.5XO.a E -.1.G.T.d Z %.S.).G.B.}.}. X1X].l a D W Q `.F , Z =.=.).:.S.}.1X1X6X:., M _ O.S.C.a n *.1.S.G.S.[. X6XX.a D M v & a > S :.1.>., > * f / >.-.-.V.q.q.V.V.X                                                                                                                                                                                                                                                                                                   ",
"vXbX6X X+XpX1.& N M V - $ * $ A F H l & * $ b G G ` ,X6X1X1XOX*.& v F G >.G., k G ( 1.).S.|.}.5X2X.Xl p M D Q [.G , A F F G.C.S. X1X1XsX>.- n Q J <.H., n ` _ <.G.:.'.2X6XX.k _ &.` - d & n 1.1.1.< & % f ( =.X.G.9X2X,XfXHXo                                                                                                                                                                                                                                                                                                   ",
"xXmX+X+X+XdX<.& V Q F , * # * A _ =.G * * $ Z O.=.-.1X5X5X X6XX.& N ;.>.<.T.j b -.:.H.~.S.|.]. X2X].k p n V Q `.G w b G G S.A.S. XoX X6X>.& x n l *.D.- h D G =.G.C.'. X6X` , D G G , x : j ` ` *.< : * , G F J G.qX3X5X0XbXo                                                                                                                                                                                                                                                                                                   ",
")._.<.1.1.1.^ & G Q F f * # % A *.=.K - $ % D -.-.>.1X6X5X X6XO.& N >.<.H.G.d Z >.G.`.(.C.|.}.oXOX'.l a W / { `.F d T %.&.H.S.H.1X1X X6X>., N { _ :.D.d M ;.>.H.G.A.'.].5X_ a ` ` J - h : x =.X.J , : $ w D F F S.5X5X}.8XnXo                                                                                                                                                                                                                                                                                                   ",
"D n g < , , , * b F U g 7 6 % n X.X.G & $ 6 E O.>.>.1X6X5X5X6XO.& b >.<.H.G.j G 1.H._.W.S.{. X1X6X].n d W ` _ '.G d ( :.>.(.A.F. X X X6X:.p Y %.>.G.D.d Y :.S.H.G.S.<X].6X_ k =.>.X.& s : m :.<.1.< & % f ) -._ H.5XoXoX8XbXo                                                                                                                                                                                                                                                                                                   ",
"' U B d d B 0 7 p d d B B z 6 d N C k & 5 6 N ~ ^ _ 1X0X5X6X6XO.7 z ] =.S.T.a A _ <.T.).B.|. X1XOX'.N x W ) { [.F v ~ :.>.(.S.H.oX X XOX;.a Y >.1.T.<.j F :.<.(.S.S.}. X6X_ k =.>.X.> a % n 1.<.1.l & $ f ` >.=.<.+X+X@X+XcXo                                                                                                                                                                                                                                                                                                   ",
"yX2X%X&X&X&X&XJ.w.V.q.J.J.J.q.7.] | | 7.8.] ' ^ Q ) }.5X5X1XsX;.& z B d | I.w f N n _ W.B.|. X1XoX'.k d P M Q W.U f M Q Q S.A.F.,XXX XOX-.p M ) _ S.S.a Z -.:.H.G.S.}. X6X) g } -.` p f 0 N B.<.<.g & % j ` 1.=.J ` J =.=.<.X                                                                                                                                                                                                                                                                                                   ",
"HXHX9XtXtX9X0XtXtXrXtXtX0X0XyXtXtXfXtXtXaXtXyXtX0X9X1X6X5X5XvXI.' :XtXU.UX,XN 7.I.| U.W.B.|..X1X5X XW ' U.} Z.2XE z | / Q G.S.D.}.oX X6X;.: m D l ;.S.7 m A l O.H.C.|.}.6X| p N n g B P f z ~ Q ^ d 0 6 r V E F k a a a l n .                                                                                                                                                                                                                                                                                                   ",
"fXvX}.5X1X X1X1X4X5X5X1X1X1X6X2X5X0X5X5X9X9X2X0X5X9X5X6X2X5XsXI./ <XbX`.bX,XV Z.0XH.9X(.B.}.oX X5X5X] Z.fX<XrXvXQ ~ <X>XI.0XA.F.,X X X6XC.N L.[.B.,XF.N J.^.;.[.F.C.[. X1X[.P.K.J.K.U.%XJ.7.7.] ] | 7.8.' ~ ^ ~ ] ] ] ~ ] _ X                                                                                                                                                                                                                                                                                                   ",
"HXfX0X1XoX5X X6XoX6X6X X1X5X5X6X6X6X6X5X6X6X5X6X5X6X5X9X6X1XsXT./ [.5X<.sX1XD B.0XH.5XT.B.|. X XOX].E ;.9X`.5X8XQ / 4X{.W.sXS.D.,XoXoX0XB.M I.9XH.0XD.E U.9XI.qXI.B.}.oX5X5XtXtXtX0X0XtXtX0XtX9X0X2XyX9X<X2X[.<X<X4X2X<X,XtX=                                                                                                                                                                                                                                                                                                   ",
"rXHX2X6XoX1X2XOX5X2X5X X5X1X1X6X6X6X6XoX1X5X6X0X2X6X1X6X0X6XsXS.E [.6XH.fXdXD Z.sXH.6X`.S.|. X1X1X'.E O.5XW.|.6XQ ! ,X`.G.wXS.G.,XXX X6XC.m U.1XS.6XS.n F.}.H.9XI.C.|.,X1X,X,X5X1X1X X5X6X9X0X9X0X6X9X9X9X5X1X1X1X2X9X1XfXHXo                                                                                                                                                                                                                                                                                                   ",
"vXvX6XOXOXOX X+XOX2X5X5X6X X5X6X6X6X6X1X5X1X6X6X2X5X1X6X6X6XdX>.G ~.6XG.wX XD B.0XH.6X`.B.,X X1XOX`.D ;.9X).].6XQ ( oX|.W.8XS.D.}.oX X6XS.A P.oXH.wXS.Z P.oXH.8XI.S.<X5X1X X5X6X5X5X5X5X6X6X0X0X5X5X5X5X0X9X9X1X1X1X1X XsXvXo                                                                                                                                                                                                                                                                                                   ",
"bXmXOXdXOX+X].+X+XdXOXOXOX].OXdXOX8XOXOX+X+XOXOXOX6X6X6X0X0X6X>.G (.OXT.wX_.G B.6XT.6X'.B.}. X1X5X|.G %.5XT.].6XQ / }.'.(.6XS.G.1X XoXsX:.n F.+XT.sXS.Z G.6XH.6X`.D.,X5XoX XoX8X6X5X5X5X5X5X6XdX0X6X9X5X9X0X0X9X5X9X6X1XwXmXo                                                                                                                                                                                                                                                                                                   ",
"[.]._.<.3.(.1.1.<.<.<.<._._.<._.<._._.+X_.<.3.zX.X].OX6X6X8X6X:.A (.+X<.6X`.A B.+X(.+X_.C.}. X1X5X'.G *.oX).].+XQ / }.].`.8XS.G.,XoX X6X,.D (.+X(.OXH.G I.6XH.OXW.S.}.5XoX XoX+X+X7XXXoX5X6X8X8X6X XjXoX7XqX7X5XoX5X9X3XwXbXo                                                                                                                                                                                                                                                                                                   ",
"Q J l g l S l < K G K S K < , S K K K K K S S *.J J }.8XoX6XdX1.* k H l =._., l J K -.`.A.}.1X XoX'.k A >.X.>.].F b -.=.-.}.C.F.}. XoX6X:.l :._.1.XXH.l A._.<.oXH.C.}. X}.XXOXzX7XOXOXzXOX8X8X8X8XOXzXzX+XwX7X+X+X+X6XoXxXnXo                                                                                                                                                                                                                                                                                                   ",
"~ U d 7 p p > : D J J < * * > k J G l > * * S *.>.>. X6X5X X6X>.> b ^ _ ;.`.- w j l ` ~.A.}.1X1XOX`., f n v n I.K w E Q F D.D.P.}.5X X0X1.* < K l 1.<.: n J K 1.).S.}.3X5X<.=.1.1.1.3._._.<.<.<.<._.+X3.(._.).)._.].].].+XcXo                                                                                                                                                                                                                                                                                                   ",
"<X<XK.J.J.L.F j Q J ` k & * : A J ` A > * : { (.T.G. X5X X X6X-.j W >.H.I.`.a h b l ) ^.D.}.1X0X5X).l P E E D I.D Y J.[.I.I.Z.F.,XoX1XdX:.& , < , { S., W :.1.H.G.A.}.oXwX^ ; , , , , S < l *.=.X.S C l S J J J J J X.X.=.=.X                                                                                                                                                                                                                                                                                                   ",
"HXUX9XtXtXfXB.d ( ` ` l * $ % D ` ` S & $ : W <.<.H.+X5X1X XOX>.a F >.<.H._.j A { &.B.~.S.,X1X1X1X'.b ~ V.V.N.I.E ~ U.,X}.~.S.G. X5X1X8X:.a d h a { C.k | |.+X].G.A.|.5X0X_ - k j a : a , F ~.XX_.l > * S (.(.H.G g d v N k .                                                                                                                                                                                                                                                                                                   ",
"DXfX9X5X9XwX:.a Q F J g & $ w D ` ` S & > $ ( *.1.<.1X6X5X X5X>.k Q :.<.(.).j Z %.F.(.~.A.,X6X1X X`.b | ^.9X[.`.D W /.5X].W.A.H. X6X5X8X:.p h d , { S.k ) )._.].W.C.}. X6X_ , f a j & j : G ~.].].S & > A (.`._.:.| O.] q.q.X                                                                                                                                                                                                                                                                                                   ",
"bXbX6X X5XsX:.a D F G a & $ & n S G k & * * j K K `  X0X5X1X5XO.p m W F >.T., b W Q :.|.B.,X0X1X5X'.N ( A.G.F.[.E W A.`.H.I.A.G.1X5X6XdX:., d s f { S.k / )._.@XG.C.,X1X8X_ , h d f : a : W ].]..XS & $ A (.].].].9XyX9XtXbX=                                                                                                                                                                                                                                                                                                   ",
"bXbXOXOXOXxX,.k | N.>.k $ * % E ) ` S > $ $ A *._ _  X8X2X5X0X;.a P _ -.A.`., k / ` >.`.C.,X5X0X6X'.N W V.S.N.`.D M %.B.>.F.S.I.,X5XoXwX;.- c Y M ;.S.p Z *.=.<.I.A.}. XsX] % r w p & k : b >.<.<.< > $ b A.<.<.`.wX0X9XrXbXo                                                                                                                                                                                                                                                                                                   ",
"0XsX].@X@XjX1.k &.A.S.N & $ 0 E ` _ G & & $ V O.>.-.oXqX6X1X0X>.h ! B.H.).(.a A &.>.H.(.S.,X0X1XoX`.A 7./.3X`.`.F ! P.,XI.I.S.H.,X1X6X6X>.d | ^.W.<XS.a E B.<.H.I.S.}. XwX) p P N B & B : b >.>.1.g & % j &.%.-.I.qX5X5XwXbXo                                                                                                                                                                                                                                                                                                   ",
";.=.J J _ X.K b %.S.<.n & $ 0 E ` _ G & 6 6 N F Q _ }.wX0X5X6X,.k W >.<.(.T.a A *.>.<.W.A.}.6X1X5X'.Z | ~.oX|.`.F / P.5X|.`.A.G. X1X5X6X:.l N.}. X5XS.b [ `.].{.I.A.}.1X0X_ Q W.[.D., a w W {.].].l * % Z /.>X`.|.8X6X6X+XmXo                                                                                                                                                                                                                                                                                                   ",
"E G n v N v 0 z ~ } ) N z 0 7 N W ^ N 6 7 7 N Q Q ) 3XwX0X6XdX>.l ( :.S.).T.a D _ =.S.W.A.,X6X6XoX'.A | [.+X|.`.F ( (.5X].(.:.H. X5X5XdX:.v -.].].oXH.l ) (.].{.G.B.,X5XwX_ ) {.]._., a p W ~.].@Xl & 6 Y /.XX].@XzXOXOXcXmXo                                                                                                                                                                                                                                                                                                   ",
"K.V.] | ] | ~ U ~ ~ Q ' 8.' N P P B P B U P z B N D >XwX0X1X0X:.: b Z D -.G., h D n _ G.A.}.1X X+X'.b Z &.;.;.W.Q U %.S.:.G.B.D. X1X1X6X:.v &._._..X<.l ( H._._.G.S.,X5X0X_ ` {.].T.p B f W ~.]._.V 0 6 T ~.XX].=.=.=.1.<.T.X                                                                                                                                                                                                                                                                                                   ",
"rXrX<X2X9X4X4X<X<X,X,X<X<X<X<X<X>XW.&X<XyX&XU.U.P.I.9X9X5X1X6X:.f [ O.F >.H.p ~ } E B.F.N.}.OX X X XM N | ~ } }.E d Q F Q H.B.D.}. X X8X:.a W X.X.H.S.f V ) ` <.(.C.}.1X6X) n } =._ a d % b | =.-.k z 7 z } 1.S.K , g k l l .                                                                                                                                                                                                                                                                                                   ",
"HXHX9X0X0X9X9X0X9X9X6X0X5X0X0X0XqXtX9X9X9X0XwXrXwXrX0X5X6X0X6X:.M U.9XD.1XH.N U.2XD.9XW.N.}.5X X].1X) %.tXW.,XvX! E ^.B.B.}.:.S.}.1X X0XC.d y.:._ `.G.d / ;.` G.I.B.}.1X5XD.] | } ] q.J.| ] / / ) | w.q.' ' ~ ~ ~ ~ ~ P U E X                                                                                                                                                                                                                                                                                                   ",
"UXHX1X6X9X2X6X5X6X1XOXOX6X6X6X0X0X0X9X9X5X6X5X1X1X9X5X6X6X5X6XC.U U.9XC.5XH.N D.0XI.0XG.:.[.5X X}.`.Q %.rX}.1XsX) / 3X[.`.5X:.H. XoXoX6XB.D >X0XG.wXG.M I.9XI.wXW.:.|.oX5X7XwXwXtXfXtXrXfXrXrXfXfXtXUXHXHXHXrXrXtXfXtXyX4XfX=                                                                                                                                                                                                                                                                                                   ",
"HXbX6X6X5X5X6X6X1X6X X1X2X6X6X0X0X0X6X6X6X5X6X6X6X5X6X6X5X6X6XC.M U.6XS.6XS.b P.6XF.0XW.B.}.1X X].`.E | ,X`.|.5XQ ) ,X~.W.5XB.G.1X5XoX8XC.Z I.5XG.wXG.V P.5XG.0X).S.|.,XOX5X5X5X1X6X1X5X9X9X9X9X9X1X5X X X1X1X6X6X5XqX5X0XHX=   .                                                                                                                                                                                                                                                                                               ",
"bXbX6X6X5X5X6X9X9X9X6X1X5X5X5X5XwX6XoX6X7X5X7X7X5X6X6X6X6X6X5X<.M ^.8XH.6XS.M P.6XH.7XW.:.}. X X].].E } 5X).|.1XQ ) 3X`.W.5XB.G.1X5X5XwXC.D ^.OXT.wXG.D P.5XG.8X~.C.}.1X5X5X5X5X5X5XOX6X5XqXwX0X6XOX5X6X5X9X5X5XoXoXXX}.0XmXo                                                                                                                                                       .   .   .             .                           . .     .               .       .     .   . .     .         .   . .       .   .   .     . ",
"kXbX5X6X5X5XoX5X0X0X5X6X5X5XoX7X8X8X7X6XoXoXoXXX6XOX6X6X6X5X6XC.V ~.8XH.6XH.n P.6X(.8XW.B.}.5XXX X|.Q { oX).|.6XQ ( ,X`.(.6XB.I.1X1X1XwXC.E ^.6XH.8XH.G P.oXT.8XI.S.}.5X5X1X5X0X5XOX6XOX6XwXqX0X6X2X5X5X6X0X6X9X5X6X5X}.wXbX=                                                                                                                                                             .                   .                                                                                                                 ",
"kXbXOXOX6X+X+X+XoX2X5XOX5X XXXjX6X8X6XoX}.].jXjXoXoXOX6X6X6X6XC.Z G.OXS.OXS.n F.+XH.6X).S.{.5X}.}.'.F ) ].(.'.6X^ ( }._.G.6XS.I.1X5X5XdXA.D ~.8XH.wXH.Z ~.6XT.8XG.A.}.OXoX5X0X0X5XOX5XoX1X6X6X6XOX6X5X9X1X6X7X6X5X5X6XoX6XmXo                                                                                                                                                 X - ; < g - - - @ @ o @ * * * = - - - 0 - * - - & - - g - , - - o & - - & * - @ & & & * @ - - - < 0 0 - * - & & * - - - - @ * = 0 * @ # = @ * - < ",
"vXcX+X+X+XoX].+XOXOX8X+XOXOXzXjXwXsXxX8X+X+XzXzXdX6X5X1X0X1X6X:.Z G.+X<.dXH.A F.+XT.8X).A.}.5X}. X].Q _ +XT.].6X` Q ]._.T.6XC.I.1X5X1XwX:.D ~.+X<.dXH.A F.oX(.8XG.C.}.oX X}.5X0X6X X|.+X1X6X6X5X5X5X6X5X1X5X8X+X}.oX6X X6XbX=                                                                                                                                                 0 gXpXuXhXhXpXE.X.#.#.X.@.@.w.@.uXiXuXaX,.C.,X,XY.Y.hXgXhXhXiXuXJ Y.5X2X9XC..X^ 2X9X2X2X+.!.uXgXgXgXhX2.+. X.X!.,.iXiXuXpX+.w.8.&X7.] K.^ 2.2.R.gX",
"A.,._ J J =.J J X.*.1.1.<.<.<.<.H.H.1._.3.<.<.<._.`.OX5X5X6X6X1.a *.T.` _.H., &.H.=._.W.B.,X1X}. X XG ( ].<.).6XJ ( {.T.H.7X:.~.1X5X X6X:.A ~.OXT.jXH.A I.oXH.8XG.C.|.,X|.].8XOXzX+X+X+XoX7X7X+XOX+XOXoX+X+X+XOX}.5X8X].OXmXo                                                                                                                                                 * 2XR.R.uXE. .Q ^ O.O.^ ^ ^ @.B  . . .+.H O.W.W.C.+.iXaXiXuX3.E.C O.C.C.H._ C.H C.K.C.,...,.!.R.iXiXaX+.@.W.!.Y.C ..o.o.o. .7.I w.' ^ w.V Y.^ } @.",
"D n , - - * * < a F (.J < > : F -.S.J < < , < S l S |.wX9X6X6X:.* f l , _ G.* b _ F >.`.B.}.1X}. X}.l , G K _ }.A w _ ` J `.S.I.,X X5X6X:., *.<.` _.S.a { :.*.{.I.B.{.1X}.1.<.<.<.<.<.zX_._.].].`.].+X_._.].+X_._.+X+X+XOXmXo                                                                                                                                             .   * R.iXMXMX2.l O.| O.+.^ V ] @.g C 1 C  .0 C ^ ^ U @.iXiXaXuXuX@XC l C l C C !.H g C C g C Y.E.Q.iXiXaX+.C H ^ H C  ... . .H 7.6.&X7.' C.V D.^ V.q.",
"V.J.' E U U f R y.>XcXJ > $ A u.4XJX_., & & Y ' | | ,X5X1X0X6X,.d z L x &.D.j [ *X7X6XI.S.,X5X X}. XN $ p f D |.G e Y / _ I.A.I.}.oXoX8X>.> h S j -.<.s ! Z.A.~.G.A.{.,X+XJ < S l l l *.S l A K S J =.K S G J K J 1.1.=.1.).X                                                                                                                                             .   & E.uXNXnXY.D U.N.q.O.H V ] q.B o.o.o.+...g C g C @.iXiXiXiX3.E.O.o.X.,...,.iX,...^ o...+.!.!.Q.iXQ.aXY.C g C C U +.e.2.2...q.8.w.7.0 w.U K.| J.K.",
"HXHXyX9XyXtXN.! P.jXcX` > : m y.,XvX_., % w 8.:XUXrX9X7X6X0X6X:.M [ L.*X4X<.x y.<XvXxXW.A.}.1X1X X}.D P V.U.I.}.W T u.eX4X4XS.I.5XXX3XjX:.h ! ) n -.S.Y %XHXKXbXH.D.,XXX8X` j < j , > < > x T [ ( < 1 > > , a , , a g l l K .                                                                                                                                                 & iXR.<.iXY.n L.J.O.+.U V U ] ^ uXE.!.aXiXR.2XiXuXuXiXiXiXiXE.Y.Y.!.Y.aX2.Q.Q.Q.!.Y..X,.Q.E.E.iXaXiXiXQ..XaXaXaX&XaXuX.XiX2.@.6.q.8.0 D.U K.| K.%X",
"UXHX0X9X9XfXS.Q F.5XcXJ * % m y.3XbX_., & % 7.*XkXkX3X7X5X6X6X>.Y y.:XkXbXB.b y./.kXxX).C.{.5X1XXX].A [ {.kXlXXXQ ! L.lXjX7XB.~.1X1X5XsX>.n ) &.*.&.&.*./.bXmXmXG.F.}.,XoXX.h k d d 7 d r &.u.lXlXG d p - d x d M ~ ~ ~ ~ ] X                                                                                                                                                 - iXuXiXhXT.d | [ | +.^ V B U ] Q.3.3.uXuXuXiXaXiXuXiXiXiXiXE.3.Y.!.2.iX,.E.uXE.2.H..X2.!.R.Q.iXaXaXiXaXaXtXaXaXaXiXuXiXpX2.] q 9.8.0 %XU K.U 8.7.",
"HXbX0X9X9X0X<.D %.G.).F & * t %.F.}.S., * % &.L.XX3X3X7X0X6XdX:.Z &.L.<XqX<.l &./.7X8XG.S.}.5X1XoX{.F ( XXkXjX+X) R L.lXkXjXB.(.1X5X6XwX>.n / | c &.%.A /.lXJXjXH.S.}.3XOX` d x x d , g : R /.lXqXQ d p r Y ~ Y N.yX2XyX9XUX=                                                                                                                                                 * uXpXMXLXY.a ' E ^ @.^ U B ' ] .XuX3.uXuXuXpXaXiXuXiXaXiXiXE.Y.2.!.#.iX+.E.uXR.3.2.Q.2.R.!.R.aXaXgXgXuXiXaXaXaXaXiXiXpXpX2.@.9.I 6.B w.U &XU ' ' ",
"vXHX0X5X5XdXS.M N.[.oXK * : t &.Z.XX:.& % $ R N.~.~.5X8X6X6XsX:.x [ y.~.XXS.j [ ;.{.]._.S.,X6X1X5X].Z W A./.{.XX( L y./.`.|.A.(.5X6X5XwX>.h W W c &.%.*.u.lXzXlXH.S.,X1X6X) x m B z & k : &./.{.{.G k f x y.%XP.[.rXtXqXrXJXX   .                                                                                                                                             & uXiXhXMXT.E %XK.B.@.^ E 0 ' ] Q.uX3.E.uXuXiXpXiXQ.iXaXaXuXE.3.Y.!.2.iX#.E.R.E.2.2.Q.+.E.E.uXaXaXaXgXiXaXfXaXgXaXiXiXiXpX3.@.8.I I B w.U U.q.&X%X",
"bXmX+X8X+X8XH.) U.jXbX` * $ c y.3XkX_., % e &./.jX7X5X6X8X6X6X:.A y./.jXjXS.b &./.jX8XG.S.}.1X1X X}.W ! y.F.F.{.) A y.P.(.|.B.I.1X6X5XwX>.h [ N.&./.&.*.u.XXlXzXF.F.,X1XwX_ R k.J.V.p d r &.:X*X^.G k w L u.Z.A.I.6X6X5XrXmXo                                                                                                                                                 0 pXuX3.R.C.~ :XL.C.@.^ V 7 U ] Q.uX3.uXE.iXpXaXaXuX2XiXiXiXuXY.,.E.Y.pX2.uXuXR.2.Y.Q.Y.!.E.uXiXgXaXaXiXQ.aXaXgXaXiXiXiXgX!...8.I 8 8 w.U %X| L.%X",
"jXcX+X].].+X<.( F.jXjXJ * $ c N.].jX).- w w | ^.jXjX+XwX8X6X6X>.W y./.cXbX<.Z y./.bXvX).D.XX6X X X].Q y.lXjXjXzX( &.lXkXbX8XA.~.3X6XOXwX&.A :XkXJXkX:.( :XHXJXbXD.K.1X1X0X| L.KXKXKXk d d u.lXHXlXK l r [ eXlXkXXXoX+X7XwXmXo                                                                                                                                                 - gXpXuXhX!.' %XJ.w.@.^ ' I I ] uXuXE.uX!.Q.Q.Q.Q.!.Q.iXiXuX3.E.o.U ` O.E ] Q.+.~ ] V.~ @.!.E.iXgXaXaXR.E.2XQ.Q.!.Q.aXaXgXe.@.8.I u I w.U L.O.*X%X",
"` J K V S K l ) F.XXzX_ & $ b N._.zX).- 7 r &.{.jXjXoXqX8X6XdX>.( %.{.jXjX<.Z %./.kXxX~.S.}.1X1X}.].( y.lXmXmXzX( &.lXmXmXjX:.W.5X6X5X6X>.*.lXJXJXkX&.&./.JXJXlXS.G.,X1X6X_ u.KXKXHXk d z V.kXJXmX*., j [ GXJXJXjX+XOX+X8XmXo                                                                                                                                                 & iXpXMXMXC.0 I N ^ @.^ ] R ' U .. .@.+.H U ] ) ~ O.Q.iXiXuXR.!.H ~ V.;.' U Y.V B ' ' ' H +.uXiXaXhXiXE.V ~ ] ` U @.2.#.2.....8.0.6.I w.U U.V U ~ ",
"Z n f - 6 0 : Y ) *.-.Q p $ r ~ &.>.} 0 7 e [ ;.).).5XwX6X6X6X-.Z %.A.].+XH.A y.A.XX7X).A.,X6X1XXX{.( %.jXmXmXzX( &.jXbXmXdX:.I.5X5XoXjX>.*.XXmXmXbX*.&.:XmXmXbXG.S.1X9X6X_ L.KXHXmXb a j y.bXmXbXJ < r &.jXkXJX].<.3.<.(.+XX                                                                                                                                                 - pX@XhXNX2.& 7 & C +...U U 8.0 g 1 C ..C U V.V./ } iXiXaXiX3.3.H ] J.V.u.] T.^ ' u.u.J.| ,.Q..XaXiXpX.XQ V.J.V.V  ...@.o. .U 8.9.k.R 7.U K.C - - ",
"U.K.q.7.7.V.7.[ } O.O.q.7.' ~ [ / ( ~ P ' T T ( ~ _ 9XrX6X6X0X:.j W ( F F.F.j T / ` :.(.B.}.6X XoXXXZ ( A.(.{.XXG W A._._.].A.I.5X5XOXjX*.b <.XXzXzX&.A y.{.jX8XG.H.1X6X6X_ Z.lXjX8Xk f f y.kXjXjXF r y &.lXkXbX=.l S l S K X                                                                                                                                                 - hX@XuXR.E.e.w.Y.2.o.U B 7 U ^ @. ...#.H ' %XJ.q.@.2XiXiXiXuX!.V 7.U.u.J.] K.] [ u.u.u.7.Y.Q..XaXaXgXiX^ J.L.J.] +.!.!.E.+.@.q.6.I 5 | U C.Y.!.Q.",
"HXHXtXtXtX0XtX9X9X9X0X9X9X9XyX4X9X4X<XyXyXtX<XyX2X4XvXvX6X6XdXB.! U.<XV.rX,XM V.>XB.1X}.C.}.5X5X5X5XQ ! P.;.F.0XE m ;.&.>.|.S.F.3X6X5XsX;.d { -._ _.-.h [ &.*.).I.D.1X6X6X} / V.;.>.U P L / :.:.:.D P z E B.A.A.Q l b v M U .                                                                                                                                                 0 hXuXhXuXhXgXpXiXaX2.C V = 0 w.Q.uX3.uXo.~ %XJ.w.q.iXaXiXiXE.E.H U w.8.8.' W.' I 8.8.u.~ S.R.iXaXaXgXQ.^ J.%XJ.] Q.aXaXgXuX@.q.I 9 9 w.^ C.aXhXhX",
"HXHX0X0X6X1X1X0X9X0X6X0X0X9X0X0X0XsX0X0XrXfXrXfXkXvXfXrX0X6X8X:./ ,XfXI.bX X! *XbX[.bX5XS.}.oX X X5X_ y.vX|.qXvXQ ( 3X~.(.7XS.F.5X6X5XwX:.Y ^.|.S.8X>.Y ^.`.:.5XG.S. X5XoX[.I.[.[.`.^.<X&XU.P.F.(./.W.U.N.B.B.B.C.P.K.P.U.yX=                                                                                                                                                 & uXuXiXuXE.uXpXpXiX+.H ] 0 0 ] Q.uXE.iX+.z R T I ] aXiXiX.XE.Y.H N ' T P B W.U z u t c x ,.R.iXaXgXgX.XU R R R V !.aXaXhXuX@.8.B 0 B K.] ..iXhXpX",
"bXHXsX0X5X6X6X8X6X6X6X6X6X0X0X0XwX6XsX6X6XdX0X0X8XOX8XwX6X6X6X>.W [.5XH.8XH.M P.6XT.sX].A.,X5X5X1X X( } 6X).}.dX` Q }.].|.8XA.H.5XOX6X0X:.Q ,X5XW.rX;.W {.}.G.jXG.H. X6X1X6X0XrXrXqX0XrXrXrXrXrX0X1XqXrXrXrX9X0X5X9X9X9XfXHXo                                                                                                                                                 p hXuXiXE.2.o.uX3.o.C H ^ ] ' U uXE.2.uXO.m 7.] ' @..XiXiXuXR.3.^ q.U.%X*XV.K.] | L.u.J.O.,.E.iXaXaXpXiXE 8.8.8.E E.aXiXgXuX@.U 8.e.U w...C o.hXhX",
"HXbX0X5X6X X5X6X0X0X0X6X6X6X0XfXwXsXdX6XdX0X0X0X8X8X6X0X0X6XdX:.W [.6XH.sXG.b F.dXH.8X].D.}.OX5X5X}.Q _ 5X).].5XF ) }.'.`.8XS.G.6X6X1X8X;.E {.oXG.wX:.E [. XG.wXI.H.1X5X X X X6X6X5X5X5XwXwXrXwX0X X5X5X9X9X5X5XXX}.5X,XwXbXo                                                                                                                                                 0 iXiXiXaXgXgX3. .....C ^ q.@...uXuXuXuXe.7.%XU.K.O.aXiXaXiXE.E...K.UXtXtXW.Y.` L.eXeXtXY.,.E.iXiXiXgXoX] K.%X%Xq.Q.aXiXhXuX@.U @.&XU w.] H  .3.iX",
"bXbXwX8X6X X.X6X5X8XzX+X5X5X9XwXdXcX8X8X6X5X8X8X8X0X0XdX6X6X6X;.E `.6XH.xXH.n F.8XH.sX'.S.}.5XoX6X XQ _ 6XW. X5XQ ( XX`.].wXS.G.6X6XoXwX>.W {.+XT.jX:.W ,X1XT.xXH.H.2X5XoX X5X0XwX6X6XOX8XsXwXsX6X XOX8X5X8X6XOX X X5X3XsXHXo                                                                                                                                             .   - iXuX#.2.aXQ.2.w.e.+.C U @.O.^ #.!.e.Q.@.y.tX9XW.C.iXaXaXiXE.!...C.fX9X9XW.Y._ V.tX4XtXC.+.Q.iXiXiXpXiX} %X%XL.O.Y.Q.E.iXE.@.U 8.w.V w.U O.Y.+.2.",
"bXmXzX+X6X+XXXjX8X8XzXzXOXoX8X8XzXzXOXOX+XXX6X+XdX0X6X8XdX6XOX>.F `.OXH.OX).S F.8XH.dX).D.}.oX6X5X].F _ 6XT.}.OXJ Q ]._._.qX:.G.5X5X5XwX>.G `.XXH.xX:.D [..XH.xXI.K.9X9XoX}.6X0X6X6X5X6X8XsXsXwXdX XOX8X5XwX6X6XoX5X5X1XwXmXo                                                                                                                                                 - iXpXMXMX,.G q.] q.q.H V ] @.C H C  ...H ] <X.XW.+..XaXiXiXE.E.H V @.] | H 2...V _ ] ^ H +.R.iXaXpXpXiX@.U.U.W.] @.Y.+.+.....8.U &XV w.] O.C.^ @.",
"bXmX+XpX+X+X@X+XoXXX3.zXzX+X+XcXpXzXzXzXdX+XzXdXcX8X8X8X0X1X6X1.G `.pX<.zXT.A F.cXH.xX).D.,X5X5X2X XF _ +X).XX+XJ F ]._._.8XC.G.5X5X5X0X-.E |.+X).xX1.D |.+X(.xXG.D.3X5X X].+XdX6XOX X5X8X8XjXzX6X.XOX8X6X8XdX X]. X8X5X6XbXo                                                                                                                                             .   - pXpXMXLX,.V q.| O.+.V V @.@.B C C  . .C 0 V C g H Q.iXiXR.R.!.@.C g V g g Y.+.k g V B V Y.Q.iXaXhXpXiXC B V V B ..+...+. ...] U &XI q.U ] V.` J.",
">.=.J J J J K F =.=.=.*. .J J =.=.=.=.=.1.=.=.1.1.>.oX8X0X6X6XO., ` =.J ).<., ( =.J H.~.C.}.5X5XOXOXn j -.J =.].G < =.*.=.}.S.I.5X5X5X0X-.v <.<.=.oX>.b S.(.=.+XH.S.5X5X+X_.+XOXOX+XOXdXOXzXzXzX+X+XOXOX+XOXzX+X_.pX8X+XdXmXo                                                                                                                                                 - uXuXuXhXC.U J.q.w.+.^ V ' @.V +.....#.+.@.^ @.^ +..X.XiXiX3.3.Y.Y.e.Q.+.Y.R.E.Y.O.W.,.Y.Q.E.2XaXaXaXiX,.@.@.@.+.!.aXE.R.#...7.8.$XB ] ] O.A.} K.",
"E D f - - f & Y F.W.`.G , > , l j < S , < , k a a Q 5XwX6X1X6XO.f k S l C.G., f l j -.).A.}.5X5X1XoXl x *.-.O.].n * , j l F.F.G.5X5X1XfXO.& a l , S.:.: v l S G.G.G.5X6X6X=.J -.=.X.=.<.=.=.<.1.1.<.<.1.*.1.=.=.1.T._.(._.OXo                                                                                                                                                 - pXR.3.pXY.~ %XJ.C.+.^ V ^ @.U e.#.Y.R.uXiXpXaXpXQ.uXiXiXiXE.!.2.E.2.uX3.2.uXE.E.e.gX,.E.Q.R..XdXgXiXiXaXaXgXgXaXgXaXuXaXuX..@.8.8.0 8.@.q.w.^ K.",
"J.V.| ' ' ' x ! >X,X6X` * & r A h j A , & : c z z / tXqX6X6X6X>.v k v k F.G.h b v x N.`.S.3X5X1X5XoXD ! [.}.}. Xn * j h S F.H.~.5X6X6XwX-.p d d a D.B.x W ) ;.3XG.H.6X2XdXF D :.:.=.< < < S < j *.F S < l l < ` K < l l K J .                                                                                                                                                 - hXiXhXMXC.V y.7.q.o.@.C ] @.U R.uXE.uXuXuXpXOXaXQ.iXiXaXiXQ.!.2.E.4.uX2.2.R.R.R.,.gX2.T.R.R.iXiXaXiXhXiXaXaXgXaXaXiXuXgXhX..U I 0.I U @.@.w.B U ",
"DXbXyX9X9XtX&.W ^.].+X` & % j A v h W , & % R y.N.V.9XwX8X6X5XO.N v v j Z.H.h v v h B.I.D.,X5X5X5X XG ( `.}.oXoXl # f l A F.F.I.5X6X6XsX-.a x k h I.:.M V.<X}.5XG.C.5X1X6X) ) ,X]._.< a , Z j j >.F < j S j r A.[ - s : v D X                                                                                                                                             .   0 hXpXLXMXo.] &XC.,.o...V ` @.U uXR.E.R.3.iXiXpXiXiXiXaXiXiXQ.Y.3.E.#.uX3.3.uXR.R.#.gX2.E.Q.R.iXiXaXhXaXiXaXgXgXaXiXaXuXhXhX#.] I I u 8.q.] C.~ 7.",
"HXHX0X0X0XrX>.Z ~._._.J * % r m h z W , & * &./.}.[.5XfXwX6X6X>.k v v j P.I.d x x s B.I.S.,X5X5X5X}.G ( _.].].+Xl * w a h F.H.F.5X6XoXsX;.d z d h P.:.b V. XoX7XH.S.5X0X8X` ) XX@X).k a < T j r A.F j j A x j y.^.L.K.J.U.&XX                                                                                                                                                 - iXuXiXpX2.C.HXfXW.@.@.C H ) ^ Q.uXE.uXE.uXiXiXiXuXiXiXiXiXE.E.Y.E.Y.iX3.3.uXR.E.2.dX2.3.@X.XiXaXiXhXiXiXaXgXgXaXiXiXuXaXhX+.@.I I 8 I q.] K.I.fX",
"HXHX0X0X6XjX>.A %.>.:.K > % % z s f N 0 : $ ( B.:.S.5XwXwX0X8X>.p c x j N.G.p x c z N.W.S.}.5X5X5X XV A :.H.(.OXn * d k b A.H.P.9X5X6X8X-.f r s r P.>.b %._._.oXG.S.1X6XwX` ` ].@XT.< f p Y d p %.( j , A z r :.9XrXrXtXfXJXo                                                                                                                                                 a hXuX#.uX .+.fXyX!.+.^ C S V ^ 2XaXE.iXuXiXdXpXiXuXR.iXiXiXR.E.2.#...R.2.#.R.E.Y.+.pX#.3.R.Q.aXaXgXpXpXiXgXgXgXaXaXaXiXhXhX+.] 6.u 2 I q.^ K.W.fX",
"bXbX0X9X7XxX:.Z L.H.(.K & % r ! / { ~ & : $ [ F.).G.5XwXwX0XwX-.d ' N.%.G.S.f ! V.N.U.I.S.,X5X5XoX Xn A :.S.H.XXn $ h b A F.D.G.5X6X6XwX} f P T Y I.;.s ( -.:._.W.D.1X9XwXQ D :.:.1.a a : x z f ( G j : x s f / >X9XrXwXvXHX@                                                                                                                                                 - hXhXhXhX+.@.&XU.K.+.@.^ ^ U ^ !.Q.E.Q.Y.2.E.E.uX!.Q.iXiXiXR.E.o. .$.#. .H +.2.H ] #.#.4.4.uX2X2XaXgXiX!.&X<X2XW.E.aX2XgXaX@.] 6.u u U q.U C.C.aX",
"bXmXdX8XzXcX:.( {.XX+XK & % s Z.{.,X>.& % : %.XX}.].oXqXwX5XwX>.k ;.[.{.oX<.b %.{.3X6XG.D.3X9XoXoX XG ( `.].}.+Xl $ h b b F.H.G.5X9X6XsX-.b y.{.[.3X>.k %.|.`. XG.D.5X5XwX` Q P.G.:.a d w ! J.B.N.l k : P %.;.N.~.wX8X0XrXnX=                                                                                                                                                 - hXuXhXhX@.& 0 - U +.] ^ V.] U ^ H  ...H ^ Y.2.2.o.uXiXiXiXQ.E.X.4.pXpX3.o.,.e.V N.,.5.5.#.uXaXaXaXaXaXX.U ) / ^ H +.e.!.!...U 6.6.8.' ] U C.0 g ",
"+XdX_._._.+X*.( ~._.].G & % s Z.].oX<.: : 3 %.].].].oXwXwX6X8X>.l %.(.).oXS.b %.|.].+XG.D.,X5X5XoX}.D ( `.].].+Xl * f j a S.S.S.oX6X6XwX-.m N.{.}.6X>.n N.}. XOXI.S.5X6X8X) } }.oXT.a f w &.,X X}.G a f ! ,X,X}.].dXdX8XxXmXo                                                                                                                                                 a uXuXiXiX+.g B 0 ..+.U U J.7.B C 1 C H C O.fXdXgXo.iXgXaXiXR._. .4.NXNXNX2.C.C...K.E.hXhX4.R.aXiXgXaXdX@.' V.q.] V @.O.!.uX..U 8.9.%XI @.U Y.C C ",
"*.J K K K G n ( [.].XXF & $ z S.].].,.& 3 7 q.|.].].6XqXwX6XwX>.n %._.`.+XS.n ;.].XX+X).S.3X5X5X X XD / `.oX].+Xn @ & & & B.S.S.6X6X6X8X-.A N.].].OX-.Z ;.].@X+XG.D.,X5XwX` _ |._.).a a , ) {.].'.C g p W `.]._.@X+XpX+XcXmXo   .                                                                                                                                         .   - pXE.3.E.Q.!.Q.E.Y.X.U d 0 8.U @.+.#.Y.] :.HXfXgX#.aXaXaXiXuXE.o.o.pXdXdXW.W.w.] K.E.MXNX5.Q.iXiXpXgXaXO.] J.u.7.O.Q.!.iXgX+.q.8.8.B 8 ] U C.E..X",
"W Y d 0 0 g d V | -.-.V 0 0 z { *.;.) z 0 7 W _ ` O.1XwX6X6XwXO.d W *.&.T.F.z ( :.:.(.W.S.}.5X1X X}.n A -.1.<.}.n @ % % $ N.D.S. X6X6XwXX.m ;.).).oX>.N N._._.XX(.S.3X9XwX` _ ].].(.d d p { XX].].G h f ( {.XX].*.J J J J =..                                                                                                                                                 0 pXuXhXhXgXgXgXpXgX,.^ N 9 B 7.uXiXQ.iX,.B.fXfXgX+.iXaXiXiXuXR...H T.<.T.,.C.+.n ^ X.3.4.4.Q.aXiXaXiXaXo.] u.u.] +.aXiXgXMXe.q.8.8 9 t w.V K.dXgX",
"U.%X7.7.7.V.| | | O.;.O.J.u.7.O.;.O.V.J.J.7.| :.;.B.1X6X6X0XwXC.N y.;.) [.W.x ' ;.) G.`.S.,X5X X X}.k m _ F _ }.U 6 L N f V.D.D.5X5X6XdX} f ( _ J `.;.d W ) _ H.G.S.5X9XwX~ N ) ` ( f B p P >.>.-.v B 7 m ;.>.>.V a a a h d .                       . .                                                                                                                       - iXE.uX3.3.o.3.pX2...@.] 0 0 ] aXiXE.iX2.V N.q.@...iXaXiXiXE.R.o.V C.,.,.@.C.C.Q A.C.2.4.O.&X2XiXpXhXaX+.W 7.7.~ X.aXaXaXhXe.@.8.q 0 I w.V e.gXhX",
"HXHXtXtX0X9XtX0X9X0X9X0X9XtXtX0XwXtXtXfXrXtXrXtXqXrX0X6X6X1XsXF.] 4XtX^.HX].~ *XrX^.mX}.S. X1X5X1X|.V | ,XS.T.6X~ ! U.K.V.<XC.D.1X5X6XsXO.v U.S.;.}.:.b V.B.-.`.G.S.5X9X0XD.O.N.;.;.w.J.7.] | _ ] 7.q.| ' ` ` ) ) | 7.| q.J.X   p ] ~ U ' 0 z I I z U U P U ] z 7 U =                                                                                                         g hXR.pXiX2.2.R.4.1 C ..U ^ ] ] iXiX3.uX2.] &XW.<X#.iXiXaXiXuXE.o.O.fXrXfXyX!.C.q.fXfXfX2X+.Q.uXiXaXiXgX,.N.U.U.Z.C.aXiXaXhXe.U U 8.7.' J.B H E.nX",
"HXHXrXqX0X6X0X0X0X0X0X6X0X0XtXwXwXrXrX0XrXwXsXwXtXsXwX0X0X6XwXH./ }.9X`.xXG.W [.fX|.bX'.S.1X5X X5X[.Z } wX).].0X^ / 9X,X~.7XA.H.6X2X1XsX;.W 9X1X`.wX>.Y >X5X`.wXG.S.XX5X1X9X9XtXtX9X0XtXtXtX2X0X9X9XtXtX0X9X9X1X,X9XtX9XtXKXo   ' W.J.w.J.B z z I I w.%XK.&XUXw.] w.+ .                                                                                                       g gX3.uXiXaXdXo.H  . ...C @.q.@.uXiXE.aXY.C.bXvXvX+.iXaXiXiX@X3.o.O.fXfXfX2X!.C.+.fXtXtX2Xw.Q.Q.aXgXiXgXY.W.HXtX1X,.aXiXaXnXY.] U w.w.U K.V @.+.3.",
"HXbX0X6X9X1X1X6X6X5X6XoX6X0X6XwX0X0X8X5XwX0X0XqX0XsX0XwXwX6XwXI.( |.oXT.8X<.A I.wXG.sX`.S.5X5XoX5X}.E { 6XW.}.0X) / ,X'.W.OXC.F.5X5X5XsX>.W <X1X'.jX>.Z ^.OXW.jXG.D.5X6X5X5X9XwXaX0X0X0X0XtX0XtX9X5X1X5X5X0X0X9X1X1X5X3XtXHXo   7.K.q.V.q.U B I z ' w.w.w.w.yX7.0 w.+                                                                                                         g aXuX2.E.iX,.+.X.+.o. .U @.q...e.E.Y.E.+.:.fXjXkXC.uXiXaXpXuX@Xo.O.fXfXfX2XK.C.C.fX2XfX2X+.!.uX2XiXpXaX+.U.HXDX9X@..XR..XgX+.] U w.w.U K.U Y.O.2.",
"HXHXwX6X5X5X6X0X0X6XoX6X6X0X8XjXdX0XwXwX0X0XwXqXwX8X8X0X0X6XwXD.~ {.oXW.sXS.A ~.wXG.xXG.S.4X6XoX5X,XZ } 7XW.}.0X) /  X'.H.8XC.F.6X6X6XwX>.W ,X X`.sX>.Y {.6X).xXG.G.5X5X5X5X5X6X0X9X9X6X0X0XsXwXqX9X9X5X0X0XqX0X5X5X9X5XwXbX@   ' K.w.&XC.] I I 0 8.w.&Xw.w.w.7.B 8.=                                                                                                     .   - aXaXhXhX,.H H.3.Y.+.H H ] 8.C  .H  .o.C O.tXqXwX+.iXiXgXiXiXR.o.C ^ ^ ^ H @.K.C | O.@.^ ..&XQ.aXaXaXaXC.C.tX9X&X^ ....Y.uXo.U U w.w.U K.U Y.@.X.",
"HXHXwX6X5X1X1X9X8X5XOX6X6X6X8X8XwXdX6X5X6X6X6X7X8X6X0X0XwX6XsX:.Q [.oXG.sX<.A /.8X).wX).Z.2X6X6X5X}.G &.6XT.|.dX) /  X'.W.6XC.G.6X6X6XwX:.F ,X1X|.rX:.W {.6X).xXG.I.3XqX5X5X7XqXwXtX0X6XsXdXtXsXwX9X6X9X0XwXwXwX5X5X8X5XvXmXo   q.yXw.K.q.w.U B B w.] w.w.w.w.7.U ' @                                                                                                         0 hXaXMXMXo.C.nXgX!.O.^ V @.q.B C C C  .C - g C l C iXaXiXiX.XR.o.U C V V C +.!.U g V C C @.Q.Q.iXaXiXgX,.- B g 0 l ....Y.E.@.^ U 8.w.P C.U K.] q.",
"nXmXOX8X+X+X+XjXcXdX8X8XzX+XOXjXjXjX8XcXdXOX+XjXwXwX0X0XwXwXdX1.F XX8X(.cX:.S `.+X_.xX`.D.1X5X6X5X|.G -.OX_.XX+X` ` +X].].8XC.F.1X5X6XwX:.D }.OX|.sX1.E XXOX).xXG.F.5X7X3XoXOX7X5X5X6X6X8X8XwX8X6X5X6X5X6X8X8XOX X5XqX8XvXnXo   w.&Xw.w.w.K.q.0 ] w.8.w.w.8.%X8.q.@.@                                                                                                         g gXiXuXgXo.Y.LXnX.X@...U ] q.U ,.3.2.e.+.C ^ H V @.uXaXaXiXuXE.2.!.C..XT.Y.Q.E.T.C.Q.W.Y.W.E..XiXaXgXiXE.@.@...@.w.Q.!.iXaXe.U U 8.J.B w.' w.q.w.",
"xXcX@X+X+X@X<._._._._.].+X_._._._.3._.@X+X_._._._.'.6XwX0X6X6X>.n A.H.=.].<.j >.<.=.oX`.D.9X5X X5X}.S F _.1.T.+XG F ]._.<.+X<.H.oX5X6XrX>.F XX+X].xX>.W 3X+X`.vXG.D.3X3XoX8X8XcXjXwX8XzXdXzXxXcX8XOX+XoX8X8XjXzX XoX6X+XsXmXo   w.%Xw.w.K.q.q.0 q.q.q.8.w.q.w.w.K.w.=   .                                                                                                     p pXE.#.iX,.C.fXsXE.@.@.V U ] ^ Q.iXE.uXE.aXgXaXaXiXuXuXaXiXuXE.3.!.,..XE.2..XQ.R.,.aXQ.Y.E.@X.XiXaXaXaXuXUXUXgXUXaXaXaXaXgXE.U 8.8.8.8 J.8.K.7.w.",
"=.=.J J J ` S Q =.*.X.J J S l _ =.X.J K K l F -.-.-.oXwX6X6XwX-.& S J S <.S.* j n a -.[.D.2X1X5XoX}.a , S l S ].K & K G S (.H.H.oX5X5XsX>.: J ` J ].-., ` *.F T.`.D.3X5XoXH.(.(.(.).@XcX+X].].]._.+XzX+X+X+X+XXX XOXOX+XcXmX@   w.&X%Xw.&Xw.w.@.w.@.w.q.C.w.&X%XJ.%X=                                                                                                         - iXiXhXgXo...W.C.C.X.O.V U ' ^ Q.R.3.uXuXuXaXaXgXaXiXiXaXaXR.!.2.E.2.@X3.#.R.E.E.+.iX!.2.E.E.iXiXaXgXaXuXaXaXgXgXaXiXiXaXhXuXU ] I I 0 w.q.K.7.7.",
"E n j f B N , ) ~.H.T.K < , a B.`.'.=.> > % [ /.`.G.5X0X6X6X8X-.j ) S.H.|.B.: Z | ) B.`.Z.,X6X5X X|.k p a j h W.Q * f a , C.H.D.XX6X6XsX;., ( >.} |.O.p F 1.=.H.I.S.}.6XwXJ , F ` F < K l < K F K K J l < F J K F X.J *.=.1.X   w.w.%Xw.&Xw.K.q.w.w.&Xw.K.K.&X&Xw.$X= .                                                                                                       a iXgXMXnXO.C.6X.XY.O.@.B U 8.^ iXiXE.uXuXiXhXaXiXiXiXaXiXiXuXE.2.3.2..XE.2.R.R.R.!.iXE.+.E.E..XaXgXaXhXiXaXfXgXgXaXuXuXaXnXuX^ ' 0.8.I 8.q.w.w.K.",
"%XU.q.7.q.V.b %.3X}.].J l , h P.}.XX1.& : $ &.{.}.|.6XwX0X6X6XO.A N.{.XXOX:.x | >X{.3X~.D.}.5X1X5X].k s h a x ^.E & d z f Z.I.I.5X5XOXsX:.N A.{.,X5X;.N %.].XX+XG.S.3X6XwX) M P.3XG.a , : b &.P.S.S k : l %.~.{.G , a f d g .   ' &X&Xw.&Xw.w.w.w.w.K.K.w.C.K.yX7.9.+                                                                                                         g gXiXgXhX+.W.LXHXQ.@._ B I ' ^ .XuXuXuXuXuXaXaXaX2XiXaXiXpX@XE.2.3.,..XE.2.uXR.E.e.iXQ.+.Q.Q.Q.aXaXhXaXiXaXgXgXgXaXuXiXiXhXuXH ] 6.%XI 7.] q.K.fX",
"HXKXtXtXtXtX_ _ oXXX].F l a h F.].].=., : $ %.{.].|.6XwX0X0XdX-.A :.].].+X:.x &.[.}.oX`.D.,X5XOX1X'.k x W W ( {.~ d ' ) / I.S.F.3X6XOXsX;.b y.{.`.6X_ b ;.`._.XXG.Z.3X3XrX) E /.3X|.l j s m y./.F.b k , b &.(._.;.{ [ ] 7.J.X   B 8.w.e.&Xw.K.q.K.w.K.&XK.2XK.w.8.6.=                                                                                                     .   - aXE.3.iX+.W.KXfXW...] P B I ] Q.uX!.uX!.Q.gXaXaX.XiXiXiXiX@XE.2.T.:.].Y.@.Q.Q.C.@.W.T.+.Y.Q.iXaXaXaXaXuXaXUXgXnXaXiXiXuXiX!.C ] 0.6.z q.@.+.K.aX",
"HXHXwX0X6XfXO.Q `._._.J k a s A.(.).=.- % % &.(.(.(.5XrXwX0X8X-.b &.(.(.XX<.h &.(._.].`.D.5X6X5X6X'.k ! D.~.I.oX( b A.[.|. XC.G.oX6X6XdX;.m N.`.].+X_ S :._.].+XG.S.XX3X7X` W /.7X}.< , w b &./.(.S j : r *.:.>.{.rXtXyXrXKX@   B I I q.q.w.w.w.K.C.K.yXw.J.] I I 6.X                                                                                                     .   - iXpXgXgX@.C.2X,XC.X.) U I U ^ E.E.!.uX!.!.&XQ.!.Y.uXiXuXiXuXR.o.g V ^ ] V @.!.U V } ^ V ^ Q.Q.uXaXaXiXQ.Q.2XfX2XQ.uXiXuXiXe.H 8.I 8.8.7.q.q.K.K.",
"HXnXwX0X0XsX} D :.>.<.l , : s { =.1.J & % $ W >.>.1.5XqXwX8XsX=.k / >.:._.:.r F -.1.H.`.S.1X6X1X5X].h M -.>.:..XF B | :.:.'.H.F.oX5X6XxX-.h / >.>.].O.j { 1.1.(.G.S.,X3X7X` A %.S.:.j j : x [ &.&.S j : : W *.` `.rX9X0XbXbX=   8.I I I I I 7.] @.] ] q.U U I I q 8.+                                                                                                         - iXpXnXMX^ 0 n - ..@.] T 8.' U ..o...+.@.H ] @.@.^ !.iXiXiXiXR.o.V N.q.B.7.O.Y.P [ 7.q.7.] !.Q.2XaXaXaXe.~ q.q.| ^ @.+.o.@...C 7.6.ZXq.8.7.w.e.g ",
"bXmX8X+XOXxX;.( ^.`.|.l % : x Z.~.`.*.& $ % { ~.`.).5XwX0X6XdX-.b %.)._.{.:.h ) H.H._.`.D. X6X0X8X`.k T B.G.H. XQ b %.H.<.'.H.F.5X6X6XxX&.j *.:.<.|.O.d { 1.1.T.G.C.,X3X8X) m y.F.:.j j : t ( &.-.l h : w b F F ~.wXqX8XxXbXo   K.q.t I I I I I I I 8.I q 6.0.0.J.SX@ .                                                                                                       - iXiXpXgX@.0 < - H X._ U 8.8.0 C C C  .V n 7.7.8.Q W.aXiXuXuXE.+.N J.J.u.J.O.!.U k.J.7.7.7.!.!.2XaXaXaXY.^ U.U.&XU H ..C C C B 8.I %X8.8.q.@.@.- ",
"bXmX+X+X+XcX&.` 3XXX}.n % % c P.3XoX>.> % e y.3XXX].6XsXwX6XdX-.A A.].+X+X:.v &.'.].+XW.D.1XoX5X6X|.S / W. X X.X/ Z F.oX]. XS.F.oX6XOXxX>.b y.].].oX=.A N.XX].oXH.S.,X5X7X) W *XjX[., a r m &./.H.l d : f G } *.(.wX7X6XwXmXo   W.K.I I u I I I I I I I I I I w.yXyX@                                                                                                         p iXR.3.R.Q.Q.W.Y.,...] g R 8.U o.X...,.@.U u.u.8./ Q.aXiXiXiXR.#.P u.%Xu.y.O.!.P u.u.J.u.] !.uXiXaXdXgX!.q.HXUXHX+.o.+.+.#...C q.8.8.B U q.@.Q.+.",
"F.<.=.` *.=.D / {.XXXXn w w c /.}.5X>.: 6 r y.].]._.6XsXsX8XwX-.A :.].].6X:.k -.].+XXXH.A. X1X6XOX].n ( (.].].+XQ D D.].@X].C.G.5X5X5XwX>.A :.]._.oX*.b B.]._.].H.D.3X5X0X} T /.4X{.< f r A %._.(.l d 7 f D *.-.).zXOX+XcXmXo   K.w.B U I I I I I I I z I B w.yXaX&X=   .                                                                                                     d gXiXiXiXhXgXgXaXpX .X.v 9 z q.!.R.3.Q.C.P 7.u.7.^ Q.aXpXiXQ.R.,.v 8.8.' 8.] W.P 8.' 6.' U C.E.aXaXgXgX!.B.HXUXHXC.!.iXuXuX!.@.q.8.8 9 I q.^ aXiX",
"D M p - & , % ! F.H.G.b s z s N.~.`.} & : r &.)._.(.6XwXsX6XsX-.Z %._.).XXB.k %.).`.XX).S. X6X5X6X'.n ` H._.]..XF Z S.].].].A.G.1X X6XxX=.A B.].].7X-.A :.+X+XXXT.S.,X9XqX} / U.jX~.j d j T &.{.H.V g s x ( *.-.=.<.1.<.(.@XX   q.7.B ] K.0 0 0 B I c ~ U U %XtXaX2X@                                                                                                         g aXE.E.E.E.uXgXiXR.H +.] # B ] uXuXE.iXT.B T I R ~ W.aXiXiXiXR.#.z L T T P ^ W.P I I L L P C.E.2XgXaXgXQ.^ &X<X&XX.!.iXuXiX!.^ 7.I 7 0 q.w.^ .XnX",
"L.C.| ] ' | ~ ' { ) ) ~ / ' P ~ ( ` ~ N z z ~ ) ` _ 5XwXwX0XwXO.s ! ] ` W.D.s Y _ ` D.`.D.1X6X5XoX].g b ` _ X.].Q h ~ =.X.T.S.F.oX6XOXsX-.a Q _ *.`.>.j ( -.=.(.I.D.9X0XwX) c { &.| 0 z r c / _ _ v x 0 z ~ { _ l l l l V M .   w.J.V w.w.U 0 0 0 B I w.] ~ ] yXUX&X=                                                                                                         g iX3.E.E.#.#.uX3. .C ..V @.@.U uXuX3.uXT.N ' I R ~ Q.aXpXaXiXE.2.E u.u.u.7.7.W.P l.u.l.8.' C.Q.iXaXgXgX!.@.W.&XW.@.E.iXuXuXuXH U I 8.U ] q.V +.iX",
"HXKXtXtXtXtXyX9X4X4X,X2X2XyX<X<X>X[.>X<X<X%XU.U.G.I.9XwXqXsXwXB.E U.F.C.fX[.Y N.I.;.9X[.D.}.5X3X5X|.h ! F.O.B.rXO.E U.B.:.6XS.G.1X6X6XsX-.v A.;._ }.;.x | } ` W.D.D.1X1X0XD.~ ' ~ ] | | [ ! / ~ ! / ] P P T V V V ~ U ~ / ] X   J.K.@.&XK.w.U V U q.&Xw.C.^ O.&XyXw.=                                                                                                         g aX3.E.aXgXaXo. ...V ..^ @.q.@.uXuX3.uXY.U 7.u.8.^ Q.aXaXaXuXE.2.P u.J.y.u.| W.' u.u.k.u.[ K.Q.aXaXiXaXuX,.UXfXKXC.T.iXuXiXuXU U ' w.U 8.q.B ..2.",
"HXHX0X9X5X5X9XrXwXrXrX0XrXrXrXrXrXfXfXfXfXDXbXfXvXvXwX0XwXwXxX:.%.rXfX XmX[.) 4XbX].mX`.Z.,X6X5XoX|.n y.wX`.1XbX;.N.DXsX5XHXS.G.5X6X6XsX:.~ 9X6X`.bXB.~ 4X2X`.vXI.S.1X6X0XbXHXHXbXHXHXtXtXtXtX0X9XtXtXyX<X&XU.U.&X<X&X<XyXtXo   7.K.K.w.e.w.U U B w.&Xw.W.] w.&X&Xw.9                                                                                                         d aX3.#.uXaXR.Y.+.e.] O.@.@.q.@.uXQ.!.uXC.E J.u.7.^ W.aXiXiXiXE.2.U U.*X*X%XB.Q.' J.k.u.k.7.e.uXiXiXaXaXuXw.HXnXKXD.,.uXR.uX!...] ' w.U 7.w.U ,.o.",
"HXbX0X0X6XOX5X0XwX6X0X5X0X0X0X6X5X6X8X8X0X9XqXsXqX0XwX8X8XsX8X>.( {. XH.wXW.( {.qXG.wX~.D.oX5X5X5X].M N.0XT.}.wX_ { 5X}.|.vXS.F. X6X2XfX;.~ 4X}.W.fX:.! >X}.W.xXG.D.9X0X6XwXqXfXrXqXwX0X0XrXrXrXwXwXrXrXwXqXrXrX9XtXrX9XvXKX@   8.J.q.w.&Xw.U U U w.&Xw.&XO.q.&X&X9.=                                                                                                     .   g pXiXhXgXo.C ^ ^ w.@.] ^ @.o.q @.o. .+.@.' J.J.K.| Q.iXiXiXQ.E.2.V | q.O.} ] !.B ' 7.7.| U e.!.iXaXaXiXR.e.fXUXUXC...o.+.#...C ] 8.8.] ] K.] C...",
"HXbXqX8X8X5X5X0XdX8XwX6X6X6X6XsXwXwXwX8X8X7XwXwXsX0XwXsX8XdX6X-./ XX].<.7XI.Y ^.0X).sXG.D. X6X5XoX{.n N.wX`.5XwX/ _ 3X].).wXC.I.5XwX6XsX:.~ 9X XW.xX>.Q XXXX'.dXH.D.6X0X5X6X5X5XwX8X6X6X6XrXsXwXwX8XwXwX6XwXwX0X5X9XwX5XjXHXo   8.%X7.w.&X] ] U U w.w.&X&Xw.w.&Xw.8.=                                                                                                         - uXiXLXgXH g U N @.q.U U q.O.B C C C C C B U U U l W.aXiXiXiXE.Y.C V C C d H E.H 0 z d 0 N #.uXaXaXiXhXR.H @.@...C C C C 1 1 1 8.I w.' ' w.U C.C ",
"KXbX7X8X6X5X5XwXOX8X8X8X6X6X8XwXsXwX5X8XwXwXwXjXsX6X0XwXsXsX8X>./ 3XoXH.6XS.F {.6X'.sXW.D.,X6X5X6X|.D N.wXT.}.sX` { 5X].`.wXS.I.9X5X6XsX;.~ 9X1X`.bX>.Q XX5X'.vXG.F.5X6X6X6XwX8XwX0X6X6X6XwXsXsXjX8XjXwX0X0XwX0X0X6XwX0XjXmX@   8.&Xw.w.&X] q.U ] %Xw.&X&Xw.w.&Xw.6.=                                                                                                         - pXuXgXgX^ V U N O.q.] V ] q.U .... .o...0 0 0 - g Y.iXiXaXiXR.#.+.w.C.!.O.T.uXC.O.C.W.@.,.2.E.iXpXpXuXuXC g B g g ..o...@...B U 8.w.] V q.U w.U ",
"bXbXwXwX8XoX X8XOXjX8XjXOX+X8X8X8X8X8X+XoX6X7X7XwX7X6XwXwXsXwX>.J XX+X(.dX,.F {.6X_.xX`.H.3X5X6X5X|.D >.8X_.oXdXQ _ oX]._.8X<.G.6X6X6XxX>.W 3XoX_.vX:.( 3XoX).xXW.P.5X6X5XoX7X6XqX6X5X6X6XwXwXwX8X8X8X7X0X6XwX0X5X0XwXqXvXJXo   6.w.w.&X&Xw.q.B q.w.w.&Xw.q.q.K.w.9.=         .   .   . . . .   . . .     .   .   . . . .     .   . . . .   .     .   . . . .   . .   . .     g hX#.+.iX..U | ^ +.@.@.V ~ @.^ C.!.#.!.!.!.&XQ.!.U.Q.uXiXiXuXR.3.E.Y.E.iXY.E.3.!.Y.2..XO.R.3.3.uXiXiXuXuXe.C.K.!.K.Y.uXQ.e.!.C q.I q.] P q.U e.^ ",
"mXmXcXcXcXcXpXzXzXdXzXzXcXpXzXzX+XcX+XcXdX+XzXzXdX7X7XwXwXwXsX-.F XX@X<.8X:.A ].+XT.xX).F.5X6X5X5X}.n >.8X_.+X8XJ ` oX_.].jX<.I.9X6X6XsX=.Q 5XOX@XbX>.Q 3X7X_.bXG.G.5X6XoXoX8XzX8X+X+XOXdX8X8XdXjX+X+X+X6X8X8X8XOX6X8XqXvXmXo   I w.w.K.w.w.w.U 8.w.q.w.&Xq.w.K.8.6.=                                                                                                         g uXuXQ.gX..o.Y.C.Y.@.w.U ^ ^ U e.!.e.uXuXaXaXaXiX2XaXiXaXaXiXE.#.3.2.!.pX+.E.uXY.+.2.pXo.3.E.uXuXiXiXiXuXQ.2XaXaXiX!.uXuXe.uX..] 6.6.8.U C.U K.@.",
").H.=.X.=.=.J K J J K J =.J S J J ` *.1.<.*.=.=.>.>.7XrX0XsXwXX., ` =.F (.1., F _ F H.'.D.5X0X6X5X}.l A 1.J =.OXK h =._ _ .XS.I.5X5XOXwX=., *.>.=.].1.k A.S.=.8X).G. X5X X_._.@X_.<.].+X]._._.].@X+XzXXXoX+X+X].oX8XdX+XcXmXo   9.w.q.q.q.%Xw.8.w.%Xw.w.&Xw.w.w.8.q +   . q q q q q q q q q q q q q q q q q q q q q q q q q q q q q q q q q q q q q q q q q q q q q q q q .   - uXgXMXgX..+.Y.,.2.@.w.U V U ..!.iXR.uXR.iXaXaXuX.XQ.aXaXaXiXE.!.Y.3.E.aX2.R.R.!.3.3.aXo.3.3.uXuXiXiXaXuXQ.aXaXaXiX!.uX3.uXuX#.@.6.I P U K.U w.o.",
"G V p & & & @ , j j < > > @ * , < n < , , * < < , S 5XwXwXwXwX*.* f l , >.>.@ : k , } |.D.5X5X6X X]., > j l K XXS * h l j D.D.I.5X6X6XcX_ : Z _ F W.:.* S F K H.[.F.5X6X8X_ l G J K K ` K K ` *.J X.1.*.` >.=.-.=.1.<.<.<.T.X   6.9.%X&Xw.K.w.@.w.&Xw.w.%Xw.&Xm.I 9.=   . t.r.r.r.r.r.r.r.r.r.r.r.r.r.r.r.r.r.r.r.r.r.r.r.r.r.r.r.r.r.r.r.r.r.r.r.r.r.r.r.r.r.r.r.r.r.r.r.X   0 iXhXLXgXo..XnXhXE.@.O.U U U U uXaXuXuXuXgXgXgXhXQ..XiXaXaXiXE.3.T.2.Y.iX2.E.E.2.2.3.gX+.E.3.uXuXhXiXiXuXR.aXaXaXiXY.3.uXuXiX .U I 0.' P K.U w.T.",
"| | U B P P , s Y Z Z f > & & v x n < : & * b k , A 9XqXwX8XwX=.: v D v A.:.: x Y b %.`.S.5X6X6XoX.X< r b N A >XV w b M S Z.A.I.5X6X6XxX*.b N.XX}.qXB.c [ /.~.,XI.I.1X6X8X` F D.(.>., l , ( (.(.H.C l , l H.H.G.G l l n V G X   I 9.%X&Xw.&Xe.q.w.&X&Xw.w.w.w.w.I 6.+   . B e.2XaXaXaXaXgXaX+.w.8.8.e.aXaX&X2XaXQ.e.] U w.I @.w.2XaXaXQ.gXaX&Xe.I @.w.Q.aXgXgXaXaXUXaX+.@..   g gXE.E.uXo.iXgXgX@X..O.V U U ^ Q.Q.R.uXR.iXaXaXiXiX.XaXiXiXiXuXE.Y.Y.T.aX,.R.Q.!.E.E.aXe.!.e.!.uXiXiXiXuXE.Q.iXiXuX3.E.R.uXuXo.U 8.6.8.M K.U C.Y.",
"DXrX<X<X<X9X/ s Y A A a & $ % x z j f : : % x x j A tXrXwXwXwX_ p v Z b V.N.w m Y A N.[.D.5X0X2X1X|., r b M A {.Z w m T A Z.S.~.5X5X7XxXO.A y.{.].7X>.c y.*X[.3X~.P.5X5X8X_ &.7XoX(.< h j ) XXXX}.J l a W ,X5X6XO./ ] | 7.] X . I 8.%XK.q.K.w.q.w.&Xw.w.DXyXw.8.I 9.=   . B !.aXfXfXnXnXgX2X3.] U K.aXgXnXuXgXaXQ.C.q.U w.P q.!.aXgXfX2XgXUXgXY.U U !.2XKXgXJXaXaXnXaXH @.X   - iXiXiXgX..Q.gXaXE.` O.^ +.' ] !.Q.uXiXuXaXgXgXgXaXQ.Q.aXaXuX!.e.X...O.Y.H @.Q.o. ...e.@.@.e.uXuXiXiXiXuXQ.aXgXgXiX3.uX3.uXiX..U ] 6.J.~ K.U w.Y.",
"HXbXwXrX0XvX| p M A n p % % % h x x p % % % x b z Z 9XrXsX0XsX_ , m A b A.N.& m Y A ;.^.F.3X7X6X6X X, f b N A >XD : m Z b D.F.G.5X7X6XxX&.A :.].+XzX>.m y.*XXXXXG.I.1X6XwX` *.XX].H., k f { ].].].H k f W {.XX].XX3X4XtXDXUXX   I 9.w.%Xw.K.q.@.w.K.&XK.yXyXw.9.6.9.=     N !.2XfXaXUXgXnXgX!.] q.w.gXgXgXaXgXgXaXe.C.U U ~ K.!.gXUXgX2XKXgXgXW.q.] W.fXnXMXUXgXMXgXaX^ W.X   - uXhXnXgX@.U @.@.+.@.@.^ W.] U +.Y.#.uX+.,.K.Y.,.+.!.iXpXuXuX!.2.C B B U B B !.V - g B 0 B @.!.iXiXiXiXuX+.Y.C.!.C.+.R.Q.!.uX..U 8.8.yX7.w.U w.+.",
"HXnXqXwX8XfX} , k h h , & $ $ s f d p % % # r x x A 9XrXwXdX0XX.% s c j B.B.& v m b N.[.S.7X6X5X2X]., w h x b }.A % x x x A.A.~.7X5X5XxX*.h &.H.H.+X>.x &./.~.XXW.I.9X9XwX) ) |._.<.g g s ( (.).).K k , Z ~.].).oXkXrXbXHXKXo   I 6.9.$Xw.&Xe.@.@.K.yX&X&XZXw.9.I 9.=     @.iXW.aXgXgXgXfXgXQ.O.+.W.nXgXgXgXUXnXgX!.+.U U ] W.!.nXgXgXaXLXnXnXQ.+.@.K.nXnXLXgXLXhXgXe.U aXX   0 aXuXgXgX1 @ * @ V ......&X] P H C  .o.H g V V B V !.iXiXpXuXE.Y.B I I R I P %X^ N E U U U w.!.R.pXuXiXiXC B U V B V .... .C 1 8.I 8.yXq.K.U e.C ",
"HXvXwXwX8XvX} , m N b w & $ % s x d p % % $ f m x Z 9XsXsXsXwX_ : s b j A.>.% h m x %.[.F.3X6X6X1X[., f x x m ,Xn % x x x A.F.G.5X6X5XxX*., ( -.*.).B.r ! %.*.~.I.D.9XwXwX/ E :.:.*.< h , Z :.>.:.K k : A :.S.1.`.jXwXbXbXmXo   u 6.6.w.%X&Xw.q.@.K.yX&X&X&X8.8.6.9.9     +.Y.T.gXaXgXnXgXaXe.w.!.fXKXgXgXnXnXUXaXiX,.U N ] W.aXgXUXUXgXUXnXLX2XT.X.e.fXJXhXMXLXMXgX^ @.aXX   - uXE.Q.iX+.U ^ V X.....C w.] V V C  ...H B U U U U e.iXuXuXuX3.!.B U I I R ' W.^ P T I I P w.!.Q.uXiXiXiXU B U I B V ..C g 1 0 ] 8.8.w.U w.U w.H ",
"mXmXcXjXcXcX-.a Z Y M : & $ w m M M d % % $ x Z Z E 9XwX8XwXsXX.: c Y m S.;.& b Z b :.~.D.5X6X5X5X`.a s m m Y >XV w m A b P.F.(.oX6X6XxX-.b N.}.].5XB.b y.3X^.3XI.I.1X6X0X) | ,X|.S.a h s { ~.].T.S k w W I.`._.].8XjXbXbXbX@   I 8.q 8.w.yXw.w.q.w.&X&X&Xw.U 0.I 9.X .   ] Y.Y.2XgXaXgXLX2XY.C.2XgXgXnXnXUXgXgXaXaX,.^ g w.}.gXaXgXnXnXgXgXKXgX@Xo.C.aXLXgXLXnXaXY.V 2XyXX   g uX2.Y.Q.uX2XiX!.!...o.0 f ~ ] +.e.#.Y.+.B U U U U Q.pXuXpXR.!.2.U 8.8.8.8.' &X^ I 8.' ' P O.Q.@XiXiXiXaX^ B I U B ~ Y.+.o.#...] 8.8.8.0 q.U +.!.",
"wXzX@X].@X+X) a Z A M w w $ 6 b M Z h - % $ x Y Z ! 9XwXwXwXsXX.f b Z m A.>.: m Y b N.^.A.5X8X5X6X'.a s m m Y }.n f m m A Z.A.G.oXoXOXsXO.A N.{.`.8X:.b y.4XXX3XI.G.5X6XjX/ %.4XXXI.a d f { {.]. XG d r W XXoX].].cXjXbXmXJXo   0.8.6.8.w.yXK.w.K.O.&X&X%Xw.6.I 0.9.+     ~ aX..!.gXgXgXLX2XC.Y.2XgXgXnXgXgXgXgXgXaX!.V g C..XgXaXUXgXnXUXgXnXgXaX1.,.aXJXgXMXcXaX^ U UXUX. . 0 uXR.gXpXMXNXpXuXiX..@.B @ B @.Q.iXE.iXY.F O.] O...!.aXaXiXuXE.Y.U e.&XK.K.w.W.^ P R I U U O.!.R.uXiXiXaX] U ' ] U ] .X.XiXaX+.@.8.I # $ K.] w.aX",
"*.O.G K K K g N Y Y Z 0 w % r m P M h 6 7 % m E Y E 9XwXsXwXwX_ w m Y m A.-.6 m Z m V.W.A.5X0X0XOX}.h s m L Y ,XD w m M A L.F.F.oX6XdXfX-.A Z.].].8X:.b y.jXXX3XI.G.9XwX+X` &.XXoXG.a x h } XX].].G B s ( {.oX].<._.<.@X+X+Xo   8.8.U I 8.&X&Xw.V.w.&X&Xq.8.I I 0.9.=     O.aX+.C.aXLXnXgXaXY.Q.gXgXgXUXgXUXUXgXgXaXQ.@.^ !.2XgXgXLXgXUXgXLXUXgXgX3.2.dXLXLXnXiX@.U Q.aXgX=   < uX2.+. .o.#.3.R.2...O.U z P @.iXiXE..XY.^ C.C.C.@.!.aXaXiXuXE.Y.@.&XfXyXtX!.W.o.K.<X,X2XT.,.Y.R.uXiXaXaX^ @.w.w.| ...XQ.uXiX+.^ ' I 0 P K.@.@.iX",
"W ~ d p f p 7 7 z c z z 7 4 7 z z B z 7 f 3 t c d N qXfXsXfXwXO.6 x N x Z.;.6 c c x N.W.A.5X6X6XoX}.d r x z m ,Xn 6 x x r L.F.(.5X0XwXvXO.h &.G.(.XXA.b &.~.{.XXG.I.9XqX7X/ { {._.S.k B s / G.T.H.M d 0 Y G.`.'.J S G K F F .   8.$X8.I I q.w.w.K.K.yX%X8.8.I q 6.9.X     ;.dX2XH E.gXgXfXgXe.Q.gXKXgXgXUXnXUXUXnXgXiXC.K.aXdXKXgXUXUXLXMXUXUXLXaX.XY.gXgXnX2XK.B @.UXgXgXX   - uXE.R.pX2.#.uXo. .C @.V 7.] ..aXpXR.iX2.+.0XaXaXe.uXaXaXaXuXE.Y.w.gXLXKXLXfX2X+.aXLXLXLXnXY.3.iXiX2XiXaX@.Q.aXtX2Xw.E.E.E.iX3...] 8.w.I w.@.V +.",
"U.U.q.y.N.7.q.7.7.7.7.7.w.J.7.7.7.7.7.7.%Xw.7.7.7.V.rXwXwXsXbXV.N 7.7.' yXV.B [ | ' <X[.D.5X6X1XoX].B c { Y | wXM x [ ~ W /.A.(.5X5X6XvX-., Y Q D G.S.: T ( F (.G.W.5XqX7X` N ` ` ( E ~ P P ) ` ` ^ ' P Y ) _ _ D V n n V V .   VXw.w.U U I 8.w.K.J.w.8.6.B I 6.6.0.=     @.gX.XH w.aXHXUXaX!.aXgXnXgXnXgXUXgXaXnXgXgXC.+.gXaXnXaXgXaXMXMXUXgXLXgXaX3.dXaXaXW.V 0 q.2XdXiXX   - R.2.2..XiX.X,... .^ O.U q.] @.aXpXR.iX!.!.LXKXMXE.uXiXiXiXuX!.3.>.fXLXLXLXnXW.,.dXJXmXMXnX2.Y.uXiXiXaXaX+.fXJXLXnXY.E.uXE.iX#.@.8.8.K.U w.] U o.",
"HXHXtXtXtXrXtX9XyXtXtX9XtXbXDXrXrXrXrXUXHXtXtXbXbXrXrXwXwXsXbXS.7.tXtX4XKXI.| tXtX<XHX}.H.5X7X5XoX}.V y.9XF.,XwXQ | yXW.^.9XS.I.5X6X8XvXF.) 4X5XH.bXD.P U.D.:.5XH.I.5X5X5X[.L.U.D.K.>XyXyX<X>X,XyX9XtX9X4X<X,X>X,X>XU.U.>XyXX   ZX%Xe.U 6.I U ' 8.] ' ' I q 8.8.I 9.9     O.nXC.@.^ Y.fXUXQ.E.gXgXgXLXgXgXaXgX2XgXfXgXe.e.gXgXgX!.nXgXgXnXnXnXUXgXaX!.Q.gXe.U B @.!.W.aXaX.   < uX2.#.uX+.o.O...@.^ @...@.] @.Q.uXE.uX2.!.nXnXMXQ.!.iXaXaXR.!.Y.X.sXJXJXJXaXW.O..XnXnXMXcX2.2.E.iXaXiXiX+.dXJXnXnX#.E.iXuXuX+.U 6.' w.U w.7...+.",
"HXHXrXrX9XtXqXwX0XqXtX0X0X0XqXrXrXwXrXtXrXtXrXqXtXrXwXwX8X8XfXS./ 9X9X{.JXG./ 4X0X[.bX).F.5X0X5XoX}.Y B.tXW.5X6XF %.qX|.[.wXC.G.5X8X8XfXS.| tXxX|.JXS.W 4X9XW.vXF.W.5X5X6XqXfXrXfXrXrXrXbXUXbXbXbXfXfXbXvXfXfXfXfXtXtX9XfXKX@   BX&X&X8.q 6.q 8.U U 0.q ' 6.8.m.I 9.9     C.gX!.Y.....K.aXC..XgXgXgXnXUXnXaXJX2XgXUXUXQ.Q.UXLXgXQ.aXaXgXgXnXnXUXgX.X!.e.q.C B U w.&X.X.XaXX   g gXgXLXUXV ^ O.] ;.X.@...w.] V @.o...#.@.O.gXaXgXE.E.aXaXaXQ.!.3.H @.C.+.,...W.@.^ +.+.+. ...3..XiXiXaXpX+.Q.gXfXgX+.o....... .U 8.U w.U w.7.@.+.",
"HXHXwX0XwXwXwXwXwXwX0X0X0X0XsXwXqXsXwX8XwX8XwXwXwX0XwX8XwXdXvXH._ 1X XT.sXS.( ,X XT.xX).F.5X0X5X1X}.D B.0XW.5XdXQ } 6X|.`.dX1.G.9X8X6XsXB.E ,XXXH.xXS.W [.,XI.vXI.G.5X6X6X5X6X5X6X0X5X0X9XqXrXwXwX6XwXqX0X0XwX0X0X5XwX5XfXJXo   9.yXtXK.P 6.' U U I 0.U U U w.&X0.9.#     O.Q.2XW.+.X.] O.C.&XuXMXgXgXgXgXaXgXaXnXnXnXaX2XMXnXMX2XaXaXgXUXgXUXLXiX<.q.] B B ] U @.W.gXQ.aXX . < iXaXMXgX~ 8.J.| B.@.@.U w.] V ..H C ..U g V H C C 2.aXaXaXQ.E.3.H V C H l l !.O.- - - ; ; J !..XaXiXiXpXo.C @...^ g  ...C 1 1 B ] U K.U 7.^ ^ C.",
"HXHXwX8XwX5XwXwXwXsXwX6X6X0X0XfXsXrXwXsXsX8XwXwXwXwXwX8X8XwXxXB.{ 9X5X|.vX,.( 3X X`.xXW.I.5X6X6X X}.Z B.wX'.5X6XQ &.wX].`.jXS.I.5X8X8XsXC.Q XXoX(.vXC.G ,X5X).xXG.I.3X0XOX6X6X6X6X0X6XwXsXsXsXsXsX6XsXwXwX0XsXwX6X6X8X0XvXHXo   $X$X2X2X] I 6.U q 0.6.I B ^ &XVXI m.6     ^ 2X2XC...O.^ B ^ +.Y.gXUXKXnXfXaXaXiXgXnXgXaXaXgXgXUXQ.aX2XaXnXaXaXQ.C.^ U I B @.7.U ] &XfXgXE.X   - R.!.Q.aXE 8.J.y.C.] @.B q.] U +.2.+.+.+.C g 1 1 g E.iXaXaXuXE.3.Y.,.,.W.o.Y..XY.2.+.T.+.+.+.Y.Q.iXiXiXaXo.- 0 0 0 C @.+..... .C 7.U w.I U ] ^ Y.",
"KXbXjX8X8XoX6X8X8X8X8X8X6X6X5XwXjXjX7XwX8X8X6XsX6X6X6X0X0XwXsX;.( 5X6X`.jX>.Q 3X.X_.xX`.I.5X6X5X5X}.D A.8X).+X8XQ } 5X|.(.jXS.~.9X6X7XxX>.F 7XXX).vXS.D ,XoX).xXG.G.5X5X5XOX8X8X0X6X9X8XwXsXsXfXwX5XwXwXwXwXsX8X5X5X8X7XvXHX@   j.%XK.aXw.I I 8.' I 6.U U w.&Xw.0.VX7     ^ fXQ.C.^ ^ q.^ B V ^ w.!.&XaXe.2XQ.Q.aXgXUXMXLXUXMXaXe.&X&Xw.&Xw.w.U I 0 0 7.q.] U ] w.&XaXnXW.X   g aX,.H.2XQ 7.%Xy.C.@.@.B 8.7.^ uXaX.X.X2XQ.Q.uXuXuXuXiXiXiXQ.E.3.3.E.!.gX4.uXuXE.!.#.pX,.E.,.Y.iXiXiXuXuXuXe.e.&X!.K.Q.Q.#.uX2...q.' 8.I U @.] Y.",
"JXmXjX8X8X+X+XdXcXdXjXOXdX8XjX8XzXzXjX8X8XOX8X8XsX8X6XsX0XwXxX>.` +XOX_.jX>.Q oX+X_.xXG.G.9X0X1XoX|.D A.OX_.8X8XQ >.cX].].jXC.~.0X7X8XsX:.F XX+X_.xXS.W XX8X).cXG.F.3X5X5X+X8XOX6X8X6X6X+XcXxXsXsXOX8X7X+X+XOX6XoXOX7XoXxXmXo   BX%XK.aXY.U 6.U U 8.6.U w.2XUXw.6.FX7     O.nX.XC.O.V ] C.q.B g U ] ] w.q.w.e.w.K.Q.&XaXaXw.&Xw.q.q.q.U P B B 0 0 I U &XyX@.V B ] &XgXgXaXX   g gX2XaXfXE ' u.7.K.@.@.C U 8.] aXaXQ.iXQ.2XaXiXhXuXuXiXaXiX.X!.Y.2.E.3.aX2.E.uXE.3.#.aX+.2.Y.Y.Q.iXiXhXiXuXuXaXaXiX2XQ.Q.uXuXuX..] I I 0.R q.^ K.",
"bXcX+X+X+X+X_.].].+X].+X+X@X@X+X+X+XpXzXdX+X+X+XOXoXwXwXsXsXxX-.S <._.1.+X-.S (.).1.6X(.F.5X6XOXoX|.l *._.1._.8XK ( ].<.H.jX<.~.0X5X0XxX>.A ].].H.jX<.S (.].T.wXI.G.3X5XoX].zX+X+X+XOXcXOXjX8X8XdXzXOX+XzXzXzXzX+X8XjXOXxXmXo   $X8.K.W.W.' I 6.q 8.U 8.e.UXUXVX6.VX0     >.gXaXY.U V @.Q.U.U U 0 7 0 0 I U I B P U U I I q U B I 0 0 I 0 t 0 I 7.K.w.K.fX!.@.B U W.gXnXLXX . < gXgXnXdX~ V.*XL.K.@.@.B U U ] iXaXR.iX.X.XiXiXpXuXuXiXpXiX.X!.!.2.3.Y.gX2.3.uXE.3.#.gX2.Y.!.2.uXiXaXaXiXuX!.uXaXuXuX!.R.!.uXe...q.0.I 0.I C.^ !.",
"<.<.J J J =.K K K J J J =.J S J J K K J J S K K S J qXwXwXwXxXX.* < l , S.=.* l K l <.`.P.1X6X6X6X|.a a S S G 6Xl > K K l ).H.~.5X6X5XxX*.* l K a G.:.& F _ J ).I.F.5XoXoX1.*.=.*.=.<._.<.<.<.S.<.<.<.1.*.=.=.1.<.)._._.+XdXo   $Xk.K.W.Y.' I 8.6.U U q.&XUX2Xw.I VX0     C.gX2XO.V @.W.fXq.] Z.w.8.B B t 0 7 I t 0 8 I 8 8 0 8 0 8 I 0 B 8.8.%XJ.w.K.!.1X2X+.] ] K.gXgXMXX   - gXiXhXgX) yXHXtXW...@.B 6.8.^ .XaXE.uXR.iXaXpXuXuXuXiXiXpX.XE.2.2.!.Y.dX2.E.uX3.3.#.pXY.T.Y.Y.iXiXaXiXiXuXuXiXuXuXuX3.uXuXuXuXU q.6.0.0.L w.U W.",
"Q Q g 0 N V - f N n n l l < , F S S , > > , a < , Z jXqXrXqXsX-.j j k f A.>.& h x j %.{.F.7X6X5X5X}.j f b k Z 5Xn > h l j F.F.~.6X6X5XsX-., , f : A.A.f %.H.<.).F.F.5X5X6XK , , , l < K < F :.H.1.K G , , < , j l K K K J J X   j.k.K.&XK.7.I 6.I U 8.w.yXUXyXw.6.m.5     C.LXW.} ^ C.aXdXO.] O.8.w.w.w.I P U I z c P I I U U 6.U 8.w.q.w.w.w.8.0 ] K.2X2XgXT.@.^ K.aXnXMXX   - iXY.3.iX] eXUXfX!.H ^ B B 6.C uXaXuXuX3.uXiXaXaXQ.R.iXiXiXiXE.Y.2.!.T.fXW.T.iX!.2.,.2X!.C.!.Y.uXiXiXiXiXuXQ.aXiXiXuX3.uXE.uXE.^ 7.6.0.u I w.U K.",
"U.U.| 7.7.q.v x T ~ M N A , j Y A A h : % f A b x ( kXrXwXwXkX-.j x c h V.:., v A c A.~.F.5X5XoX1X].v m Z N W 9Xn w m A c D.H./.8X5X6XvX-.a x h s F.S.h Z.oXXXoXG.F.5X5X5XQ j A n D , a , ( (.5X'.K k , , f s j N M N N V N .   %Xk.%XyXW.q.8.I I 8.8.e.2XUX2Xm.6.VX$     O.gX!.@.^ Y.nX.X!.C.U 0 ' 8.w.q.w.w.' J.K.K.K.&X%XK.w.K.q.&X&Xw.] @.U U w.W.aXfXgXaX+.@.!.2XLXgXX   < uX.XiX2X^ &XDX&XU...H U 8.6.@.uXuXuXuXuXuXiXaXgXW.Q.iXiXiXiXE.Y.O.^ q.W.O.@.Q.Y...} K.@.^ +.Y.R.iXiXiXiXQ.Q.aXaXiXuXE.uXuXiXuX@.q.6.0.9.I e.U K.",
"HXHXtXtXtXfX/ c T ~ Z N M , d Z A Z s : % r m x x T tXrXwXwXsXO.j x x s V.:.: x A x ;.[.F.5X0XoX1X].l b A b E 5Xn w m m x F.S.~.8X8X8XxX=.f x h r Z.S.j ;.].].+XF.F.4X9X5X) D A.I.B.a a j ( I.oX XC k , : x r r y.U.U.K.<XDX=   k.k.%XyX&Xw.q.I I 8.w.&X2XUXyXw.6.VX3     ,.aXW.X.O.&XgXaX.X+.] U U 8.@.W.W.@.w.w.U g U U B U @.W.@.K.2X+.U U V U q.K.UXaXUXgXQ.e.C.dXMXgXX   - pXcXLXgXU P 8.V ,...^ ] J.8.^ !.!.2.uX!.,.T.W.K.V.!.aXiXiXuXE.Y.V 0 B ' U M C.O.g I ] U U ^ Y.E.uXiXiXuXQ.!.&XQ.Q.E.3.iXQ.aXuX@.q.6.8.$X~ w.U &X",
"HXKXrXqXtXfX} N ' ~ ~ n n f a m A A j & $ : x x x T tXwX6X0XsXX.a h x r V.B.- h b r :.`.G.9X5X6X6X|.k h A b Z 3Xn w c c x A.A.(.9X5X6XxX} f x h r B.S.a %._.<.zXG.D.2X3X6X) W P.}.G.a a s ( F.{._.S j : r x t : L.kXtX9XrXKX=   k.k.%XyXyXw.q.I I 9.w.%X&XaX&Xw.6.VX3     C.fX!.O.!.aXgXaXQ.O.^ z I U O.<X!.w.K.w.U 0 B U 0 U @.Q.C.K.aX!.^ H B B ] C.fXfXgXHXaXC.+.gXnXgXX   - dXgXLXaXB $ * * H ^ ^ ! ;X7.B .. .o.#...n ] ] ' V C.aXiXiXiXE.Y.U ' 8.8.7.] K.+.L 8.8.8.' ] W.Q.uXuXiXuXw.U ] ] ] U ^ +.@.+.o.C 8.6.w.BXE 2.I w.",
"KXbX8X7X6XxXX.c ' U ! l N , p m b b a % : % x s r T kX7X8X8XwXX., s h w A.:.& f j r :.{.D.9X6X6X6X|.a f b j A 3XM 7 z x c Z.S.~.9X7XdXxX_ 6 d x r Z.<.: ( >.=.).I.F.,X5X0X( D y.F.=.a j r T &.S.H.l k , j R [ / U.rX5X3XwXJXo   m.m.&XyX&Xw.w.9.I 8.w.&X&X2XVXw.6.VX* .   C.nXC.O.2XgXaXgXW.q.U 0 I ] C.2XY.K.Q.C.^ U P P I U w.&XY.Y.aX.XO.] U U 7.C.2XUXaXnXgXT.@.gXgXnXX   - T.W.Q.Q.] U ^ l ^ H ^ B u.8.0 ^ H H ..^ B 8.8.7.U D.aXaXiX.XE.Y.U ' k.8.u.8.K.w.I k.8.8.8.q.W.W.R.uXuXiXY.U ' 8.' U V ) H C C g q.6.8.$XP >.n O.",
"HXmX7XzXOXcXO.P [ ' ' v n p s Z b b a % % w P c c ! kXqX6XwXvX_ f x h r A.B.6 x b r y.^.G.9XwX6X5X].k x b z b ,XV z ' ' T I.A.~.8X8X6XfX` w P N c Z.S.f &.H.H._.G.F.5X X5X^ Y A.~.>., j r W %.~.T.l d 7 c [ U./.}.6X6X5XrXKXo   w.w.m.&X2Xe.8.q I 8.&X&X&XUXw.w.9.VX6     +.gXY.C.2XUX2XgXW.w.U P ] q.Q.0X!.!.2X!.@.B n B U ] !.&X&XK.2XQ.C.U B U @.Y.&XfX2XHXnXaXq.aXnXaXX   * @.+.2.Q.aX2XuXT.+.U ~ z L T U e.+.+.Y.O.N 8.8.k.[ K.aXaXiXiXE.Y.U 6.8.k.k.7.K.w.I k.8.k.8.| !.!.E.uXuXiXW.I 8.9.8.P ] +.o. .o.C 8.8.8.6.7 J g w.",
"JXmX+X+X+XdX=.! 7.[ ] v n f d m m M f : % e [ 8.[ { tXwX8X0XxX=.a x x s A.:.p x c z N.^.I.9XwX6XoX|.k M T Y W 3XE ! [ | [ I.S.~.9X8XdXsX) f P P c L.F.h %.].].oXG.H.5X5X5X_ ( P.jX(.< j r *.F.3XoXn h w T A.4X4X1X6XOX+XvXJX@   m.9.VXyX2XC.P U U 8.&X&XUXaX&Xm.9.VX5     C.gXO.&XgXgX2X2X2Xw.~ B U K.!.fX!.2X&XW.@.U C V U q.G.&X2XK.aX2XW.@.g B ] w.2X2X2XfXgXUXe.&XLXfX.   = e.gXMXhXhXhXpX_.C.^ ^ 0 + 0 7.&X2XQ.2XK.P 8.u.u.~ K.pXiXiXuXY.T.V U u.u.7.7.K.C.I k.k.8.7.' 3.uXR.R.uXiX!.R 8.k.k.' ;.Q.Y.uXE...@.6.z 9 7 -.B C.",
"(.(.1.1.=.,.F ' 7.| | n V f x T Y P d 6 6 r [ | 7.y.rXwXsXwXjXO.j m P b Z.:.d m P P A.`.F.6X6X6X5X|.v ~ | | | 3XE T | | [ I.B.(.5X6XOXsX_ f P N c F.S.l &.].].XXI.F.,X5X0X` ( /.7X(., r r W L.XX].S j w T y.{.{.].+XOX+XcXmXo   w.m.w.yX2XK.~ P 6.t.&X&X&XyXw.m.9.VX%     C.2Xq.Q.UXfX2XaX2X+.P 0 ] W.W.2XK.yX2X2X@.X.2.^ U B.'.2XyXW.tXQ.2Xw.B 0 q.K.2XaXfXaXUXUX2X2XgXgXX   - +.#.!.R.uXE.E.E.Y.V ] U 7 B ] Q.aXR.iXW.N R R R U C.aXiXiXuXE.Y.V ' J.u.J.V.w.+.P J.u.J.V...2.3.R.@XuXiXW.U 7.8.u.! >.Q.E.iXiX..@.U I 8 I q.P C.",
"G F k , g k p ' ' ' / v P r z ' ~ ' x 3 5 7 8.| [ V.rXrX8XsXfX} N ' | [ U.B.B ' 7.[ L.`.I.6X0X6X5X|.v / | | } 2XD Y | | [ ^.:.G.qXwX5XsX) d P P P U.S.h ;.).`.}.W.G.3X6X0X) Q D.].C.a d d ! A._._.K v f T N.{.].*.J J J ` =.X   m.m.w.DX2XK.] P P 7.&X!.&XyXw.w.6.VX5     Y.2XY.aXUX2XaXyX2X+.U V w.&XQ.2X&XUXQ.2Xo.3.NX..' C..X2XUX&X2XQ.aXW.U B O.&X&XaXUX2XaXUXaXQ.aXUXX   - #.#.e.e.#.+...T.+.g @.] U q.] Q.iXuXiXY.E L.J.J.[ C.aXiXiXuXE.3.^ U.HXGXGX2XT.w.7.DXDXDXDXe.Y.3.R.uXuXpX3.Q %Xk.%X/ O.Q.#.E.uX..] U 7.8.I w.I @.",
"{ | P N U E M P ' ' / ' ] E P ' ' ! P P L z P ~ P / rX0XwX0XfX_ f T E ! W.V.s P ' R L.W.G.9X0X6X X|.v P ' E / ,XM c ' T P I.:.G.wX5X6XsX_ 6 N P P L.S.f / O.X.I.`.I.3XoX0X/ n ~ ` Q B x r N W ( ) d g 7 x ~ / *.A , a j k k .   9.w.w.yXaXW.q.P I q.&X&X2XyX&X9.6.VX$     +.aXW.2XaXfX2XaX2XO.U U K.Q.W.aXQ.&XuXQ.+.2.pX..@.C..X&X2X2XaX2XaXQ.@.U @.K.aX2XUX2XUXaX2X&XaX2XX   @ #.hXMXgXgXaXiXY.H 0 @.U q.q.] aXiXuXuXH.&.HXHXGXK.C.aXuXiXuXE.Y.D U.HXGXHXtXY.,.w.KXHXHXHXK.+.!.@XuXuXuX!.O.DXDXDXB.+.uXuXuXuX..U 8.J.8.' &XB V ",
"HXDXtXyX4XyX<X<X<X<X*X4XyXtX<X*X<X<X<XyXyXyX<XyX<X4XbXrXsXwXvX:./ *X&XU.bXI.T L.U.J.rX[.I.0XwX1X1X1XE | [.V.U.vXQ ' %XJ.P.tX;.~.0X0XdXbXV.Y <XU.J.HXU.M Z.U.:.6X[.F.oX5X9XC.| %.%.O.q.7.' ' [ { ] ] 7.' ! ~ ~ ~ | | { 7.V.J.X   k.j.m.DXfX&XV.U 8.w.&X2X2XDXw.w.9.VX* .   q.2XQ.aX2XaXfXfXW.q.U ~ W.&XaXaX2XQ.&X&X!.2.W...O.!.2X!.aX2XaXaX2X!.e.@.q.&XaXUX2X2XaXyXUX&XyX!.X   - 2.3.E.!.#.!.R.^ H B ] U 7.@.@.iXuXuXiX3.| tXGXKXW.e.iXiXiXiXE.3.^ W.HXDXDX5X!.C.q.GXUXUXUXC.2.!.R.uXiXuX!.q.KXHXKX^.+..XuXuXuX..U ] q.w.U &XI U ",
"KXKXHXvXrXrXkXkXrXvXkXfXrXbXfXkXtXrXbXtXbXHXbXHXHXHXbXsXsXsXvXA.&.HXkX5XJXG.| tXvX1XJX|.G.0XsX6X5X6X) U.HX<XvXbX) N.HX2XqXbX>.{.bXfXsXbXC.| kXkX,XKX[./ 9XbX,XJX1XG. X5X5X4X2X9X9X5X9XrXtXyXtXtX0XtXDXfXtXrXrXrXrXtXtX4XDXKXo   j.9.w.yX2X2XV.U U w.yX&XUXyXVXm.6.m.5 .   @.Q.tX2X&XUXyXaXW.@.U w.Q.2X2X2XaX2X2XaXe.o.O.^ >.2XaX&XUXaXUX2X&X&X!.O.q.e.Q.UX2X2X2XUXaXgXaXK..   g aX#.+.+.#.e.+...@.H ] U ] 7.V +.2.#.2.X.O.UXHXGXK.!.pXiXiXuX!.3.^ ^ Z.K.K.C.+.C.~ &X<X%X&XO.C.E.@XuXuXuXT.] DXUXDX&X..+.e.#.+.H @.8.7.w.I w.U @.",
"HXHXwXqXwX5X8XwXrX9X0XwXwX0XwXwXrXwXwX8X7XjXwXwXwXrXsXwXwXsXfX*./ 9X,X~.xX>.W XX1X`.xX`.I.wXsX6X5X].D A.xX`.oXxX( -.wX(.|.wX:.}.bXbXsXvX;.Q ,XoXG.vXG.D {.wX`.vX'.T.5X6XoX5X5X9X9X0X6X9X9X9XwXqX0X5X9X9X9X9X6X5X2X9X9X5XrXKX=   9.k.8.eXtX2Xw.P 8.w.yX2XUXyXw.9.9.m.6     X.2X2XaX2X2XaX2XW.+.] K.&XQ.aXQ.aX&XfX2XQ.o.@.^ K.Q.fX2XaX2XaXyXaX2XW.Y.+.W.2XUX2X&X2XUXaXUXUXV..   g gXhXgXhXgX!.+.@.e.C @.U ] @.V H  . ...C V w.J.K.^ ,.aXiXiXQ.!.Y.^ B B B k g @.C.0 - p 0 - V 2.!.Q.uXuXuXE...K.K.I.O.C H H C C 1 @.8.7.w.B K.U ^ ",
"HXJXxXwXwXqXwXwXwXwXwXwXwXwXwXsXfXsXxX8X8XwXwXwXwXsXwXsXwXwXjX-.[ 9XoX`.xX1.W ,X6X'.jX`.I.7X6X6X X}.G B.6X`.}.8XF &.8XW.`.OX:.}.bXxXwXjXO./ 6X].(.xXS.E {.6X).8XW.I.5X5X1X5X6X8X5X5X6X1X5X5XwX8X6X5X6X5X5X5X0X5X5X5X5X1XvXJX@   $X9.8.<X2X&XK.P ] &X&XyXyXyXm.w.6.BX3     ] 2X2XgX&X2XtX2XW.q.w.!.2X&XyX&XaXQ.aX&XQ.w.^ @.W.&XfXQ.2XaXyX2X2XaXW.K.O.W.2XaX&XaX2XUXaXUXDX8.    k hXMXLXMXhXiXY.U w.U @.U | O.V ^ .. .o.H - - - - - ,.iXiXuXuX3.3.o.O.^ C.....E.Q.@.^ O.+.^ O.Y.,.3.uXuXuX!.g - - < - g  ...V C 1 ] 8.7.w.B K.B @.",
"JXbXxXwXfX0X0XwXsXsXwXwX9XwXwXsXsXfXwXwX7XwXwXwX0XsX0XwX0X0XsX;./ qX6X|.xX:.Q ,X6X|.xXT.~.9XwX6X5X}.G A.wXW.XX8XQ ;.wX_.].8X1.|.8X6XOXxX*.Q qXoX`.vXD.W 3X6X).xX`.G.3X7X6X6XdXwXwX0X0X5X6XwXsXjX8X6X6X8XqXqXwX0X9X0X0X1XfXJXo   9.9.u.yXyX&XK.U U &X&XyXUXyXw.9.9.VX3     U DX2XaX2X2XyXQ.W.@.Y.2XfXQ.aX2X2XQ.aXQ.Q.w.@.q.&X2XaX&X2XaX2XaX2XaX&XW.+.!.aX2XaX2X2X2XfXaX&X' .   g pXMXLXMXgXQ.+.V e.U ] U | @.V Y.e.!.E.Y...@.@.@.^ Y.iXuXuXQ.Y.3.Y.Q.W.fXT.T..XE.E.Y.R..X!.R.2.+.!.uXuXE.!.H V H K V ..2.e.Y.#...@.6.7.w.B J.U @.",
"HXmX8X6X6X6X6X8XwXdX8X8X6XOXwXwXwXsX8X8X8X+X7XjXsX6XsX0XsXsXdX-.) wX+X_.xX<.Q 3X6X'.xX`.G.wXwX6XaX}.D B.sX_.XXdXQ ;.wX'.XX7X:.`.wX6X8XxX*.Q oXoX).xXS.F }.8X_.xX).F.5X5X5X2X8X8X8X6X6X6X6XwXwXfX6X5X6X6X6X0X0X0X5XwXrX1XvXJXo   k.l.8.<XfX2XU.] 8.w.w.&XyX&Xw.9.9.VX3     7.UXyX2XfX2XQ.2XW.w.!.&X2X2XUX2X2X!.2X&X2Xe.@.e.2X2XQ.!.Q.UX2XfX2XaXW.Q.w.K.tX2XgXQ.Q.2XUX&Xw.6..   g aXhXMXgXgX!.@.U @.U ..U ^ ] ^ !.R.uXR.Q.Q.2X.XQ.T.!.R.uXQ.Q.3.2.3.Q.C.aXT.3.pXE.E.,.R.uX2.3.2.2.E.E.3.uX3.2.W.Q.E.T.2.E.Q.Q.uXe.w.U 8.K.I K.U ^ ",
"JXmXcXcXjXzXOXxXxX8XcXzXpX+XdXzXdXzXzXzXjX+XzXcXcX8XwXwXwXsXsX_ ( oX+X(.jX<.W /.].T.sX_.I.wXwX0X7X].G >.jX_.+XdXF -.cX].}.8X:.[.qX6X0XsX*.F +X+X_.vXS.G }.8X].xX`.F.3X5XoX+XzXjXzX+X+XzX+XjXzXjX6X+XzX+XOXjXjXzXXX+X7X+XsXmX@   k.l.8.&XUXyXw.7.t.e.&X&XDX%X%X9.9.m.5     ] yXyX2XaXUXQ.2XK.w.!.W.2X2XaXaXfX2XaX&X2Xe.@.e.2XQ.Q.Q.&XgX2XaX2X2X&XQ.e.&X&XQ.aX2X2XyXUX&Xq.I . . z pXaXiXuXpX!.X.U O.^ U C ^ U @.Q.R.iX3.E.R.iXiX.XQ.Y.iXiXuXQ.!.3.3.iX!.aXuX3.iXE.3.2.uXpX2.3.2.!.E.Q.E.E.3.#.Q.Q.iX.X3.3.Q.E.@XQ.O.8.' w.6.w.8.U ",
"(.].H.3.<._.>.:.:.1.1.<.<.1.=.1.1.<.<.1.<.=.=.=.=.H.wXrXwXwXsX` , ` _ F _.:.: *.=.` `.`.G.5XwX6X7X].l K 1.J >.8XS b <.=.>.oXS.{.0X0X6XxX} b H.(.=.+X<.h A.G.=.].~.G.,X5XoX_.`.]._._.+X+X_._.].XX].+XjX+X].].].@X].+X+X@XOXmXo   k.9.6.%XyX2X&X8.w.VX&X&XyX%Xw.8.9.m.6     ' yXaXQ.yXfXK.&X!.!.&X&XaXaXyXfX2XaX2X&XaX&Xw.K.2X2X2XuX&XfX2X2X&XfX&XW.Q.!.2X2X2XaXe.aX&Xw.U q X   g aXgXhXhXpXQ.O.V w...U V ] ^ ] 2X@XuXuXE.R.uXiXiXQ.R.pXiXiXQ.3.3.2.uXY.gXuX3.iXR.E.3.uXuX#.uX2.!.Q.Q.Q.E.E.!.!.uX.XQ.3.!.E.R.R.uXo.U 6.w.U q.U ..",
"F G g , < K , / :.%._ S K < , l < *.*.< < , F S G H.wXvXsX0XwX` h y.~._.XX1.c &.D.A.{.|.I.qXwX6X6X Xj , l l A XXl f ` ` ` ].S.|.8X5XwXvX` & G ` J ).B.: ( >.-.G.I.H.5X5X6X` F *.>.X.F *.K K K J K J *.S l K K G J J ` F =.>.X   d.l.8.%XUX&X&Xq.8.yX&XyXyXw.8.9.9.m.*     I ZX&X2XaXaX&XQ.!.K.Q.&XQ.yX2XaXQ.aXaXaXaXe.e.W.&XfX2XQ.!.2XQ.2X&XaXaX2XQ.2X&XyX2XaX2X&Xe.8.6.0..   g hXhXMXNXiX!.O.Q e.@...U ] ^ ] &XE.iXuXuXuXaXaXiXR.E.pXiXQ.Q.3.3.!..XQ.gXuX#.uXuXE.!.uXpXY.T.2.Y.Q.Q.uXuXE.E.!.uXuXuX3.3.E.R.3.uX+.' 8.J.I w.U ..",
"7.&.N x x b r L.bXvXjXJ S < h A j *.=., > : / A D B.wXsXfXwXsX` ! *XkXvXbX>.T /.HXbXvX`.G.qXwX8X6X Xk , l a b {.G A >.(.H.}.A.{.5X9XwXxX) k %.|.`.}.B.m A.rXqX7XP.F.5X6X6X` ( 3XqX(.< < < < , S J < < > > < , a , & - p k n .   k.9.6.%XUX2XZXt.w.ZXyX&XDX&X8.8.9.m.$ .   I w.&XgXaX2XaX2XW.!.W.aXW.2X2X&XY.2X&XaX2X&X&XK.2XgXQ.&Xe.2X2XaX2XaX2X2XfXaX2X2X2X2XQ.w.@.0 0.6.X   a aXMXMXNXaXC.} ] w.@.C ..^ ~ ] Q..XiXuXE.!.uXaXuXR.3.uXiXQ.E.Y.3.2.E.3.gXuX3.R.uX!.2.uXuX4.2.Y.Y.E.E.uXuXuX#.E.iXuXuX3.2.E.pX3.uX+.U 8.w.I 7.V @.",
"GXUX4XyX<X<X! Z.kXkXvXJ n f b A b m n p % r Y A b / rXwXfXwXsX` ! /.jXjXbX:.T u.lXkXbX].~.qXwXdX6X].n a x j m 3XG A N.~._.}.S.|.7XqX0XxX/ A N.}.].5X>.Z /.jXkXjXI.H.3X9X0X_ &.4XbX Xg , a b s A ( l h w w j j j ~ [ ' ' V.L.X   j.k.8.%XUX&X&Xw.w.&X&XyXUXw.t.9.9.m.$     z 8.e.2XaX2X2X2XW.W.W.aX2XUX!.&XY.Q.e.aX2XiX&XQ.2XaX&X!.!.fX2XaXaX&XaXaXUX2X2X2XaX!.w.U q.U I 6.. . 0 uXuX3.E.iXT.W.W.&X+.C ^ U ] ] !.uXiXuX3.!.2XiXQ.T.3.uXuX@XE.Y.Y. .$.$.$.$.$.#.E.$.$.5.$.$.$.4.4.uXE.uXuXE.Y.R.iXuXuX!.3.!.uXuXuX+.U 8.w.P w.U w.",
"HXJXkXtXkXbX;.L.HXbXbXK l w b A m v a w : r T T W { rXrXwXwXsX` ( *XjXbXjX:.W /.jXbXkX_.G.qXwX6X6X'.N f c z m >XF Z A.].`.XXB.|.6X7XwXfX_ A A._.].oX-.Z A.jXjXjXG.G.3X9X6X} &.7XxX].< k j b s m Z h l : : s f s U.tXyX4XDXKX=   k.9.9.$XDXyX&Xw.w.VXyXyXyXVX9.9.9.m.$     8 6.w.w.Q.2XQ.aX!.2X2XaXyXfXQ.aX!.&XC.uX2X&X2XfX2X2X!.&XQ.2XUX2X&XQ.2X&XgXfXtX&X&Xw.U 0 w.w.I I . . 0 Q. . .2..XQ.aXaXQ.e.V C U ^ U !.R.iXuXuXY.K.W.!.,.2.iXuXR.R.Y.2.4.4.5.5.5.5.4.R.$.5.5.5.5.4.4.3.3.E.uXE.E.2.!.E.E.e.#.Y.Q.iX3.R.,.U ' 7.0 w.V 2.",
"KXHXqXjXwXvX&.&.XXXXXXS a : x T P P d 0 % r y.Z.Z.F.qXwX0X8XsX` T <._._.zX:.A y.(.XXjX_.I.wXwX6X6X].l r c c c {.A A &.F.H. XD.{.7X5X8XvX/ h &.(.(.XX;.m A.XXXX+X~.H.5X5X8X_ / /.+XH., j j c r c b h h : : r w f U.kXwX5XbXKX@   $X9.8.%XSXDX&Xw.8.r.yXyXyXw.q.9.9.m.#   . 8 6.e...+.Q.&X2X&XaX&X2XaXUX2X2X!.2X+.2XQ.&X2XaX2X2X!.aX&X&XaX&X2X2X&X!.2XaXQ.q.@.V B U K.yX0.0..   0 aXgXnXgXT.Y.!.Y.!.+.B U U ] U +.!.aXiX3.C V U H V +.iXiXR.E.!.3. .5.5.5.5.5.5.uX$.5.5.5.5.5.$.5.!.E.!.uXE. .#.3.#.#.o.2.uXiXE.R.Y.U ] q.B q.v Y.",
"HXmXsXqXjXxX&.&.{.{.].l : $ Y L.L.I.Q : % r L.<X,X[.qXwX8X8XsX` A y./._.+X:.A y.(.XXXX{.`.qXwX8X8X].n P y.y.y.3XG x &.>.:.|.S.}.8XwX6XxX` j &.:.:.].;.x &.F.`.}.G.D.oX5X8X{ ( F.).:., j r T | y.%.v h w w j r f F.qX7X5XxXKXo   $X9.9.9.SXDX&XK.%X&X&XUXyXw.9.9.9.m.#   . 9 9.&XH @.q.!.2XaXaX&X2X2XyX2XyXQ.2XY.gX2XaXaXUX2X2X!.&XQ.Q.2X&X2Xe.e.q.w.O.^ V 0 0 B q.&XaX6.I .   0 gXMXLXaX+.2.2.+.+.K.V V C ] ] e.Q.aXiXE.B 0 B 0 < X.iXiX.XR.3.2.4.5.5.5.5.5.$.5.#.5.5.5.5.5.4.#.3.!.uXuXE.o.gXMXMXhX#.!.Q.iXuXuXe.U 7.O.B q.g T.",
"JXmXzXcXcXcX:.L.kXmXkXS : % [ kXkXmX>.: % z >XkXvXjX7X7X7X7XsXX.&./.bXcXcX%.*.u.jXmXjX{.~.7XwX5X0X|.D &.*XkXlX7XF m A.{.|. XC.{.wXqX6XsX_ Z Z.3X}. X:.Y L.tXjXqXI.F.3X9XwX_ { >XvXG., j d A.lXkX9Xv d p s z t j (.jXoX7XvXJXo   $X9.9.9.DXyXe.&Xw.yXyXyXyXw.I 9.9.m.9     I 8.2Xw.@.U o.e.&X!.!.&X&X&X&X&Xw.e.e.yX2X2X&X2XK.&X@.w.w.+.w.w.w.8.8.H U U 0 - 0 0 7.Q.&XaX6.u . . 0 gXgXgXaX.... .C C +...V V ^ ] Y..XaXaXuXB 0 U I d O.iXiXQ.Q.!.3.$.5.5.5.5.5.#.iX5.5.5.5.5.5.$.#.3.E.uXuXR.+.gXLXLXLX3.T.R.uXuXuXY.U 7.@.B q.0 Q.",
"bXcX+X].@XzX=.y.jXcXjXS : % R jXjXvX1., % c >XjXjX+X7XjXwXjXfX_ *.:XkXjXcX<.*./.jXbXcX_./.7XwXwX8X}.A &.>XkXjX7XF Y A.|.]. XS.{.0X6XsXsX_ Z L.oXoX6X:.T L.kXvXjXG.I.9XqXwXO.&.3XbX`.< j x Z.jXjX5Xl a , p s s f H.jX+XzXcXmXo   $X9.9.w.FXUXyXw.%X&X&XUXFXw.9.9.9.VX#     6.SX&X!.Y.C ^ ..@.@.w.w.w.w.w.w.q.q.8.q.q.8.I 7.U U B B I B N B B 0 0 0 B B 0 0 0 0 w.UX2X2X8.I .   0 2XQ.!.!.C C C C 1 @.^ C B U ^ Y..XpXgX!.B I I U N q.aXaX.XE.!.3.$.$.5.5.5.4.o.aX$.5.5.5.5.5.$.#.e.uXE.uXE.+.gXLXLXPX<.E.iXuXuXuXY.B q.@.B q.B !.",
":.1.J K G F A A.jXvXxXG f 7 / qXjXcX>.: r L >XjXcXjXwXwXjXsXsX_ *./.jXcXcX&.*.y.xXcXcX`.W.7XwX8X6X}.G &.XXxXjX+XQ W I.}.]. X:.}.wX5XwXvX*.T F.XXoX6X:.Y /.jXkXjXG.G.9XqXwX&.*.{.cX`.g d j Z.jXzX5Xl k 7 d x x h ` 1.1.=.<._.X   k.k.9.j.FXDX&Xw.&X&X&XUX&Xw.9.9.9.m.#     $XGX&XQ.e.V V 1 U C B I B I B I I I I B B 0 q I 0 I t q 8 I B 0 B t I B 0 U ..V B - K.UX2XaX8.0.X   0 Q.+.C.,.H o.,.Y...e.@.g B U ] 2.Q.iXaXuXB I I z f @.2XaXR.E.3.3.$.$.#.5.#. ...iX#.$.$.$.#.#.#.e.#.E.E.uXR.+.Q.gXhXaX=.E.R.iXuXR.w.B w.U U q.U Q.",
"W Z l j h j r &.F.(.H.M c r T P.(.].` r r t A.(.).`.rXjX8XsXsX` c &.(._.zX*.*.%._.].OX).~.6XwX8X6X|.S ! A.(.~.OXF m N.S.S. X<.{.wXwXwXdX/ A A.{.~.XXC.Y y.XXXX+X~.G.5XqXwX*.( A.(.B.M x s A.XXXXW.l B w P [ [ { b S , a S A X   k.9.9.w.DXDXyXw.w.&X&XyX&Xw.9.9.9.f.#   . VXIXQ.2Xe.V C B @.C B 0 0 0 0 0 B 0 I 8 u u 8 8 u 0 u u 0 8 0 z t 8 8 B 8.w.&X] B 0 &X2XaXaX8.6.X   - .XiXE.,.2.iXaX2.O.e.@.g V H ^ !.Y.iXiXuXB 8 I t z @.2XiXR.E.3.!.$.$.$.$.C C ^ iX$.$.$.$.$. .#.#.#.3.e.uXR...=.!.3.E. .,.E.uXE.R.w.V w.U U @.V Q.",
"L.K.7.y.y.V.| 7.%.>.} V.7.7.[ %.O.;.| { 7.! %.%.>.B.qXfXsXsXvX} m %.*.*.3X<.x &.-.} |.`.~.5X7X6X6X3XD T N.} :.5XW c 7.| &.,XA.}.wXwXwXvX) j { _ _ [.D.x | N.-.[.`.G.5X7XwXN.E ) ' ] ] ' c Y / ` / ] ] T ' | 7.| [ ] E P ] | X   9.m.9.m.yXDX&Xt.w.%XyXDX;Xw.q 9.9.VX@     ;XGX&X2Xe.0 g e.!.U U 0 I 0 9 0 I z 0 t 8 8 8 8 8 8 I B I I 0 0 B 9 0 6.w.&XUX;.B U w.2XUXgXw.9.X   & E.aXY.2.dXgXiX+.E.Q.^ g U C @.+.Y.uXiX!.I I 0.U P @.2X.XuX!.#.uX#.; $.#.......iXt.$. . . .C e.#.5.!.uXuXuX#.iXLXMXLX+.!.E.uXE.iXw.U w.B q...C uX",
"HXHXtXtX9XwXrXtXrXfXrXvXrXfXrX9X9X9XrXrXtX4XqX4X,X9XwXwXdXsXvX:.| tXqX{.JX/.&.4XvX3XJX`.~.7X8X6X5X0X| V.vX[.qXbX&.y.kX,X6XvX1.}.wX8X8XnXA./ 4X,X`.HXW.[ <X9XI.bX,XF.5X7XjXrXyXtX2X9XtX4X<X&X>X}.|.<X9X<X>XI.I.&X[.<X<X&XyXUX=   m.w.9.9.VXUXyXw.w.&XyXDX&X8.9.9.9.m.#     $XGX2XQ.w.- g 2XW.q.U I 0 0 U I 6.I I I u q 0 q u I U I 8.w.8.B 0 0 9 8.e.&XaXW.0 8.w.&XaXUXw.9.X   & .XE.E.gXMXR.Y..XdX!.C g U U ..+.Y.uXiX!.U I I U U O.iXiXE.uXuX2.e.$.1  .X.X...aX#.#.+.e. .C #.#.e.!.e.uXuX#.gXLXLXPXY.2.uXuXE.pX@.I q.B q.B V e.",
"KXHXkX7XwXwXrXrXrXfXwXwXqXwXfXrXwXkXsXfXfXkXkXkXvXkXkXwXwXwXvXO.{ tX7X}.bXH.W XX8X`.cX`.~.qX8X6X6X3X) V.fX}.wXbX} ;.vX}.6XsXB.{.qX8X8XvX;.| kXrX|.JXG.[ tXbX,XJX}.G.5X5XwXsXvXfXsXvXvXrXtXfXrXvXrX9X9XqXrXwXrXrXqXqXrX9XbXKX=   m.9.9.9.w.DXyXw.w.w.yXUX&X9.6.9.9.VX9     $XDXaX!.,.B ^ UXW.W.@.U @ I q.w.w.U 8.U U B 5 0 0 U w.8.U &Xw.B I 0 9 8.2XyXgX2XB U K.&X2XLXw.0.X . 0 E.4.iXnXpX3.iXpXaXo...C V C ^ 2.Y.Q.iXE.U I U U U @.iXiXuXE.uX#.e.C ; ; H  . .@X#.uXaXe.C C #.#.uXuXuXuXE.#.gXLXLXLX3.2.uXuXE.iX^ I q.0 e.B U #.",
"KXHXwXwXwXqXwXjXjXwX6X8X8X8XwXjXwXwXwXsXwXwXsXrXwXwXsXwXwXsXxX-.) 4XXX`.cX:.( 3X6X`.xX`.`.5XwX6X6X}.W ;.qX'.oXwX( %.wX`.`.wXC.}.8X7XwXsX_ ( 9XoX).vX:.D >X5X).vX`.G.5XwX6X6XwXwX8XOX5X5X0X0XqXwX0X2X5X9XqXwXrX7X5X9X7X7XvXKX=   $XVX9.w.VXDXDXw.w.&XyXDXyX8.9.9.9.VX# .   J.KX&X!.q.N q.nXQ.&X@.B 9 I U %Xw.] w.8.U 0 = * 0 8.w.w.q.w.e.C U - = q.yX2XgXdXU B w.Q.2XnXe.I X   - Y.T.gX.X2.uXhXR.E.@.@...V V ^ +.+.Q.iXE.B U U 8.U @.aXiXuXuXuX!.+. .; q +.E.2.E.3.hXgX+.1 ..#.e.e.e.e.uXE. .o.E.E..Xo.2.R.R.!.!.V ' q.0 q.0 @.#.",
"HXHXwXwXwX5XwXjXjXwX8X7X8X6XwXfXxXvXwXwXwXwXsXvXwXsXsXvXsXfXxX-.[ 9XoX`.bX1.` 5X6X'.fX).`.5XwX8X5X}.Q ;.wX`. XsX) &.wX].}.8XC.{.wX8X8XwX} ( 5XXX_.xX<.G ,X5X`.xX`.G.3XwX0X6X8X8X8X8X5X5X9XwXwXwX0X6X6X5XwXrXwXwXwX6X9X5XbXKXo   9.m.9.9.VXUXDXw.w.w.UXDX%X8.9.9.9.n.#     %XKXQ.,.O.d !.fX.XQ.@.B # B q.&Xq.] K.q.U B = = - @.q.w.q.w.K.~ U 0 @ q.2XaXaXdX>.0 q.&XaXnX&X8.X   & E.aXQ.Y.uXhXiXE.+.2.Q.@.V ^ U #.+.E.Q.T.- @ * 0 0 ..iXiXuXQ.E.!.,.O.B - C Y.2.T.X.W.O.- < 1.o.Y.!.!.!.E.uX..1 ; ; * - +.E.E.!.T.B ] U V O.V e.!.",
"HXmXsXwXwX6XwXjXwXsXwXwXwX6XwXxXwXwXwXwXwXwXwXxXwX8XwXfXxXfXvXO.) 7X.X].vX:./ 1XoX'.xX`.~.0X0XwX6XoXQ ;.8X_. XcX) _ 0X`.`.qXA.}.7X7X8XxX_ Q 5X].T.vX:.W {.8X_.vX`.G.5X9X9X6XwXwXwXwX8X5X8XwXwXwX6X6X6X6XwXwXsX6X6XwXwX5XbXJX@   i.m.9.9.VXDXDX&Xw.w.UXDX%X8.9.9.9.m.O     8.GX&XY.w.0 2XgX2X&X] U 0 U w.W.w.q.w.q.B B = 9 0 U w.w.w.J.K.] U B * q.W.yX2XgXY.0 K.&XgXUX&X8.X   - Q.Q.e.gXLXiX+.3.Q.Q.Q.C.^ ^ V e.Y.R.R.E.O.V.C.K.+.e.iXuXuXuXuX3.,.+.@.- * - g C.E 0 * * ^ +.+.3.!.!.E.uX!.e.@.@.@...X.!.E.2.Y.!.g q.B ] ^ ..W.W.",
"JXmXdX8X8X6X8XxXxXdXwXdXOXOXsXxXcXjXzXzX8XcX8XcXxXjXwXsXfXxXvX=.) jX+X].vX<.( 3XOX'.xX).`.wX6X6X6X}.F &.8X).oXOXQ *.dX_.].7XC.>X5X7XwXvX} Q oX+X(.xX:.Q XXOX_.vX`.G.3X5X1X5XdXdX8X7X5XoX+X8XjXOX8XOX8X6XdX8XjXjX+X8X8XwXbXmX=   m.9.9.9.w.DXUXw.t.&XDXDX%X9.9.9.9.VX#     u.KXK.W.w.B fXaX2XQ.] U & U K.K.w.O.w.7.0 0 0 5 8 7.w.w.C.w.w.O.V P 5 q.K.&X2XfX&XU e.Q.fXfX&X9.=   & Q.,.Q.LXMX+.,.Q.aX+.,.,.@.^ g +.!.T.E.Q.!.!.R.R.R.E.uXaXuXuXE.3.2.Y.C.V * o o C * X * C +.+.+.!.3.!.!.uXuX!.!.Q.Y.Y.Y.!.E.!.E.C.g q.B q.E +.Y.!.",
"bXmXdXcXcXcXOXcXcXcXcXcXcX+XcXcXcXzXzXzXzX+XzXOXOX5XwXsXsXsXxX*.F ].].H.jX<.G {. XS.8X'.~.5X6X6X6X}.S ` ).>.<.jXG K (.:.<.6XB.}.5X6XwXsX` D _.<.<.8X>.n H.`.<.8X[.H.,X5X X+X8X+X+X+XdXcX+X+XzXzX+X+XcXOX8X8X+X+XoXzXcX8XmXJXo   m.9.9.9.VXyXyXw.J.&XUXyX8.6.t.9.9.VX#     %XUXK.2X+.^ bX2X&XW.U B # ' &XK.w.w.w.q.B U U 0 B w.q.C.O.q.q.q.U P 3 8.w.&X&XaXaXq.&X2XfXgX&X8.=   6 T.Y.gXMXE.E.nXaX2.+.C.] Y...C @.W.T.Q.Q.E.!.E.R.E.!.Q.iXuXuXuX!.2.Y.,.+.C - o o @ ; H O.X.+.#.3.3.3.!.R.uX!.!.E.e.Y.Y.!.E.!.Q.@.V 7.B q.V !.w.W.",
"F._.1.1.1.>.` J =.` J J =.K S K J K *.=.*.F J *.F *.wXwXjX8XxX` > A K l H.-.: Z ( W W.`.~.5X0X5X5X}.< : G l S ].S > l A G `.S.,X9X5XwXsXQ & S S S {.&.> Z { J H.`.H.,X6XzX*.J *._ J =.=. .*.=.*._ 1.<.=.*.=.=.*.=.<.<.1.<._.X   w.m.9.9.m.&XSXyX%X&XUXyXw.9.9.9.i.VX9 .   %XSXY.2Xw.C.JXW.W.K.U B 7 ] K.w.] w.B.w.U U 8.z I w.@.K.@.q.O.q.U U & ] K.w.yXyXUXw.2XgXfXaX&X8.= . * ,..XLXE.E.gXgX!.+.aXY...K.^ ..H !.Y.!.E.!.!.Q.uXE.!.Q.aXuXuX3.E.2.2.+.!.!.@.U U H ..X.,.+.#.2.E.3.!.E.uXuXE.!.!.Y.C.!.uXuX#.Q.V U ] U ] U Q.@.2X",
"W G k g g f & v ) ;.O., , * > < j l , > > > b ( } A.qXwX8X6XdX_ : a j a :.%.c &.>XrXjX`.`.6X0X6XOX Xj , l h k |.Z : h D G (.D.{.5X0XwXxX` - p a W >X:.x [ A.{.}.`.D.5X5X7X` W (.,X<., , > < l j < l l , k &.A.:.K l n l n V .   m.9.9.9.w.VXyXw.%X&XDXyX9.9.9.9.9.n.#     u.yXW.2XT.Q.fXK.W.w.U U 0 J.q.w.] w.] w.@.U U 8 8.w.@.K.q.C.w.@.q.U 7 ] K.%X&X&X&Xw.&XUXfX2X&X8.X   & +.2XaX+.gXnX@X2.iXaX+.^ +.+...C e.C.T.Q.!.e.uXuXuX!.uXiXuXE.uX3.E.2.#.!.Y.e.!.!.C.+.X.o.e.#.3.E.uX#.2.E.E.!.!.3.2.+.#.!.!.#.E.B ] U ^ E X.C.] !.",
"y.O.' ~ ~ ' c [ /.rXqXn & & r c x A j w : t y.lXvXwXwX8X8XOXwX_ a h v v A.;.T u.qXHXbXW.`.0XwX6X6X].n v A b n {.D p v Z Z ~.H.{.0X5XwXwX` j x x &.4X:.W y.>XbXjX~.D.3X5X7X_ &.lXbX Xg , > A A h x n j , [ *XkXkX} E ~ E ] | X   m.m.9.9.w.VX&X&X&X&XDXZXw.9.9.m.9.n.5     w.&X2X2XW.<X&Xw.&Xw.' ' U K.q.K.q.C.@.w.] ] U 0 8.w.w.&XC.w.K.q.J.U B | J.U.yX&X&Xw.&XUXgX2XK.8.=   & C.e.Y.aXMX.X2.gXgXE...V ..!...C @.Y.!.uXuX!.Q.uXR.!.Q.aXuXR.E.uXE.3.+.!.Q.W.Q.e.Y.+.+.+.e.e.#.uXuX2.2.E.E.E.E.E.2.#.2.3.uX!.e.V O.B @.V C.^ ..+.",
"GXHX<X4X2X9X&.[ >XrXxXK & $ r b x m z : : j %.lXvXrX7XwX8X6X8XX.a x v z Z.;.! Z.lXbXbX`.I.wXwX6X2X].S A Z b m ,XD p b A Z /.S.}.6XwXwXxX) j c c &.3X&.T y.XXvXcX`.D.5X9X8X_ &.4XxX].a & : m c z x k l f &./.xXbX,X<X<X[.9XHX@   m.m.9.9.9.%XyX&X&X&XyX&X9.9.9.9.9.m.#     7.yX2X2XY.&XK.J.&Xw.] ] ] U.w.&XJ.K.q.w.@.U 8.t q.w.@.Q.C.w.K.] K.] B q.J.K.yX&XyXw.K.aXUXUXw.8.X   - w.w.aXMX.X3.iXNXdXY...^ U Q...U H Y.!.!.uX!.uXiXuX!.Q.iXpXuX3.E.uX3.+.Y.Q.!.!.uX!.+.+.+.#.e.e.uX!.2.2.E.E.E.3.3.!.#.!.3.e.E.O.^ ] P ] ^ !.^ ^ @.",
"HXKXwXwXwXvX*.( /.|.].S > * r c z b s p % s y./.oXoX7X0X8X7XdXX.s x x j L.N.T y./.zXjX(.F.wXwX6X5X.Xn m m v N {.D w c c N ^.D.}.8X7X8XjX*.t c t ! {.-.Z %./.zXjX).S.,X5X6X_ &.XXjX|.f : e T ! [ / h l j &./.7XOX0XsX0X9XbXKX@   VXVX9.6.8.w.&XyX&X&XyX%X9.9.9.9.9.m.#     ' yX2X&Xw.W.%XK.%XK.' ~ q.K.w.K.q.&Xq.w.q.] U B w.K.] K.C.w.K.] w.q.B w.w.w.yXw.yXw.&XyXUXUXw.w.X   6 q.w.gXgX2.hXMXuXiX2.O.^ V !.e.^ C +.Y.E.!.E.uXiXQ.!.Q.aXiX3.E.T.E.2.o.2.#.!.!.!.!.+.#.e.+.+.!.!.!.+.Y.E.E.E.2.!.Y.#.2.3.Y.Q.V ] U U U @.Y.U ..+.",
"HXmX6X8X0XxX&.T Z.G.H.j : $ r c c z w & w r &.F.~.`.9XwX5X8XwX` : j x t F.%.c &.:.(.7X_.~.wXwX6X1X.Xl b T ! ' {.D r Y [ / I.H.|.wXwX8XjX*.j L &.&./.;.v &.y._.XX`.D.,X5XOX) [ Z.~.:., w w [ L./.P.A b r W :.F.(.1XwXwX5XbXKX@   SXVX9.6.9.w.ZX&X&X&X&Xk.9.9.9.9.9.m.#     ' yX2XY.w.&XK.K.U.J.U ~ w.w.q.w.w.!.q.q.w.q.] 6.w.w.@.Y.w.w.!.] K.K.0 w.%Xw.&XVXZXw.w.&X&XUXw.9.=   & q.C.2XY.hXPXdX3..XX.O.U B O.!.^ V ..!.E.uX!.!.uXQ.e.!.iX.X2.Y.Y.3.2.o.Y.!.!.!.!.E.#.2.+.#.e.e.!.!.!.e.E.R.E.Y.3.2.2.#.2.2.!.C @.v ^ U W.C.C V C.",
"HXJX8X8XwXsX&.[ *XtX7Xl > $ L J.*X<XQ & $ c y.3XjX7X5XwX5X0XwX_ j h x j P.;.Y y.3XjXbX~.`.0X0X6X5X'.D / V.4X4XXXG ' u.4XrX5XS.}.0XwXjXjX( T u.4XlXqX;.A &./.jXjX(.D.3X5X8X_ { >XwXG., : r &./.lX^.n b : ( F.+XXX X6X8X6XbXJX=   FXFX6.6.9.w.&XyX&X&Xm.t.9.0.9.9.9.i.9     P yX&Xw.w.K.%X&XK.q.' ~ K.q.w.&Xw.K.@.q.w.w.7.I K.C.@.w.w.e.&XO.q.K.0 8.w.w.ZX&X&Xw.&XyX&XaXw.8.X   $ w.q.w.uXLXgX2.2.T.+.@.U U ^ +.@.H  .Y.Y.uX!.!.uXQ.!.!.uXQ.Y.!.!.K.+...Y.E.!.!.E.!.3.#.#.+.#.uX!.!.e.e.e.Q.!.!.Y.2.2.2.Y.Y.O.U H B U ^ !.@.H H e.",
"HXmX8XdXdXcX>.&.4XkXjXb : : R *XkXmX:.: e t u.lXbXjXqXwX6XqXwXX.h m b x P.B.! L.lXcXbX_.`.wX0X6X6X}.Q | /.jXbXOXF [ L.jXbX5XS.}.0X7XlXjX*.R y.lXbXkX;.( y.>XjXjXW.D.3XqX5X&.y.qXbXXX, > t y.4XjX7Xl b t &.{.jXjX6XcXcXdXmXJX@   ZXAX6.6.9.m.w.SX&X&Xm.9.9.9.9.9.9.i.O     ' yX!.w.q.%X&XK.J.J.~ ^ K.q.&X&Xw.w.] w.C.C.] ' K.V.@.e.q.q.&Xq.] K.U 8.&Xw.ZX%X&Xw.&XyX&XyXw.%XX   & q.] e.hXhX!.2.'.C.^ ] U V U O.C.V H +.Y.#.!.e.uX!.e.!.aX.X!.!.Q.Q.e.+.!.!.!.R.Q.uX#.!.2.#.Y.!.E.iXe.!.Q.uX!.!.3.2.+.2.!.Q...^ V ^ C C.C.@...U O.",
"jXzX<.3.T.3.` &.3XjXjXV r w T /.jXbX1.: e L y.7XkXjX7XjXwXwXjX_ A Y Y A I.B.( N.7XvXvXW.W.7X8X5X6X'.Q | F.zXcX+XQ [ F.jXcXzXA.[.6X0XwXsX[ ( y.lXvXwX>.W y.XXkXjXI.H.3X9X3X*.&.3XvX]., : s %.XXjXoXn k s &.~.jXjX_.3._._.+XcXo   DXFX9.9.9.8.8.=X&XK.w.9.t.9.9.9.6.m.#     ' yXC.w.w.&XK.K.V.w.U | K.q.&X&Xw.e.@.w.w.K.U 7.K.q.@.e.K.w.K.q.q.&Xq.U e.w.SX&XZXw.w.yXK.&Xq.w.X . 5 q.U e.gXR.!.iX.X..^ ] ] ] ^ C ....H +.E.Y.!.!.uXuXe.E.aXaXY...@.q.^ ^ !.!.E.R.R.E.3.2.2.+...+.+.@.+.e.Q.uXE.E.2.2.+.3.!.Q.@.V V @.^ Y.@.C.O.@.+.",
"( ` G S l n j [ P.{.[.V z r T D.{.+X=.: e c L.{.7X{.7XqX8X8XxX` m T ( ! ^.;.Z y.F.].7X`.G.6X6X6X0X'.G | S.].oXoXQ { y.XX].oX:.{.wXwXsXvX*.( y.{.XX7X;.Z y.(.XXzXG.F.5XqX8X_ %.}.jX(.f 6 c %.~.+X].S N j &.(.+XzXJ l V G K ` .   FXFXk.9.9.9.8.%XZXJ.w.8.0.9.9.9.9.9.+     P yXw.K.w.yXK.&XC.w.U C.K.q.&XK.K.K.@.O.q.C.U w.K.q.@.e.w.w.K.q.q.&Xw.q.w.w.yXZX&XyXw.yX&X&X7.k.X   # 8.] K.!.3.aXnXT.O.@.q.] U C C @.!.C ..E.!.!.!.E.uX!.E.iXaXC.B C B 0 V Y.Q.!.E.R.E.!.2.!.+.g C B B ..e.iXQ.R.E.!.2.2.Y.Q.Q.@.C @.^ +.@.V ..o.,.w.",
"E D k x N E N ! [ _ ) ~ ~ N c / ` _ Q z t z W / ` -.7X7X8XwXvX] x ' ! ' <XV.c [ *.` ~.[.G.5X0X6X6X|.n W { *.:. XZ Z &.*.*.`.:.{.6X0XsXsX( x [ ( ` {.A.x [ ` *.(.I.D.1XOXOX( b E Q Q N x s Y ) _ } V P x W ) _ _ G M v d P P X   FXFX9.8.w.9.8.8.u.7.8.9.0.9.9.9.6.i.#   . T &Xw.w.K.yXK.W.K.q.^ K.K.q.K.K.&Xe.U O.+.w.U K.C.w.O.w.e.q.w.] @.&Xw.w.&Xw.&X&X%XyXw.&X&Xw.8.J.X   $ 7.U o.o.E.hXnX+.@.U U B U ,.+.C.W.@...uX3.!.E.uX!.E.E.iXgXT.g B V 0 ..!.T.T.E.R.E.!.!.!.+.g B U U ..!.uXQ.Q.E.!.!.2.#.aXQ.^ C @.H Q.+.+.+.H H O.",
"yX4XI.&X^.>X&XP.P.P.U.>X>X[.U.[.[.W.>X<XyXU.P././.`.wX8X8XsXvX;.[ yXU./.KXD.| 4X3X(.bX,XG.9X6X5X5X XQ [ ^.;.^.wX( { ^.L.|.qX:.].0X6XsXsX` m N.;.-.jXP.Y D./.:.lX[.S.,X5X5X[.U.F.S.A.&X>XL.V.N.B.A.L.K.Z.V.K.V.Z.U.I.U.K.yXtX=   FXGXBX9.9.9.I 6.8.8.8.9.9.9.9.9.0.i.O     I &XK.w.K.&X&XW.w.w.q.W.w.q.&Xe.&Xw.^ q.q.w.U %Xw.w.w.w.e.q.e.@.8.w.w.q.w.w.%X&X%XyXw.%X&Xw.8.w.X   # 8.P ^ !.iXaX.X1 C H ..q.Q..X,.W.Q.C  .+.#.+.e.uXuXe.E.iXdXW.B g B 0 U Q.Q.E.Q.Q.uX#.e.e.e.B 0 B B ^ !.!.Q.Q.3.!.!.+.2.Q.C.V +.H ..2X!.!.2XQ...H ",
"KXKXfXvXtXrXrXrXwXrXrXqXrXwXfXrXvXkXfXrXkXbXkXbXkXrXwXwXwXsXsX-.N.kX5X9XJXH.&.wXjX}.mX[.G.5XwX6X5X5X) Z.bX}.kXbX_ N.bX3XwXvX:.}.wX0X8XsX*.{ 9X9X`.bX~.{ rXbXXXJX}.F.3X5X5XwXrXfXbXrXfXrXfXrXrXfXrXrXrXtXrXfXrXrXfXkXrXrXHXKX@   FXGXv.6.9.8.0.I 0.6.I 9.9.9.9.9.9.i.9 .   ' &Xw.w.K.&X&X!.w.e.w.K.K.w.&Xe.K.w.@.q.@.w.q.&XO.w.q.w.C.q.K.w.@.w.q.@.K.K.&X&XK.&X%X&X%Xw.U w.9   # 8.B @.uXE.!.#.1 ..!.!.W.2XE.!.gXQ... .@.e.#.e.Q.E.Y.E..XdX.XV ^ @.^ ^ &XE.uXuX!.E.!.#.R.e.0 f 0 0 U !.!.uXuX!.!.E.#.!.R...^ e.C @.gXgXR.aXgXQ.!.",
"KXHXqX7XqXqX7X7X7X8X7X5XwX6XwXwX8XqXwXrXwXwXwXrXwXwXsXsXwXfXwX_ } qX'.`.mXH.( 3X6X).jX_.~.qXwX6X1X|.Q %.jX`.6X6XQ ;.7X`. X8X:.|.0XwXwXvX} [ 9XXXW.xXS.W {.9X).jX`.H.5X6X XoX5X6X5X0X5X5X9X9X0XrXwX5X9X0XwXrXsXwXwXqX7X7XxXKXo   FXIXM.6.8.9.I 6.I I I 9.9.9.9.9.9.m.9 .   U %Xw.w.%XK.&XK.K.K.w.K.K.w.&Xw.e.q.@.w.q.w.q.K.@.q.| w.e.@.K.w.] w.q.w.e.&XK.yX%X&X&X;X%X8.6.w..   $ 8.0 ] K.@.C.+.2.R.Q.2.uXiX!.aXLXQ...o. .+.Y.Y.uXE.2.T.iXdXQ.C.HXJXgX@.!.E.!.3.uXE.3.2.!.e.B P U V ..uXuXuXR.3.E.2.#.E.e.H w.U ..o.fXLXgXQ.gXfXQ.",
"HXJXqXwXwX8X7X7XwXwX5X6XwX8X8XsXwXwXqXwXwXwXjXjXjXwXsXwX8XsX0X_ } wX].(.vX>.` oXOX`.bX`.~.wXsX6X5X}.Q ;.8X(.oX5XQ ;.wX`. X5XA.{.6XwXwXxX_ ( qXoX`.jXA.G [.5XG.wXG.F.5X1X}.oXoX6X0X6X1X6X9X5XwXdX8X6XwX7X0XwXwXwX8XwX8X5XbXKXo   FXIXx.6.8.6.6.0.I I I 6.0.9.9.0.9.FX5     P $Xw.w.&XK.K.K.W.w.+.w.w.w.e.w.w.w.q.C.V.e.q.K.] O.@.w.K.e.w.w.^ q.C.w.K.W.K.yX%XyX;XyX&X8.6.9.X . # 8.I V @.2.Q.2.E.iXR.R.MXiXE.gXgXY.+.Y.+.+.E.+.E.E.2.Y..XaXW.,.fXHXaXO.!.Q.E.uXuXE.!.#.3.+.C U U U ..+.uXE.E.E.3.Y.#.!.o.@.O.V K.C.!.gXnXaXaXnXaX",
"HXHX8XqXwX6X6XqXqXwX6XwX6X5XwXwXrXqXwXwXwXqXwX8X8X8XwX8XwXsX0X` } 0X_._.bX-./ 5XOX].vX|.W.qXwX6X5X}.F ;.wX`.5X0X/ %.wX`.}.5X:.{.9X6XqXsX_ ) 6XoX|.jXC.W `.5XT.xXW.I.5X5X{.].oX6X0X9X1X5X5X9X0X9XqX7X5X5X0XwXsX0X0XqXwX3XvXJX@   AXIXM.9.9.9.8.8.0.I I 6.9.9.9.9.9.FX4   . 6.w.w.K.&X&X&XK.W.w.q.w.w.&X&Xw.&Xq.q.C.w.K.@.K.@.O.^ +.&Xe.w.w.^ q.w.J.w.W.&X&XyXyX&X%X&X8.q BX=   # 8.U V @..XiX!.gXgXY.aXMXuXpXgXQ.+.!.!.Y.Y.e.Y.E.!.2.3.@XiXE.C C H C C T.Q.E.uXuXuX#.2.!.+.g , - - C #.#.2.#.2.2.Y.+. .@.w.] +.Q.!.Y.2XMXMXiXhXLX",
"JXbX8X8X6XOXOX5X8X8X8X8X7X+XjXcXwX8X+X8X+X6XzXjXjXdX8X6X8X8X8X` *.jX].].bX>.` XX+X].vX|.I.6XqX0X6X XQ %.wXT.5X8XQ %.wX).].8X:.].6XwXsXxXX.` 5X+X'.vX<.W _.+X).xX(.G.5X5X}.{.oXoX7XoXXXXX6X8X7X+X7X8X8X5XoX8XjXOX5X0XqX5XbXJX@   FXIXZX9.8.9.9.8.0.0.9.6.9.9.9.9.9.FX3     P w.%Xw.yXK.&XC.!.w.@.w.w.K.&Xw.&X@.@.q.w.C.O.C.@.q.] @.W.e.w.K.@.w.O.w.e.w.&X&XDXyX&X%X$X9.8.$XX   # 6.U U C.aXiXiXLXpXiXhXiXiXhXgXQ.!.aXT.o.Q.!.Y.E.3.#.!.uXuX3.1 C g - C !.E.E.E.uXuX#.#.3.+.< - - 1 C #.#.2.2.#.2.!.o.1 @.@.w.Y.!..X.XR.gXMXhXaXMX",
"mXmXcXcX8X+X+XwX8XdX+X8XcXOXzXcXcXcXNXcXcXdXjXcXxX8X8XwX8X8XOX` ` XX).(.cX*.F XX6X).xX`.I.qX0X6X5X X( -.8X).6X+XJ -.xX_.+X8XA.{.5X9XfXsX_ ) 7X+X].xX:.G _.].).xXG.G.,X3X].XXcXzX+X+X+XzX+XOX+X8XcXzXcX+X8XjXzXcX+XdXwX8XmXJXo   AXIXAX8.9.8.8.9.9.q 9.9.9.9.0.9.m.FXe     L w.%X&XyXK.K.K.&Xw.] w.w.K.K.w.K.@.@.O.w.w.@.e.w.@.@.q.K.w.w.w.@.w.+.w.w.yXw.%XSXyXZXw.9.9.I 8.X   # 8.I ] !.T.E.nXhXE.iXgXR.gXgXQ.!.iX!.!...Y.Q.C.3.3.#.2.3.uXR.4.2.o...@.!.uX3.3.uXuXuX#.3.2.....@...#.e.uX3.3.2.2.+. ...^ q.&XK.W.T.iXiXiXgXLXiXgX",
"qXOX@X_._._.H.S.G.G.<.3._.<.<.<.<.<.<._.<.1.<.1.1.H.8XwX8XwXdXF < ` J F XX-.: ( _ Q ).`.G.qXwX6X5X XG G S.=.<.oXK D <._ :.5XC.>X6X9XwXfX` j &.>._ ].>.f ) *.J (.I.I.,X5XoX1.1.<.<.<.<.+X<.<.<.<.<.<._.<.<.<.<.3.).+X]._.+XxXo   AXIXSXk.9.q 9.9.9.9.9.9.9.9.9.9.m.FXu     z 8.%X%XyXK.K.K.!.w.^ w.w.&Xw.w.e.U @.e.w.C.w.K.@.q.@.@.e.w.e.K.@.q.w.w.w.&XyXw.SX%XVXw.m.0.6.$XX   $ 6.B U W...R.MX.XQ.gXiXiXgXiXE.Q.Q.,.Y.+...+..X3.4.#.#.3.uXuXuXuX+.+...!.3.3.4.E.uX#.#.2.#.#.+.#.#.uX3.3.3.3.+.2.o...^ ^ K.q.!.Q.Y.Q.pXR.iXLXgXuX",
"( J < j k l , A } A.<.K S j < S K S l l < < ( A.).).6XwX0X6X8XF : j j a I.-.j [ Z.{.oX`.I.5XwX6X6X1Xl & k l ` |.k % j a D [.S.}.6X6XwXxXF f ( :.A.}.>.: j l b F.[.G.5X6XwXF , < < < < S < < l < < S J < < S l l S K K K F ` X   FXFXFXZXk.8.9.8.9.9.9.9.9.9.9.9.n.FXr .   z 8.%Xw.&X&X&XK.K.q.^ &Xw.w.&Xw.w...q.w.w.!.w.K.@.@.q.@.w.w.w.&X@.w.w.w.w.&XUXZXZXw.&Xw.8.6.9.9.X   5 6.q U W. ..XgXE.MXMXR.nXMX3.pXgX!.!.C.o.H ..C.iXR. .#.uXuXuX3.3.+.o. .2.uX3.E.uX!.uX#.#.#.o.o.o.#.E.#.3.3.2.4.2. .....w.w.] K.!.!.2.iXiXE.hXMXuX",
"D Z v f B f 0 [ /.7XxXK & & , n n k j , : j y.4XbXxX8XwXqX5X6X` c A A j /.&.T y.<XbXvX`.~.5XqXdX6X6XD s b W { [.Z c R ' y.>XS.}.8XwX8XsX*.T u.lXjXjX:.j x m A A.^.G.3X6X8X_ a b j j , d , a d h a j l - , d d a h k n M U E X   FXIXFXM.$X9.8.9.9.9.8.w.9.9.9.9.FXFX7     t 8.8.ZX&X%Xw.&X&Xw.@.K.w.&XK.w.C.^ @.w.w.K.w.w.w.q.] w.w.w.w.&XO.K.C.w.w.&XyXw.BXw.m.m.0.t.9.m.9   3 9.I ' .X,.pXiXiXLXgXaXLXMX!.MXMX!.aX,.,.2.+.C.iXiX3.o.3.R.uX3.4. . . .e.uXE.3.E.3.#.#.e.#.#.#.#.#.#.#.E.3.E.3.,.^ @.K.q.U ] K.+.iXE.iXnXR.R.LXMX",
"<X*XU.%X%X*XE / /.jXcXG & % : b b A r : : j %.>XjX8XsXrXfX8X6X^ j c L c (.%.T y.<XvXxX`.`.9XfX8X6X1XQ T y./.>XXXW R u.:XtX4XD.}.0XwXwXwX*.T y.3XjXbX:.: x m v %.`.F.7XwX8XO.j h x j p k p x x x d k v 7 e c x x V.&XU.%X*XyXX   AXIXFXAX8.8.8.9.9.9.9.9.m.9.9.m.FXIX6     L 9.u.&XBX&X%X&Xw.q.q.K.w.&XK.w.!.@.] w.K.e.w.w.w.@.] q.K.w.w.&Xw.K.K.w.w.&XyXw.VXm.w.9.9.0.0.i.9   5 6.z U  X2.Y.E.gXMXuXMXLXiXgXLXiX.XgX,.Y.2XW.!..XE.E.2.Y.E.E.3.3.#. ...!.uXE.3.R.uX#.#.#.#.#.#.#.#.#.2.#.3.uXE.H X.Y.Q.q.] K.2Xw..XiXR.nXnXR.MXPX",
"KXHXfXHXfXHXN./ /.7XjXK : % r m m x r j 5 t %.{.jXjX8XwXwX6XOXJ j L c c /.&.W y./.jXcX|.I.5XwXwX6XoXQ [ u.lXjXXXW R L.4XjX5XA.XX8X8XwXxX*.T %.XXjXcX>., c m c :.`.H.3X5X5X_ h x c z w h : x z z z k N % w s t x <XbXrXbXKXKXo   FXFXGXAXk.8.8.9.9.9.m.w.w.m.9.m.FXFX6     t 9.8.w.$X&X%X&Xe.@.q.C.w.<XK.K.K.@.] w.W.K.w.e.K.q.@.q.w.w.w.K.e.K.w.q.q.q.%Xm.w.9.w.9.0.0.0.9.. . 7 6.B U W.,. .E.MXaXiXMXhXuXgXhX!.aXgX,..XnXaX&X<.o.X.,.E.E.E.2.3.#.#.o.#.uXR.3.uXuXe.#.#.#.#.o.o.3.#.#.uXuX2...C +.O.' ] ] ] 2XY.Q.hXaXpXLXdXhXMX",
"KXbXwX0XwXvX-.W A.|.].K : % r L m m r : : r &.A._.{.wXjXwX8X7XF j L L L /.&.b &.y.H. X].I.9XrX0X6X6XF T &.(.XXXXA R &./.{. XS.3XwXwX8XsX*.A &.A.(.OX>.: c c j >.~.F.5X9X5X_ x m T c , a : c P E M k k % s c L P ^.rXqXwXbXKX@   FXIXGXSX%X8.8.w.9.w.9.9.w.m.9.m.FXIX6     u 6.8.m.w.w.&X&Xq.q.q.K.K.&XK.&X!.O.] w.W.K.K.K.K.w.q.8.w.q.7.w.7.q.q.U q.] w.w.9.m.m.9.9.9.9.m.9   8 6.I ' W.Y. .iXgXuXaXMXiXhXMXiXaXgXiXY.2XgXfXW...o.C ..E.Y.#.uX#.#.#. .uXuX4.R.uXE.3.#.#.#. . .o.#.2.E.E.o.H +.w.V ^ ] ' ' U q.e.E.gXMX2XaXMXiXhX",
"HXJXwXjXsXxX*.T y.~.).S : % t &.J.U.W 6 e r &.L.{.`.wXrXwX8X6XQ m &.u./.4X*.A %.P.XX7X_.`.qXfXwX6X5XF Y %.~.XXoXT T &./.lXXXF.XX8XwXxXwX` A &./.XX8X>.% z c r %.^.F.1X5X5X/ W L.<XB., : r R L.<XU.a d w T L.*X>X4XrXwX8XbXJXo   FXIXGXSX$X8.8.8.9.m.8.w.BXw.9.VXFXIXy .   u 6.8.%X9.w.%X&Xq.q.w.J.K.&XK.&Xw.@.q.K.C.q.7.q.8.] U U 8.U U ' U ] ] U U U 8.w.w.m.m.9.9.0.0.m.X . 7 9.t I e.!.@.iXiXuXhXgXaXLXhXiXLXgX.X,..XaX2XC.X.C C Y.&Xo.+.E.3.4.#. .#.uX3.3.uXE.#.o.#.#.o.o.o.E.uXY. .C H Y.Q.H S @.' w.U U +.Y.iXhXgX.XMXgXpX",
"JXbXcXcXcXcX-./ /.jXjXG : % T L.tXbX;.& : x &.>XvXwXwXwXwX8X+X( R u.:XGXjX&.W y.{.jXvX~.I.qXvX8X6X XQ [ L.qXkX7XW &.y.lXjXXXA.XXwXsXdXsX{ ( y.lXxXxXB.s L c z y.^.H.1X5X3X&.%.4XHXXXa : j y.4XkXqX, p w [ {.kXjX6XdX8X8XmXJXo   M.IXGX;XJ.7.8.8.9.w.9.8.m.m.m.VXFXIXy . . u 9.8.9.J.8.J.e.q.q.w.w.w.%Xq.w.7.' @.] ] U I B I B B B I U B q I I P U U B U 9.9.9.9.i.9.9.9.p.X   z 9.I 8.2XY.o.2.3.gXLXuXgXLXuXhXLXdXE.Y..X2XW.C.X.V O.&XaXe...#.E.3.2. .#.3.3.3.uXuX#.o.#.o.o.3.E.uX3.+. ...@.2XaX2. .H @.C.@.^ w.C.aXgXMXiXgXMXpX",
"mXmXcXcXcXmX=.{ /.jXjXG : 3 T L.jXxX>., e c %./.jXjX8X8X6X8X8XQ [ u.4XkXjX*.W %.{.jXcX_.G.wXsX8X6X XQ { Z.jXjXXXW [ u.jXjXXX<.3X6XwXsXwX) ( N.XXjXcX>.m R u.L.*X^.G.9X5XXX*.&.XXvX]., : t &./.jXXX, : : *.P.jXzX].+XOXOXcXmXo   FXIXIXSX%X7.7.8.t.J.9.7.&Xw.m.FXIXIX3     I 9.8.k.8.6.q.q.] U @.] ] 7.U ] U I 0 B I B z 0 I z 0 z B I B 0 8 t 0 B B B I q 9.9.9.9.9.9.9.9.=   N 9.t I Q.Y.E. .#.MXgXuXMXgX!.MXgXE.Y.Y.2XC.C.B.V +.C.aXgX+.@.Y...#.Q.3.uX3.#.!.uX3.3.#.o.o.3.@X@X3.^ X.o.+.e.aXgX3.2. ...W.w.q.C.T.Q.uXMXhXiXMXMX",
"~._.1.1.<.<.F &./.jXzXF h r T P.XXjX-., r m :.].jX+X8XwXwX8X6XJ &.y.{.4XjX*.W A.~.jXjX~.I.qXsXwX5XoXQ { L.XXjXXXW &.A.lXjXXX:.XXwXwXsXsX_ ( A.XXjXjXB.Y u.*XlXrX`.G.5X9XXX*.&.].jX_.a : t &.(.zX_.a r r &./.+X+X*.K J J 1.S.X   h.SXAXk.y.~ P P I 6.8.I 8.8.9.w.M.FX#     6.VXBXBX$X9.q.q.@.U ] U U U U P I I 0 I B u I u I I I I u q I I 0 I B 0 I 0.8.m.9.9.9.i.m.m.m.VX=   8.VXI 8.&XaXMXo.2.MXgXhXLXgXhXLXaXE.E.2X!.,.C.@.Y.aXiXLXgXe.Q.E.+...X.3.uXiXiXiXpXuXuXR.E.R.E.2.>.X.F O.#.uXQ.2XLXhXiXiX@.e.K.O.+.Q..XuXLXIXMXMXPX",
"E F l g l < , [ %.S.A.V v s L %.%.S.F : 6 r [ &.>.<.wXwXwXwX6XF Y [ &.%.XX*.v / } ;.~.`.I.5XwX6X6X}.D Y { >.B.>XZ Y [ &.:.[.A.}.wXwXsXxX/ A &.;.:.].C.m / &.%.(.`.G.5X5X5X) W ;.:.) d B t T ) _ Q B z 7 P ~ ( ` B & & , v M .                                   . .       t I R R I t f f 0 & & & # * # * # # # # # # # # # # # 9 # $ # @ # @ # # * 6 B P 0 8 u u I u I 0.. . 3 R 2 6 V ^ ..g g @.V ..@.V X.O.C V C V - n g - H H V @.V C V C g - * & < - g C H H l V C g < - - * * < g V V C ..H K ..k - n 0 - V C C H ,.X.^ O.",
"y.} ] ' ~ ~ P ! ' Q ) / | ' ! | %.&._ / ] T / { ( ;.wXfXsX8XdXQ c 7.( ) wXB.x 7.} ) I.[.I.6XwX6X6X3XD Y N.} D.9XW / A.%.S.,XS.,XqXwXwXxX} b &.} { 5XD.b %.y.{ [.}.G.1X5X1X} W ) { } V.J.| | ;.N.q.L.U.7.7.N.V.A.Z.V.7.7.J.U.X   .     .                 .         .           .                               .     .     .             .                 .                                                                                                                                                                     ",
"DXbX4X<X<XyX4XyX4X9X9XtXtX9X9XtXtX9X4XtXtX4X4X9X0X9XwX0X8X8XvX;.y.tX,X}.JXA.[ 9XrX{.bX1XI.9XsX6XOX5X{ L.HX}.vXbX{ Z.kX,XwXrXD.,XwXwXdXvXN.%.tXqX}.KXI.) 4XrX,XKX5XW.5X5X6X1X5X4X9X9XqXtX9X9XrXtXrXHXHXHXHXHXJXHXHXbXvXtXHXKX@                                               .       .               .   .         .           .   .           .       .   .   .   .   . .             .     .     .       . .   .   .     .     .     .   .                 .     . .                 .   . .     . .     . .     .   .   .   . ",
"KXHXrXfXqXrXrXrXrXjXqXqXrX9XwXrXfXrXrXrXrXrXrXrXfXrXwXwXdXwXvX;.y.bXXX}.mX;./ 9XwX].bX}.I.9XwX6X5X1X/ N.rX'.qXqX/ N.jX`.oX7X:.}.7X0XwXsX;.&.wX7X].bXD._ 3XwX|.bX}.I.5X9X6X5X9X9X5X7X5XqXqX0XrXrXwX0XqXqXwXwXwXwXsX0XrXwXbXJX=                                                                                                                                                                                                                                                                                                   ",
"HXJX6X6XwX9XqXjXwXwX8X7X7X8XwXsXfXrXwX6XwX7XwXwXwXqXwXsXwX8XxX-.%.wX'.'.vX;.( ,X5X~.xX|.I.9XwX6X1X XE N.7XT.XX5XF O.qX).].OXS.3X8XqXwXsX*._ 9XoX_.rX:.W [.6X`.xX`.G.5X6X5X5X6X0X7X7X5X5X5XwXsXrX8X6X6X8X8XsXdXjXwX0XwXwXbXJX=                                                                                                                                                                                                                                                                                                   ",
"KXbX0XsX6X5XqX8XwXrXwX7X6XwXwXvXfXwX8X6X6XwXwXsXsX8XdXwXwXwX8X` &.wX].].bX;.( 3X7X).vX].G.9XwX6X6X].F N.8X).7X+X( ;.qX`.}.6X:.}.wXwXwXsXO._ qXoX_.vXB.( }.0X'.xX`.G.1X5XoX6X8XwX8X7X6XOX8XsXxXsXwX8XwX6XwXwXjX8X0X0XwXwXmXJX@   .                                                                                                                                                                                                                                                                                               ",
"HXbX0XsX8X5X5XwXwXqX7X6X6X6XsX8XsXsX8X6X5X7X8XjXsX6X8XsXwXsX6X` _ wX_.`.nX>.! 3X+X).vX].G.qXwXwX6X'.F N.8X(.OX6X( ;.wX`..X6XA.}.wXwXwXsX-.) qXOX_.vXB.! {.6X_.xX`.G.5X5XoX6X8X8X0X6X6X8X6XsXwXsX8X6X8X5X5XwXjXjX0XwXwX8XbXJX=   .     . .     .   . .   .         .     .     .   .   .     .           .     . .     . .   . .   .   . .   .   .     . .         . .     .     .   . . .   .   . .   .   .   .   . .     .     . .   . .   . . .   . .   .   .       .   .   . .     . .         .       .           . .     . ",
"HXmXsXwX8X6X7XjXjXxX+XoX8X+X8XcXdXxX8X8X5X8XdXjXdXwX6XwXwXsX6X` _ 8X].'.nX-.Q XX+X_.bX`.G.7XwX6X6X].G >.8XT.6X6XQ -.8X_.OX6X:.].wXwXfXsX-.` 8XOX_.xX:.` oXcX].mX).G.1X9X X+X8X8XdX8XcXxXdXcXcXxXcXjXxXdXcXcXcXcX+X8XdXcXmXJXo                                                                                               . .                                                             . .                                               .                                               .                                 ",
"JXmXdXdXzXdXOXdXcXcXpXzXcX+XjXjXjXzX+XjXzXXX+X+XoX}.6XwXwX8X6X` F ].(.<.cX=.S /._.<.wX].G.9XwX6X0X].< J _.1.<.+XG S <.=.<.7XC.}.8XqXsXdX-.F ].].H.jX1.S (.@X<.zX).G.,X5X]._.]._._.<.@X].<.<.<.3.<.3._.4.<._._.].@XoX].].dXcXo - g g g 0 g C g C 1 B C 1 B g C 1 g a - - - ; * * * * - * * o o o o X o ; - 1 0 C g 1 - - ; ; * ; < ; < ; < - C H H C H C 1 g 1 g g < g 1 - - ; 0 H  . .C  .1 - ; C  .H $.H $.; 0 < < g C g g g 1 ;  .H  . . .C - < $.J 4. . .1 - < - g g g 1 ; < $.K 1 1 ; X X . ; < < 1 ; ; X = X o C 1 - 1 - - ",
"|.T.1.=.1.1.J J J J J =.<.J F _ _ J J =.*.K F *.-.S.wXqX6XwX6XK : K S S ].&.> A F S A.}.G.5XsX6X6X'., & < l F ].l > n l K `.S.{.wX7XsXxX` : K F K ).=.& S S l :.`.I.5XqX+XK l S S S S J < l S K S < l , > l j S G F J J ` _ . 2.iXuXiXiXiXiXiXaXgXgXhXaXiXiXiXhXaXiXaXaXaX.XQ.Q.T.Q.Q.iX!.+.o... . .$.#.uXuXuXiXuXuX3.uX .C C .. .#.#.#.R...3.hXpXhXhXpX3.pXiXhXgXhXgXuXuX!.#.uXMXLXMXMXMXuXuX#.hXMXMXhXMXMXe.e.3.uXaXgXaXhXiXiX4.PXPXPXLXPXhX3.4.NXPXMXMXLXMXE.3.E.uXpXpXuX#.hXMXMXNXMX4.o 6 9 @.hX5.5.5.#.= ; @ C iX5.uX5.4.#.",
"G G l , , a , g a k a l S , , v l l a , , * , F &.~.jXwX6X0X6XD p h h f I.O.: j A l %.}.G.9XwX6X6X'., & , , S {.n : x b Z ~.D.}.8XwXwXvX) * a k h F.-.& , j j >.|.G.5X7XzXS : j k a , l : , S S N , f * : j l l k k v v n Z . +.3.3.E.E.3.3.E.!.E.uXuXE.uX!.uX3.Q.E.!.W.Q.Q.Q.E.!.!.!.iXQ.Q.R.R.E.T.2.2.3.!.!.!.3.!.#.#. .C 1  .C 1 1  .!.C 1 ; 1 1 1 $...E.!.E.R.uXuX3.#.#. ...!.uXpXpXhX#.#. .pXNXhXhXhXpX#.#.#.!.R.Q.uXR.uXE.#.MXMXMXMXMXNX#. .NXMXNXhXMXpX4.#.#.!.E.3.3. .uXhXNXhXhX .* * # +.MXhXhXMX3.= 9 = C hXhXhXhXhX#.",
"| ' E P E E j A h b l n V d s A b b h > : > s A S -.jXqX6X8XoX^ h E n h P.-.: c A h %.,XI.9XwX6X6XT.k z x x Z {.S r m m W ~.A.}.9X8XdXxX_ f v N b I.;.: m Y h N.`.I.5X7XwXZ w z b k p b : j x c b , w & : A A A N.U.K.Z.U.<XX ,.E.E.uXE.uX!.3.uXQ.uXuXuXuX#.3.uXE.!.!.E.E.!.E.3.+.e.!.!.E.Q.R.E.R.E.E.E.E.e.!.E.E.uX!.#.e.e.@.!.R.X.2.T.Y.2.2. .#.o. .o.#.uXE.uXuXuXuX3.#.@. .$.$.$. .$. . .e. . .#.#.4.4.4.#.e.#.E.uXuXuXuXuXuX#.MXMXMXMXMXhX4.o.gXMXMXMXMXhX#.2.#.E.R.E.3. .R.NXNXhXhX$.o @ # #.hXhXhXMX5.; = =  .LXhXMXMXhX#.",
"eX2X&X<X<X9X~ D n k v v A a t c c L x : % % L T Z -.wX0X0X6X6XF h ( A b I.} : c c s y.,XG.0XrX8X6X).h z m x W {.n f c A D `.S.|.6XwXsXvX) w x m b /.-.: L Z x %.[.G.5X8X6XD w x m k : k : j b b v : % % r x b b ,XbXkXkXbXKXo +.uXuXuXE.#.!.uXE.Q.2XiXQ.uX!.!.uXE.E.E.E.E.E.E.!.Y.2.E.E.E.E.uXE.R.Q.E.E.3.Y.!.E.uXE.2.#.+.3.o.e.E. .2.3.Y.2.3.#.3.E.o.2.E.uX!.uXQ.iXuX2.o.o.....C  . .C 1  .!.o.$.1 1 1 1 1  .e.2.3.R.pXuXuXE.uX .#.uXuXuXpX3.!. .@XNXMXhXLXgX2.2.#.!.Q.E.3. .uXMXhXhXhX#.o @ @ +.hXhXhXhX5.; ; o H MXhXNXNX5.3.",
"KXHX9XqXtXfXX.n Z b k b A s j Y b A x : % : &.N.>.S.qXwX8X6X8XF j A b s I.-.e c c z %.}.I.9XwX6X6X`.d s b c Y }.l p b b Z ^.S.{.0X8XdXvX_ : x v x (.;.: r b j :.~.~.5X5X6XZ r x j f s b : r r j v w 7 & r x x b `.kXwXwXbXJX= =.3.3.E.E.E.!.!.Q.Q.Q.Q.E.!.!.!.uXE.Y.Y.!.E.E.R.E.Y.#.!.E.E.E.E.uXR.E.E.E.!.3.!.uXuX3.!.#.+.#. .!.E. .2.E.Y.3.2.o.E.R...2.E.R.!.Q.uXiXuX3.o.#.#.#.e.#.aX2.#.3.R.#.#. .3.#...o.#.#.o.3.R.uXuXR.uXiX .1 1 1 1 1 C ,. .C C $.$. . . .+.#.!.uXuX3.#.#.pXiXhXhX .* - * ..hXNXhXhXuX; 9 o $.hXhXMXMXhX .",
"HXHX6X9XwXvXX.k m v h v A f r b c b j : : e &.>.>.<.0XwXwXwX6XF f Y ( Y I.;.w T ' ' Z.{.G.qXsX6X6X).a s x c ! }.l 7 s x M I.S.{.6XwXdXsX) % z h j /.%.: r j s ;.~.I.5X6X6Xn w t z r r b : j j x d p : $ w h b b [.xXjXwXbXJXo +.uXuXR.E.!.Y.!.E.Q.Q.Q.E.!.2.!.uXE.Y.Y.E.E.E.uXE.Y.#.E.!.!.uXE.E.R.Q.E.E.2.2.E.!.E.E.3.#.#.#. .#.E. .4.!.!.2.3.o.E.Q. .2.Q.R.E.uXuXiXuX3.4.o. .+.+.+.aX+.#.2.2.2.!.o.uXuX+.!.+.2.#.E.R.uXuXuXuXpX3.2. .3.#. .,.iXR.o. . ... ...2.!.#.e.E.R.E.o.C C 1 $. .1 ; g & 1  .4.4.#.#.; = = 1 E.uXpXpXpX1 ",
"JXbXOXwX8XbXX.v N b b b A a r m b v f : % e y.(.(.(.8X8XwXdX6XQ ! L.,X,X5X-.A y.^.{.3X|.I.wXwX6X6X'.k x M Y / }.n r x v Z ~.S.{.5XwXsXxX) : x v b ~.%.: c b s A.[.I.5X8X5XA j c c j s x w r x b v p w : t b m A }.xXdXcXmXJXo +.uX3.uXR.R.Y.Y.Q.Q.@XQ.R.R.E.uXuXE.Y.Y.T.E.R.uXR.Y.+.E.E.E.!.!.uXQ.Q.E.3.2.!.uXR.E.E.2.#.Y.3. .uXR. .2.E.E.3.3. .E.Q...,.!.uXR.uXiXiXuXE.#.+...+.+.+.aX#.#.2.3.e.E...E.uX+.!.2.#.+.3.uXuX@XuXuXiXE.2.#.uX4.#.Q.iX.XiX4.3.iX+.E.uXE.+.Y.!.E.uXQ.o.....C  .H ..O.K < 1 1 ; ; - - 0 0 - 1 ; 1 1 1 ; ",
"JXbX+XjXjXcX=.n Z N b v n f f m b N a , % w N.H.S.F.jX8X6XsX6X^ Q F.XXoXjX>.A A.oXXXjX].G.qXwX8X6X'.k d m m / {.n z m m Y I.S.`.7XwXdXsX` f x A b ~.;.w c c c N./.~.5X8X5XA d c c d f v 7 d x k b 7 0 % s b m Z `.cXOXzXmXJXo J #.#.!.E.2.#.o.#.2.3.3.3.E.e.uXuXE.T.Y.E.uX3.uXR.Y.C.!.Q.Q.!.!.Q.R.uXuX3.2.Y.E.R.R.E.3.+.+.4. .3.E. .,.E.E.3.Y.X.E..X..2.E.R.R.iXuXpXiX3.2.+.o.Y.+.+.iX2.#.3.2.uX!. .R.iX..!.#.#.#.E.Q.iXuXiXuXiXE.2.o.iX2.o.E.E.2.E. .uXuX..e.uX2.#.#.E.E.uXQ.Q.uXuXuXiXR.'.aX@X!.!.T.H.2.2.C.C.w.]  ...o.@.H ..",
"bXcX_.+X@X+XX.A ~ ~ ~ l M d x ' ' | v & 6 : Q _ ` A.7X8X6XsX6XF F F.+XXXOX>.A A.].+X+X`.I.qXwX6XoX).k x P A ' {.Z s m Z W ~.S.[.5XwXwXxX] f P A Y /.:.s P T Y Z.^.~.6X0X5XE [ y.y.Y s N p x m b b f w % z B m n F J ` ` =.1.X < C C C C C g g @...X. . .@.C +.e.w.^ ` =.o.,.,.,...+.!.Q.Y.Y.!.!.!.uX!.2.2.Y.R.Q.E.E.2.+.#.2. .3.Q. .,.E.!.3.E.o.E.Q. .3.E.E.E.uXuXiXiX3.#.#.o.e.#.+.aX+.#.3.3.#.E. .E..X#.!.E.2.#.E.uXiXuXuXiXiXE.2. .uXE. .uXuX2.3. .!.!. .e.uX!.#.2.!.E.uX!.E.3.3.E.E.!.Y.3.3.Q.2X.XQ.uX3.Y.Y.K.!.!.E.E.Q.E.Y.",
":.=.K J J ` l { ~.~.F.n N f E [.,X5X/ % w % Y %._ F.7X6X8XsX6XQ Y A._.(.5X1.m %.`._.oX`.F.qXwX8X+X).h x m m ~ >Xn s N N Z I.S.[.5XwXsXxXQ f m P M U.N.s T [ ] I.I.~.5X0X1XD 7.L.L.~ w N 6 z z z z 7 w 3 z z d x : , p - l N . ; 1 - g - 0 - 0 !.T._.3.<.+.0 B V C - S X. .J J  .1 C @.+.U ^ ....@.+.+...2.!.E.iXR.3.2.2...X.H 1.H.H +.T.E.Y.Y.+.T.R...2.R.Q.E.uXiXiXuXE.2.#.o.Y.e.+.iX+.#.#.3.#.E.o.3.uX..!.uX#.#.E.iXaXpXuXR.iXE.3.o.iXE. .!.e.#.E. .#.e.o.2.!.2.#.2.3.!.E.2.3.3.3.uX3.2.3.3.uXuXiX.X.XuXR.3.2.2.Y.E.uXE.Q.'.E.",
"D l a p a r : W %.-.&.Z P d z { ) _ D z z 7 T | W B.8X6X6X6X6XW r ( ) { 5XA.s / *.) (.`.G.wXxX8XoXT.f z P v ) |.M x E Y ~ ^.S.{.7X0XsXfX` z [ ' ' <XA.c | | | <X|.`.6X6X1X` Q [ { ] [ 7.~ ' ' ' ! ' 7.T R ' ' [ | 7.| 7.K.&XX g C C C C C 1 1 uXgXNXdXNXuXB 1 1 0 * ` @XE.T.3.<.1 * - 0 ; g  .H ..C H C +.uXuXiXuXE.2.2.H H H X.=.H J X.2.X.o.@.,.<.^ +.Y.Q.!.iXuXiXiXE.2.2.o.Y.C.w.iXY.#.#.2.3.3...E.uXo.!.#.#.2.E.Q.aXuXuXuXuXuX!...Q.3.o.uX2.3.3. .uX!.o.3.!.!.#.2.E.E.uXE.#.3.3.uX!.2.2.3.uXuXiXiX.XuXuX3.2.2.+.3.uXE.E.E.2.",
"D.C./ | ] [ ' 7.y.q.q.U.U.L.q.V.N.;.A.U.%XV.J.Z.B.~.5X X5X6XwX%.! *XW.D.HXH.Y U.W.:.wX|.G.5XwX6X1XW.b [ I.N.`.6X/ y.4XU.4XrXC.{.9X8XwXvX:.y.tX4X4XKXI.{ tXtX4XJX}.W.6X6X6X5X,X>X3X9XtX9X9XeXtXtXtXtXtXtXtXtXrXtXtXrXtXtXHXKXX ..+.+.+.+.o.C C .XpXpXzXNXpXC - 1 C - @.hXpXpXdXpXH * ; , - C @X@XE.3.3.X.Y.iXiXuXuXR.Y.+.C C.pX+X.XT.T.X.2.H X.,.Y.2.=.+.+.Q.Q.uXuXiXuXE.3.#.o...O.O.Y.@...#.E.2.3...e.uX#.e.e.e.#.!.Q.iXuXuX@XiXR.!.o.E.2...E.3.#.uX .3.E. .2.E.Y.Y.2.E.uXE.3.E.3.3.R.!.!.2.uXuX3.uXuXR.R.R.Y.,.,.Y.E.E.!.E.3.2.",
"KXHXtXtXtXyXtXtXtXrX0XrXfXrXtXrXvXvXvXvXtXtXrXrXqX0X5X5X6X6XdX;.N.HXvX0XJXG.[ 9XvX}.JX`.F.9X0X5X1X`.Y V.rX`.wX6X) V.bX,X9XrXS.{.8XwX8XxX-.y.UX9XqXJXG.&.tXrX1XmX`.).6X7X6XwXwXkXwXwX9X5X9XqXkXkXtX0XwXwXjXkXrXjXrXwXkX7XbXJX= Y..XQ..XQ.Q.o.H pXcXNXpXpXpXC 1 1 g - O.gX@XpXpXpXH ; - - - H @X@XuXuXuX=.E.Q.R.iXuXR.!.2.C .XLXLXMXLXmX2.T.H .XJXLXnXnXaXC.Q.R.uXiXaXiXQ.2.+...< 0 C C g g C #.+. .C @.@. .@.@.#.#.!.Q.2XiXiX@XiX!.2...E.!.o.!.3.#.3.o.Y.uXo.3.!.2.2.Y.Q.uXuX2.E.3.3.E.3.2.2.2.+.3.uXuXR.R.@X,.o.o.+.E.E.E.Q.E.,.",
"HXHX5X5X9X9X9XwXsXsX8X8X7XwXrXwXwXdXwX7X7X5XwXwXsX0X6XoX5X6X8X_ { 9X_.).bX<.Q {.8XG.xX).I.qXwX5X5X`.E A.0XW.6X6XQ } 7X).}.OX:.}.wXsXdXsX} &.qX}.3XJXH.{ ,X5X`.xXG.).5X7X6X5X7XqX6X6X X+XOXqXwX8X0X0X6X8XwXkXxXsXwXqXqX7XbXKXo 2.aXQ.iXQ.Q.Y.H .XcXNXzXNXaXC 1 1 0 * 1.nXpXNXNXpX .- - - -  .pXpXzX5.@Xo.2.Q.Q.uXR.E.3.2.C 5XPXLXLXLXLX3.T.H gXPXPXPXPXLXE.E.E.iXpXiXiXR.2.#.#.; = * * @ * ; e...1 - B 1 0 1 ..#.#.E.R.uXiXuXuXiXo.C 1  . .C ..,.#. .C  .@.C  .e.!.+.!.R..XiXE.3.@X3.uXuX3.#.!.!.3.iXiXiXuX@XY.o.o.+.Q.Q.Q.!.!.#.",
"KXHX6X5X6X X6XwXwX8X6X8X6X5XwXxXwXsX0X8X6X7X0XwXwXwX8XoX6X8X6X_ { 9X].).vX1.W {.+X(.jX).`.qXwX5X5XW.D A.0XG.OXoXQ N.8X_.}.6X<.,XwXsXjXxX_ &.wXoX1XmXH.{ 3X5X].vXT.~.5XoXOXOX8XwXwX8X X X5X0XwXwX6X1X0XwXwXvXsXwXwXwXwXkXmXKX= ,.iXQ..XQ.Q.Y.C T.+X@X+XpXiXC - g 0 - -.nXgXnXcXgX^ - 0 - ; J dXpXzXpX@Xo.!.iXuXuXR.E.2.2.H  XLXMXLXLXPX3.E...aXLXLXLXLXLXW.Q.E.R.uXiXiXR.3.#.o.q = = ; @ @ - !.w.- - - - ; 0 ..e.#.E.Q.iX2XiXiXiX . . .o. .C K +.o.g C  .C C $. .!.2.Y.R.iXiX3. .E.3.3.3.2.+.!.e.,.3.E.!.3.3.,.Y.C.w.T.E.E.Q.E.2.",
"KXmX6X0X0X5X6XjXwXjXwXwXwX5XfXxXvXvXwXdXOX7XsXdXwXwX6XOX6X8X6X_ / 9X].G.bX<.W {.+XG.xX'.(.wXwX6X7X~.A A.8XH.8X6XQ N.+X_.oX6XC.}.sXsXvXsX_ -.8X+XXXmX:.( 3XOX].cXG.`.0X5X+XoX6XwX8X7X3XoX5XwXwX8X6X6X8XOXxXvXcXjX6XsXwXjXmXJX@ 2.iX!.iXiX2X!.H '.jX+X.XQ.e.1 - B B - ^ W.T.T.3.<.C 0 0 0 ; V .X@X3.zXpXo.Y..XR.iXQ.E.2.2.C 2XLXLXMXMXLX3.3.O.aXPXLXLXPXLXT.R.E..XpXuXuXR.4.#.o.- = 9 ; 9 ; 0 !.e.- - - 0 0 - @.e.#.uXuXiXuXuXuXiX .3.NXNXpXzX3.2... .pX@XuX@X,. .Y.2.Y.E.@XiX2.K pXMXNXhX#.C U U C ..o. . . .H o.O.^ @.o.o.o.=. .",
"HXnX6X5X5X3X5XxXxXxXjXdX8X6XxXvXvXxX8X8XoXoX8X8X6X8X5X5X6X5X6X_ _ qX_.).vX<.( ,XOX).vX).W.qXwX8X7X_.G A.8XH.8XOXQ ;.jX_.+XoXS.,XqXwXsXsX_ *.jX+X+XvX>.( 5X8X].vX(.[.qX5X].+X6XdX8XOX+X8X+XcXxXdX8XOXcXOXcXcXcXzX8XxXxXcXbXJX= Y.iXR..XuX2XY...fXPXJXMXLXUXC 1 g 0 0 C.HXbXnXdXdXH & 0 0 - ...XiX@XpX.X .2.R.R.uXuXE.2.2.C C.sXpXzXNXcX4.<.X.Q.LXmXmXMXLXT.Q.E.iXuXpXpX3.3.2.o.g ; 9 9 ; ; - w.e.- ; 9 * 0 - @.e.#.E.uXuXiXiXuXiXX.E.MXNXpXNX3.,.X.o.NXpXpXpXR.o.Y.2.2.!.R.uX2. .LXPXLXLX2.; * * - o.+.=.2. .- C g 0  .o. .X.o.- ",
"HXbX+XoXoXoXOXcXcXxXxXdXcXzXcXbXmXcXcXcX8X8XsXsX8X8X7X9X5X5XOX_ ` jX]._.bX1.( oXOXT.xX).W.wXsX6X7X`.Z :.OXH.XX+XF *.oX(._.oX<.,XwXjXxXsX` _ 5X_._.sX>.W [.}.F.jX).`.6X6XXX].oX+X+X].+XzX.X+X+X+X+X+XzX+XoX].XX].+XcX+XOXcXmXX 2.iXQ.aXiXQ.Y.@.bXJXLXLXLXLX..- g B 0 Y.LXLXPXLXMXO.- 0 0 - @.HXnXNXnXNXo.2.R.Q.R.uXE.2.2.C C.dX+X+XzXpX=.E.@.C.dXdXdXcXNX,.E.Q.@XpXuXuXR.E.+.+.g = ; ; 9 9 0 e.e.q = 0 0 0 - @.e.#.uXuXiXiXiXuXuX .3.NXNXpX5.3.3.o.+.NXpXpXhXR.o.Y.+.Y.E.R.uX2.X.MXLXMXMXuXo * = - E.+XpXpX2.- - 0 0 e.iX@XpXuX< ",
"mXmXcXdXOXOX].].].].'.+X+X@X_.]._._._.zXOX_.).`.).|.5XwX9X0X8XF b >.=.J XX1.j >.1.F '.].I.0XsX6X5X).a j J S ` XXl a ` F Q |.S.}.wXwXxXvXF a ` F F }.;.r { *.J (.(.W.5X0XoXJ H J J J >.=.K G G S S J =.K K J J F H ` J ` _ _ . X.2.2.e.e.!.,...nXLXLXLXMXMX .1 C C 0 !.LXMXMXPXLX,.- - - - @.LXLXLXLXLXY.,.Q.uXR.R.Q.2.2.H &XLXMXNXmXNX<.T.O.W.nXNXcXzXNX,.T.E.@XuXpXpXR.E.#.+.1 ; 9 = * ; 0 e.e.- ; - - 0 - @.e.#.uXuXiXiXpXuXiXo.T.NXzXzXNX3.3.@.o.NXpXpXhX@Xo.Y.2.Y.R.@XuX2.o.LXLXMXNX!.; 9 9 - '.pX@X3.3.g - - - e.aXpXpXuX1 ",
"F.H.<.>.X.J l F ` *.*.*.=.K S J *.*.S S S < G ` ` :.8X5X5X5X8XF : Z ( *./.=.: t b f A.].~.8XsX6X5X(.d r L T &.XXb : b h S W.D.,XwXsXxXxX( : < j k I.;.c L.>X{.jXI.~.5X0X Xn a j k j n l , k a a < a j , j S A v j B g d l k . g C C ..C  .C C gXLXMXMXLXMXH - g g - T.LXMXMXLXMX+.- , - - +.LXJXMXLXLX,.2.Q.E.uXuXR.Y.Y. .6XPXLXLXLXPX_.3.X.dXPXPXPXLXMXT.@XuXuXuXiXiXR.3.#.+.g 9 = ; @ * - Y.C.- 9 - - 0 - U e.#.3.uXiXiXiXuXaX..,.@XE.3.@X,.+.+.V E.3.3.@X2...2.2.!.R.uXuX2.X.mXLXMXMX_.* 9 = & .XpX@X@X3.g - - - T.pXpXpX3.=.",
"F K l , , , % T *.~.~.G S < b ` L.XXJ > > w N.{.(.`.wXwX6X6X6XF T %./.XXjX:.j L T T Z.|.`.7XwXwX8XW.Z 8./.4XjXXXn x Y b Z I.S.>XwXjXxXfX` j v b b ~.:.T >XkXkXkXI.[.9X0X XG h b k l n l d N x h h h j , A T m m | V.} N.L.K.X ; 1 - 1 1 1 - g uXmXNXnXMXhX..1 1 C - H.LXLXPXLXPX,.& - - & X.LXMXLXLXLX2.2.E.E.uXR.uXY.3.H .XPXMXLXMXLX3.T.X.iXPXLXLXLXPXE.3.uXpXiXiXiXR.!.#.#.g ; * 9 ; ; 0 +.+.- ; - - * - ..e.#.uXuXaXaXaXuXaXo.,.aX+XzX@X,.+.e.V >.=.X. . .J Y.+.#.E.uXuX2.^ dXNXdXNX3.@ @ 9 * W.@X@X@X3.g - - - ,.uX3.pX@X4.",
"V.;./ ] ! ~ t R y.*X4XF A j L y./.3X) % w t L.XXXXXX8X9X8X6X6XQ A &.u./.7X>.T u.*X>X4X`.^.7XjX6XOX(.Z 8.*XlXqXoXS r b x A I.S.XXwXwXwXxX` f c x j F.;.T *XkXxXjXG.`.5X7X XZ z c x d n k f x x c s a a : x A c Y >XtXtXrXKXKX@ g ..C C C 1 0 - V H H X.,.@.g < g 1 0 ^ T.Q.Q.pXgX..- 0 - - ^ nXbXnXnXMX+.,.E.Q.uXR.Q.Y.2. .'.LXmXMXMXLX3.E.o.iXPXPXLXPXLXT.E.uXuXiXiXiXR.!.+.#.C ; @ @ * * 0 e.C.; 9 0 * 0 - ..!.!.uXuXaXiXaXiXaX,.iXPXLXLXLXdXY.+.:.mXnXnXhX@Xo.2.+.Y.E.uXuX#. .sXgXpXzX<.* # 9 & G._.3.T.T.- - - - H =.4.=.X.C ",
"HXHXyX4XlXlXA [ y./.~.G b r L &.A.XX` : : s Z.XX].}.7X6X6XOX6XQ m &.%.F.3X%.T L.lXjXkX{.W.wXsX0X7XF.T &.>X4XqXoXS w x x A /.S.}.8X8XsXsX) s c L c /.;.T /.jXjXjXG.`.5XwX1XV x L L N n k a x h s h k h : x A x Z ,XjXwXwXHXJX= +.W.Y.!.Y.+.w.^ H V C H C C C C H ^ V g C n V V H g B B B - 0 X.X.X.X.o.C 2.Q.uXuXQ.iXY.2. .,.dXdXcXxXnX,._...E.LXMXMXMXMXE.E.uXuXiXiXiXuX3.#.+.1 9 ; * * * - +.e.q ; 0 - - - ..e.#.uXuXaXaXpXiXiX1.pXPXLXLXPXxX2.X.Y.PXLXPXPXMX,.,.,.!.uXuXuX#.o.MXLXmXMX.X* * @ p qXnXmXgXaXg - - - X.1.4.<.2.H ",
"KXHXqXqXwXdXD ! &./.(.K b w t &.&.*.n : % t V.[.(._.jX6XXX6X6XG t &.:.%.XX:.L y./.{.7X`.~.7XsX6X+XH.m &.~.{.XXXXn w z r A /.A.XX6XwXsXsX) c 6.&.y.~.*.A u.~.(.XXG.W.7XwX5XZ R y.| Q b j w x r r s h k & z x j A 3XjXjXwXmXKXo Y.gX.XaXaXaXgXaX2XiX2XQ.!.Q.W.Q.T.Q.W.O.^ ^ ..^ ^ ^ @.] @.U - - < < - 1 ; Y.uXQ.uXuXuXY.2.C C ^ H X.X.+.H 3...X.E.'..XQ.aX,.!.iXiXiXiXiXR.3.+.o.1 * - @ * * 0 +.!.1 * - - 0 0 @.e.2.E.Q.aXpXiXuXpX,.@XPXLXLXLXzX4.o.1.LXMXLXLXNX,.2.+.!.uXiXE.2.o.MXMXMXMXaX; @ @ p HXPXKXLXUXC - - 0 C.pX+XOX XX.",
"KXbX6X6X0XsXZ L [ %.A.K A r c &.[ &.n : % w { >.1.H.jX7X5X5XOXF A y.A.A.XX&.c y.^.[.5X`.~.wXwX8X8XG.c [ L./.{.].b r c z T ~.F.XXwXwXsXdX) ' /.4XeXlX&.T L.4XlX8XG./.9XwXoXY L.4XtX>.j k x L r y s d k w c m c Z }.jX7XwXmXKX= 3.gXiXaXaXaXaXaXaXaXaXgXaXgXgXaXdXaXaXaXiXQ.Q.iXQ.Q.Q.iXuX!.+.o.......H o.2.R.R.Q.uXQ.Y.2.o.H 1 C C < < C W.+.C < < C 1 < C Q.Q.iXiXaXaX.X2.2.2.1 ; o * * ; - @.e.- ; - - 1 ;  .!.2.T.uXaXaXpXiXiX,.R.LXMXMXLXdX<.o.,.LXLXMXLXnX,.2.Y.E.R.uXE.#.o.LXJXLXLX2X; 9 = - fXLXKXLXUXC 0 - - <.dX+XpXpX=.",
"HXnX+X+XOXjXZ T [ &.*.l n : ! /./.4X( % : t P.}.`.].wX8X5X6X5X( T L.4X>XjX&.R %XkXkXvX~.~.wXwX6X+XH.T Z.qXbXvXXXA j c c Y ^.A.|.wXwXsXsX{ [ *XlXkXjX&.! :XlXbXkX(.`.5XwX1X/ /.kXbXS.l h x &.y.y.' a d r [ y.y.A.7XcXcXcXJXPXX Y.gXaXaXaXgXaXaXaXdXgXaXaXaXgXaXiXiXdXaXpXuXiXiXiXE.E.uXiXiXE.!.!.E.T.2.2.E.R.uXuXuXuXY.2.Y.Y.+.e.Q.....+.Q.!.+...X.,. ...+.Q.Q.Q.iXgXgXiX.XE.E.C 1 - 0 - * 0 #.!.- ; - - ; - 1 e.2.E.R.iXiXaXiXpXo. .3.E.T.Q.2.1.,. .2XaXdXpX.Xo.2.Y.E.Q.uXuXe.o.mXLXLXMXaX0 # @ 0 fXLXJXnXnXB * * - Y.nXcXcXcXX.",
"JXmX+X+XjXcXW &.L.P.:.n b f ! {.{.XXJ : : z P.XX+X].8XwX0XwX5X~ R L.3XXXjX>.R L.kXkXvX`.~.wXwX6X7XH.! y.7XvXxX].A b Y A T ^.S.}.wXrXxXjX) [ *XkXkXjX&.! /.kXkXjXI.`.5X8X}.` ~.jXbX<.k x c *XkXkX>Xa h z y.lXjX7XH.<.<.H._.].X T.hXaXaXgXaXaXaXgXdXaXaXaXaXaXaXaXpXaXaXiXiXuXiXiXR.E.uXuXiXuXE.R.Q.Q.E.E.R.uXR.uXuXE.!.3.#.2.o.#.uX+.#.E.E.E.E.#.E.iXo.+.!.iXE.iXiXgXgXgXiXQ..X2.#.o.e.e...Y..XuX.. .U @.U C ..+.2.Y.Q.iXiXiXiXiX2.C 1 C C C C ..,.C C C  .H H H 3.!.uXuXuXuX!. .2.).E.E.+.- - - - K.aXiX2XaXC * 0 0 w.gXNXnXbXX.",
"]._.=.=.=.1.Z y.3X7X].K M s ! XXXX+XQ : : c /.XXoX].jXwXsX0X6X( ( P.+XXXwX>.! /.kXjXvX[.W.qXwX6X7XH.W Z.qXjXcX XA Z ' ' &.[.D.>X7XwXxXxX&.! /.jXjXqX} T /.lXjXjXG.~.qXwX}.( G.jXcX<.v z N ^.jXjX`.a h s y.jXjX_.S g l K K F . E.gXaXfXaXfXaXfXaXaXdXaXdXaXaXaXaXaXaXaXiXiXiXiXiXuXuXE.uXuXE.E.E.R.R.E.E.E.E.Q.uXuXE.!.2.#.uX .#.R.o.#.#.uXuX3.#.E.pX#.+.E.uXuXuXiXdXgXpXiXY.E.E.uXe.aX2X,.iXpXpX3.,.2.aXe.!.E.Y.o.Y.R.iXiXiXuXiX3.,.H o.4.H ..Y.!.X.H C ..C H X.!.E.Q.Q.uXuX!.C < 1 < 1 - ; 0 - - C C C l C - - 0 - C ^ ^ o.O.g ",
"Q G , p , > w %.~.|.G.V m s Y G.(.T.G % O t %.(.H.~.wX8XwXwX5XQ T :.(.F.1X:.Z N.~.(.7X`.I.qXjX8X7XA.A { F.(._. Xn c P Y T }.D.}.wXwXxXsX( x &.;.;.{.{ c [ *.&.(.G.[.wX8XoXF ) >.=.( V v f W ( &.) v m z ( &.&.( n n V ~ / | . T.hXgXaXdXaXaXaXdXaXgXaXdXaXaXgXgXaXgXhXaXaXiXiXaXuXE.uXuXR.uXR.uXiXQ.R.E.E.E.uXiXuXR.3.!.#.3.o.#.uX . .2.uXE.E.#.2.aX2.#.3.uXuXuXiXaXaX.XE.2.,.2.E....X.XX.@XpXuX3.,.,.aXe.e.E.2.2.Y.R.iXuXiXuXuXR.3.o.T.iXO.Y.Q.Q.@X!.,.iXo.2.T.R.E.E.iXuXuXuXo.H H  .C H @.w.+.....C C g C V V U U C C g g C - ",
"| ^ N N m m x T ~ ) / E ' N P | ` ) ! Y L m W ` ( :.kXwXsXsXwX~ c [ / ( ,XV.c %.&._ XX|.^.kXxXsX8XG.h ! *.( H.wXA Y 7.' y.3X:.}.8XwXsXsX_ Y L.C.A.rXN.! ^.~.H.vX`.~.7X6X5XP.F.P.D.G.[.U.L.Z.D.L.D.U.U.U.P.P.A.P.[.<XyXyXDXHXX E.gXgXpXgXpXdXgXaXpXaXaXaXgXaXgXaXgXgXaXaXiXiXgXaXuXuXQ.uXQ.uXuXiXQ.uXR.R.Q.R.uXiXR.Q.!.3.#.2.#.+.uXo. .E.E.3.uXo.#.iX#.#.uXuXuXuXiXiXiXE.3.+.#.+.Y...uX.X..E.R.3.3.#.o..X+.o.Y.2.+.Y.R.iXiXiXuXiXE.E.X.2..Xo.!.E.E.E.2.,.aX+.H.E.!.E..XiXiXiXR.E.2.2.3.E.Y.Q.2X2XQ.aXQ.E.!.Q.W.&XQ.aX2X.X2X!.Q.Q.",
"rXyX^.*XU.yXtX4X4X,X<X<X<XyX<X,X9XtXtXkXDXeX4XjX5X6XvXbXnXbXvXO.y.9X3X3XKXF.[ tXjX|.HX5X3XbXmXvXvX|.( *XbX[.bXwX/ A.bX>XqXwX:.}.wXwXsXvXN.%.bXwX7XJXN.%.bXkX7XJX{.~.7X7X0XfXrXrXfXvXrXqXtXHXbXbXHXvXkXkXvXvXjXjXkXjXrXkXKXLXo Y.NXpXgXpXgXpXgXpXpXgXgXhXaXhXgXaXgXgXgXaXaXaXaXaXaXQ.iXiX2XiXiXQ.iXQ.E.uXuXE.R.uXuXE.!.E.!.E.+.#.E. . .2.uX!.E.o.2.iXo.#.E.3.uXuXiXiXaXQ.3.o.+.+.!. .Q.Q.o.R.R.E.3.2.,.iX2. .2.2.4.3.R.uXiXpXuXiX@XpXo.3.pXo.Y.E.R.E.2.2.iXo.2.R.E.R.iXiXiXuXuX!.o.+.Y.3.#.!.&XQ.!.Q.Y.Y.2.Q.!.!.Q.aX.XiXiX2XaXgX",
"KXKX4X4X9X9XfXbXHXbXbXbXkXHXbXHXbXbXfXfXrXrXvXkXsXwXbXbXbXvXvX-.V.kX5X,XJXH.| tXwX}.mX}.|.jXbXxXwX`.! /.vX|.xX8XW A.vX|.5X5X:.}.jXwXsXfX-.{ 0X X|.vX=.( 3X3X_.xXW.`.7XqX9X9XqXwX8X8XoXXX5X7XqXsX9XwX5X7XwXjXwXwX8XwXwXrXJXJX= 3.nXdXpXgXhXaXgXhXgXgXhXaXgXgXgXhXgXgXhXaXiXaXgXaXaXaXiXiXQ.Q.uXiXuXR.R.R.R.R.R.R.uXuX3.!.2.3.+.+.!.o...E.R.E.E.,.Y.iXo.o.!.Q.E.Q.iXiXaXuX!.#.+.#.!.o.Q.2X#.E.uXE.3.!.+.iX#.o.3.2.2.3.R.iXiXiXuXiXE.R. .3.iXX.3.uXuXR.2.o.iXo.2.R.E.R.iX.XiXuXuXE.#.!.uXE.+.E.!.!.Q.Q.R.!.!.!.Q.!.!.Q.iX@X@X.XQ.iX",
"KXbXoXXXoX}.5X9X0X0X5XoX6XqXqXsXwXwX8XwXsX8X8X7XwX0XwX8XdX8X8X_ } wX].T.bX<.( ,X8X(.bX`.G.kXwX6X5XG.Z F.8X(.+X].G ;.wX(.XXoXA.5X8XwXsXsX} { 0X].`.wX_ ( XXXX`.bXG.`.qXqX5XwXwXwXjX7X7XoX9XjXvXvXwX9X7X7XjXrXsX8X8X8XxXwXbXKXX T.hXgXpXpXaXgXaXaXaXaXaXaXgXaXgXaXaXaXgXgXgXgXgXaXaXaXaXaXaXuXQ.uXuX3.R.uXuXR.Q.uXuXuX!.2.#.!.+.e.E.#. .E.E.E.E.+.2..X+.+.E.uXQ.uXaXaXaXuX!.#.#.+.!.@.Q.Q. .E.E.E.2.#.+.iX#.o.2.2.#.3.@XiXiXiXiXuXE.R.o.3.iXo.3.uXR.R.4. .pX+.2.R.R.Q.R.iXiXuXiXE.+.Y.uXE.!.!.Q.!.E.iXQ.E.!.Q.Q.!.!.iXiXiX.XiXiXaX",
"KXbX5X5X3XXX9XwXwXwX6XXXOX5XjXjXsXwXwXsXwX8X8XwXqX8X8X8XdX8X.X` } 7X].).xX>.` 5X+X).bX(.~.rXwX8X6XG.Z (.8X(.8XXXZ :.7X).5X1X1.5XwXwXsXwX} { qX+X}.vXO.( 3X6X].bX~.`.7X+X7X7X7X8XjX7X7X7X5XkXwXvXwX5XqX8XwXxXxX8XOX8XsXvXKXJX= !.KXgXnXgXUXUXUXUXUXgXgXfXgXUXgXgXgXaXgXgXaXaXgXgXaXaXiXaXiXiXuXe.uXE.E.iXuXuXQ.R.uX3.!.E.!.E.#.#.uXo. .E.R.E.E.o.+.iX#.#.3.uXR.iXhXgXhXuX!.+.#.+.E.o.Q.iX..uXR.3.3.Y.+.aX#.#.3.2.2.3.R.iXiXiXuXiXE.R.o.<.aXo.Y.Q.uXR.Y.o.iX2.,.E.R.Q.iX.XiXuXuXuXY.Y.uXR.3.E.R.E.R.iXuXR.!.Q.uXE.Q.iXiXiX.XiXaXaX",
"KXbX5X7X7X}.5XjXvXwXwX6X8X5XvXvXxXxXwXsXwXwXwXqX8X6XwX8X8XdX6X_ } wX}.`.xX=./ 3X+X_.bX~.`.wXwXwX7XW.G F.8XH.8XoXW A.jX). X X:.XXsX8XsXxX_ _ 8X]. XvX-./ 3XoX`.xXG.|.6X7XoXoX6X8X8X7X+XOXoXwXjXxX8XOX8X7X8XxX8X8XOXdXsXvXmXKXX 2XIXLXPXPXKXLXKXIXKXLXKXKXKXLXUXnXnXgXUXnXaXaXnXgXgXaXaXaXiXuXuX!.uXE.3.uXuXuXQ.uXuXE.3.E.2.E.#.#.uX#.#.3.uX3.R.+.#.pX#.o.3.uX3.uXaXaXaXuX!.#.#.2.uX..uXuX..E.R.R.2.#.#.hX#.#.E.2.2.!..XiXuXhXuXuXE.E.+.2.iXo.3.E.Q..XY.o.aX#.2.E.Q.uXQ.iXiXiXuXuX!.Y.uXuXE.E.R.E.Q.iXQ.Q.Q.Q.iX.XQ.iXaX XQ.2XaXgX",
"JXbXOX7XoX].+XvXvXxXcXcXcXOXcXbXxXxXxXxX8X6X7X8X8X8X6X8XwX8X6X` *.jX].|.xX=./ 6X+X3.mX_.~.wXrX8X6XT.D F.zX(.OX].G <.cX_.+X XC.XXwXjXjXsX*.{ 8X].XXxXX._ jX+X].bXW.`.5X5XXXoX8X8XzXzXzXzXzXkXjXjX8XdXzX+XjXOXjXOX8XcXcXcXmXLXo %XUXUXKXUXKXKXKXKXKXIXKXKXIXUXLXUXUXUXLXKXUXgXKXUXUXnXnXgXgXgXgXuXiXR.2.E.uXuXuXE.uXE.!.E.!.3.#.#.uXo. .2.3.3.E.#.2.iXo.#.3.E.E.uXuXiXaXuXE.#.#.2.E.o.R.uX..R.R.3.3.2.2.aX3.#.!.2.#.E.Q.aXiXaXuXiXR.E.#.Y.pXo.2.R.R.Q.3.X.iX2.2.E.R.uXQ.iXiXiXiXuX!.+.iXuXE.@X.XQ.R.iX.XuXQ.iXpXiX.XaXaX.XiXaXiXaX",
"JXmXdXzXOXXXOXmXnXcXcXmXxX+XjXcXcXxXzXcXjX+XjXjX8X6X8XwXwXwX5X` ` ].).H.sXX.F ].+X<.cX].~.rXxX8X6XT.l *._.*.).].S ` <.=.<.`.:.1XwXwXwXsX` S H.>.=.OX` l >.>.*.7X(.`.9XqX].<.<.1.1.*.<.<.*.<.<.<.<.<.).=.1.<.1.1.<.<.<._.].+Xo 7.;Xe.K.&X&X&X&XyXyX&X&XyXZX&X&X&Xe.e.e.&X!.w.!.&X&X!.&XW.Q.2X&XQ.Q.E.!.2.!.E.E.uXuX!.2.E.e.+.#.+.E.o.#.!.E.!.E.2.2.iX2.o.!.uXuXuXiXiXaXiXR.Y.2.+.E. .Q.Q.X.!.R.3.2.3.#.iX2.#.E.3.2.!.Q.iXpXiXiXiXR.R.o.3.aXo.3.R.R.R.3.o.iX2.2.E.uXQ.iX.XiXiXiXuXE.+.uXiXuXuXiXQ..XiX.XiX@XiXpXiXaXaXaXaX2XiXaXaX",
"jXdX_._.].).<.<.<.<.<.<._.1.1.<.H.H.<._.<.<.1.<.S.(.8X6X6XwX6XJ j ` F K _.*.* S K < H.|.[.rXxX6X+XH.* > : > G ].: > < , n (.S.5XwXqXjXsXF & k l k ).{ & b l n ~.G.(.7XqX].S < l l < l S : W &.<.=.S S , ( :.<.>.K S l S K F . k.;Xw.w.w.w.w.w.w.w.w.w.w.w.w.w.w.U U U ] U ] ] U ] ] ] ] ] @.^ @...O.!.#.!.E.uXuXuX3.!.uX+. .....+. .C o.Y.C.,.X.o.W.+.^ +.!.uXuXiXiXaXiXE.+.#.2.E...Q.2Xo.Q.R.3.uXY.+.aX3.#.uX2.2.!.iXaXaXhXuXuXE.E.2.3.aX,.3.3.E.E.3.#.@X2.2.E.Q.uXuXiXiXiXiXiXE.Y.uXiXuXpXpXaXaXaXaXiX.XiXgXpXaXaXaXaXaXaXpXpX",
"*.` S S S l < K K l < S G < < S K -.J S < , j l a ) 8X8X8XwX6XQ h F G b ~.*.@ : : : :.|.[.wXwX7XOX(.> @ > @ b ~.> * > & l I.C.}.8XwXwXsX` a s h j /.{ : m m / 3XI.(.7X8X7XK j l b : j l , &.(.jX).< l f ` XXXX`.G V E E ) / . :XDX&X&X&X&Xw.yX&Xw.&Xw.&Xw.&Xw.w.@.@.8.@.] ] @.] ] U U ] ' ] U U U ] !.3.!.uX!.uXuXuX2.E.o.g H H ..H C H +.o.H X.X.Y.o...@.Y.Q.uXiXiXiXuXE.2.#...#. .,.C.^ +.3.E.#.o.+.R.#.#.e.!.2.!.Q.aXaXiXuXiXuX3.,.2.pX,.2.3.R.R.T.=.aX3.1.3.iXR.uXiXiXaXiXhXuX!.iXaXgXgXgXaXdXgXgXgXgXnXNXcXgXgXgXhXdXdXgXgX",
"E V f p f d a _ ) n n b A a a A A Q n , > r A Y Y %.wXwXdXsX8XQ W &.T b /.*.: L Y c Z.{.`.jXxX6X6X`.* * % * b {., * , & k G.S.5XwXwXwXdX` s x c j ~.*.w L L Z >X/.(.6X8X5XG x c x f j l s [ /.7X(.l b j &.{.XX].<X<X<X<XfXDXX %XDXQ.!.R.Q.Q.!.&X!.!.e.!.Q.!.uX!.o. .o.@.e.+.+.o.X.@...+.@.o.@.+.@.@.e.uXQ.Q.uXuXuXQ.3.uX .g E.Y.<.4.3.1.o.X.K OXpXpX@XuX2.2.E.@XiXiXiXQ.!.#.Y.C C  .=. . .H X.E.C H  .....C  .+.#.uXiXiXpXiXuXiX3.H X. .,.J o.+.!.o.X.H 3. . .,.E.uXuXiXaXaXaXaXuX!.!.aXgXUXLXgXLXLXLXPXLXIXLXPXLXLXLXPXLXLXLXLX",
"<XW.N.V.U.L.D ) ) N n b A f h A m n a : : t 7.:X4XtXwXwXwXsX6X^ A *.*.m /.&.r m A c L.{.`.jXsX8X5XT.* $ & * b {.: # : & k I.A.,X6XwXsXsX` f c x t /.*.r L R ( >X(./.7XsX5XG b c m s a h r &.F.zX<.< j r ( (.].{.qXbXkXbXKXKX= %X2XR.E.uXuX!.&XQ.!.!.+.+.!.E.e.2.o. .o.e.+.+.+.+.o.o.X.+.+.o.+.o.o.@.e.E.Q.uXuXuXuXQ.3.uXo.C T._.@X@X_.,.,.+...mXnXmXmXMX@X3.3.iXpXiXaXuX3.2.#.C ,.pXpX3.2.2.X.3.1 +.#.4.#.+. .o.#.E.uXiXiXpXuXpX3.C 1.4.3.4.o. .T.H  . .=. . . .2.R.uXuXiXaXgXiXaX!...@.@.e.+.w.w.&X&X&X2XyXyXyXyXDXyXDXDXSXDXyX",
"KXKX9XtXtXfX` F ! n n n n f s M b n d w e t y.*X4XqXwX8XwX8X6XJ A *.T m /.&.w m c x F.`.`.kXjX6X8X(.& * % $ m {., # : % k I.:.XXwXwXsXsXQ : t u x /.&.b R y.N.>XP.|.7XjX6Xn h c h f a h : ( %.<.>.l j r T &.:.<.6XwXjXjXmXKX= %XyXuX!.uXQ.Q.Q.Q.E.!.Y.2.uXuXuX2.o. .o.#.#.#.#.+.+... ...o.o.o.o.o.@.!.Q.Q.uXuXuXuXR.E.E.X.C ]..X@X3.3.1.,.+.^ nXMXmXNXMX@X3.E.R.iXiXaXuXE.!.Y. .Y.MXNXpXpX3.4.3.C uXhXpXaXgX2.o.!.!.uXpXpXiXuXiX3. .@XzXpXpXpX=.!.H 3.@X@XR.E.=.2.E.uXuXiXaXiXaXaX!.g C ^ ..^ @.] q.w.q.q.q.w.w.w.8.7.q.8.w.w.w.",
"HXbX X5X5XfXQ D ! E D n M w s m x b s w 3 c &.N.A.~.wXwXsX6X6XJ A ! T A ~.*.: L m s Z.|.~.jXwX8X6X(.> # % $ A {.- * : % h I.C.XX8XwXsXxX) f T [ &.>X_ x [ y.(.XXG.{.5XwX5Xn z c m B p k r ( y.XX1.j c : *.y.~._.8XwXjXvXbXKXo %X2XQ.uX!.uXQ.uXR.E.E.3.2.uXuXiXuX2.o.+.2.2.4.3.2.+... ...+.+.#.o.@.@.!.!.Q.uX2XiXuXQ.!.E...l Q..X_.@XpX2.+.+.H NXnXNXmXmX@X3.E.R.iXiXiXQ.3.#.+.C ,.NXNXpXpX3.o.3.1 @XpXiXpXpX4.#.#.3.uXpXiXpXiXpX3.H pXpXzXpXpXo.2.H E.pXpXpXpX,.2.E.E.uXiXiXaXiXaXe.g @.e.w.C.C.e.e.e.w.O.w.J.K.w.w.w.K.&X%X%XK.",
"KXbX5X5X6XsX^ W A.W.F.n N f r c c x r w 6 z &./.{.3XrXjXwXOXOXQ T &.L./.7X{ s T T L P.|.|.xXsX6X6X).& $ : * A ^.- * & & h ~.:.XX6X7XsXdX*.T y.*X4XqX_ Y y./.3XjXG.|.7X8X1XD [ J././ p h t y.(.jX(.< h s &./.3XXX8XcX8XbXmXJX@ %XyXQ.E.Q.uXuXQ.R.E.3.+.#.@X4.4.3.o.+.4.4.4.$.4.#.4. . .o.o.#.+.4.....Y.!.uXuXuXQ.uXuXE.3.o.< o.,.1.4.1.o.X.+.H dXdXdXNXcX@XE.@XiXuXiXaXuXuX3.+. .,.NXaXpXpXuX+.!.C R.NXpXpXhX3.,.3.3.uXiXiXhXuXpXE.H pXpXpXpXpX1.3.H 3.pXpXpXdX1.e.e.e.uXiXaXaXuXaX+.C @.+.Y.C.2.+.+.+.o.o.,.Y.e.+.o.o.o.Y.!.!.Y.",
"KXnX6X6X8XsX_ ) [.qXoXK S d c T T A a w 3 m y.4X7X7XwXwXdX6XoX) R y./.qX7X_ m [ Z.P.3X(.`.rXsX8X8XT.* @ % $ m {.: $ , & l ~.:.XXqXwXxX8X( ! y.{.5X7X&.Y 7./.jXOXG.^.7X8X1XD %.>XjX>.a d j &.~.jXH.j v s &./.7X].+XOX+X+XcXmXX %XaXQ.E.Q.Q.R.Q.E.3.2.+. .4.4. . .C  . .4.4.5.#.$.C 1 C  .C  . . .C ..Y.E.Q.uXuXiXuXuX3.E.o.< H H  .H H C ..,.1 1.<.3.2.,.o.2.R.Q.aXaXiXuX#.#.+.C  .E.E.3.3.T.X.Q. .3.@XpX+XpX,.o.!.!.uXaXaXiXiXiX@XH .X+XpXdXdX2.E.H E.pXaXpXpX2.#.e.uXuXiXaXaXaXiXe...+.Y.+.2.4.2.2.4.2.o.#.2.#.#.#. .#.+.!.3.2.",
"mXmX.X+X+X+X( _ `.8X].K n s P y.P.P.D % % L y.>X7X7X6XwXsXwX6X) / %.~.jXwX_ Y &.{.qXwXG.`.kXfX8X6X).* % % $ N {.& * & & h ~.:.}.7XwX8XjX( T %./.XX7X{ Y %.~.7XjX(.~.qXqXXXG &.~.oX:.h x x &.F.XXS.k h s / A.].H.F J J J X.-.. &X2XQ.uXR.Q.E.R.3.!.E.#.H @X@X4.4. .+.$.4.NX5.5.#.,. .$. .1 #. . .C H Y.E.Q.uXuXQ.R.E.3.E.o.l 2.3.<.2.2.X.+.2.C @X@X@X@X@X4.,.E.R.uXaXiXuXuX#.#.C 1 J `  .=.H H K.C ^ =.4.1.4...X.Y.Y.uXaXaXgXiXpXQ.C <.2.<.4.,...T.C X.3.2.,.3.o.E.uXuXuXaXaXhXuXiX#. ...+.2.#.2.3.3.3.#.2.#.2.+.2.o.#.o.2.E.E.3.",
"A.1.J J J ` A } P.oX].n x r T Z.*X{.W w r m y.~.].XXqXwXsXwX1XQ T &.A.(.5X} Z &.S.(.5X`.`.rXsX6X6XT.& @ $ @ m [.& $ % % s I.A.XX8X8XjXjX( A [ -.:.}._ v [ { -.[.I.~.5XqX{.A W *.*.G d j r [ ` O.Q h d w v A A S , < a n G E . %XtXiXR.Q.R.!.E.E.3.E.#.1 5.NXpX@X..#.$.5.5.5.5.5.pX3. .#.C pXuXuX#...!.E.R.uXuXuXuXuXE.3.o.C Q.oX.XpXiX3.,.,.^ mXnXnXMXMX.X2.@XQ.iXiXiXuXE.+.e. . .T.T.3.<.4.X.G.V X.1.4.2.1. .X.2.!.Q.aXaXaXaXiXQ.H T.E.<.3.3.X.E.H o.<.<.3.<. .#.#.uXuXaXaXaXuXuX#.C < ..2.o.o.#.#.2.#.o.#.2.+.#...o.o.2.!.!.Y.",
"Z G , p a , p Q ) ` _ N s 6 c / ( _ b z P c Y / ( B.wX7XwX8X2XJ c T W ( }._ d M D G I.`.[.jXxX6X6X'.& 7 z 3 R 4Xa r c z U [.B.|.6XwX8XbX) v [ ( { 5X} h [ { ` XX`.`.3X6X,X) ) | ` ] { / P Y ( ) _ | y.} | y.} 7.V.V.q.L.U.&XX :XaXiX!.uXQ.uX!.uXE.!.+.C #.pX5.pXo. .$.#.5.5.5.NXzX4.=.=. .pXpXpX2...2.!.!.Q.uXuXuXR.E.3.o.C .XiX.X.X@X3.o.Y. .mXnXnXNXMXpXE.Q.iXiXaXiXuXE.#.2.H +.gXaXpXpX3.=.Y.^ E.NX@XpXpX<.4.2.!.Q.iXaXaXiXiXQ.O.nXMXmXNXmX3.T. ..XNXnXNXnX3.#.!.uXuXaXaXaXaXuXe.@.0 ..o.H H ..H +.X.C H  . ...H  ...H  . ...",
"y.} E ! E ' ! ] | } } 7.y.[ [ | | | q.C.V.[ ) &./ B.7X5X5X8X].( [ L.:.A.qX;.! ^.I.Z.wXG.[.jXsX5X0X}.~ %XtXL.HXrX/ J.yXU.<XrXC.}.wX8XwXbX:.y.tX[.{.HXB.[ 9X9X3XJX`.~.3X5X5X3X4X9X5X9X9X9X9XqXqXqXqXrXrXtXtXbXHXfXfXkXDXkXKXKXo %XaX2XuXQ.&Xe.!.E.uX!.+.C 4.NXpXpXo.@.1 5.5.5.NX5.NX4.=.$.4.hXpXpX2. .+.!.!.Q.Q.uXuXR.uX3.o.C pXdXaXiXaXE.o.Y.H gXMXnXmXnXOX2.E.E.iXaXaXuXuX2.#. .+.gXpXpXpX@X4.3.H 3.pXpXpXNX3.o.2.3.uXpXiXgXiXiXR.X.NXmXmXMXmX3.T.J +XMXmXmXmXE.e.uXuXuXaXaXiXuXaXe.^ ..,...H 2.,. ... .C 2.o.4.#. .H H C #.#.H ",
"HXHXeX<X<X4X4X<X4X,X4X9XtX9XtXrXvXqXtXrXqX4X>X3X5X9X9X0X6X5X}.} L.HX4XqXbX>.y.HXfXqXJXH.{.wXsX6X6X|.~ >XHX,XbXsX` I.HX9XbXfX:.}.wX6XsXfX| N.vX5X5XJXB.) rX7XXXbX(.~.5X7X6XqXqXwX6X5X4X3X5XjXqXvXqX7XwX7XwXwX0X5XXX5X9XqXHXKXo %XfX2XE.Q.Q.!.E.uXE.!.#.C #.R.5.uX..o.$.R.NXNX5.pXpX4.=. .o.NXhXpX2.H 2.E.E.uXuXR.R.R.E.E.2.C .XgXdXgXdX!.X.2.H dXnXnXnXMXiXY.R..XiXaXaXiXuX2.+.C X.NXpX@XpXpX=.E.H 3.NXpXpXpX2. .3.!.iXpXpXgXiXpXR.X.nXmXMXNXNX2.3. .@XMXNXNXMXT.#.3.!.uXhXuXiXaX2XY.H +.Y...o.aXpX3.o.X.o.hXpXpXpX3.#.H #.pXuX4.",
"KXHX,X,X9X9X9XrXrX9X5XwX0X0X0XrXrXwX6X6XwX3X5X7XqX9X6XwXwX6X X_ %.qX].}.vX;.| 9X X_.bXG.[.wXsX6X6XW.D D.sXH.wX XQ B.sX`.bXsX:.}.wX6XwX0X) } 0X|.].sX&.( 3X}.].kXG.~.6X7X6X7X7X6X6X5XXXoX5XwXsXsX8X6X8X6XwXsXwX6XOX5X8XwXJXHXX *XfXQ.uXuXQ.!.E.!.!.!.e.1 $.4.o.2.H o.C #.5.5.4.3.3.4. .4.H 3.3.3. . .e.!.!.!.R.uXE.3.3.3.,.< H  . . . . .X.2.C ,.1.2.,.3.+.,..XQ.iXaXaXuXuX#.e. .o.pX@XpXpXpXo.Y. .3.NXpXgXgXT.o.2.3.R.iXaXpXiXiXR.X.gXMXmXmXmXT.T.X.@XnXnXnXLXE.#.2.E.iXaXaXaXiXaXe.H +.2.o. .hXNXE.o...o.gX5.NXpX3.o. .#.pXpX+.",
"KXbX}.}.,X,X1X0X0X5X9X5XXX6X0XsX0X6X XOX8XXX5X5X5X6X0XwXwX6X X) %.5X`.`.xX>./ 5XoX_.mXH.`.wXsXwX6XG.D D.xXG.7X}.W Z.wX).jXjX:.3X0XwXsX6X` _ 8X].|.vX} / 9X3X].vXG.`.5X5X5X7X8XwX0X1XoX].oXwXjXwX8X5XOX8XvXsXsXOXoX6X7XjXJXHX= &XfXiXR.iXQ.Q.&XuXE.!.2.C  .o. .o.C o.C  .5.4.4.4.3. . .4.1 o. .#.H C #.!.Y.E.E.E.uX3.2.3.4.1 < 1 C 1 - C  .2.1 g < C < < C ,.uXE.uXaXaXiXuX#.e.C 1 X.o.X.X.X.^ Y.H ..C.,.3.3...X.2.Y.@XpXaXaXiXaXQ.H :.Y.3.3.<.o..X^ ,.Q.T.E.T.o.2.E.E.uXiXaXaXiXiXY. .@.#.#. .gXNXR.o.o.4.pXpXNXhX3.....4.pX5.Y.",
"KXmXoX X,X X5X0XrX0X9XwX5X5XwXwXsX0X6X6X6X5X3X7X5X6X0XwXwX8X5X) y.qX].{.vX-.[ 9X X_.bX).{.wXsX0X+XG.Z P.xXH.wX}.W Z.8XH.+X7X:.,X8XwXsX6X) } 8X+X}.xX-./ 5X}.|.sXF.~.7X6XoX6X8X8X0X}.].].oX8X8X8X6XoX3XOXwX8X8X3X}.6X6XrXmXJX= %XaXiXR.uXuXe.uXe.E.E.+.C o.uX@XR. ...K 3.NXNXNXzXpX<. .o.1 2.4.3. .H +.2.!.!.E.uXuX3.2.2.2.,.o...R.Y. .3.R.E.2.>.H 3.o.C o.E.uXR.uXiXiXuXuX2.#...1 1 g V V V ] Q.^ B g C S < g ..C.Y..X.XaXaXaXaXuX .g 1 C < < C Q.^ - 1 C < 1 C #.!.!.Q.aXaXaXaXiXY.1 #.#. . .uX@X1.X.,.o.@X5.5.5.4...^ o.@XpX2.",
"HXbX1X,X9X}.1XqXqXwXwXqXqX6XwXsXfXwX1X5X5X6XoX6XoX5X0XsXwX5X1X) %.wX'.|.xX-.) 5X].H.xXH.[.wXwX6XOXG.A H.dXH.wX XG A.dX(.+X8X<.,X6X6X8X6X) _ dX].].xX-.) 7X+X].wXH.[.5XXX}.OXdXOX8X+X}.].oX8X8XjXOX8X8X7XxXxXjX6X|.8X8XxXmXJX= %XfXiX!.uXuXe.e.Q.E.3.2.C 4.iXpXpX .=.C 3.NXNXNXMXMX@Xo.o. .pXpXpXo. .2.!.E.E.uXuXE.3.3.2.1.3.E.o.aXiX#..XiX.X.XY.o..X3.4.E.@XR.E.uXiXaXiXE.#.+.+.2. .,.E.+.!.Q.iX#.@.H +.o.C o.o.,.2.E.iXaXaXiXQ.iXY.#. .3.,. .3.E.2.o.H ,.o.C ,.+.!.E.R.iXiXaXiXaX!.C #.!.#.C o. .K H ,.S 4.5.5.5.5. .@...4.4. .",
"JXmX+X}.3X|.XXwXsX8X6X5X6X}.sXxXvXsX XOX6XoXoX6X8X6X5XqXqXqX X` &.8X]._.sX=.` 5X+X_.bXT.~.wXjX0X8XT.A F.dXH.8X].G :.6XH.OX8XC.}.6X6X8X6XQ ) oX_.).8X*.W XX]._.cXH.I.,X3X].].XX].].].+XXX_.+X+X@X_.oX].(._.]._._._.+X].+XzXdX= %XaXaXuXiXuXQ.Q.!.E.!.#.C #.iXiXuXH  .K 4.NXNXNXmXNX@Xo.4.1 uXuXpX2.H #.!.!.Q.uXuXuX!.Y.2.2.E.Q.X.aXiX+.E.uXiXR.!.o.iXE.o.3.R.R.R.uXiXiXuXuX#.#.+.E.,.E.aX!.iXgXiX!.E.o.pXiXo.Y.2.2.,.E.iXiXiXiXaXuXE.!.2.iXY.o.E.R.E.E.o.R.R.X.E.uX!.E.R.aXiXiXiXiX!.C #.#.#...!.3.2. .o.J 5.NX5.5.4. .@.X.@X3.4.",
"JXmX+X+XjXoX+XjXxX6X+XzXOX+XjXcXmXcX+XcX+X]._.].].{.7X5X0X0X1XQ F G.1.-.7X*.j <.1.*.oX).`.wXsX0XOXG.j Q >.K >.].a Z ;.( >.].:.XX6X6X7X6XS , J F G ].) , W Q G `.G.(.3X5X].K F K *.K F J < S K F G ` J < S A S S A J F J _ _ . ;XDXuXuXuXiXuXE.!.E.!.2.C #.aXaXaX ...C #.gXnXhXgXNX@X .4.H .XpXpX4.1 ,.3.!.uXQ.uXQ.!.!.2.E.uXE.o.iXuXo.2.Q.iXuX2.o.uXR.o.R.uX3.3.uXpXiXuXuXe.+.o.E.+.!.aX3.uXpXuX3.!.o.iXuXo.!.Y.2.2.E.iXaXiXiXiXiX!.E.#.gXuX#.uXR.!.E.o.iXQ.o.E.!.uX!.uXiXaXaXiXiX!.1 o.2.o. .gXMX3.=.4.o.pXpX5.NX4. ._ ,.MXmX3.",
"~._.=.*.1.>.*.>.:.A.1.1.:.*.J *.J =.X.=.*.K J ` F :.7XqX6X9X1XF h F G A {.*.> b S a A.`.[.wXwX6X6XS.s b ) &.Z.{.h m &.A.F.`.>.}.6X6X6XoXS : f j j /.{ x ! A.{.7XG.~.5X7X].j l b K A l S : r j f j l k , x b A b h h k M W V . yXDXaXuXuXaXiXuXE.E.!.#. ...uX!.!.H o. .#.pXiXpXaXpX3. .o.H E..X.X1.C #.Y.!.E.Q.!.!.Y.3.!.E.uX!.o..XE. .2.uXiXuX!.#.uXE.o.3.@X@X3.uXuXiXuXuXe.#.o.!.,.!.aX2.uXiXuX2.!.o.uXuXo.!.#.2.+.R.uXiXaXiXuXuXE.!.#.aXE.+.E.E.!.!.o.Q.uXo.E.3.e.!.uXaXiXiXaXpXE.1 o.2.X...aXNX3. .o.o.MXhX5.NXpX . .,.MXMX3.",
"W G < : : , w / %./.(.< l : , l A n l , * , A A b %.kX5X6X0X1X/ [ %.! Z /.&.r T T m P.~.~.wXsX6X7XS.v [ L.9XqX|.Z [ L.4X7X|.B.XX5XqX6XoXE z c t c U.} T y./.qXjXD.`.5X6X].b m c b b l j r b z x b k h : m L c T N.A.A.U.<X<XX ;XfXuXuXiXaXiXuXQ.R.E.!.C - 1 C C 1 ..C C  .H  . . .C K ,.< H  . .C C +.Y.!.Q.uX!.!.2.2.3.3.2.!. .E.E...2.!.E.!.2.o.uX3.o.3.R.R.3.R.uXiXuXe.#.#.+.!.+.Y.aX2.Y.iXE.3.3.o.iXuXo.Y.2.2.#.uXaXuXhXaXiXuXuXE.#.iX!.#.E.R.!.E.o.iXuXo.E.uX#.e.uXiXaXiXiXiXE.1 o.o. . .aXgXR...,.+.nXnXhXNXpX .X.,.mXmX+X",
"| } M N m b x y.Z.qX7Xk , : x T ! ~ A f > x T T b y.qX7X5X0X6X) | V.{ W ^.;.r L [ R /.[.~.wXsX6XOXS.m [ Z.XXwX'.A [ y.3X8X`.:.}.6XqX5XoXD s c L A ^.| Y 7./.7XwXF.`.3X7X].b m c c c b j r L R [ ~ k f e t m t [ tXrXrXfXKXKXX :XUXiXuXiXaXiXuXR.uXuXuX .1 1 1 C C +. .< 1 - - 1 < ; H 3.1 ; < - ; g +.!.!.!.E.!.!.2.#.!.+.,.2.H E.R...2.3.#.#.!.o.iXR.o.3.R.R.3.R.iXiXuXuXe.+.o.!.Y.!.aX2.2.R.E.2.Y.X.iXiXo.E.2.2.2.uXaXiXaXiXuXiXE.E.#.aXuX+.uXE.Y.E.o..XiXX.!.!.e.e.uXaXiXaXiXiXE.1  .,. .C e.Y.,.H ,.] 2XiXaXNX3. . .+.nXNX<.",
"DXrXU.U.>XU.~ y.y.XXXXn j : u Y Y ! x w % c R y.7.P.qX8X5XwX5X) y.y.{ Y {.&.f T [ R /.XX~.wXxX6XOXS.b [ Z.XX7X].A [ y.{.7X`.>.8XkXrXwX5XZ Y [ y.A.3X_ Y { P.XX7XD.G.5X7X].b L T T m A j w T { %./ d s w c L A [ 5XsX8XkXHXKXX :XDXuXuXiXgXiXiXiXuXaXaX!.2.2.e.C.!.Q.e.+.#.o.+.#.H C 2.R.#. . . .H H +.!.!.uXQ.Q.E.2.2.+.2.+.2. .E.E.X.3.3.!.+.Y.o..XE.o.Y.E.Q.E.@XuXpXuXE.#.+.+.!.Y.!.aX2.2.R.E.2.E.o.iX.X+.E.2.Y.e.uXiXaXhXuXuXuX!.2.o.iXE.+.E.3.3.E.o.Q.uXo.!.E.!.!.uXiXiXaXiXdXE.1 H .. .; 1 1 < C >.< V C V C g C X.< H H C ",
"KXHX}.}.1X1X( %.A.~.`.l j : x T Y Y x w % c y./.[.{.qXwX6X5X5X` [ %.{ Z ^.-.: T R T /.~.~.wXsX6X5X<.h R %.F.].}.b T &.A.(.`.>.kXmXbXsX6XA L y.u.P.5X` b ! %.S.XXS.~.5XwX[.m ! y.F.*.n s w P Y / W d d r R Z.P./.5X8X8XvXbXKX= &XUXiXuXiXaXaXiXiXiXuXuXR.Q.iXuXQ.Q.R.!.!.E.2.!.!.4. .4.3.3.2.2.+...H +.!.!.E.Q.Q.E.Y.2.2.2. .H C o.,.C  .o.#.+...H Y.2...,.!.R.!.uXiXpXuXuX+.#.+.Y.,.Y.fXY.+.!.E.2.E.1..XiX+.T.Y.e.e.!.aXaXiXaXuXiX3.2.X..X!.#.2.E.!.Y.o.Q.uXX.Y.!.#.2.R.iXaXaXiXiXY.1 C .. .1 1 1 1  .T.^ C C C C B H C.C V H V ",
"HXbX+X|.1X5XF [ y.P.).l j : x T Z m t w 3 t [ L.P.[.qX0XwX5X5XF ( [ W A /.&.r m ! L A.XX`.wXwX5XoX<.x [ %.(.XX|.A T &./.{.`.:.vXmXbXwX6XG T &.L.{.8X} Z [ F.XX7XD.`.5XwX[.Z y.*XrX>.a k f R | V.) d d c y.4XlXXXXX8X8XxXnXJX= :XUXaXuXiXiXaXaXiXiXuXuXQ.Q.uXR.uXuXE.E.uXE.uXE.uXe.1 C 4.#.#.#.#. .C +.#.!.E.Q.uX!.!.#.2.,.1 H H X.o.H  . .+.C H  .X...H ..X.Q.!.@XuXiXuXE.#.#...H ..@.e.^ H ..E.X...H @.X.H ..o.2.2.uXuXaXiXiXuXR... .H 2.o. .o.2.#.o. .,.2. .o.+.Y.!.E.iXaXiXiXiX3.1 1  .....@.o.o.4.R.Y...+.+.+.w.C.!.Y.!.!.!.",
"JXbX X'..X X~ [ y./.].l h r b Y Z Z h w : L y./.XX}.qXqXwX0X X) [ y./ Z {.&.j m T m P.{.`.8XsX6X6XS.M | L.jXjX{.Z [ N.qXwXI.:.5XxXjXjX6XG [ y.3XjXwX} T y./.jXjXD.~.5X0X~.F y.{.kX>., j r ' V.L._ g z c y.{.7XXX+X+XOXxXmXnX= :XgXiXuXiXiXiXiXiXaXiXaXiXuXE.R.R.uXuXE.E.3.E.uXE.e.$.1 $.#. ...C C g ..!.!.Q.E.!.E.!.2.2.2.1 1.@XE.Q.Q.Y. .o.C ,.!.T.T.!.2.o.@X3.uXuXuXR.!.!.+.H < C H U C C H !. .g C C K C C C ,.Y.uXaXaXaXaXuX.XH H o.,.=.o. .#...H o.+.2.o.o.o.Y.#.E.uXiXiXiXiX!.C < C  . .#.#.3.2.2. . .+.o...@.+.,.e.Y.E.T.",
"mXmX.X+X+XoX) %.A.4X7XS h f v Y M Y x f % L y.3X7X5XqXwXqX7XoX/ &.y.{ Y <X-.h m A L L.{.~.jX8X6X7XH.L &.L.7XwX}.Z [ N.qXjX_.:.].7X6X8X6XF / y.XX7XjX*.T &.~.7XqXD.|.5X9X`.W y.{.xX;., s s ! V.C.} k h c y.3X7X_.=.1.>.1.<.<.. :XfXiXuXuXaXaXaXaXiXiXiXuXuXR.E.E.E.R.3.3.3.3.uX#.Y...; ; C C C B 1 0 ..e.!.Q.Q.E.E.E.#.2.2.g ,..XQ..X.XR.o.,.S T.dXOX.XpX.X4.@X@XuX@XuXR.3.2.2.H C Y.!.T.C.T...E...H C.C.C.:.+.C Y.C.Q.aXaXaXiXuXQ. .1.Q.T.R..X+.2...o. X.XiX.XY.o.Y.Y.E.Q.iXiXaXaX!.C 1 1 1 U ..o.o.o.$.; #.@.$. ...+.+.e.!.!.E.",
"bXdX_.<.<.<.Q [ y.XX].S j w m Y Z A s w e m y.3X7XoXqXrXwX5XoX` [ &./ Y [.%.z T T m A.{./.jXwX6XOXA.A &.A.XX8X}.A &.N.XXXX~.>.XXoXwXwX6XQ [ y.~.XX8X&.W %.F.{.5XS.{.5XwX~.Z &.:.T.` & h r T ~ / D j s t [ %.<.-.l k b V G A . yXfXaXuXuXaXaXiXaXiXiXQ.Q.uXE.E.E.uX3.E.3.!.uX!.uXY.+.C ; 1 - - - * * ..!.!.Q.Q.Q.E.E.2.2.2.1 3.OX.XQ.'..X,.+.1 3..X@X@XpXR.,.3.3.R.uXuXR.3.2.2.H H .X].Q.Q..X..'.X.@.Q.'..X.XY.H Y.+.!.aXaXiXaXuXQ. .2.OX'.dXsX3.,.o.X.dXpXaXaXE.+.#.#.E.iXuXuXiXaXQ.C - ; - 1 C  . .C - q e.@.......#.+.#.e.#.E.",
"&.=.S l S b b &.y.<.A.S v f m ! Y E x r : L y.~.`.{.wXqXqXwX XQ [ &./ W {.-.b R ( ! /.[.(.7XwX6X+X:.b ( &.:.H.|.A ! *.&.S.(.>.{.5X9XwX5XG T &.&.>.7X{ h ! ( ` }.F.|.9XwX4XW ! ( F M v A z P P ~ ~ ~ / Y T Z G Q ) ) ) } O.7.. yXDXuXuXuXiXaXiXiXiXiXR.R.3.uXR.R.uXE.uXE.uX!.uXe.Y.Y...; * ; @ * 9 =  .e.E.uXQ.E.E.!.2.2.2.< S.OXoXpXdX.Xo.,.C <.OXdXdXgX.X2.E.3.R.uXuXR.2.2.+.C H .X@X.X'.@XX.E...@.W.W.T.Q.T...2.e.R.iXiXaXiXuXuXH Y.pX.X.XpXY.o.o.X.pXoX.XaX@X+.!.!.E.uXaXaXaXaX&XV ; = ; ; ; - ; ; - ..!...#. . .o.+.e.#.E.!.",
"n D p w s d r Y W ( ( A M s x P P m x z r t / / Q S.fXqXwX0X1XD A ! ~ / >X&.h T W Y F.`.~.7XwX6XoXS.h R &.W B.9Xb L [ ( F.[.;.XX0X0XsXsXF T L.N.H.bX&.! /.Z.I.bXI.`.5XkXbX{.<X>XU.>XeX<X^.<X<X*X<X4XtX4X4XqX3X,X4XyX9XyXtXfX@ ;XfXiXuXuXuXaXuXaXiXQ.uXR.R.E.R.R.uXuXuXE.!.!.uXuXY.!.e.0 o @ * = @ = U !.!.Q.Q.Q.E.!.2.2.2.1 X.,.1.Y.3.<. .2.C =.T.T.T.@XY.1..XE.@XuXuX@XY.2.,.H K .X+X+X.X@Xo.3.X.X.2XQ..X.X!. .+.Y.!.iXiXaXiXuXuXH ,..X.X.X.XY.,.o. ..X.X.X.XE.o.+.2.E.uXuXuXaXQ.Q.V ; = o = @ * - * - e.e...#. ...o.#.+.#.2.!.",
"V.V.| y.V.J.%.y.} y.V.L.Z.7.| | } y.V.U.J.| | %.*.F.5XwXwX5XXXQ T U.V.Z.rX;.M L.U.A.9XW.~.5XwX6X8XG.W *XkX^.bXrX{ %XbX`.vX1X:.1X9X8XvXbX} V.KX5XrXJX;.%.bXtXrXJXG.{.7XwXwXqXtXkX9XqXkXkXwXkXkXrXkXrXvXkXtXkXvXwXwXkXvXkXwXJX-.:XfXiXuXuXiXiXQ.iXuXQ.uXE.E.R.iXiXiXiXuXuXuXuXuX!.!.!.!.^ ; = ; 9 @ = q uXE.Q.Q.Q.E.E.2.2.3.1 K ` J H H ..C o.< D ` ^ ^ ......Q.E.uXuXuXuXE.2.,.H l 3.3.3.<.3.J 2...H T.C.Y.S.,.H e.+.!.uXiXuXiXuX.XH H +.X.X.=...,.O.S O.O.X.X. . .3.2.!.Q.Q.iXaXuX&XC @ = = = * 9 - = q &Xe.@.......#.+.+.e.e.Y.",
"rXqX4XtXqXtXtXqXkXrXrXrX9X,X<X,X}.4XyX0XtX9X9X5X,X4X5XqX8X5X1X_ V.HX9XtXbX:.[ tXfX,XbXW.`.wXwX6X7XH.W >XjX[.bX5X/ I.vX|.sX|.:.}.5XwXsXsX` y.vX X3XvX} { 7X}.}.jXD.}.qXoX6XXX3X7XXXoX6XoX5X7X5XwXwXqXqXrXwX7XkXwXqXwXrXwXqXKXG %XtXuXE.R.Q.Q.iXiX.XuXQ.R.E.R.@XiXuXuXE.!.!.!.!.Q.+.Y.Q.w.q ; 9 * @ @  .3.!.Q.Q.E.E.!.#.2.,.< X.T.3.<.3.<...o.C O.T.W.S.Y.,.o.Q.!.uXuXuXuX3.#.+. .< ^ J H J H C Y.^ k ^ H H J H C 2.e.uXiXaXhXiXuXQ.^ ^ +.,.1.:.` o.X.C 1.-.O.1.X. .2.2.E.Q.uXiXiXiXQ.B o = = 9 9 * = 0 Y.e.e.#... ...@.+.#.+.+.e.",
"rXwXqXqX5X5X9X,X1X1X X].|.].|.{.}.3X3X5X5XXXoX,X{.9X9X8XwX6XoX` } tX}. XvX-./ tX1X).xXW.^.wX0X6X+XS.D ~.6XH.wX XW D.8XG.6X|.:.5X6X7XwXwXQ 7.rX]. XvX` { 5X{.oXwXS.,X5X6XoX5X}.5X5X5X7X6X6XwXwXwXwXwXwXwXjXwXvXvXwXwXwXsXsXHXp %X2XQ.R.R.Q.uXuXiXuXQ.R.E.E.E.R.R.Q.R.E.2.Y.!.!.!.+.Y.Q.!.U ; = = @ @ C e.E.Q.Q.Q.E.!.2.2.3.C 3.+X@XpX@XR.X.o.C D.dXOXiX+XR.o.uX3.@X@XuXuXE.e.+.o.C ,.C.H.<.Y...T.@.H C.C.,.,.,.H 2.Y.!.uXiXiXiXuXQ.X.T.nXxXcXmX@X,.o.X.cXdXpXdXQ.X.2.!.E.Q.Q.uXiXiXQ.C * ; * ; * = - ^ !.!.e.........@.#.+.+.#.!.",
"qX7XXX5X6X5X4X5X1X5X5X].}.].`.|.}.}.oX6X5X3X5X1X,XqXwXqX8X6X X/ { 9X].}.vX&.' 1X X_.xX`.I.qXqX6XoXS.Z ~.wX).wX}.W F.qXG.6X`.:.5XwXwXxX6XQ &.qX].}.dX) { 5X].5XwXS.}.9X6X3X}.,X5X5X5X5X9X5XwXwXqXrXwXwXwXxXbXbXvXwXwXwXsXsXbXV %X2XE.R.R.Q.iXQ.iXuXQ.R.E.E.E.E.Q.E.!.!.Y.+.!.!.!.+.e.!.!.!.B * ; = * ..E.Q.Q.Q.E.E.E.2.2.3.1 3.@XE.@XpXiXo.+.G T..X.XpXpX.X4.uX3.@XR.uXuXE.#.2...H .XiXOX.XoX=.Y.X.O.5X.X'.|.T. .Y.#.uXuXhXiXuXuXR. ..XMXnXnXMXiX,.,.1.MXMXnXnXaXo.2.!.!.Q.Q.iXuXuXQ...q ; = = @ * B K.W.e.#..... . .+.+.#.+.+.Y.",
"qXwX5X6X7X5X4X5X5X5X5X X}.}.}.'. X1X X6X6X X5X5X,XqXwXwXwX6XoXQ 7.tXXX{.vX} ' 3XOX`.xX).^.qXwX6XoXC.Z ^.8X~.wX|.Q F.wXF.7X|.:.3XwXqXxX5XQ &.wX_.}.fX` / 7X{.oXjXS.}.wX5XXX}.}.oX X5XrX9XqXwXqXqXrXkXjXjXjXvXxXxXwX8XjXwXwXbX| %X2XY.Q.Q.iXQ.uXuXuXQ.R.E.E.E.E.Q.E.!.T.C.2.Y.Y.Y.+.+.!.!.!.B.V - - 0 @.!.Q..XQ.E.E.!.#.2.!.C 2.aXaX.XOXaXo.+.V :..X.X+XpX.X,.3.3.E.R.uXuX3.2.+. .C Q..X].@X@XX.2.X.X..X'.T..X'.H 2.2.E.iXiXiXiXuXE. .E.mXcXmXMXiXo.o.1.MXcXgXnX.XX.2.2.!.R.iXiXuXiX.Xo.^ 0 ; * - B e.&X!.!.+.........o.+.+.@.e.!.",
"rX8X6X5X5X5XqX5X0X5X9X X XoX X]. X5XoX6X6X}.6X5X}.5XqXwX8X5X5X/ { 9X>X}.vX-.! 4XXX`.xX).~.qXwXwX6X<.Z I.8XG.sX}.W F.7X(.8X`.;.5X8XwXwX6XW &.jX`.XXvX` / qX[.XXwXD.}.7X5XoX X}.oX6X5XwXwXwXjXjXwXjXwXjXwXwXxXwXwXwXwXwXjXwXHXO.%XUXQ.E.Q.Q.Q.Q.uXiXuXuXR.E.!.Q.Q.Q.!.!.2.2.+.Y.2.+.+.Y.!.Y.!.w.@.^ @.,.Q.Q.Q.Q.E.E.!.!.#.!.C C.aXOXiXdXdX+.+.V :.dXpXpX@X@X,.R.3.@XR.@XuXuX3.+...H Q..X.X@X.XX.,.X.X.2X.X'..X'. .+.Y.!.iXiXpXiXE.E. .Y.nXgXnXnX.X,.X.X.gXgXgXfXpXo.Y.2.!.R.iXQ.iXiXuX+.+.@.^ U @.w.e.W.e.Y.+..... ...o.#.e.#.+.Y.",
"rX7XoX0X5X5XwXwX6X6X6X5X6XoXoX}.oX6X5X5X8XoXoX3X3X5X5X7XwX6X5X/ { tXXX}.vX-./ 4XoX_.vX`.`.wXwXwX7XS.Z I.8XG.sX}.W G.7X(.wX|.:.5XwXwXxX6XF &.jX(.}.bX_ { 0X|.6XwXS.oX7X7X}.]. X8X7XwXwXwXwXvXjXjXkXjXvXvXvXsXkXqXqXrXwXwXjXJX| &XLXiXE.R.iXuXQ.iXuXQ.Q.E.E.!.Q.Q.Q.Q.!.Y.Y.+.Y.+.+.+.Y.C.Y.C.C.Y.C.C.Y.!.Q.Q.E.!.E.3.Y.2.!.C H .. .X.X.X.C @.l H X.o.=.4.X.X.@XE.R.R.R.uXe.#.e.o.H T.E.'.Q.T.o.,.X. . X'.Q._.T.X.2.#.!.iXiXiXiXuXuX . .C.,.,.,...o.+.C 1.,.,.,.o.H #.2.E.iXpXiXiXiXQ.o.Y.Q.K.K.!.!.!.!.C.Y.,.o..... .@.+.@.#.e.e.",
"rXqXwXqXwXwXwXwX8XwXwX5X6X6X6X].6XwX6X6X8XoX7X5X3X5X5X6XwX6X6X/ [ 9X5X5XfXO./ 9X5X`.bXW.{.fXrX6X6XS.D G.6XG.wX}.W F.+XG.8X|.B.5X8XwXsX0XF { 8XH.].vX) ) wX|.oXjXH.}.7X7X6X6X`.`.`.{.5X}.1X5X,X3X5X}.{.3X,X<X9X,X,X4X3X>X5XbX} *XIXpXY.E.Q.iXiXaX2XuXQ.R.Q.!.Q.Q.Q.Q.W.!.Y.+.+.C.O.C.Y.C.C.w.+.C.C.+.Y.!.Q.Q.R.!.!.E.!.#.!.C C C C C - g C X.C C 1 C H 1 C ^ E.3.3.@XR.uXuX#.2.o.<  .X.^ H H C #...C ^ H H H C C +.+.!.uXiXhXaXuXR. .- g g C < C  .o.< C C C < 1 C #.2.E.iXiXaXiXiXuX+.w.&XQ.W.W.e.K.!.Y.Y.2.o.,.o.+.+.e.e.e.!.!.",
"vXrX0XwXrX9XwX8X5X,X9X9X1X0X1X`.5X5X]. X X)._.`.}.5X5X6X8X6X6XQ { 4XXXXXvX*.[ 5XoX].cXT.[.wXwX5XOX<.D ~.dXG.jX].Q (.8X(.6X`.B.5XwX7XsX6XF &.jX_.oXvX) _ wXXX8XjXS.}.7XwXwX8X).H.G.G.[.W.|.{.,X5XqX3XtXrXkX4XqXrX9XqXqX4X9XkX) K.PXiXe.E.uXiXQ.aXaXQ.Q.Q.Q.Q.Q.Q.Q.Q.!.!.Y.,.2.e.e.C.!.K.C.w.O.w.Y.C.!.Q.Q.Q.Q.!.E.E.Y.+.!.+.+...2.R.X.o.4.2.O.,. .o.Y. . .,.E.2.E.R.uXR.E.2.+.o.g C g C g < C o.+.C C < C 1 < C +.#.!.E.iXiXQ.E.!.+.o...+.T. .+.3.,.,. .o.2.J H  .+.2.!.iXiXiXiXuXuX+.+.K.Y.!.C.e.Y.Y.Y.!.!.2.Y.Y.!.Q.Q.!.!.uXuX",
"9X[.,X<X4X}.{.}.>XI.[.[.U.U.[.I.P.F.H.S.:.>.>.>.G.wX5X6XwX6X5XF { vX].XXxX` ( wXXX_.vXH.|.kXwX6XoX:.b G.+X<.8X'.l :.XX<. X|.:.9XwXwXsX6Xl Q ].1.<.cXG b G.1.S.7X:.|.8XwX8X6XG.W.XXqX}.|.7XxX5X9XqX7XbXJXbX{.^.4X>X3XqX3X3XkXV | MXuXuXuXiXiXaXQ.Q..XQ.Q.!.!.!.Q.Q.Q.Q.!.Y.Y.Y.,.w.!.W.!.C.+.+.+.+.O.Y.Q.Q.Q.Q.Q.E.E.!.#.!.#.3.o.E.pXo.o.3.E.Y.W.o.E.pX+.1.3.T.Y.3.R.uXR.E.2.o...o.+...2XY...Y.2.+.,.@.X.2.J  .X.o.o.!.E.uXiXuXE.E.+.,.,.!.2Xo.E.iXR.iX,.2.iX2.,.+.o.o.2.Q..XiXR.Q.uX+.e.e.C.Y.w.w.C.Y.Y.T.!.!.E.!.!.uXuXQ.Q.iXiX",
"' HX9X4XtX9X9XtX9XtXyXtX9X2X9XyX9X9XtX2X9XyX2XyX9X9X5X1X6X5X8X}./ J.tX<X,X9X| ' ~.B.B.[.D.~. X X X XO.M V.N.%.[.;.x ~ ) ( -.G.S.{.oXoX XG.v h Z n ` C.b f b l J S.S.W.1X6X|.k N Z V V N Y N ~ ) } Q B z s Z ( ) Q l n l Z Q & ^ MX5.#.e.Q.uXaXaXaXaX.XQ.Q.Q.Q.2XiXuXQ.!.!.Y.Y.!.!.W.Q.!.Y.w.,.Y.O.@.!.iXiXiX.XQ.uXuXE.#.uX#.3.#.R.pX+.2..X3.!.aX+.E.iX+.2.Y.E.!.uXuXiXiXuX2.2.o.+.!.+.aXE.o.E.3.2.Y.1.3.aX,.,.2.o.+.E.Q.iXgXpXuXR.2.4.2.E.pX2.R.uXR.aX2.2.aX2.=.+.o.2.!.Q.iXiXiXiXiX+.+.K.!.!.!.Y.!.!.!.Q.!.Q.R.E.R.uXuXuXiXaXaX",
"M PX0X1X1X5X3X2X9X6X6X1X5X5X9X9X9X0X9X9XrX0X0X0X0X9X0X1X5X6X8XfX} u.UX,X5XKXO.E ,XW.F.0X:.I. X X X8XI.~ &XtXI.bXW.N 7.>XC.[.[.B.[.,XXX5X5XV Y U.;.;.,X~ P U.} &.W.:.I.}.].,XV.| | | 7.J.7.' ' ~ E ~ U R N N E D M U U M E ^ - g pX#.$.C ..@.+.Y.Y.C.C.e.C.+.+.,.,.Y.,.+.@...o.O.| q.q.q.@.^ ^ @...U ..C.e.2.C.+.+.+.o...#. ...H H >.H ..X.H ..+.H ..o.H H @.+.o.+.2.2.+.+.o...H ..o.H Y.,.H ,. . .o.X.X.E.` H .... .o.,.Y.3.Y.2.2. . .H ..O.H ......o...^ o. .H  .H  .o.,.,.Y.2.2.C.^ ^ @.@.O.O.@.O.O.@.O.@.+.+.o.@.w.+.w.e.C.Y.",
"M KXwX1X5X X X1XoX6X5X5X XoX5X5X6X7X6X5X5X6X7X3X5X5X6X5X6X6X6XsX_ ;.7X).`.bX-.W 1X].`.6X:.I. XoX1X6X:.~ [.5X|.vXH.A L.tXI.0X}.:.[.5X X6X1XE [ tX[.}.0X~ | tX}.,X9XB.I.oXoX1XtXtXtX9X0XtXtX9XyX4X<X<X2XyX<XU.W.I.W.<X&X*XU.yX^   .                                                                                                                                                                                                                                                                                               ",
"M KXsX6XOX1X6X5X5X.X2X1X5X1X1X5X5X5X5X6X5X5X6X7X0X5X1X6X0X1X6X6X^ N.qX`.[.mX>.Q 9X|.).8X:.I. X X5XoX;.D [.,XG.wXS.n A.5XH.1X|.B.[.XX X X X~ / 9XG.W.5X( / ,XW.`.3X:.I.}.3X1X1X5X4X2X1X6X0X5X6X0X0X0X9X9X9X0X0X9X9X9X9X9X1XJXN.  .                                                                                   .                                                                                               .           .                                                                                   .           ",
"D JXdX2XOX XXX+XOX6X6XoX5X XXXjX8X6X6X5XoX5X+XzX0X5X5XOX0X6X0X XG -.5X'.'.bX>.W 2X|.I.wXC.I.}.1X X6X-.D `. XG.wXS.M Z.5XH.oX|.:.[.oX X5X1XQ ) 3XT.|.5XQ / 5XG.`.qXB.[.3X5X}.5X5X9X5X5X1X5X6X6X0X0X5X6X1X5X9X7XXX1X1X1X X XJXO.                                                                                                                                                                                                                                                                                                  ",
"V JX8X6X8X+X+X+XOXOX6XOX+XoX+XzXOX6X8X+X+X}._.zX6XOX2X6X6X0X6X}.G *.oX_.'.dXX.F }.]._.8XC.I.1X X X6X-.D `.oXG.8XS.M S.5XG.5X|.:.[. X X6X XF { 5X_.].6XQ { 5X).'.5XC.W.,X5X X X6X6X5X6X1X5X6X0XwX0X1X6X6X5X0XqX4X5X9X1X5X5XmX-.                                                                                                                                                                                                                                                                                                  ",
"b bX]._._.]._.<.)._._.)._.@X_._.]._.@X+X3.zX<.+X+X+X X6X6X6X6X XG &.jX_._.xX*.( 6X].].OXS.I.}.1X1X6X-.G [.+X).8XS.D D.oX).6X'.C.}.1XoX5XoXF } 8X_._.8XQ { XX`.].6XC.`.5XOXoXXXjX6X5XXX3X5X6X6X6X0X1X7X7X5X7XjX3X5X2X5X5X1XJX;.                                                                                                                                                                                                                                                                                                  ",
"& >.J S K K J < K K J K K J S K J J J J *.*.*.*.X.X.H.6X5X6X8X Xl a ` J G ].` , =.*.*.].S.I.1X X XOXO.a *.<.=.].S.k _ H.>.`.[.B.[. X X5X.XG Q ].<._.6XF ` XXT._.oX:.`. XXX].+XzXOXOXOX6X+X+X0X8X8XOXOXOXOX8XjXzX XoX5XoX1XmX-.  .                                                                                                                                                                                                                                                                                               ",
"* ~ g - 7 - - - b G H K , * * : S S S < * * , ` _ ` S.6X6X6X6X.Xg : n J J `.^ * j l < <.F.I. X6X1XOX` & b D l >.S., h Q K } `.A.[.1XoX5XoXl , J J J ].K a ` J ` _.S.~. X5X|.4.<.<.<.).+X+X_._.)._.@X+XpX].].XX3._.+X+XoX+XmX=.                                                                                                                                                                                                                                                                                                  ",
"d <XJ.7.7.7.' f n ` ` F > * * j ( J J , % * h >.(.T.'.6X X X1X].V N ) S.S.,X) w h x S (.F.I. X2X5XOX_ d Y Z N } C.a [ Z.D.C.I.V.[. X X6XoXl * , < j G.D p ` =.=.G.C.I. X0X[.< < S < < S J l F *.` H J J K J *.*.J =.1.1.1.<.K                                                                                                                                                                                                                                                                                                   ",
"P KXtX9XyXtX1Xn n _ ` F & & # h ( ` J f & * x &.<.<.`.6XoXoX X}.l A _ <.:.].) s Y / / ~.P.I.1X5X1X6X_ v [ q.| N.B.b J.<X3X[.I.B.|. X X6X.XS f d a k I.~ M S.XX].].C.`.,X5X|.g , a d , - a , %._._.O.> > > ` H.S.O.g k B l G &                                                                                                                                                                                                                                                                                                   ",
"U KXtX1X0X0X6XV b ` J F & & $ x Q ` ` , $ * s >.<.<.`.5X5X,X1X].n n _ H.<.oX` j ) F.S.{.F.I.1X5X,X6X_ m Z.,X,X`.B.b %.XX5X_.G.:.|.5X6X6XoXV f h d k I.F Z B.]._.].S.I.}.5X].g a d d p w j a :.].].1., * w >.`.].H.~ ^ ^ ' ] p   .                                                                                                                                                                                                                                                                                               ",
"M KX0X5XoX6XoXn b G F S & & * f D G G , * # w G J J <.wX6X1X1X XN k E ` ` ].Q , F ) *.|.S.I.1X0X5X6XO.b N.I.~.^.B.v ;.~.|.G.G.S.|.1X5X6XoXn f z s h I.G n <._._.].C.~.1X5X|.a f j a p : j f :.].+X1.% % w >.]._._.{.,X<X&XUX|                                                                                                                                                                                                                                                                                                   ",
"P LX6XOXOX6XOXV Z &.O.Q & & # x F F F , % * p F *.K <.wX6X6X1X Xl x E _ ` `.` , A Q Q `.S.I.1X9X5X5X-.c | B.B.S.A.h [ ;.:.:.I.A.}.5X5X6X Xb f x v M W.G j ) 1.<.'.B.I.oX6X|.a p f p 7 p d , &.H.T.=.> > : &.).(.(.3XqX0X9XJX;.                                                                                                                                                                                                                                                                                                  ",
"M JX+X+X+XOXOXG W A.C.} - $ $ N ) ` ^ a & * f ) :.-.G.wX9X0X1X Xn n { G.S. X) a ( :.>.'.S.I.5X6X1XoXO.Y V.{.{.~.:.k %.I.I.F.G.B.|.1X1XOX Xn b N.A.D.,XU z ) 1.>.W.S.I. X6X[.g s z f 6 f d : ( &.=.H & & : Y *.*.>.XXqX6X7XJX}                                                                                                                                                                                                                                                                                                   ",
"a (.1.X.=.1.>.l ! B.H.&.& 6 & B ) ` ` a 6 $ f E ` J A.qX9X5X2X}.G b { <.<.}.J a ( -.-.`.S.I.5X5X1X6X_ Y L.3XXX|.:.D V.>X5X`.I.:.|. X6X6X.XD ! I.6X X,XH A B.|.`.{.B.I.1X6X`.n 7.U.F.V - a s A.].].>.& % r %.^./.G.5XwX5X7XmXO.  .                                                                                                                                                                                                                                                                                               ",
"* ~ S l B n d f ! } -.` z 7 6 c Q ) / 0 6 6 d ~ ) F C.wX0X0XdX XK A &.H.S. XH h ( >.=.|.D.I.5X6X X6X-.Z Z.XXXX].:.A B.{.oX).(.B.'.1X5X6XoXZ W F.+X].OXF A :._.].].A.I.9X6X`.G D.XXoX_ & d s N.].@X1.- & r N.}.XX_.zXdXOXdXmX>.                                                                                                                                                                                                                                                                                                  ",
"w V.^ ~ ~ ~ ~ B P E D U ' U B z N v N z 0 I 0 B n N N.wX0X6X6X}.n h Z ^ ` ].Q p A J F G.Z.~. X5X XoX-.v &.S.D.G.C.N &.H.~.H.F.;.'.1XoX6X}.Z F G.].].oXF A :.]._.].B.I.1X6X`.D H._..X` , h j N.].].1., 7 r y.XX+X<.<.<.<.<.+XJ   .                                                                                                                                                                                                                                                                                               ",
"N HX,XW.<X|.&XW.U.W.I.U.&X>XU.K.K.Z.L.K.U.&XV.V.N.O.I.9X5X5X6X1Xn d / V V `.Q p ~ F V G.B.F.1X X X5X:.p E Q D C.C.f Z ! F -.G.:.[.1X X5X Xn b _ 1.>.].G h ) -.=.`.<.I.1X0XW.v } :.<.G 0 p p } C.<._ f 0 7 | G.(.:.k g l S K -                                                                                                                                                                                                                                                                                                   ",
"M IXtX9XtXtX9XrXtX0X0X0X0X9X0XtXrXrX0XtX0XtXtXrXrXrXrX9X6X5X6X}.E ] 4XI.F.1XQ ~ <XI.U.1X:.I.1X X].oXF.Y U.<XS.rXI.k } D._ F.I.:.`. X XoX1Xn M ;.` O.}.Q x ) Q _ `.A.I.}.6X[.Q Q / ^ ~ | ' P E D F E ' ] I N D G Y B N N g M &                                                                                                                                                                                                                                                                                                   ",
"M KXfX5X0X5X5X1X1X5X X6XoX6X1X0XqX0X9X1X9X2X5X5X2X9X9X5X6X6X5X XQ | 9X`.W.6XQ / 9X[.[.9XB.G.1X5X].].C.Q >XrX[.bXI.M P.5XD.5XW.;.'. X5X6X5XF | tXW.|.wX^ ' 5XW.`.7X:.W.}. X5X5X9X9X2X9XtXtXtXyX9X0X9XtXUXDXrXtX4X4X2XyX<XU.tX'                                                                                                                                                                                                                                                                                                   ",
"U KXsX6X6X5X6X9X5X6X6X X1X6X6X0X0XqX0X6X6X5X5X6X5X5X5X6X6X1X6X1XQ [ 9XT.W.OXF ~ 9XW.`.9X:.I.,X5X X].:.P I.1XI.wXH.M A.3XD.5XT.:.[.5X5XoX XQ } 0XT.|.0XQ { 9X`.}.5XC.G.}.oX6X5X5X9X0X2X5X5X9X0X9X0X2X9X9X5X0X9X8XwXwXqXwX2XKXN.                                                                                                                                                                                                                                                                                                  ",
"Z KXwXOX5X1X5X6X5X0X6X5X1X6X5X5X0XwX6X5X6XoX6X5X6X5X6X6X6X6X6X XQ | 0X`.W.6XF [ 9X|.`.6X:.I.oX X X.X:.Z I. XG.0XH.M D.3XH. X`.B.}.1X5X6X1X^ { qX`.].dX) ) 3X`.].6XC.I.oX5X5X6X5X5X5X1XOX6X0X0X0X6X6X6X6X5X5X9X1XoX XoX}.}.mX;.  .                                                                                                                                                                                                                                                                                               ",
"Z KXwX5X6X5X1X5X0X6X0X1X5X1X5X5XwX8X6X6X6XoXoX5X5XoXOX6X6X5X1X XQ { wX`._.6XQ { 5X`.'.6X:.~.1XoX]. XB.D I. XG.0XS.n D.5XH.1X`.B.,X1XoX6X1XQ | wX).].6X` { 5XT.}.6XB.W. X5X5X5X9X6X6XOX5X5X6X0X0X6X5X6X2X6X6X5X0X9X6X6XXX,XJXO.                                                                                                                                                                                                                                                                                                  ",
"D JX8X+X6XOX XoX6X6X5X X5XoX5X6XOX6X6X5X5X}.oXOX6X2XOX5X6X6X6X XF { 6X_.).6XF / 5X'.).6X:.~.1X3X].oX:.n H.oXH.8XS.D S.6XS.5X'.C.|.1X5X6X1XQ } wX_.].6X^ { 7X).}.5X:.`.5XoXoX5X0X5X5XoX1X5X6X6X0X6XoX5X5X1X6X6X6X5XoX6X9X XmX-.                                                                                                                                                                                                                                                                                                  ",
"D JXcXOXOXOX+X+XOXOX6XOXdXOXOX8X8XsXsX8X+X].+X8XdXOX6X1X6X6X1X XF ) 7XT.).6XF / OX_.).dXC.I.1X X}.oX:.G H.].H.8XH.Z :.oX<. X`.A.<X5X5X2X XF } wX_.'.6X( / 5X).].6X;.~.oXoX}.1X0X6X5X X X X6X6X5X6X6X5X9X5X5X5X6XoX}.6X5X}.mX-.  .                                                                                                                                                                                                                                                                                               ",
"a oX<.1.1.1.=.=.1.1.<.<._.@X_.).).|.T._.+X@X_.XX+X+XXX7X5X1X6X].G G ].<.<.6XG D ).<.<.6XB.~.1X X}.5X:.n G.].<.wXH.A :.+X<.oX).B.{.1XoX6XXXF *.jX).].jX( *.jX(.zX5XB.I.}.}._.oXOXzX+X].].+X+X+X7X5XoX+X+X].].+X+XoX].7XOX].mX-.                                                                                                                                                                                                                                                                                                  ",
"* Q l , - - , , a < =.=.K < , S ) -.=.S K S < l K K :.7X0X5X0X Xl & G n l ].n : ( J J `.S.G.,X1X}.5X:., G ` J ].S.a ( :.` G.`.B.}.5X}.5XoXS A (.1.<.+XG A (.&.<.,X:.I.}.3X).(._._._._.zX+X].XXXX+X].+XzX+X+X+X+X].+XOXOX+XmX-.  .                                                                                                                                                                                                                                                                                               ",
"7 7.~ B z B 0 f [ y.7X]., > : [ P.rXbXK * * > L Y M ;.qX5X9X6X XV w f f j I.Z x N.[.|.}.A.I.5X X XoXB.* & : a :.S.% s W Z ;.~.A.[. X5X6X}.l : G S K {.A t &.&.%.|.B.~.,X5XT.S K K K K *.*.K ( J Q Q =.=.J J *.*.*.1.H.H.<.+XJ                                                                                                                                                                                                                                                                                                   ",
"P KXyX>X<X<XU.E y.>XkX]., % w [ P.kXbXF , * m L.eXtX4X7X6X0X6X XD Y 8.L./.XXZ W L.kXvX7XB.I.5X1X}.6X:.x ! q.N.I.A.x 8.L.<X,X`.B.}.1X}.6XoXn A Z Z h (.( &.:XJXlX5X:.^.XX5XT.l , , < : , < > L A D k l 1 > , , < < < l l S G ,                                                                                                                                                                                                                                                                                                   ",
"U KXfX9XrXtX0X` &.XXjX].< * : [ /.jXbXJ * $ L L.tXbXqX7X7X5X6X XD [ u.kXHXlXG ! Z.lXxX8XC.~. X5X}.6X>.N y.7XlXjXS.Z u.:XkXjX~.S.}.1X5X5X XG W &.&.A `.Q &.lXlXJX5X:.[.3X5X).l v j h f a < c y.:XtXN.d k > f j j B n M M N ~ 0                                                                                                                                                                                                                                                                                                   ",
"Y LXrX1X9X6X6XF / F.].H., & : ! Z.XX7XK & $ A u.>X9X3X7X6X0X6X XE / y.>XjX8XZ ( A.3XjXOX<.I.1X1X}.oX:.m A.lXjXjXS.Z y.>XkXkX~.S.}.5X5X0X}.K Z &./ Z ).( &.lXJXmXoX:.`.,XoXT.l x h h : f j x y.4XkXI.g d : s m m P U.W.&XU.tX]                                                                                                                                                                                                                                                                                                   ",
"D PXrX1X9X6X6XF ( Z._.<.> > $ T y.F.`.S & * x &.F.(.~.7X0X6X6X XD T [ F.~.oXG A &.F.].}.S.~.5X5XoX5X:.A %.{.XXzXF.b [ /.{.XX/.A.}.5X6X0X XD Z ~ W A `.W &.:XjXjXoX:.`.,X5XW.N z z z f p j x y.{.3XB.k d w R J.L.U.4XfXtXrXJX;.  .                                                                                                                                                                                                                                                                                               ",
"D JXsX+XoXOXOX) y.,XvX{.: $ e [ U.qXsXG & % m u.3XjXXXqX6X8X6X XG ! y.7X7X7XD Y y.{.8X].S.I.5X1X5XXX:.c &.y.A.(.H.v [ y.A.(.(.S.,X6X5X6X1Xn m [ { { [.W &./.XXlX}.B.[.1X0XW.M [ 7.7.N p r c /./.,X;.l j r [ V.L.S.,X6X9X5XJX-.                                                                                                                                                                                                                                                                                                  ",
"A PXcX+X+XzXOX` %.{.cX]., % 6 [ (.jXjXJ : $ Y Z.jXcX7X0XwX6X6X}.W [ A.jXbX8XF [ Z.qXbXOXS.~.3X5X}.5X:.Y U.4XlXzX<.W /.lXjXjX`.B.}.5X6X6X1XF | eXkXkX3XW y.eXbXbX,XB.[.2X0X(./ SXHXKXV.p d m :XlXkXA.l a j u.lXlX/.XXjXXXoXJX>.                                                                                                                                                                                                                                                                                                  ",
"> 1.=.J J J F G %.{.cX].a * % / F.oXzXK w % P A.XXjX5X6X6X6X6X}.F &.N.jXcXOXF [ y.4XbX7XS.~. X5X XXX:.! *XbXmXmX<.T /.bXmXmXW.S.,X5X2X6X}.E Z.bXJXJX3X( y.lXJXJX,XB.[.1X0XW.( GXKXIXP.w d T lXHXKX[.g a c :XKXJXbXzXzX+X+XmX-.                                                                                                                                                                                                                                                                                                  ",
"* Z g 0 : & 7 d &.&.<.:.B 6 $ T O.S.G.V 6 3 N N.~.XXoX0XdX0X6X].G &.V.].OX7XQ / A.XXjX7XC.I.5X5X X6XB.( {.mXmXkX<.( /.kXmXmX).:.}.5X6X6XXXF A.kXmXmX+XW y.lXJXJXoXB.`.1X6X)./ lXHXJXS., d Y 4XbXmX|.g a c /.HXmXjX_._._.).cX_                                                                                                                                                                                                                                                                                                   ",
"p L.| U ' ' ] ! ( / ` ) ] P N Y Q E ~ P B L c ! ( ` F.rX0X8X6X}.n m ( ( *.}.W m [ &.*.(.S.I. X5XXX5X>.Z A.XXXXjXA.A %.].XXjX).A.}.6X5X6X].Z &.+XzXcX].F y.3XjXjX XB.|.6X8X(.{ lXbXmX:., f Y 4XkXbX_.d f m :XkXbXzXF K S K _ g                                                                                                                                                                                                                                                                                                   ",
"P KXDXyXtX9XyX<X<X4X,X1X4X<X<X<X>XW.U.^.*XyX%X*X^.L.4XbXsX6X6X XW ' P.N.A.fX| Y Z.N.;.1XS.G.5X X1X5XC.b &.S.-.{.F.j ( %._ H.(.:.{.5X6X0XoXb Z ;.=.1.].A T %.&.<.|.C.'.6X6XG.D V.S.S._ z v v y.F.(.-.B B z ;.~.(.A.l d d d M *                                                                                                                                                                                                                                                                                                   ",
"D PXfXaX0X6X1X0X0X0X6X6X6X0X9X0X0XtXrXrXtXfXvXfXvXbXbXfXwX6X6X X) Z.vX<X4XmX;.| kX2X1XJXG.I.5X5X X6XG.! *X7X~.bX(.b y.XXA.}.[.:.}.5X6X6X3XD [ {.C.G.].A &.`.>.S.XXB.W.5X6X].B.P.U.F.D.K.U.J.A.B.B.B.Z.J.| &.;.;.>.%.V.N.q.&XE   .                                                                                                                                                                                                                                                                                               ",
"W KXrXwX6XOX5X6X6X6X6X6X6X6X0X0XdX0X0X2X6X0XdX0X8X8X0X0X0X0X6X}.Q %.qX`.|.dX` [ qX}.].xXH.I.oX6X1X6XD.G [.7X).bXH.A A.jX(.8X|.:.{.5XOX0X}.W N.jX_.3X}.E y.7XG.oX5XB.|.5X5X5X9XqXtX0X0XrXtXrXrXqX7X9X9X0XrX9X9X4X7X9X9X5X4XKXN.                                                                                                                                                                                                                                                                                                  ",
"D KXvX5X2X5XoX6X0X0X0X0X0X5X0XwXsXsXsXdX6XsXwX6X8XOX8X6XdX6X6X].~ ;.7XW.|.6XF W 6X'.'.8XS.I.oX5XoX6XS.Z G.oXH.8XH.A S.oXH.8X|.B.}.6X6X6X XQ %.jXW.5X}.E %.7XG.}.6XC.|.5X1X X X6X0X9X5X5X6XtXrXrXwX5X1X5X9X9X9X5XXXXX3X3X3XmXO.                                                                                                                                                                                                                                                                                                  ",
"D KXxX8X6X5X X5X6XdX0X8X6X5X7XwXqXwXwX8X6X6X5X0X6XwX0X6XdX6XdX].F O.wX).}.6X( ( 5X].|.8XS.`.oX5X X6XC.Z G.6XW.8XH.Z B.5XH.0X|.:.}.8XoX6X XD ;.8XT.5XoXE y.0XW.oX5XB.[.5X5X XoX5X0X6X6X6X6X8XsXjXwXOX+X6X5X0X8X+XoX X X5X5XnX;.  .                                                                                                                                                                                                                                                                                               ",
"D JXcX+XOXOX.X2X8X8X8XOX+XOX+XzX8XdXcX+XOXoX5X6X8X6X0XdX6X6X2X].F %.OX_.].dX` ( 6X_.`.dXS.`.oXoXoX6X<.A G.oXG.dX<.A <.5XH.6X].:.}.6XoXwX}.D &.8XT.oXOXW O.wXT. X6XC.}.9X5X XoX8X0X8XOX6X6XdXdXwXdX XoX6X8X8XwX8X2X X5X5X XJX;.  .                                                                                                                                                                                                                                                                                               ",
"D LXcXzXzXzX+X+X8X+X+X+XzX+X+XcXcXzXNXzXzXzXdX+XzXxXdX6XdX0X5X'.F >.dX_.].dXH ) 8X].].8XA.^.6X5X5X6X1.G _.OX(.cX1.S <.+X<.8X].:.,X5X5X5X].D &.jX).XX+XF -.7XH.+X5X:.}.5X1X].+XOX8X6X1X1XOX8XjXcX0X X+X6X5X6XjXOX.XoX6X6X}.JX-.                                                                                                                                                                                                                                                                                                  ",
"k ].1.=.=.1.=.J =.>.>.=.1.<.=.1.<.1.<.<._.3.<.<.).H.).0XwX0X5X'.S D <.=.=.+XG n (.1.>.XX:.`.oX5X1X6XC.a _ 1._ _.<.< *.<.=.].|.B.}.6X5X0X].A _ ].1._.oXG *.oX<._.oX:.[.5X5X_.oXdXdXOXOXdXjXzXzXcXdX+X+XdX8XOXzXzX@X].OX6XoXmX>.                                                                                                                                                                                                                                                                                                  ",
"* ^ n , , , a p &.D.F.1.< , > j l < < l l , < S k l S.sX6X6X1X.Xl , n n F XXG : l l A `.S.I.5X5X1X6X:.: Z _ F S.S.* , l < ` `.A.,X6X1X0X}.d f K l F |.v j F G _ ].S.|.5X6X).` 1.<.1.1.<.3.<.<.<.<.<.@X_.<.<.3.<.<.<.+X+X].cX=.                                                                                                                                                                                                                                                                                                  ",
"w V.~ N N M v z A.3X5X)., & : m b j A l > > j x z d F.rX5X9X5X'.V v l l Q 5XF j v h Z ].A.[.5X5X X6X:.k V.{.`. XS.* : j j ) |.A.,X6X6X6X1Xk , a , G |.Z c Z D B.|.C.|.6X6X_.l _ -.=.S 1 S S S S K ` J K l l l S J S K K F =.l   .                                                                                                                                                                                                                                                                                               ",
"M HXyX<X&X<XU.m N.XX+X(.< : % m b j b b : & z ' | { I.rXwX6X1X'.D N v h W ,XQ h b x Y [.C.`.5X5X5X6XB.b A.]. XOXA.* : j A *.[.S.}.0X5XwX Xn x B d ( }.Z ' F.|.1X1XB.[.6XdXW.n F.|.].` , < j A : Z :.< < a b p Z S.p , & p n -                                                                                                                                                                                                                                                                                                   ",
"P IXrX0XqXrX3XD >.].].<., & % b b x A S & $ c L.<X{.,XrXwXwX6X}.V v v h E 4XQ h b x Z [.S.^.}.5X5X8X:.S :.XX].OX<.* % s a ( `.S.}.6X5X6X.Xn d z d ! }.D ~ [.5XoX X:.|.5XwXG.A I.].oXX., < b A r ( A.l j k P f Z *XV.7.| | U.N                                                                                                                                                                                                                                                                                                   ",
"E KXvXwX5XwX5XS { B.<.=., & * x r s b k & * s y.H.A._.jXwX0X6X].V s x d A ,XW r c B m [.S.~.,X5X1X0X:.k &.(.(.XX<.* w d j ( `.B.}.0X6X6X Xn s s r ! ,Xn ( (.].+X X:.|.5XdX~.A (.]..X` - a x m p Y A.k , h Y r A {.qXtXtXtXKXq.  .           .             .       .       . .     .           .       .     .       .             .     .               .               .         .     .                             .                     .     .                               .                       .                 .   ",
"U KXwX9X5X8X6XA { A.S.-., & $ x T Z W d & $ t A.F.<.`.qXwXwXwX Xn x ' | { }.G d ' | | [.B.[.5X5XoX6X:.f { :.1._.S.& p v b ` `.A.}.0X6X6X Xk s c v W }.n L *.1.<.].A.|.5X0X`.k >.<.H.J , f f c p b *.k f s x : b P.qXtXqXtXJX:.                                                                                                                                                                                                                                                                                                  ",
"G JXsX8X8XcX7XF y.XXXX<., % % ' P.[.[.l & % m P.}.XX}.7XwX0X6X XA W P.[.~. XG Y P.3X3X,XS.`.5X5XoX6X:.l ;.|.].OX<.& w k b ( [.C.}.0X6X6X}.n Y L.^.I.}.l Y A.).).}.C.{.9XwX`.k ;.<.S.G p d r [ | %.Q a a w T / [ ;.5XsXOX0XJX>.  .         X z f a , , & & & & & & & % * & : & * : f h , * * & & - & & * & & - , , , p , a , , - , & , - , , - p , , & - - , p , , & : - , - , , - & * X X X X . X @ @ . . o $ o . X $ & # o X o # * * + @ & f & & & * & : & @ X X X = + = = X X . X = X . X . X . . . X . . X . . X X X X X = X ",
"Z mX+X+X+XoX].F :.XX@XH., % $ / {.].oXV : $ m I.].].].8X0X0X6X}.G W H.`._.oXQ W F.].XX XB.`.4X5XoX6X:.b A.}.].+X<.* : h j W `.>.|.9X6X0X}.n [ ~.}.3X}.D / I.oX3XXXC.`.5X8X`.D W.}.+X` , f v /.,X9X-.g f d Z.3X3X`.+XdXdX6XmXO.            & KXwXcXbXsXT.[.I.A.I.>X<XU.L.>X>XP.P.4XbXJX{.>.W.5X[.{.|._.H.H.`.`.wXvXsXvXvXvXsX6X6XOX6X6X6X6X0XsXsXwX8XOX1X9X0X6X0X5XoXoXoX1XoX6X X_.`.` a f 6 $ $ L [ z $ $ T [ r # c J.L.Z.&.T Z W { y.! &.~.vX~.S.3XA.Z.4X*X~ % y t u L L t e 5 5 r t 2 O O 2 O 2 O O 2 2 O 2 9 2 2 8 2 y t u u ",
", <.X.J J J ` l A.XX+XH., % % / |.]..XS % % P `.+X]. XwX0X6X0X}.D F G.].].oXQ W G.XXoX.X1.`.5X5X X6X:.n B.XX].+XS.* & & & S W.;.|.6X6X6X Xn / ~.].].].G / G.].+XoX:.[.3XwX).D G.`.].J , p h P.]..X>.g a s A.}.].@X+XcXcXzXLX>.  .         & rX`. X}.1XD.C.N.B.F.U.Z.N.P.P.Z.y.Z.>XtX}.-.%.F.I.S.F.S.S.>.-.C.:.G.`.|.5X1X X}.'.).T.W.).`.W.].'.'.].`.T.W.`.`.'.`.W.W.T.(.G.H.,.<.C.) a : % # # e T x @ # r ! x @ : R y.[ y.Z.Z.' b h Y W / *.`.`.*.I.I.| } V.M # $ y t t c r % $ 5 e s $ + O O # O + + 9 O O O O 2 2 8 4 t L t y ",
"% Q v p , , k d { :.:.O.p 7 7 W >.:.C.N 7 5 c } >.=.G.wXwX0X6X}.M A -.:.S.}.W Z :.H.H.}.A.~.5X5X X6X>.k &.H.T.].A.* $ 6 $ v W.;.|.5X6X8X].n / G.]. X].V / P.].].].C.[.5X0X`.G G.].+X` p d v ~.].+X:.g a h D.].XX<.=.=.=.=.<.K             % HXyX6X6XsX[.A.N.U.U.U.V.Z.U.P.V.V.I.,XtXI.;.C.>XB.} }.F.S.S.>.<.S.G.G.`.oXwX6X X X|.`.).`.'.].].]. X].].).`.|.].}.|.}.'.`.).).H.:.:.:.V a 6 % # % Y m 6 # 6 Y P % # c ! W ( %.%.F.{.A.Y x x Z W S.3X;.S.,XZ./ | N # e t t u t r 3 6 $ e t 5 O O O O O O O O O O 2 2 2 8 t 8 8 L t y ",
"p U.7.' ~ ' ] ~ [ ) _ ] ] 7.' ' _ } | | 7.' ' | _ ) D.0X6X0X0X1XD P | / _ 1X~ c { ) ` ,XS.`.1X X X5XO.p W J F S.S.& 7 z 7 P W.B.[.5X6X8X Xk M _ X.>.}.N m _ =.1.].:.[.5XqXW.k | =.>.V p d f N.S.H.` g z s %.H.H.-.< a g , l *             & HX0XsXsXnX XB.A.I.U.L.N./.^.Z.y.U.>X<X>XA.B.P.,X_ D >XW.S.D.:.>.<.D.S.H.`.5X5X5X}.|._.`.'.'.].].]. X].].`.).'.]. X}.].'.].T.<.<.T.O.F V p % $ % c Y s # # c ! f @ w %.&.A W %.;.%.^.^.A.{ Y h j ( XXB.B.I.U.} / d @ 5 y t t c t r e 3 6 r 5 O O O O O O 9 + O 2 2 2 2 y t y 4 L y u ",
"P KXyX2XyX9X,X,X,X1X1X,X2X4XyX9X3X4X9XtX2XtX2X9X9X9X0X0X6X5X6X6X_ V.tXI.3XbX} | 4X>X}.bXS.`.5X5X X1X;.b D.G.>.].H.x 7.K.| Z.[.:.].6X6X6X}.b ~ A.*.:.}.n Y y._ >.'.A.[.9X8X|.) ] ) ] ' 7.7.P ~ ^ ^ ~ ' ' P W Q Q E ~ ~ ' ~ | B         .   % HXrXwXfXbX1XN.L.*XI.N.A.{./.y.N./.>X[.U.A.Z.I.<X( k V.[.G.B.1.O.-.>.:.<.C.|.,X5X].'.W.).'.'.}.].]. X].].T.T.'.}.}.}.].}.`.S.:.-.;.Q N d & # $ c ' f $ # f ' z $ $ Y *XL.A Y &.A.&.~.3X^.Z.y.{ h j >.N.} F.U.L./ 7 # e e t t t z r e % e e 5 # + O + O + + O O O 2 2 8 8 u z e t t i ",
"P IXrXrXrX0X0X0XwXsX0XwX0X9XrXrXfXrXrXrXrXfXrXwXtXfXsX6X8X6X6X5X) Z.kX}.qXjX_ %.fX6X6XbXC.`.6X5X1X6X;.Z [.6XG.sXI.V L.0XI.1XW.:.}.0X5X6X1XD V.tXW.3X5XD y.0XW.,X5X:.`.5X5X5X4X9X2X9X2XyXtXyX2X<X2X<X9XyX4X,X[.[.,X>X2XyX<XHXy.        .   & HXrXwXfXsX}.S.U.>XZ.%.P.*XL.y.F.*X^.U.A.Z.U.I.*XQ A ~ F.^.B.B.>.X.-.:.:.:.G.G.I.'.`.T.|.`.'.}.'.].}. X].T.).|.}.XX].`.T.H.:.S._ F n d - % $ s T c % # w T Y : # r 7.4XqX{ W / P.B.P.,X^.y.A.I.N.G Q O./ } U.F./ % # y r t t z r r w 3 w 3 5 O O O O O O + O O 2 5 8 e y u L y t t i ",
"Y PXrX5X9X5XoX6X2X6X5XoX5X6X0XwX0X0X6X6X0X0X0X0X0XwX0XwX0XwX0X0X) %.5XT.}.oXF / tX].].8XS.[.5XoX X6X;.Z I.1XH.wXI.P D.5XH.oX'.:.}.1X6X6X1XD A.0X`.6XXXD &.qX`.OX6X:.[.7X5X5X5X0XtX0X9XwX0X0X0X0X0X2X5XqX0X0X0X0X5X5X5X9X2XKX;.            & HXDXmXJXJXoXD.I.I.V.Z.U.^.N.N.^.[.U.A.Z.P.K.L.W.W E E ! U.U.B.:.>.-.-.-.-.,.:.H.S.G.G.|.].|.].]..X X X].).).].}.].`.H.S.H.:.:.) B f 7 & % s P m % $ 6 P ~ f + r [ V.>XHXI.W / A.I.;.[.>XV.] I.[.P.} } ~ W A.Z.Q $ O e y t t t e e r e e 6 5 2 O O + O O O O O 2 5 8 2 y t L : r y u ",
"V IXvX6X6X5X5X5XwX6XoX6X6X6X8XdXwX8XwX6X8X6X8XwXwXwXwX0XqX0X6X6X_ N.8X).}.OXF &.0X|.}.8X:.[.0X5X X0X;.Z `.5XH.sXG.V C.6XH. X'.:.,X6X5XdX,XD N.qX).5X}.D %.wX`.oX6XA.}.5XoX5X5X6X6X0XqX6X6XsXqXqXqX9X9X5X6X6XsX0X5X3X5X5X3XmX;.            6 HXrXbXJXLX8XI.I.K.V.^./.D.y.P.^.I.Z.A.U.U.V.Z.*XW ! Z x { U.F.:.;.-.*.} _ >.:.F.>.A.C.W.`.|. X}. X X X}.T.T.'.`.G.S.S.C.F.O.Q V B & & % z M b w @ % m [ v $ % T N.| V.tX9X} ) ;.[.N.V.*XU.N.Z.[.I.A.A.&.W / V.Z # # : y t t t r 6 r w e 7 7 2 O + 9 O O 2 O 2 2 5 4 y 5 t c y t y i ",
"E KXfX6X6X5X3X5X8X6X5X6X6X6XOXjX8XsXwX5X8X6X8XjXwX7XwX6X0XwXwX XQ N.8XW.}.8XF { qX].}.8XB.[.5X5X5X0X;.Z `.1XH.wXG.Z A.6XT.1X[.B.,X6X6X0X1XG :.qX`.6XoXE N.wX`.oX5XA.}.5X5X5X7XqXwXqXqX9XwXsXwXwXwX9X9X5X9X0XsXtX5X3X7X7X7XJX;.  .     .   6 HXtXbXJXJXxXI.I.B.D.^./.y.y././.Z.N.U.P.Z.N.^.U.D ( Z h m N.*XS.;.-.X._ _ *.-.B.>.B.:.D.F.H.|.|. X5X X'.W.H.T.H.G.:.D.:.-.Q n a , % 7 N T m : $ $ m | Z $ @ c y.y.V.| P.tXI.{ %.>XF.%.>X4XU.V.I.^.A.%.N./ W { x @ O 2 y t t t e 7 w r w 8 z 5 5 O 9 O O # 2 5 5 5 4 e e y t t t y i ",
"E PXxX8X8X+XXX+X8X8X8X8X+X+XzX+XdXdX8X8X8XOX8XOX8X8X8X0X0XwXsX XF ;.8X].oX6XF _ wX_.+X8XB.[.9X6XoX5X;.G _.+XH.cXH.D S.6XT.7X|.B.|.5X6X0X}.F :.jX).6X XD %.xX`.OX6XB.|.qX7XoXoX8X6X9X5X5X8XdX8XdXwX5XOX6X5X6XsX6X6X X5X5XwXLX>.            & HXDXPXPXPXMXW.B.A.U./.Z.y.P.U.P.N.A.I.U.N.V.4XZ.Z ! A x x Z C.`.B.;.O._ ) *.-.-._ ;.;.S.:.;.C.:.G.`.W.T.H.S.I.S.G.;.O.` A k p p % f N P P w % $ x | ~ 7 # w [ | [ L.{ ;.<X,XN.} P.>X;.U.rX<XO.Z.[.P.{ O.y./ / s @ # e e e y t e 6 e r e r L z 5 O + + O O 2 5 5 5 4 y 4 e e t c y i ",
"V mXzX+X+XpX_.+X+X X+XoX+X+X].+XXX].@X+XcX+X].].XX+X5XwX0X0X6X].G } ].<.G.OXG Q ].<._.8XC.>X9X X5X6X>.n (._.<.8XS.S H.pX<.+X_.>.|.6X5XwX,XF :.jX].dX XF B.cX].8X8XB.[.5X3XoX8XdXwX8X8XOXOX8XjXxX8XoX+XXXoX6X6X8XoX].6X5X5XmXO.            & HXfXPXPXPXPX].:.D.[./.%.V.^.U.A.N.Z.I.Z.N.P.4XV.Z ~ Z m Y Y [ I.I.B.;.*._ ) } } ) _ _ ;._ } -.>.:.D.G.H.D.B.B.O.} G n l a , & p N Y Y v w % % j / / p * e ! | Q ( L.&.~ L.4XU.&.A.4XZ.D.2X4XA.;.[.4XN./ N.V.! % + 5 5 y e e t e 7 r r e 4 T z 5 5 O O O O O 4 4 5 5 e y 4 4 y c u u.",
", ).=.=.=.>.J J =.=.X.=.*.*.F ` =.=.X. .=.J F X.>.=.G.sX0X0XwX.Xl a Q K J |.l : K n G |.D.[.0X XoX6X-.& S F l <.<., S *.K >._.:.].5X5XwX1Xl D 1.=.<.].n F <.=.1.oXA.[.3XoX].].XXXX].+XcXcXOXcXOXOX+XzXcXzXcXdXzX8X8XcXzX+XmX>.  .     .   & HXbXPXIXIXPX}.S.U.I.V.%./.^.P.%.A.U.P.N.Z.[.4X&.Z Z f s T Y m ) I.I.:.O.*.) ) ) ) ` ) } Q Q ( ) _ O.O.*.O.) Q n b j , a p a h M W T x w % : h ! / f $ w T %.Y Z ) L.N.Z ;.^.^.V.B.,XU.B.^.,X>XB.^.,XU.| K.D.E $ # # 5 5 y e e w 6 e r 3 3 c L 3 5 # O O O O 4 4 4 5 e e e 4 y u y 6.",
"* Q l , d b a a B.S.H.X.< j > G S.(.<.l > * j N.P.S.T.wX0X5X6X Xb b *.:.1.].A : U W E ~.S.~.5X5X X5X=.& a a a _ T.& : a , G |.:.{.OXoX8X5Xk a ` ` -.}.h s ` J _ '.A.`.3XwX_.a K J ` K J J K K F F J =._ K J ` J J =.1.1.<.].F             7 HXDXPXIXIXmX X|.I.U.%.N.*X/.V.N.P.P.A.N.U.<X<X) Z b % % m Y h v y.I.B.;.-.) ) ) Q ) ) } ` Q Q F D D D D V l l k k a k N n N E Y b f % r f N [ E f % % T &.' m Z / Z.D.W [ I.>XA.N.~.[.Z.A.{.,XP.A.[.I.y.| D.M @ # 5 5 2 y e 6 r 7 e r 3 6 L L 5 3 3 O O $ 2 e t e 5 e t e 4 : u y u.",
"f U.q.' ' | U v {.3XoX<.k l w _ |. X].S & $ A /.XX{.].wXwX6X6X].V / ~.].oX+XA Z L.^.^.3XS.~.1X6X X6XO., j h f } F.0 f s f E |.C.{.5XoXdX5Xn W /.}.}.}.n ~ D. X].}.C.[.XXjX`.l { (.`.F , : : T %.S.` g , > Z A.(.*.< j j h n &             6 HXrXPXIXPXPX+X}.G.A.N.A.U.U.N.V.^.P.;.V.[.>X>X( W x # * c A r A &.%.F.S.;.` ` } ) ) Q / ) ` ) ) E F D n n V n n n V Q ~ ~ M n x p % % d E ' ~ f * w Y | ! A L m W Z.P.) / P.{./.%.A.[.,XA.I.,X[.A.P.U.Z.] | d @ # 4 e y y e e t r e e 6 w L L 5 7 4 y e 3 5 e z t 3 t t t e y t i l.",
"U KXtXyX2X9X/.M ~.].+X1.l k w ) {._._.l & * b F.XX].XXwXwX8X0X].D ! (.XXXX].D T D.3XXX3XA.[.5X1X5X6X*.r m A b %.I., c U P { [.B.{.5X6X8X XZ ( /.|.}.].n ~ G.]._.XX:.`.3X6X[.Z y.>X7X_ , j r &.L.[.-.k k : ( /.].(.Z E Y U 7.a   .         7 HXtXPXIXPXPX_._.P.%.J.I.P.N.V.D.P.Z.N.L.>X,X[.F W r + $ m c t ! [ &./.XX:.Q Q ) | &.( G D Q ) ` ^ Q ` ` ^ ( Q Q G W Q E Z x p w p f x Y ~ P s % r ! &.[ m x Z Y ( %.F.&.%.V.>X[.;.%.W.4XU.S.W.>XD.Z.I.U.&.Q w @ # 4 2 e t r t t r w e 6 r Y c $ t e e y 3 5 6 c t 4 y t t r y y L l.",
"T IXtX0X0XrX1XA H.].].<.l l : ( `.)._.l & $ c (._.`.}.wXqX0XwX].n Q (._._.oXD Y D.].].oXS.`.5X5X X6XO.h | F.D.[.G.B [ P.|.[.`.:.|.6XOX8X XV / ~.].oX_.l ( ).oX].].B.`.3X5XW.A y.3X7X*.> j r ! A.~._ , j : A &.<.H.,X4X<X<XHXO.        .   % HXeXmXPXPXMX'.`.P.} L.U.D.O.Z.I.P.N.A.U.[.>X/.V T : + + c T T &.( &.,XKXH.V E ~ ~ | O.) Q G G F D D Q ) Q G E F D n v v d p f d N Y E M N r % s / y.| Y m m m W ( %.I.%.B.N.[.3XU.&.P.<X[.B.I.>X^.V.P.F.N.E $ O # 5 : e e y t t e r r 7 r Y t $ z 4 3 3 $ 3 4 c t 4 t t t y e y i l.",
"E PXsX6X0XdX Xn &.<.<._ , a : Y :.>.>.l & $ s &.>.>.).rXwX0X8X}.n A -.>.<.].A x *.>.<.].S.|.5X6X5X6X_ j { :.:._.G.h W B.<.G.|.B.{.OX6XsX1Xb Y %.:.G.|.k W <.<.<.].B.`.3X5XI.l { F.~.*., j r W &.F.` a a : S &.*.>.9XrXtXrXKXV.            % HXtXmXPXPXNX].`.P.V.F.U.N.N.P./.A.y.P.<X^.^.S.A ( r $ $ m ( R &.&.&.<XIXsXQ F / ) ) ) _ } ` Q F G n D D V N N l v d a B v N P E ! ~ N d f r N ! [ { T m Y Y j x Z %.I.;.A.S.F.>X[.B.B.[.,XS.B.^.4XF.B.F.B.N $ @ # e 2 y y y 8 7 7 p e e c P e 6 z e e e 5 e e t t 3 t t t c y y R g.",
"D JXsX6X6XdX}.Z ;.F.(.*.> : : R P.H.H.g & $ x B.G.H.'.wXsX0XsX].S ( A.(.(.].D b -.<.H.].S.[.5X5X5X8X_ j | <.C.).G.a W :.<.<.|.B.|.8X6XdXoXk A &.>.S.].g M -.-.>.'.B.W.,X7X`.h [ %.A.G : s : m &.*.F g d % j Z F *.qXwX5X5XJX;.  .         & HXyXkXPXMXdX].|.I.P.P.A.O.L./.P.y.A.*X^.A.P.B.M / m L c L &.&.&.%.&.<XIXbX_ Q | N.} Q Q ) O.=.` / V V F V n N n N n N D ~ ~ / ! M x p , x Y y.y.N Z W t c T $ + : *.I.N.B./.N.^.,X^.B.U.<X~.N.{.4X,X;.A.V.h # O 4 t t y 8 e 4 7 7 r w w t c 6 e t 6 t e $ 3 7 t t 3 y r c t j y i -X",
"D PXcX+XOXdXoXG /.3X7X:.: % e &.>XXX].l % $ Y ^.oX X].dX0X0X6X'.D / (.XXoX].G W D.].].XXS.W.oX6X5X8X_ b N.}.]. XG.b | |..X'.'.B.|.6X6X8XoXn / F.].].'.n Q ~.].].}.:.`.3X7X(.A y.4XjX*.: j t ! y.(._ a p % h ( _ ;.5XwX8XwXmX>.        .   6 HXtX9XmXJX8X].W.D.I.D.N.V.U.U.Z.%.L.*X^.%.P.N.A ' m L *.&.u.&.y.y.&.9XPXrX_ } | O.L.;.) Q F Q ( _ Q ~ / Q Q G Q Q Q ~ ~ ~ Y M v f f f A / E | V.E : W A c A # X $ ( P.B.N.[.B.F.>X{.C.D.[.,XA.I.<X,X:.} | f # # 3 c r 7 4 4 7 4 r w w e t c % 6 r e c e 5 e 3 t t 4 t t t t y u i g.",
"h OX<.1.1.<.:.A F.XX5XB.w w w &.*XXX].k : % T /.].].}.sXsX0XdX}.G ( (.@X].}.G E H.].+X].C.`.5X6X5X6X&.b :.].].oXH.l _ ].].].`.B.}.6X5X6XXXA ( (.].]._.n / (.].].].:.[.4X7X`.Z y.3X7X*.: s z ! F.].` a d : b ) -.1.+X8XzX7XmX>.            & HXtX9XwXmXoXW.S.N.,XD.;.D.*XU.y.y.*X^.A.%.>X&.Z W t c R &.y.&.y.y.y.tXIX}.` ;.B.Z } A.V.;.) D V G E Q Q D Q E E D M M N x s f p d n M | U.Y / Z.V., b ( b T > + $ W L.A.;.[.F.N.^.>XP.N.^.,XP.A.[.,XS./ ! : # $ 3 c e 3 e 8 8 e t 7 % r t z 5 e r e c e 5 e e t t e t t y r y u &.x.",
"* ( l , , f : h A.`.`.;.p x r / /.].`.b 6 $ A (._.).}.wXdXsXsX].G / (.]. X}.G W G.oX].XXA.`. X6X5X6X*.S :.].]..XH.l &.{..X].(.:.|.5X XsXXXA *._.+XXX].A { _.+X@X].C.[.5XwX`.Z y.4XjX_ : d z / H.].*.k d w M ) =.=.(._.<.).cX`         .   7 GXtX9X1XdXOXG.;.%.,XI.;.U.U.Z.y.L./.P.y.D.3X&.F T r A &.&.&.u.y.y.u.kXKXI.) N.F.v Q | O.B.B.;.) E Q E D D V n n k d g d x v M Z ! ) ! I.tX| / N.P.! : T W W O + $ A Z.F.%./.^.;.D.{.^.N.A.^.[.B.G.[.I.{ A $ # % e t t 7 8 t 7 7 r % 6 r r c 3 % 7 y z e $ e e z t 4 y j y j y u l.-X",
"p V.] V B P P N / ) _ Q M T x Y / ] _ N z 6 c _ _ _ G.wXwXsXwX|.b m ] -.>.1XD x ) -.>.|.A.`.5X6X5X8X_ s / =.=.T.G.j W -.:.S.T.C.|.6XoX8X Xl Y -.1.S.XXn W >.H.<.].S.[.0XwX[.N [ V.H.W 0 d z ' -.:.Q x d s E { &.J g K C G J ,   .         % HXDXtX,X5X1X'.S.F.>XI.S.I.U.N.V.L./.V.%.^.>X( T Y A [ 7.{ y.N.Z.A.P.tXbXC.) B.I.n E / ^ { %.B.%.} } ~ ) Q n Z M E U E ' ) | %.%.} | { ,XIX^.{ &.A.I.S l &.[ % @ + m y./.&.F.[.V.%.~.[.D.;.P.>XP.B.I.I.} d # O e e c e 3 7 e e 7 e 6 6 6 r z 6 e 6 6 t e $ e e t t 7 t 7 t t y u l.M.",
"Y KXtX9X4X4XyX<X&X>XW.U.<X&XU.U.D.L.D.U.K.J.y.N.B.>.`.qXqXwXwX1XD [ A.O.S.fX] Y Z.-.B.9XA.[.6X5X,X6XX.f | >.) W.W.v ] N.` S.].:.|.5X5XdX1Xl W } F ;.}.v m ) G _ [.C.[.9X6X,XE P Y E ! P ' N T W G U E P z N P V M V M N V ~ 0         .   % HXSXyX>X1X}.'.I.[.[.~.F.[.L.y.L.U.L.;.A.4X*XT ! ( [ y.&.{ y.J.U.V.^.kXqX;.| P.^.M W ~ Z A W ( ( } %.%.U.;.V / / } y.N.Z.J.V.| { / | { ^.IXvX} &.B.{.%.x Y &.x r : c y./.| %.I.[.N.A.^.{.A.A.>X,XB.B.I.) - # e t e t e 3 8 e 8 7 e w e % t r 6 6 e 6 t 6 $ t e t 7 4 7 t t z t u l.:X",
"P IXrX0XwXqX9XrXrXrXvXrXrXfXrXUXfXvXbXvXfXDXbXHXvXfXrX0XqXsXsX1X) I.bX,XfXbX%.N.HX X8XbXB.|.5X5X5X6X} A [.5XH.vX1X/ *XHX|.bX6X:.].6X5XsX1XD Z.fXW.9X9XW V.tXF.5X1XB.[.5X5XrXrXtXyX9XtXtX4X<X<X<X>X>XyX<XU.K.J.B.V.U.W.%X%XtX'             % GXDXtX<X}.}.[.[.}.[.G.W.I.V.N.P./.L.y.P.4X/.A ! [ [ y.[ [ N.P.L.N.>XkX<X%.%.^.I.M Y ! Z m ( D Z / { V.bX,XM ~ | Q O.| { | / Q Y E } %.A.PXKX;.} D.>X^.) r [ ' m m ! N.[.} W I.4XP.%.^.4XP.V.>X9XF.-.C.~ % # e t y c 7 6 e e 4 e e r e e r r 7 r w 6 t w 3 e e 7 7 6 7 7 t z t i j.M.",
"V PXrX9X6X6X5X6XwX6X0X5X5X0X9X9X9X6X0X6XwX0XtXwXrXwXwXwX8X8XsX].Q A.wXW.}.vX*.;.tX|.].wX:.[.1X5XXX7X;.W [.5XT.fX[.W I.rX`.fX1XB.[.6X5X0X5XE Z.tXT.5X1X! V.qXW.6X6XB.|.0X6XwXbXfXHXbXvXwX0XrXtXfXrXrXfXrXtXrXrXrX9XtXtXtXtXKXN.  .         % HXDXDX1XW.}.1X,X[.I.C.[.D.N.L.U.P.y.V.U.4XP.A [ &.[ y.&.[ L.*XV.V.>XkX*X} N.^.P.M Y [ Z A [ ( W [ | P.KXJX/ / ;.v / Q N ~ Z m N Y %.;.{ KXIXS._ Z.}./.F.h b [ Y b T y.^.N.W Z.,X>XN.F.,X<XB.^.3X[.%.;.n $ # e t e c e 3 e 8 e 4 4 r w $ r 6 7 r e 3 t e 3 t e 4 4 7 t 7 t u t R h.M.",
"Y PXwX7X8X6X5X0X8X8X8X6X6XdX0X0X8XwX6X8X8X8X7X8X0XsXwXwXsX8XsX'.F A.5XH.).wX) %.wX]. X6XB.[.5X7X5X6X*.Y [.5XG.xXW.D F.8XH.+X|.B.}.5X9XdX1XD K.wXG.6XoXG B.7XH.8XoX:.{.wX6X6X5X5X0X5X5XoX6XqXwXwXwX7X8XwX9X0X0X0X9X5X2XwX6XJX-.        .   % HXSXtX4X^.`.,X[.I.B.B.[.S.;.P./.Z.y.P./.4XV.m [ &.[ &.y.[ L.U.N.V.>XtXP.%.Z.P.Z.M Y [ T ! [ &.[ &.[ N.PXPX} / I.Z n / A ( Z b M W N.N.( 4XIX{.} A.3XS.[.} p Y ~ s c | P.A./ N.^.4XP.V.{.4XP.D.,X}.;./ f # $ z c $ t w 5 7 3 4 4 6 r 7 % 6 6 t z 7 3 t r 3 e e 3 $ e z 8 8 L t 6.h.-X",
"W KXwX6XwX5X5X6XsX8XwX6X6X6XsX6XwXwXwX6X8XwXwXjXwX0X6X8XwXsXdX].Q A.8X).`.6X) %.wX]. X0XC.`.5X5X5X5X;.D }.OXW.jXW.Z /.8X(.8X].B.,X0X6XwX1XE Z.fXT.qX5XG A.wX`.8X5X:.{.0X6X6X8X6XwXwXqX6X6XwXxXwXsXwXwXsXwXdX0XwX0X0X0X8X6XJX;.  .         & GXtXDXeXI.~.}.I.B.N.S.~.I.N.P.P.%.Z./.I.<X%.v ' [ &.&.y.| L.P.N.P.>X4XV.N.L.A.D.D Y ( ! ( &.&.&.&.&.&.KXPX| ~ `.} B } Q { T A Y / N.A.Q S.KXwX;.:.3XA.I.,XE d / Y x [ P.L.&.%.Z.>X[.;.U.4X>XA.[.{.V.U 6 # 3 L L e c w 5 3 5 4 5 4 r e $ 6 6 7 r 7 6 r 3 6 r t e 3 e t 0 t t u 6.h.M.",
"E JXxXwXwX5X].oX6X6XdX8XOXOXOX6X8X8X7XoX6X5X7X8XsX8X8XqX0XwXsX}.F S.wX_.]. XQ -.0X'.+X0XS.`.qX6XoX9X;.G }.oX(.cXH.A F.+XG.8X].C.3X6X6X8XoXD B.vX_.6X6XW A.jX).+XwXS.{.6X5X5X6X6XwXwX5X5X6XwX8XwXwX8X8XwX0X0XwXwX0X6X0XwX0XJX:.            & HXDXtXtXU.W.,XI.;.F.P.G.[.B.F.A.y.P.^.U.>X| x [ &.[ N.%.V.P.L.y.I.,X[.V.Z.L.N.W.W Y [ ! T &.&.{ &.[ &.JXPX;.( G.I.k ) } / ( ! ' | A.Z.Q } bXbXS.>.4XI.D.4XI.d v [ m / Z.P.%.V.N.I.<XA.B.4X4XZ.A.{.N.d # @ # I L e t e 3 3 3 5 5 5 r e 6 $ 6 7 s 7 6 r % e e r e 4 e t u 7 t t u.h.M.",
"W PXcXcXcXcXzXcXcXzXcXzXcXzXOXcXcXzXcXcXdX+XjXzXdX8X6XwXwXsXsX}.F :.dX<.].+XF -.wX@X+XjX:.{.5X6X5X6X>.G }.6X_.cXT.K (.+X).+X_.S.,X0X8X8X}.G A.xX_.dXOXG :.jX_.jX0XB.}.6X6XoXOX8X8X+XoXOXdX6XcX+XwX8X+X8X6X6X6X8X5X6XwX0X6XJX;.  .         % GXSXeXDX>X[.9X~.;.[.I.F.~.D.B.N.N.U.U.D.[.~ x [ &.y.A.V.L.U.L.V.[.>XL.N.U.N.N.,XQ ~ { / ! &.&.{ %.&.&.bXKXB./ S.9XD G V.*.W ! / %.Z.A.) } 5XHX~.;.,X^.S.4X<X/ f Y ~ ! Z.P.%.Z.N.Z.4X^.N.<X9XW.} B.{ 6 * # 5 t L : t e $ 3 3 5 5 3 r e 6 % % e r e 6 e $ 3 e e 3 $ e t z t y u l.M.h.",
"k jX3.<.3.<.1.=.=.1.=.=.<.4.*.=.=.1.1.<._.<.<.<.(.H.|.wXsX0XsX].l F <.=.>.].S A :.=.>.oXS.].9X6X5X6XX.a 1.H.=.].3.j *.H.=._.].C.}.5X5X6X}.l ( (.=._.+XS &.XX<._.6XS.|.oXoX].+X+X+X@X].zXzX].XX+XOX+XpXzX+XjX+XzX+X8X8XcX+XLX-.  .         % GXeXeXDX>XP.5X[.A.>X~.F.W.[.;.;.U.P.A.V.^.W c | y.L.Z.N.Z.L.N.L.^.^.A.Z.U.V.B.,XQ W | ' [ { [ { V._ { bXKXA.) A.9X} b B.-.( ( [ &.A.N.} ;.I.bX,X;.^.>XC.>X,XP.b s ~ { %.P.%.P.A.N.^.>XV.A.>X,X&.{ M $ # $ y r t e m e $ 3 5 3 2 5 e w w % 6 e r e 6 2 : 2 : y : $ e y u y 2 c l.M.-X",
"& ` l , , , & * , , , , , > o > , g l , < < > l < , <.xXwXwX0X X< & l a S `.a * d a k `.S.[.0X6X1XdX_ * j S l :.H.* , l a ( W.B.,X6X6XdX+X, a ( H `  Xd : W S *.1XD.|.6X6X'.G J G J J =.=.J *.*.X.=.<.<.*.:.<.>.1.<.).<.<.zX`             % HXDXDXtXyX^.,X{.F.[.P.A.,X5XS.A.I.L.y.P.[.Q [ { y.P.A.N.P.L.N.L.*XU.B.L.U.y.S.,X( ! { ! ( [ | } N.{ } kXJXB.| D.>XD.b } ;./ / { { y.N.&.G.S.0X1X;.I.,XA.[.<X>X;.j M %.%./.;.P.^.&.P.>XU.O.U.,XB.Q f $ + e L t y $ t e $ % 3 5 $ $ 3 7 7 $ 6 w 7 6 6 : $ e e y 2 $ e j j y y i l.M.-X",
"& | M 0 s d 0 % Z Z Y b : % * < x n D , > * : b j : B.kX0XwX0X].l : b b W |.k : b N A [.S.|.9X6X X0XX.& j l b N.F.: s b b ( ~.A.}.7X6X8X Xk ! F.[.`.5XM L &.F.F.,XD.}.5XwX`.l ) &.:.l < l , &.H.<.` C l , _ 1.S.X.n V V K ` ,         .   % GXeXtXtXeX*X[.~.P.^.B.C.vXvX`.C./.A.%.^.~.{ %.{ L./.N.V.D.Z.y.L.^.L.V.L.L.N.F.,XQ W [ Y ! { { %.y.} ;.rXbXA.| F.I.4XG F B./ / [ { N.N.} [.S.[.9XV.F.4XF.I.,X{.I.| k / ;./.N.V.4XV.;.<X4XN.N.,XA.M & # + y [ T t $ t 3 # 5 5 $ 5 # 4 e w $ 6 6 6 6 6 $ 2 : y r : O $ y y y y R x.g.M.",
"N bX&X%XU.>XL.f m A A b : : % r x d d w : : r b h a J.fXwXwX6X}.j j M M E [.b j Y Y W {.A.[.0X0X X6X_ & h Z b %.F.: c A A / ~.A.XX7X7X8XXXb / /.oX X1XM [ L.>X{.3XD.[.5X0X`.G {.5X+X` , b h (.3XoX1.l l j A.5X5XI.D E ' / ) f             % HXeXDXDXtX<X^./.P.U.B.I.KXvX].A.B.N.N.{./.y.%.y./.P.%.N.P.N.%.U.U.N.L.U.A.V.U.,X) Y [ Z ! { } %.%.V.A.5XHXA.%.I.F.bX:.l B.) ( / { V.N.) <XS.I.9XA.D.4XU.N.[.}.P.I.E h Q D.V.;.<XI.;.W.4XF.;.I.O.f $ $ # t R [ T : c r # % 3 5 $ $ e e 6 3 6 7 w e 7 : 3 2 y e e $ y : y y y l.:X-XM.",
"E PXrXtXqXrX,Xv b Z A k % % $ s x h h : : $ r x b s Z.kXwXdXwX].k j A b W [.b s Z Y T {.S.[.9X6X X0X_ & x A b ;.G.: s Y m ( (.:.}.5X5X8X Xn / (.@XXX XA T L.>XXX3XD.}.1XwXW.G ).].].F , B k F.].oX1.l k w A.XXXX|.[.W.<X4XDX]   .         % HXeXtXDXtX4X^.^.P.Z.A.4XLXkX).F.;.%.U.*X/.;.| u.*XP.&.V.P.N.} P.U.y.L.*XA.B./.}.{ W [ Z ! [ %.y.%.P.B.{.bXA.%.U.S.bX,Xl ;.O.W / | N.N./ ,XI.I.<XZ.K.4X<XV.[.3XP.I.N.h k A.A.%.^.,XB.S.<X>XN.;.Q > # # O y R [ R e c w # 3 3 % 5 $ 3 r 3 $ e e e e 6 3 $ : : y 3 $ 3 y y y y u.M.x.M.",
"E KXwXqXwXsX1Xa h h n j & % $ : s d d w % # : z x j Z.kX0XsXwX}.a f b x Z [.k f A A Y [.S.{.9X5X6X0X` & j v x y.G.& s b x ( /.S.3X6X6XsX}.n ( S._.].+XM R F.{.].3XS.,X9XwX`.A (.]._.J , h h S._.@X1.g k r <.XX].].wXrXkXHXKXV.        .   & GXDXDXDXDX4X[.>XA.J.K.rXPX,X<.`.>.;.*XP.A.y.&.Z.*XA.%.Z.Z.y.V.P.Z.y.U./.V.Z.W.{.{ Z [ W { [ | &.y.P.A.[.rXA.%.^.B.rXbXV ( ;.F ( / N.V.) {.{.A.[.F.B.<X9XP.^.9X[.P.,X) p %.D.{ P.4XP.N.[.<XC.{ b $ # $ : y c [ ! e r 6 # 3 3 5 5 $ 5 e e % 6 e w 7 6 $ 3 y y r : 2 3 j y y y l.M.M.g.",
"D KXwXwXwXsX Xa j b v s & & # w d s d & % $ % c x d N.fXwXsXsX]., w c j A {.k w b x Z {.S.[.wX6X1X6X` % t h f %.I.& r x z ! [.A.}.6X5X8XoXj S { =.>.oXb m &.&.;.,XC.,X0XrXW.k ;.1.:.G a d d } :.<._ l j : &.<.H.H.8XsXvXbXJX;.  .         % GXDXDXeXtXyX&X>X%.L.U.vXJXS.>.T.S.:.^.Z.;.A.y.L./.N.%./.P.} N.P.V.N./.U.N.D.~.{.| Y ( W %.{ %.| Z./.A.^.qXB.y.~.;.,XPX] n :.Q ( / N.A./ ^.{.B.[.[.N.*XtXI.U.3X4XP.<XI.k ! P.{ A.4X{.N.D.[.P.( , $ $ : t m m ' ! e z 6 O 3 3 $ 5 O $ w e e w e e w 6 $ 3 y r j y $ e y j y u d.-X:Xg.",
"W PXsX8X8XcXoXk b P Z k % % $ x m M N : & $ w m Y m B.vX8XdXsX].k j L m W `.b r A A Z [.S.{.7X6X X6X_ : x Z c V.G.& s M b / [.B.oX6X5X8X].l ! P.].`. XZ T L.~.(.}.B.{.0XsXI.Z P.~.~.G a k x A.G.).X.j j r %.(.(.H.8X8XvXvXJX:.            : GXeXDXtXDX4X~.I.} U.<XbXwX-.:.H.'.D.A.V.A.Z.y.*X/.y.A.>XP.y.A.L.y.L.U.L.y.U.I.[.{ E / ! | | | { U.U.V.I.4XN.N./.B.~.PXI.l >.{ D / N.N.) [.qXA.[.4XS.I.9X>XF.>X9XI.U.4X} M V.%.%.^.{.B.} I.C.M % : $ O t &.[ ! Y e c r # $ $ 5 $ O # w e r w 6 w 7 6 $ 3 : r r y 2 y j c y L l.M.M.-X",
"D mXOX+X+XzX@Xl n P Z k % % # d M Z N w & $ 7 M Y b A.rX8XsXsX].l d m M Q `.k s Z A T [.S.[.qX6X5X6X_ w v m c N.F.& v m b ( ^.<.}.oX6XdX].A [ ~. XXXoXZ [ /.qX3X,XS.}.5XwX(.W {.3X3X^ , s b F.XX+X:.g d j A.XXoX@X8X8XcXvXLX>.        .   % HXDXSXDXkXtX^.F.V.*X<XbXW.-.G.,.].|.-.&.F.Z.Z.*X%Xy.P.*XU.N.L.Z.y.L.*XZ.y.I.^.[./ E [ [ | y.| | U.P.V.^.>XV.Z./.V.F.KX0Xl ^ B.W Q N.A./ /.4XP.^.qX[.P.9X4XZ.{.qX^.I.4X>X] ] N.&.B.~.{.} ;.} r $ $ $ 5 m y.Z.[ Y e c r O # O $ O O 2 e e r w 7 w 7 6 $ 6 6 e e e 3 6 j c y u j.-Xg.M.",
", ).X.J J =.F j P T E v & 6 % c Y Z M p 0 $ f E E M Z.rXwXsXsX'.h d Y m ! [.k z Y A Y {.B.[.7X0X6X8X_ w c Y x A.H.: c Y A / ~.:.].OX6XsXoXA / ~.].].oXD ! /.3XXX,XS.,X0X8XF.G /.XXoX` f x b F.].+X:.d B z A.].+X_._.].+X+XmX=.            % HXSXeXDXDXtX>XI.Z.>X4XrXB.B.~.O.G.oXB.;.F.A.V.*X/.N./.*XZ.V.L.A.y.U.*XZ.A.^.I.I.| Y { [ | y.[ | U.P.D.>X[.A.^.*XB.P.0XsXQ l :.~ ~ y.A.( /.4X/.~.tX4XZ.<X9XA.~.9X>XP.<X9XD./ y.N.&./.4XD.) V > $ O $ y m y./.y.T e c r O $ # # O O $ $ 5 w e 7 w 7 $ $ 6 e e e e $ e y t y u g.-XM.:X",
"* ) N , , p & 6 B z B f 0 6 # t c c x 6 7 6 7 c c d V.bXwXsXfX}.B f L v ! I.B r c m Y [.A.[.6X0X X8XO.w z c z N.F.% z c t W /.B.}.6X0XsX Xn / F.].{.oXD ( F.XX{.}.S.}.0XxXG.D /.].].] a v b S.|.].>.d z z B.].XXH.K F J J =.a             % HXeXDXDXtXeX[.,XW.<X9X<X;.F.[.` :.}.{.:.Z.V.L.*XL.y.^.*XA.Z.P.V.y.U./.y.A.[.I.U.| E %.| %.V.[ } /.U.P.>X/.L.{.>XZ.Z.>X,X>., O.{ / | N.Y A.,X~.F.4XqXL.^.tXF.F.3X{.P.<X<X>XV.;.Z.N.F.9XI.! f > O O e y A y.L.Z.! e c w # y $ O O O # 5 7 e 7 7 w 6 % % e 6 r r 7 3 e r j y i g.M.:XM.",
"f U.| ] ' ' ' ~ R ' R ' [ 8.' U U U ~ ' | 8.T ' ' W U.fX0XsXfX1XN L ] P | 4Xm c ' P [ 2XS.[.5X5X X6X-.% Y Y b P.W.% m U b &./.A.,X5X0XsX5Xa h W F ` }.A x / ` >.{.D.}.9XwX~.v ~ *.*.E N N x ~ _ _ Q M N d W } =.^ n k l l n &             % GXDXtXSXlXtX>X1X>X[.<XI.N.W.<XQ O.W.}.F.;.7.P.*XV.L.*X^.y.Z.P.y.V./.L.%.Z./.Z.F.} Y y.{ y.y.{ V.*XU.P.4X^.Z./.>XF.P.,X[.G.g ( -./ } A.W A.4X3XF.>X9XI.P.qX^.B.[.{.S.W.1X&XU.A.A.F.N.>XI.D & @ $ 2 t c W &./.L.! e c e $ t 3 O O O $ 3 e e 7 6 7 7 $ % 6 6 e t e 3 e y r 3 L :XM.g.M.",
"P KXyX9X9XyX0XyX<X4X9X4X9XtXDXtXyXtXtXtXDXbXtXtXrXtXrXrXwXsXfX0X] L.DX[.DXfX{ J.tX^.tXbXS.[.6X0X X6X>.N U.U.Z.rXG.n L.<XA.<X}.A.}.6X6XsXsXQ N.2X>.~.rXD ' Z.) G.}.S.,X5X6X}.N.V.V.N.C.U.U.U.K.Z.U.W.<X<X^.U.I.F.U.U.K.V.V.&XU   .         % HXeXDXeXDXtX>X5X[.U.[.A.N.<X<XD } S.`.`.;.%.I.U.N.P.>XL.y.L.L.N.L.^.L.%.P./.N.I.%.Y y.%.y.%.y.L.*XU.U.4X*XZ.^.>XP./.4X`.[.F V B.} y.D.*.y.4X9XA.I.4X>XU.9X,X;.I.[.A.U.,X<XD.S.N.I.%.A.V.g * # $ e L [ 7.| Z.Z.T 3 c e # z 3 O O O O 5 r r 7 7 6 6 % $ : e e r 7 7 e y y 3 i M.:X-XM.",
"E IXfXrXtXrXrXwX9XrXrXtX0XwXsXrXrXrXrXrXrXtXtXrXrXrXwXqXwX0XsX5X) U.bX|.bXbX` Z.bX<XqXxXS.[.6X6X5X6X;.W ,X5XW.vXC.E [.0XI.0X'.:.,X6X6X0XwX) U.HX}.bXfXQ N.bX~.qX1XC.,X5X5X5XrXrXrXtXtXtXHXHXHXHXHXfXbXbXbXUXfXrXkXbXtX9X9XKXB.        .   % GXeXeXDXDXtX,X}.I.Z.P.A.D.yX,XD | C.B.~.D.;.U.U.y.U.*XA.y.P.P.y./.>XZ.y././.V./.N.Z [ y.y.| N.P.*XU./.*X/.N.P.[.P.*X4XI.}.G.g V.N.} L.y.L.{.9XF.D.4X4XI.>X4XA.F.{.I.D.<X<XB.Z.;.P.V.) ! & $ $ 5 t L [ y.V.y.Z.T 3 L e $ t $ # # O O $ r e 6 7 6 6 % e % e e r 4 5 e j : y i -X-XM.-X",
"E IXfX0XwX0XqXsX0X0XwX0XtX0X0XsXwXwXwXwXfXwX6XwXwXwXwXwXwX8XsXwX) S.wX).6XdX` V.0X`.oX6XS.}.7X0X1X6X;.E ,X5X`.vXS.D [.6XG.6X'.>.}.6X8X8X5XE B.wXG. XwXQ %.qXI.5X9XS.}.7X6XOX9X9X6X0X0X0XwXwXwXkXwXwX8XwXwX0XrXrXwX5X9X9X9XJX;.  .         & HXSXDXeXeXfX,X{.B.%.A.U.U.>X>XD / Z.B.F.[.S.U.Z.7.P./.V.V.U.Z.y.*X*Xy.N.^.P.N.>XV.M / V.| y.L.L.*XP.*X>X*XZ./.>X/.*X4XP.|.qXl _ V.y.A.A.^.[.9X[.B.{.<XP.[.9XF.A.^.~.B.I.4XS.B.;.D.Z.~ d $ # # r T T [ y.L.%.y.T $ L t 3 t 5 O # O O # 7 7 7 w 7 % 6 $ e e e e e 3 e y y r i g.M.-Xg.",
"Y PXsX0X8X0X6XwXwXwXdX0X0X0XwXwXwXrXwXwXsX8XwXwXsXwXdXwX8X8XxX5X) F.wX'.5X6XQ A.0XW.OX6XS.{.wX5X X6X;.E 2X1X].sXH.Z `.6XG.wX].C.,X8X8XwX9XG B.wX).1X0XF ;.wXG.6X5XS.{.5X6XOX6X6X6X6X0X6XwXwXxXwXsXwXwXsXqX0XdXrX7X6X8X0X9XJX;.            & GXDXDXlXSXbXrX[.;.{ J./.*XI.^.G ) V.F.S.D.I.C.y.N.P.P.7.P.%XZ.N.^./.%.A.^.A.B.<XV.m [ N.[ V.P.P.:X/.L.>X>XZ./.*XL.*X4XG.W.bX( V } Z.y.A.3X~.9X,XN.I.,XP.I.4X[.:.~.~.N.D.9XI.B.;.A.;.N & # $ # c Z.T [ y.L.A./ Y $ c r 6 s $ O O 2 O O 5 5 7 7 6 6 3 $ e e e r e 3 3 : y y i :XM.M.M.",
"E IXwX8X8X6X6X6XwXwX8X8X8X9X8X8XwXxXwXjX8XjX8X8XwX0X0XwX6X8XsX}.W F.jX`.7X+XW A.8X_.7X8XC.,X6X6X1X6X;.W XXoX).xXH.D ~.6XH.wX].B.,X8X+XsX5XF B.wX).oX8XF N.wX).+X5XC.}.5X5X5X6X6XwXqX5X0X8XsXxXfXsXwX8XwXjX7XwXsX6X5X6X6X8XJXN.            % HXeXSXDXDXkX4X,XB.} L.>XU.A./.W ! N./.F.B.F.B.{ B.*XZ.%.U.U.A.L.^.L.%.L./.V.A.<XV.Z { | [ U.P.L.*XP.L.*X4XL.P.*XL.*X4XP.S.mX;.g E Z.N.y.<XI.3X9XB.P.4X[.D.,X[.;.G.[.B.P.9X,XA.C.;.Q : * # # # P <X%.( y.Z.U.] h % c r e r # O O O O O 5 6 6 % e e e 5 e e e t 7 7 e e e y R g.M.:X:X",
"E PXxX8XjX+X+X8X8XdX8X8X+X+X7X8XjX8XjXOX8XoXOX8XdX0X6X0XwX0XsX XF H.cX_.OX}.F A.cX_.+XOXD.}.0X6X X6X>.W XX+X_.xXS.G |.8X(.8X].B.,XwX7XsX5XG >.jX).oX8XF ;.jX).8X8XA.}.9X5XoX6X6XwX7X6X6X8X8XxXdXsX6X6X8X7XzX8X6X6X5X7X6X8XLX>.  .     .   6 GXeXDXeXtXDX4X,X[.Z.^.*XL.D.{.W ! y./.~.S.H.S.} B.[.A.y.U.L.u.U./.Z.y./.P.N.D.>XN.b { [ { *XU.L.*XU./.>X>XL./.>XL./.,XP.A.vXI.k k V.N.%.4XG.[.9XF.P.9X>XD.>X,X;.A.[.G.D.9X3XC.B.{ B % $ $ $ $ T 4X&X) &.N.U.;.v $ L z e e O O O O O O # 3 3 % $ e w 5 5 e e e e 4 3 $ y y 6.-X-XM.M.",
"A PXcX+XdX+X+X+X+X+X+X+XzXdXOXzXOXcXzXcXcXzX+XzXdX8X7XwXfXwXxX XG -.+X3.].].G -.+X<.].OXS.{.5X6XoX6X-.D _._.H.xX<.A (.OX<.jX_.A.5X8X9X8X+XF >.cX).+X8XF ;.jX).+X6XS.|.5XoXoXOX8XzX+XzXzXdXcXcXcXcX+X8XOXzXzXzXjXzXOX8X8XOXmX>.            % GXtXlXDXeXkXtX,X,X[.[.*XV./.,XE ~ y.L.*XG.:.S.C.;.F.:.V.L.L.N./.U.Z.L.*XP.N.P.{.B.m | / %.>XL.N.*XP.P.>X4XU.^.4XL.L.>X/.B.rXrXD v V.%.%.4XI.[.9XI.F.<X4XD.I.[.B.N.[.~.A.>X1X:.] V & $ * $ 5 t ( D.9XA.&.y.U.V.v $ c t 6 % O + O O O O O 5 e 3 w e e e $ e e r 4 e 3 $ y y l.-XM.M.CX",
"< ].<.=.=.1.=.K *.*.X.=.1.1.J J =.J J =.1.=.J *.J J (.jXqXsXsX X, , K S J |.a < J K ` }.D.{.6X5X X7XX.& G J S ).H.* K J S >.].<.,X5X6XwX5X, a _ G ` 6Xh l -.J 1.}.A.{.1X6X_.<.<.<.<.<._._.(.(.<.T.)._._.<.<.<.<.(._.@X+XXXmX-.  .         % GXeXtXSXtXDXtX,X3X[.^.L.Z.>X4XE ( [ y.^.~.S.C.S.S.;.%.B.L.y.u.U.U.N.P.*XU.N./.<XB.A y./ | >XL.V.*X/.L.*X*X/.*X>XZ.L.*X/.A.3XHX:.k V.N.y.4XI.F.9X[.C.[.,XD.L.>XB.%.I./.V.W.<X;.U 0 # # $ $ e m { ) >X^.| | L.V.v 3 L c 3 $ O O O + O O O $ e e e r e e 5 5 e r e 3 5 4 y y R :XM.M.M.",
"* *.G , d V g , k n n l l S , l K l l , , * < < , , F.vX0XsXwX Xl f j a n }.j & j a b [.F.{.5X6X5X6X_ & h l a A.T.* w l , ( [.A.3X6X6X8XXXj : , : b }.k v :.-.1.`.S.}.1X7XH.< j < l S K K S *.:.<.J K G < < < < l K J J J >.g             % GXeXtXSXtXDXtX,X[.W.P.Z.L.<X3XZ R [ [ Z.~.(.S.G.S.;.-.;.A.V.V.P.Z.y.U.*XV.V./.4XA.W N.[ &.^.L.A.<X^.N./.*XP.*X>X/./.>XP.N.[.vXW.Z ;.%.N.4X^.B.,X>XA.^.,XD.A.}.I.} D.I.B.D.I.} v & # # # % r A y.! A.>XN.W V.Z.N 7 P t 3 % O O O O O # O # e e % e r e e e t t e 3 3 4 y y 6.-X-X-XCX",
"f L.] E ' ] U 0 Y Z Z A N l , A A A S > : % l b b x U.vXtXwXfX}.n h v z Y |.l a A m Y {.D.,X0X6X X6X*.s Y M x P.F.> c A b ( ~.A.1X6X6XwXoXk k h x Z 3XA / {.oXoX}.A.[.5X8XG.< a h n < , a l &.{.6X>.< l > j j j j b k d k n &             % GXeXSXeXDXtXrX4X}.~.P.N.U.4X,X( [ [ y.Z.F.~.(.G.S.C.>.%.A.V.L./.L.V.*XU.V.A.^.4XD.! 7.{ N.^.D.L.<X*XA./.*XL.<X<X/.*X4X/.%.I. X1X( } &.N.4X>XA.~.>XF.I.,X/.D.,X[.&.;.I.A.;.V.V 7 & $ $ $ r z Z y./ N.U.A.W / V.P 6 L c 3 3 O O + O O O O # 7 e : e r e 5 4 r r e 3 y r t t 6.=XM.M.CX",
"Y KXyXyXyX9XU.d P ~ ! N n N , m Z A A w : $ b c x x L.kX0X0XsX|.l z x x Z [.n f A c Y {.D.{.0X6X X5X-.j A A x F.F.& c A x ( /.A.3X8X8XwXoXl h h j Z 3XA T (.].@X].B.[.9XwXG.b [ V.A.D , j b :.{.6X>.< j % j s r m V.V.J.V.yXU             % GXeXSXDXDXtXtX5X5X~.A.P.*X,X3X( ! &.y./.&.F.[.W.S.S.S.;.%.;.I.U.V.L.*XL.y.L./.<XZ.) %.&.A.*XL.F.>X/.Z./.*XL.:X4X/.*X4X^.%.F.G.}.} ) &.N.,X/.;.F.>X~.F.3X^.D.[.>XB.B.`.B.) ] d & $ $ O : c x T y.~ V.Z.Z.{ P | N 3 L c 3 2 + + O O O O O O 3 e e r r r e 3 e t 3 5 r t t y 9.=XM.M.-X",
"! IXvXrXwXvX,XN T ' ~ M n k & b A A A : > $ x x x z P.fX6X0XfX'.n d x s Z [.l r b h Z {.C.|.9X6X5X6XO.a A b h A.H.& z A x ! (.<.3X5X6XsX}.k s x t A }.S W (.]._. XB.>X5X0XG.A ;.{.1X( , s b &.{.+X>.< h % t t w A tXtX9X9XKXV.  .     .   % GXeXSXtXeXeX9X4X5XH.;./.>X>X<X/ ! [ L.^.F &.[.W.D.:.S.D.-.%.F.U.N.L./.Z.Z././.>XL.) y.N.V.^.Z.L.<X*XP.*X*XL.*X4X^.*X4X^.N.F.S.|.~.) &.{ /.3XS.L.>X{.A.>X3XA.I.[.G.B.I.;./ N 6 $ # $ $ r t x Y y.Q } Z.Z.} ~ / N 6 L t % 5 O + O O O O O O 5 e e e e t e 3 e r 4 $ r c t u u.AX:X:XCX",
"Y PXjXjX7XxX.Xv P ! ~ M n g & c x b b : & % f z s z L.kX8X8XsX].k f j f A {.l w d j A [.S.,X9X6X5X8X*.: b b s A.H.& z c z T `.A.3XqX6XsX Xa s d s m 1Xl v >.1.<.].A.|.5X0XG.b { F.G.F , r x *.A.(.*.g d w c T T [ 4XqX5X9XKX;.            % GXeXSXeXSXyXrXrXqXH.%.>X*X^.}./ ! [ L./.T ( I.I.S.S.S.S.B.>.C.A.N.L./.Z.Z.^.P.F.P.| A.A.y./.Z.L.>X*XP.^.*XL.*X4X*X*X4X/.y.F.S.3XbX} &.{ P.3X~.A.>X3XA.I.,XF.D.[.I.;.B.} M w $ $ $ $ : c r x W y.( { A.A.&.| ~ z w L c 7 4 + + O O O O O O O e e e e e y e e y 3 : t c t c l.AX-X;XCX",
"Y PXcXOX8XdX].M ' ~ ' U k v , v m m k : w $ c x c j P.vX5XwXsX].k f d d A {.v w x s A {.F.{.0X0XoXwX_ w x h s V.H.7 I T T | I.A.5X8X8XsX.Xf z N c Y ,Xl b %.<.<.|.S.[.5X9XT.n { Z.(.D , j x [ :.).` < d w Y u.L.P.9XwX6X5XJX:.  .         & DXDXSXDXSXtXrXbXvXG.A.4X/.Z.^.W T / %.L.W F B.I.S.B.:.:.:.C.D.V.} I./.N.Z.P.A.V.P.} P.V.;./.A.P.>X*XP.*X/.L./.<XP.*X4XU.;.F.A.|.JXA.{ &.D.>X~.N.^.9XF.Z.,X~.B.P.P.} | Y f % $ $ $ $ t x j b T y.{ { B.L.%.] | z 6 c c r 5 O + O O O O O O O 3 y % 5 e $ e e : 3 4 t c t u u.ZX-XAXCX",
"W PXcX+X+XzX XD [ 7.| E k v p v m M x : w $ P ' [ T /.rX6X6XfX}.n d x z Y {.b f x c Y /.D.}.wXsX5X6XX.s Z Y x A.K.v [ | [ y.`.B.5X7X6XdX Xf v P P ' ,XD W (.].XX}.S.|.,X6XI.D y.{.6XF , s x %./.8X>.a d s [ /.4X,X6X8X6X6XJXB.  .         & DXSXeXSXtXtXDXvXsX|./.3XP.V.[.~ ! ' ! { / / { I.jX].1.:.:.C.D.V.&.D.U.N.Z.U.N.N.A.%.P.A.N.^.L.Z.<X^.P.*X*XZ./.*XP.*X<X/.%.F.:.G.JX3X_ %.A.^.[.A.I.4X{.Z.,X[.&.N.Z.%.E f % $ $ # $ e A x j c Y %.y.V.V.F.V.| 7.s 6 L m r % O + O O O O O O O O e 2 : e $ : 2 2 : : t t y c j.ZXZXCX;X",
"k cX_.<.<.T.1.M 8.| | ~ N n p P Y m v w w 5 P 7.7.[ *XkXwXwXsX}.l x N x Y {.n h m L T {.D.}.0X0X5X6X_ x [ { / P.D.v [ { [ ;.~.:.3X8XOX8X Xd c L c T ,XD W F.].].}.A.[.oX0XG.D N.{.5XF , s c %./.7X>.g d s [ /.XX}.+XzXOXOXLX:.            7 DXeXDXSXSXyXHXbXsX}.[.>XN.A.,X/ ! / T [ | &.{ ~.PXLXF.1.:.B.S.S.B.A.B.%.Z.P.} N.N.%.P.V.;./.Z.B.U.*XL.*X^.Z.*X*XL.U.4XU.%.F.S.:.HXbX%.B.A.^.*XZ.I.9X,XF.>X}.} &.;./ h % : $ $ O $ c Y h x x Y y.| U.Z.A.A.N.| r 7 c L r 3 + + O O O O O 9 O O e e 2 3 3 e y 4 4 y t c y t j.AXZX;X;X",
"& _ G l g D k N | ' | T N v r ! ' ! ! e 6 $ P y.| | >XkXwXsXsX}.n ! ] ' | ,XM Y [ [ 7.^.S.,X0X8X X0X} n | | | I.D.v | | [ V.[.>.3X8X6X6X}.a N P P ' 1XA W F.].]. XS.[.5XdXI.D ;.|.}.Q 0 d b &.(.XX>.a d z { /.XX).=.=.=.=.(.K   .         % GXeXSXSXSXtXHXbXxX6X{.I.y.~.9X! ! ! T / y.N.{ [.IXIXXX:.:.:.:.C.S.C.;.%.D.A.{ N.%.N./.N.%.^.A.N./.^.L./.*XL.*X4Xu.L.>XL.%.D.S.B.9XbX;.A.A.I.[.P.A.,X,XF.[.[.;.| ! h w % 6 % $ O t T m x v v ( y.{ *XU.B.D.V.| w 3 c c t e # + O O O O O O 2 O O e : e 3 7 4 y t r t t y c j.AX;X:X;X",
"* { V f v N B d P ' ! E U R z P R ! P z z 7 z U T m U.vX0XwXsX}.k m T ! | ,XN c ' ' ] >XF.}.wX6XoX6X} z ' Q E K.C.f P ' Y } I.;.5X9X6XsX}.p f L m ~ 4XM A *.>.1.,XD.,X5XwXG.n Q _ -.M s s s ! _ >.F g d s ~ &.>.*.a < a k S *             % DXSXSXSXSXyXDXbX8X5X`.A.;.>X9X( W T Z [ y.N.} *XIXIX5X:.:.:.:.:.B.I.S.%.B.B.&.B.%.V./.;.| I.A.A.<X*XN././.L.*X<XL.L.,XZ.{ Z.Z.A.[.kXS.A.A.D.^.P.N.^.3XA.D.I.O.Q v w 6 % % 6 # e m Y m x v b / y.[ P.4XN.D.B.' 6 e L z r 6 + + $ $ O O O O O O O O y 3 3 4 4 c L y j c u L :XSX;XAX:X",
"P UX<X%X&X/.U.K.L.U.U.U.&X*X*XL.K.U.J.%X%X%X%X%XU.U.tXvX8XwXsX1XM | U.y.>XfX! ' J.7.U.9XD.,XwX6X X0X>.N V.V.| ,XI.v 7.J.[ *XI.>.3XwX6XfX0XN [ U.7.U.fX~ ! D.;.S.0XD.|. X0X[.^ [ ) ) ] | ' L E W E ~ ~ U x N M M M ~ ! ~ ' 7.d         .   & DXeXeXSXSXyXDXvX8X6XG.N.F.>X,X! ! / ! [ y.N.y.U.IXIX|.X.:.>.:.:.:.S.S.B.B.%.} A.%.V.I.N.{ F.A.D.4X<XV.U./.L./.eX/./.eXL.[ B.Z.S.^.4XS.B.S.B.^.^.A.I.,XB.;.O.E v w w w % $ $ e m T c A h h b W y.{ L.4XU.B.J.~ 6 t L c r w $ + 5 t O O O 9 O 2 O O O 3 5 $ 5 u L : c c c L :X;X;X;X;X",
"~ IXHXHXDXbXkXkXHXkXUXrXfXfXHXfXrXvXHXrXHXHXHXbXHXHXHXvXsXsXfX9X) >XKX5XHXfX{ P.HX4XvXbXH.,XwX0X1XrXH.) tXrX>XKX|.~ 4XDX[.HX[.>.rXrXsXsXwX~ &XKX<XkXHX| V.bX,XkXbXG.|.5X1X1X<X,X,X,X,X2X<XyX<XyX,X9XyXyXyX4X4X4X9XyX9X4XyXHXq.            & GXeXeXSXSXeXtXbXxXdXS.N./.,X<XQ T [ [ &.%.y.V.>XPXPX:._ O.>.:.>.>.:.B.S.B.;.} ;.} A.^.N.) P.A.P.4XU.V.*X*XL.*X>XL./.tXI.{ L.D.Z.[.[.B.N.I.B.I.[.A.D.^.;._ E d f w w 6 6 5 $ z ! M v Z x v n ! y.[ V.<XI.;.V.T 3 y L t r e $ # e c $ + O O O O O 2 2 5 5 # 8 &.L y y y c i -XAXZX;X;X",
"~ IXvXwXwX6XwXwXwXwXwX0XqXsXwXwXsXwXjXwXwXjXwXjXwXtXrXsXwXsXsX}.G P.kX(.7X6XF N.wX'.5XsXH.3X0XsX X0XB.Q 9X8X~.bXT.F {.8XF.jX`.S.bXbXbXsX1XD Z.wXW.5XbX) %.jX}.wXvXH.}.5XoX1X6X9XqX0X0X0XqXqXrXwX0X9X9XtX0X0X0X9X0X9X9X9X9XKXV.        .   % GXeXeXSXSXyXtXvXfXwXG.A.^.>X3XW T { [ [ %.y.Z.<XPXHX-.) >.;.:.>.-.:.:.S.S.B.;.} ) B.[.N./ F.A.P.>XI.L.<X<XP.^.>X/.*XtX*Xy.^.^.Z.>XW.%.O.I.N.Z.I.N.:.A.) n k p f 7 w e $ 3 r T L M n n v x A W y.[ N.I.>XN.N.P % t L c r e $ # r c $ + # O O O O O 2 5 # O t R z e t t c R M.ZX:X;X;X",
"E PXvXwXqXwX7XwX8XsX0XqXwXwXqXsXsXsXsX8X8XwXwXwXwXdXsXsXwXwXsX|.F P.rX~.5X+XF A.8X'.5X5XS.,XwX0X X6X-.F 1X5X(.xXS.D ~.7XH.7XT.S.kXxXxXxX}.D F.wX(.XX8XW %.8X_.}.8XS.,X5XoX6X2X6X9X5X5X5X3X5XqX8X8X6X5X5X5X9X0X6X5X5X6X1XwXJX:.            % DX;XeXSXSXeXDXbXvXvX}.G.>X{.,X/ A [ y.%.y.L.L.<XIXrX} -.;.;.B.>.-.:.:.S.B.:.B.;.{ %.F.N._ F.B.Z.>XU.Z.<X<XU.*X>XP.*X4XU.;.I.^.P.[.U.| _ [.:.%.F.B.{ ~ n B d a w 7 7 w e r Y [ x x Z Z v h M W y.' } P.[.A.| N $ t u c r e $ $ r t # + O O O O 2 O 5 5 5 5 t L L t t t t &.M.SXZXAX:X",
"E PXbXwXwXwX0XwXwXsXsXwXqXqXsXwXfXkXvXwX8XwXjXwXrXsXwXwXsXwXsX1XD P.xX'.6X6XG N.wX].6X6XD.3XwX6X1X6X:.Q 1X X(.xXS.E {.6X(.8XT.A.7X8X7X8X}.S H.wX).7XwXQ ;.sX'.+X8XS.{.7X6X5XdX0XwX6X0X6X5X5XwXxXwX6X6X8X7X9XwX0X9X6XwX5X5XKXN.  .         % GXeXeXSXSXSXDXHXmXmXwX[.[.I.>X( m [ y.y.V.L.L.4XKX[._ A.;.O.A.>.-.,.,.S.,.;.;.;.&.;.N.} ) ;.;.A.>XU.Z.>X<XL.*X>XP./.4XI.N.I.I.A.>XI.) ) D.;.} ;.{ A b f d s d r f % x A L R u.( , W ~ v b A ( %.[ { Z.[.I.] x $ z t t t e $ # r z O O O O O O 2 O 5 O 5 5 e T L t z t y y.lX;X;X;XeX",
"E JXsX6X0X6X6X6XsX8X8X8X6X6X8XsXwXwXwX8X+X7XOX7X0X6XsX0X6XwXsX}.D F.vX_.OXOXQ N.wX}.6X8XH.}.0XsX6X6X:.D XXoX).sXH.G |.OX).jXG.<.5X6X6XxX}.D A.8XT.+X8XQ ;.wX'.oXwXS.|.7X5X6X6X6XwX8X6X0X6XwXwXjXwX6XOX6XwX0X0X0XwX5XrX5X9XLXB.            & DXeXSXeXyXyXtXbXvXvX8X[.P.P.,X! m &.u.V.L.P.U.4XKXD.{ P.N.E A.B.;.C.:.C.:.>.;.O.-.-.} } ) } %.;.I.P.V.<X<XA.^.<XP./.4XP.%.U.F.V.U.I.| ) ;.| / W b j f , s f z s w 6 / y.W ! /.L.k A ' A M Y { V.%.y.A.I.D.| r 5 t L t y : $ # r c e O O O O O 9 2 5 5 5 4 t R L t t t 2 6.ZXAXeX;XAX",
"Q PXcXcXdXjX+XjXxXxXdXzXzXzXzXzXcXcXcXcXjX+XcXcXcXcXwXwXwXsXsX|.G F.vX_.OX+XJ A.sX_.oX8XS.}.wXwX8X8X=.F 3XOX_.xXS.G }.jX_.jXW.S.5X6X5XsX}.G B.cX_.+X8XF :.jX].8X8XS.{.5X5XOXOX8X8XOX+XOX+X+XzXjX8XXX+XzX5XwX8X8XoX+X7X7XOXLX:.            % DXeXeXSXeXeXeXkXvXvXsX|.A.P.4XY b %.y.L.*XL./.tXbXA.O.U.A.v &.A.B.B.:.<.:.>.>._ &.O.O.} ` _ } } A.B.} [.I.N.I.[.B.F.<XD.%.D.Z.O.D.A.| _ / E M h h s s f f s s s 6 z 4X4XT ' V.>X) a Y T b Z [ Z.y.Z.V.I.D.| w % t L t r r $ $ r r y 2 O O O 2 2 # 5 # 3 8 t L L e t c y u.AXAX;XAXZX",
"k cX+X].].@X_.(._.H.H.).@X_.<.<.T.<.<.)._.(.<.<.<.H.}.kXwXwXsX|.a W 1.J >.].n D S.*.S.OXG.}.qXwX6X8X=.l <.<.=.OX<.j :.).>.].(.D.9X8XwXwX Xn ;.oX1._.8XG { XX<.).5XS.{.3X6X].+XXXXX+X+XdXzXzXzX+X8X+XcXzX+X+XOX+X+X+XOX+X+XmX:.  .         % GXeXSXeXSXeXtXkXvXxXvX`.;.I.4XW Y %.Z././.L.*X4X9XV.V.,XL.x [ N.Z.S.B.:.:.-.>._ >.;.} } | _ } -.;.;.| V.A.| A.F.} V.I.N.&.;.N.| N.) ( E n B a s x s s j r z 0 t % / KXHX[ ! J.>XI.h j Y v m / V.{ L.Z.C.I.| 6 $ t t t w : $ $ e e e y # O O O O 2 # 5 4 e t R L t z t y u.-X;X;XlXSX",
"& *.K g l G l l &.) } K K J < l S K 1.K S < K K S X.].vXwXwXsX).h Y N.<.H.].b c &.%.>.}.G.}.wX8X6X8XO.* k S l B.S.> S ` G ,.|.F.9XwX9XsX|., j J J _ oXb h *._ -.|.S.[.9X5X).J *.>.=.J =.*.K *.*.*.*.=.1.J J ` J X.=.=.=.=._.G         .   % GXyXeXSXSXeXeXtXwXvXbX|.-.>X4X{ | %.L.*XL.L.<X4X&XN.A.4XU.A ' | L.U.D.C.>.-.-._ -.>.} _ ) ) _ ] } } } -.N.} ;.B.} ;.>.} { ) ^ / Q D M N v k d h h s s j s r s f v %.KXKX| / y.{.>X} f m Z v ! Z.| P.U.V.D.] % 5 t L t e e : $ e y e y e O O O 2 2 e t e 7 t L L 8 t t c k.SX;XSXZX:X",
"& } V p p d f Z tXwXrX<.< l : S l G <.< > * A ( l _ ,XsXfXsXsX`.A y.qXkXbXOXY y.4XbXvX9XD.,XwXwX6X6X>., j l f ;.H.j ( S.H.`.`.S.5X5XqXsX].j E S.).G.oXE T ^.1X5X,XA.{.5X8XT.n :.|.}.J < < < , < F < < , * , , < a : - , a A &             % DX;XSXeXeXeXeXrXkXjXbX5XB.>X9XV.N.%././.L.U.>X<XI.;.U.4XP.A [ | J.U.U.H.;.*.X._ } -.O.} _ ^ ` ( ) ) ) ) ) / ) ` ) ! ~ Q W D U M n N v N x x s h s s j r s r z P y.%.HXPXA.( N.>X>XI.A w E Y ! L.{ Z.<XB.V.~ # 4 t t y e e O : e r e e u $ O 5 O 5 t t t t t u L 7 t t L k.SXZX;XZX;X",
"N GX<XU.K.U.y.T qXkXbX_.l l f Z M b Q h : % A Z m b ~.bXrXsXsX'.N y.lXjXjX+XZ y.>XkXkXjXF.XXwXwX8X6X-.a x x j N.G.h &.F.(.]._.S.5X7XwXsX|.k { (.}.}.}.D &.>XkXjX4XA.[.5XwXW.D /.xXbX_ , a l k j ( A l j : f f j b P P P ! w.z         .   % DXSXSXeXSXeX4XeXbXbXmXvXI.4X9XV.V.Z.I.U.V.*X<X*XZ.Z.&X<XU.Y ' ' ! { N.U.A.*.X._ } -.} } ) ( ` ) Q ) Q Q ` Q Q Q D D D D D N M n v n N N v x z d z d j r x j ! y.P.%.3XPX,X/ N.[.>XI.V.d M / [ V.| Z.<XA.| P # 6 t t t r r 3 : e y t u c t t y 5 t L t t t t L L 8 t t u $X;XZXSX;X;X",
"! IXUXrXrXHX3X[ lXbXbX(.l b r Z m N v - w % L T Y Z I.vXwXsXsX`.Z N.zXjXbX+XT &.lXjXmXjXA.XXwXwX6X6X-.p j c r y.G.k &.(.(.XX(.A.XX5XqXsX}.k / (.].XX].G &.XXjXjXXXS.|.5XwX`.( ~.jXvX` , j h x z T S j j : r j : T 4X<X<X<XHXV.            % DXeXeXSXSXeXeXtXkXbXvXjX[.,X<XV.N.D.*XL.N./.*X*XA.P.^.>XI.Y / T c m [ N.U.B.;.} } -.} } ` ) ^ ` F ) ) Q ( Q G D W D D M D Z M n M N b m B c z s z s r r c T L./.F.A.~.KXbX} ;.I.<XD.,X! h ! | L.&.y.I.Z.~ x # 7 t t t c r % e r e t L t t t t t L T e r z y u L e z e L $XeX;X;X;XAX",
"Y PXkXwXqXvXXX( >XjXjX<., a : Z m L b w w $ Y y.V.N.>XrXwX0XsX).A &.(.XX7X+XZ &./.7XjXjXF.XXwXwX6X8X-.: t x r &.G.j ) A.H.].|.F.5X7XwXxX}.B ( F._.`.`.Z &./.+XjXXXF.{.7XwX`.W L.XX8X` , a x x z m b h a > r s : Q rXtXqX9XPXV.  .         % DXeXyXSXyXSXeXtXbXbXbXbX'.W.U.V.V.P.^.P.y./.>XP.Z././.U.U.E ' T t x v / Z.U.D.;.} } } ` ) ^ Q ) Q ` ) Q ) ~ W G E D Z V V M N M M N N v N x z z z s r m &.L././.(.F.:.fXKXA.;.U.9XF.[.Z.v s ! Z.[ y.K.P./ w # e t t t c t 3 r r r c R t e z z L T T e e t e L u r u t u $X;X;X;X;X;X",
"Y PXvXwXwXsX5XY A.(.{.*.> : e { y.y.&.f % % T *X^.[.{.wX6X8XsX'.b [ F.(._.].A T A.(._.XX(.XXqXwX6X8X-.f R [ [ L.H.s T >.-.G.W.F.6XqX7XdX}.d Z &.:.H.|.A T A.(._.XXA.[.oX8X_.Z &.G.G.K , j s T T [ D d f : s w f W 9X7X3X9XKXB.            % DXSXSXeXSXSXeXtXHXJXJXmX3XD.S.U.Z.U.~.D.A.*X*XV.L.*XP.U.U.E ! T x x c Y ' ;.D.A.B.`.|.S.} ( Q ) Q ) ( Q ) W W W D D D n D Z n n Z M N v c z s r z d T &.u.:X:X*X{./.O.[.JX[.;.D.rX^.I.>X~ % Y L.[ [ U.D.~ % # 6 t t t t r 6 r t e u 6.t 3 z t L R T t 7 z e t L t t u R :X;X;XAX;X=X",
"W PXcXjXzXxX}.) 4XbXbXS., w w *XkXbXjXl : % { lXkXwX3XwX7X7XsX'.Z y.jXjXcXXXF %.3XjXcX7XH.3XwX8X6X8X>.A L.4XlX7XH.h [ (.(.XX`.H.qXwX6XsX{.b [ ~.].[.}.U [ /.qX7X,XA.{.5XwX`.W A.4X7XF , r T *X4XvX} p g 6 z z r W jX8XjX5XJX:.        .   % DX;XSXSXSXyXyXeXkXbXmXmXjXS.D.^.U.^./.Z.P.*XP.y./.*XL.P./.T ! W c c A P A A &.y.F.bXJXwX:.^ F Q Q ` ) W ~ Q E D D E D Z V Z b M M n N v x z s x c ' u.L./.eXlX4X7X[.} H.bX9XB.A.9X,XF.>XP.s x L.{ ! V.V.U $ # 4 t t r t e w r t r t R t w t z P ' R r 6 t t t t r u t R :XAX;X;X=X=X",
"Z PXcXpXpXcX+X/ 3XjXbX<.& & r /.kXcXjXl : 3 %.jXcXjX7XqXwXwXsX'.G A.lXbXcX+XW %.7XvXbXjXH.,XwXwX8XwX>.Y L.tXkXjXS.x &.~.{.].`.D.5X6XwXsX].A &.{.7XoX].W &.4XbXxX XD.{.9XwX`.W /.jXvXF , h ! 4XjXvXB.a f 6 d s r F jXOXzX8XPX<.  .         & GXeXSXyXSXSXyXeXtXbXbXbXbX`.I.P.*X*X/.Z.P.*XP.N.*X^.Z.^.*X~ ! T m P Y T T b ! &./.PXPXbX;.) ^ Q W Q / Q / Q W D ~ W E M M Z b n b A N n N x m ! | L.L.L.u.4XGX4XqX{.} A.9X9XF.B.3XrXI.I.[.) h N.%.[ N.V.v # # 8 y t e e 3 % r t y y L e e z 7 P T P w 6 t t t t t t t 8.-X;X;X-X=X-X",
"a ].1.J J *.J ( lXjXmXH., r r /.jXcX6Xk 7 7 y.lXjXcXOXjXjXjXvX'.G y.jXjXcXXX( &.7XcXxX6XF.,XwXwX6X8X>.Z F.jXjXjX<.n %.[.].+XG.S.qXwX8XfX`.A &.~.+XXX}.W y.4XvXjXoXS.}.qXwX`.( S.jXcX( , j W 3X7XxX-., d 7 x z s A H.<.<.<.zXQ             & DXeXyXSXSXyXeXeX4XbXmXmXJXqXI.P.^.<XI.L.^.*XZ.N.*X^.Z.*X/.[ T T c c m ! T T [ %.*XIXPXfX` ^ ) ( ( W ! W / ! W E E E E M M n v b W } W E ! ~ [ L.L.Z.y.y.u./.4X{.3X{.} :.,X9XP.N.[.bXW.W.[.Z.Y { &.Z.V.] x @ # y y y e e 3 e r t e r L e e r e T T z 6 6 t t t t t t u 6.:X;X-X:XM.AX",
"* ( S j j k , m /.].oX>.d x t Z.}. X`.d s 7 [ {.XXXX7XjXwX8XxXW.A %.(.XXzXXXW &.{.zXOXOXH.,XqXwX5X8X-.n %.{.XX+XH.b | I.G.}.).S.5XwXwXjX`.S &.[.XX{.oXW [ /.jX7XXXD.>XqXwX`.( :.].].) v j ( 3X+X8X-.g x f ~ ~ / Z S S < S F ,             % GXeXSXSXZXSXeXyXqXbXnXmXJXwXD.F.>X<XL.L.^.*Xy.A.*XP./.*X*X[ Z L s c t T L T %.y.>XPXPXqX` G ( } &.| / ( ! W ! E E E D M M n k E [.9X} ~ { y.A.L.y.| y.y.y./.>X/.XX/.;.N.[.,XF.V.~.vX XG.>X/.{ / | I.Z.~ 0 # 5 4 e y t y e r r e 4 y I y 3 t r L I t 3 e L t t t z u y u.;X-XAX-X=XCX",
"r K.| ' ' ] / ' &.*.} ) [ ' P / } } } W ' P ! %.-.-.[.vXsXsXsX}.b ! *.` :.5Xn N } *.:.oXF.,X8XwX5X9X:.x { -.} `.G.f ' | ! D.W.H.5XwXwXxX[.a Y &.} :.5XE T ;.>.S.}.F.}.5XwX[.D Q / / ~ E B c ] _ _ Q U P L ] | 7.[ E U x N ] p             % GX;XyXSXSXeXeXyXtXJXmXLXLXcXS.Z.>X*XL.Z.^.I.Z.P.*XL./.*X*X{ Y T t x t T T A y.Z./.PXPX0X` Q _ | D.Z.V.V.| | | ~ E Q ! W Q W W D.IXPX;.) } N.] %.&.[ &.y.u.u.lX/.lX(.A.I.~.,XP.A.P.kX6XG.,X4XP.| { P.U.M & # 3 8 t t y r r t e e 3 t T y $ y r c L t : y t t r r t t y u.AX:XCXM.:XM.",
"P KXyX4X4X4XtX4X4X3X9X9XtXtXyX9X,X,X,X2XeX<X*X>X[.[.5XsXdXsXvX1X( L.tX(.rXvX} V.tX[.rXwXH.3X7X8XoXwXI.! *X,XD.bX}.Y U.4XG.vX`.S.qXwX8XvX0XD y.<XB.<XbX/ y.<XP.,XkXG.{.5X8XrX>X&X&XU.&X<XU.U.L.L.D.I.<X<XU.D.L.D.U.U.U.U.U.DX]         .   % DXeXSXeXSXSXeXeX4XHXJXLXPXPX~.A.>X*XA.L./.P.Z.U.U.V.*X*X*X%.Y Y z z t R T R L.y.V.HXIX6X^ ` A./ 7.P.L.L.L.Z.V.N.N.y.B.;.V.V.;.qXIXPX>.( %.V.Z / &.[ &.R R u./.(.XXA.L.tX^.{.~.;.P.qX8XH.3XKX2XZ.) B.Z.N # # 5 y y t t t r r r e e t L e e e y u R L e y y t y e c t u u.CXCXCX:XM.-X",
"~ IXvXwXwXwXrXkXkXkXjXwXwXwXfXfXrXvXkXvXvXfXkXfXkXvXrXwXwXwXxX XQ /.kXXXvXsX` A.bX}.jXxXG.}.wX8XoXwXD./ 9XvX}.mX[.( 4XbX[.mX|.S.qX7X8XxX5X/ ^.KX}.vXbX| P.HX3XvXbXG.|.7XwXxXvXbXbXfXbXbXrXrXtXvXfX0X0X9XrXqXqXrX0XqXrXtX9XIXN.            % DXeXSXeXeX;XeXyXtXKXPXPXPXLXoXH.>XU.N.L.^.L.P.^.L.L.<X*X>X| P T z c x T R &.y.y.%.bXPX X) { I./ Z y.y.L.L.U.U./.^.^.>X>X>X^.A.9XIXPXB.) } [.W W Z.&.&.&.&.&.y.F.XX/.B.fX[.{.~.%.F.3XrX`.>XHXqXF.O.A.V.x @ # 5 8 y t t r e 6 3 e y t L e e e 4 L R u e e t t e e t u i u.AX-X:XM.M.M.",
"E PXkXwXwXwX7XwXjXjXwX8X8X8X8XfXwXwX8XsXwXwXrXsXrXwXrXsXwXwXfX XG L.rX`.6XOXQ :.8X`.oX8XF.}.wX6X6X0XB.E [.5X`.vXG.E ^.8XH.8XW.D.5X8XwXsX|.D P.wXG.5X8XQ N.wX|.oXwXD.}.7X0X6XqXwX6X6X6X6XqXqXrXwX0X9X9X9X9X0XrXwX0X9X9X5X9XJXN.  .         % DXSXyXSXeXeXeXeXtXKXPXPXPXLX8X`.{.U.V.U./.Z.P./.L.u.*X>X3X%.Z ! N c c R [ &.L.y.N.tXIX}.( | U.} b | [ y.u.L.P./.<X4X>X<X,X^.B.qXIXPXS.Q } U.N.Y N.&.! R l.y.%./.>Xy.V.bX3XW.3XA.N.,XwX`.^.bX9XB.y.B.O.s @ # 8 y y t y e e 6 6 e t t u e e e 3 u R t y y t t t e y t T j.:XM.:XM.:XM.",
"E IXwX0XwX0XwXwXjXwXwX8X8X8X8XwXxXjXsXwXwXsXwXxXxXwXsXfXsXsXvX XW P.sXW.8XOXQ D.sX'.5X6XD.oX0XwX6X8X:.W {.7X`.xX(.Z [.7X(.8X`.F.wX7X8XxX|.G D.cXH.8XOXF %.jX].XXwXD.}.5XqX6X8XwX8X8X6X6X5XqXwXwX0X0X6X5XqXqXfXwXwX7XwX7XwXPXN.  .         $ GXeXZXeXSXeXeXeXeXKXPXPXPXMXdX|.^.U.L./.P.Z.U.*XV.L.>X*X>X| A [ T T A T &.&.y.N.A.9XPXW.~ } L.D.N | [ [ u.y././.4XtX>X4XqX[.S.,XIXPX~.) } U.I.E ;.N.R &.u.y.y.L.4XD.| bX9XP.9X{.;.[.4X^.I.qX5X:.| ;.| w + # 4 y t y e e 7 7 6 e e y t e e e 4 u T t e e y y y : y t i h.:XM.-XM.M.-X",
"E PXsX6XwXwX0XwXjXdXsXwXwX5X8XfXsXsXrXwXwXwXwXxXsXwXwXjXfXsXvX.XD F.sX).8X6XQ A.dX_.6X6XG.,XwXwX6X6XA.G [.oXW.dXG.G ~.7XG.wXW.F.qX5X8XwX|.A A.jX<.8X6XF >.jX].+XwXS.{.5X0X0X6XdXwXwX7X5X6XqX7XwXwX6X5X6X8XwXwXwX8X6X0X7X0XJXB.            % DX;XSXSXSXZXeXyX4XbXLXPXPXPXcXW.^.U.*X*XL.V././.y.L.<XU.[.} Y [ T T T &.&.y.%.N.Z.4XLXI.) %.U.U.D { [ [ &.u./.{.{./.U.>X4X[.A.G.PXIX5X) } K.<X) / Z.&.&.R u.y.L.4XA.y.rXrXI.3X9XB.I.5X/./.3X5XA.} N.' % + # 4 y 8 t y e 4 7 7 e 4 e t 4 3 e 5 t u t e t e e t y y u T :XCX-X-X-X-XM.",
"Q PXsXdX8X6X6X8XxXwX8X0X8XOX8XsXjX8XjXzX8X8XjX8XcXjXwXsXsXvXvX}.G F.sX_.dX6XQ B.sX'.8X8XG.XX9XwX6X8X:.G ].+X(.cXH.G _.jXH.7XW.H.9X7XwXxX|.n A.8X<.5X5XQ &.jX_.zXsXS.{.5X6X5X6X8X8X8XoXoXoX8X8X8X8XOX6X6X6XdX8XjXOX5X8X5XwXJX:.  .         % DXSXeXSXeXSXeXeXyX9XmXMXPXMXxX`.D.Z.>X^.L.V.*XL.V.U.<XL.F.y.A [ m c c R u.y.&.u.A.>XHXF./ N.U.<XW ~ y.R &.y./.>XlX~.P.[.,X[.A.;.mXIXwX_ } D.tXF.~ D.u.&.&.y.y./.>XN.%.9XbX~.,XtXD.F.tX,X~.{.9XD.} N.E $ + O 4 y y y t 4 e 7 6 7 5 t L e 3 y e t L t y y y y y e y y &.AX:XM.-XM.M.x.",
"W PXcXdXcXcX8XcXmXcXnXcXcXzXzXmXmXcXzXcXcXdXcXOXcXwXwXsXfXxXxX XG S.xX).7X+XJ A.vX).oX8XH.3X6X6X6X8X:.Z (._.1.jXH.l S.].1.7XW.F.5X6X7XwX].V B.+X<.oX XG &.XX(.XX8XH.[.5X5X X8XcXdXjXdXcXdXOXcXzX8XOXdX8X8XdXcXjXOXOXjXcXxXLX:.            % DXeXeXZXyXeXeXeX4X9XNXMXMXPXxX|.K.A.>X^.V.Z.^.L.L.*X>XL.Z.N.Y [ A c L &.u.y.y.A.L.>XHXD.) V.U.<X) Y y.R R u.u.{.lX{.Z.>X{.[.B.;.9XIXbX} } U.4X1XE %.u.R &.y.y.L.>XN.;.>XkX^.^.9X^.P.4XqX/.`.3XG.;.| x # # # 8 8 e t e 4 7 3 6 7 3 t t 4 e e y y T t : t r y : y y y i CX:XM.M.:XM.:X",
"h cX@X<._.T.<.=.1.:.>.=.<.1.J =.=.=.=.<.<.<.=.=.=._ [.sXwXsXdX}., S ` G *.].b b _ F -. XG.}.0X6XoX6X-.& D F S <.H.& l F S :.[.F.9X5X6XwX|., n J K >.XXj j &.*.*.,XH.[.3XOX).>.>.=.=.1._.<.=.<.<.<.<.]._.1.<.<.:.1.(.<._.).dX`         .   % DXeXeXeXSXSXyXeXeX9XcXmXmXmXcXXXI.Z.>XI.V.L.*XJ.L.*X/.V.P.;.M [ Y m [ y.y.y.y.L.L.{.kXC.| L.P.<XN.Z y.i &.&.y.L.>X/.V.F.I.P.;.;.{.JXJX;.%.U.<XrX_ W L.| [ [ y.u.^.%.;.>XqX/.^.4X>XF.,XrXI.`.5X`.;.| w # O O 5 y 4 y e 4 3 3 6 6 5 r t 4 e r y r T t y e t t e y y y l.:XM.M.M.-XM.x.",
"% ` V k l n p , A / _ l > , * , j < < > < > , Z W ( `.kX8X8X8X].< , , a A (.A L y.*X,X1XH.1X0X0XoX6X-.* a l , *.<.& p n A *.`.S.9X5X0XsX}., : a a -.,Xv c *.%.(.}.S.`.5XjX(.S *.G.<.S < < > S l < l K l , G &.*.) S K K S J ,             % DXeXSXSXSX;XSXeXyX<XzXNXcXmXmXoX[.D.^.U.L.U.U.Z.L.*XL.N.U.;.N [ ' ! &.u.N.y.N.Z.F.^.9XB.} U.L.<XC.A &.&.u.y.u./.>X/.A.A.~.F.;.S.~.JXJXB.O.U.<XrXI.V V.y.7.y.y.N.P.%.&.^.5X/.D.4X4XD.>XrX~.D.,X>X| E % + # O 4 4 4 e y e 4 6 w 4 5 r t 3 e t t y L t e y t r e e y t u.AX:XM.:Xx.-Xg.",
"% 7.~ M M U v c y.<XtX:., , * b x A A : : : ( L.4XrX5XwX8X6X8X].b j h v W I.T [ *XHXKX8XF.,XwX0X6X6X>., N A h ;.G.: x M Z &.~.H.5X0X8XxX`.k z d A /.,XD &.u.jXkX5XS.`.5X7X(.W /.kXbX` > > j A b x h l , x y.4XkXW.N V M M ] p             % DXSXSXyXSXSXSXyXeX<X7XjXcXmXvX5X[.P.I.U.U.*X*XZ.U.*XL.N./.N.b [ [ | y.N.y.y.Z.A.L.>X>X;.y.U.Z.<XI.n &.y.y.u.y.*XlX4XP.A.[.D.;./.~.vXbXF.} >X>X9XrXD { N.[ [ %.A.P.&.( A.>X[.A.<X4XF.^.tX[.B.[.,X| x $ + O 5 4 4 3 e 4 e 3 e e % 3 e e % r t r e t y $ e e e e e y u u.AXM.-Xx.M.g.M.",
"M HX<XU.W.<XL.! L.qXbXF., * $ s x x b w : $ &./.kXbX7XwX8X8X6X'.l s v x Y `.T &./.kXbX6XD.3XsX6X6X8X-.l Z A x ;.G., x n S &./.H.6X5XqXwX'.v x x A P.}.D &./.jXjX5XS.[.9XwX).( ~.jXcX*.: : r m x j x l a m L.jXvXrXU.U.U.I.rX|   .         3 DXeXeXSXZXyXyXSXeX<XXXjXzXvXxX1XI.F.F.L.U.<XI.J.*XU.V.V.^.A.M [ [ { V.y.%.A.L.y.Z.^.I.%.Z.U.V.I.`.Z &.&.&.y.u./.{.lXF.A.{.A.;.^.G.qXbXI.O.*XI.}.HX) ( y.[ [ y.L./.%.) B.{.<XZ.[.4XP.P.3X3XB.I.[.| f # # O 5 5 y 4 e y e e e % e e 3 e e e e e e t r e y y t e e t u l.-X-X-XM.g.M.g.",
"! IXvX0XrXrX}.W y.3X7X<.> & $ c c b b r : : R L.7X7X7X7X6X6X6X_.l x v s W /.Y &./.jXjX7XH.,XwXwX X6X-.l Z m x y.H.w z m c | [.H.6X9XwXvX{.c j c m Z.}.A &.A.7XzX8XC.^.5X8XT.W /.jXxX` & : t T ! Y M h j A y.jXjX8XwXqX9X9XIXV.        .   % DXeXeXSXSXSXSXZXeXeX,X6X8XsXsX`.A.I.F.V.^.<XL.L./.P.V.L.[.Z.Z [ [ | y.y.y.L.P.N.L.*XU.;.P.U.Z./.`.Q i &.&.&.u.y.L.XXF.D.~.N.N.^.F.}.tXI.;.U.>XI.bXD.A y.&.[ 7.L./.N.^.~.~.3XD.Z.<XP.A.{.4XD.F.I.{ w # O : 2 4 t e e y 4 e 5 5 e : $ 3 3 r y e 8 z e : e y t y y y u g.M.M.x.M.g.M.g.",
"E PXsX6X0XfX].Z &.F.(.*., : # c t x r : e $ T y.(.~.XXwX0X6XsX'.l s s j ! ^.A ! &.F.].XXS.,XwXwX2X6XO.a A P m y.F.: c P Y | [.D.6X8XwXsX(.j c u R y.}.A ( %.(.XXoXS.`.3X8XG.Z N.G.|.G , : L y.u././ b j x &.F.(.].7XwX9X9XPXB.            % DXeXSXyXSXSXeXyXeXyX<X5X8X8X5XS.B.`.^.;.^./.J.V.U.L.Z.L.*XP.Z / | y.N.%.{ L.U.N.L.*XL.:./.L.y.F.{.{ A &.R i &.u.u.lX^.^.~.%.N.^.D.~.,XF.N.I.>XD.tX2XG { y.[ &.L./.N.tX3XF.3XF.N.^.>XA.^.5XI.Z.D.E 3 # + e e 4 7 7 y y 4 : e e e e e $ 3 r e 6 e L t 4 e y t t e y R :XM.M.-Xg.M.g.M.",
"E PXxX6XwXsX}.E u.3XqX-.& : e R y.P.&.: > 2 R u.4XqX5XwX6X0XwX'.l j x x ! {.Z [ L.jXjX5XH.1XwX0X6X6X-.n [ L.^.3XA.k [ L.4X,X`.H.8XqXjXjX/.A &.u.>X4X{.A T y.{.+XoXS.[.3X7X(.Y L.3X5XF - : L y./.4X} l j b &.(.XX].6XwXwX0XJXB.  .         % DXSXSXSXSXSXSXyXeXeX<X{.5X6X`.;.G.[.,XA.U.*XA.Z.U.P.Z.U.^.D.Y [ [ 7.y.y.[ V.*XZ.L.4XL.A.^.U.y.F.XX%.c &.&.R y.y.y./.~.~.P.{ V./.D.G.}.D.N.U.>XF.,XrX/ Z y.[ [ L.P.%.9XwXH.,XP.;.^.4XB.I.,X^.B.B.h $ # O y e 4 e 3 e e 5 e e e e e $ 3 e e e 3 e L t y y y t y y 8 6.M.M.M.g.g.M.v.v.",
"Y PXdX6XsXcX].( P.lXbX<.& > r y.lXbXjXj : y &.XXkXbX5XwX0X5XwX'.n c x x ! {.! %./.vXbX6XH.5XwX6X6X6X>.Q Z.3XbXbX<.Y u.>XbXvX).P.0XqXjXjX(.W y.:XHXkX3XD &.L.lXbX5XA.[.5XwX(.{ /.kXbX` & w ! /.jXbX-.j r T A.jXjXjXOXcXOXdXPXB.            6 DXSXeXSXyXZXSXSXeXyX<X^.`.OX`.B.{.[.}.P./.U.L.U.*XL.L././.U.T ! &.%.y.y.{ A.^.u.L.4XP.V.U.L.y./.{.L.j &.&.R y.y.&.A.A.P.Z.{ V./.A.D.>XD.N.U.^.P.[.fXB.A y.{ [ N.P.{ [.kXF.{.[.A.P.4XZ.A.,X[.&.{ r $ O 5 t 4 6 e e e 5 e O e r e e e $ e e e 3 e z r e y t r y y 2 l.:XM.g.M.g.g.M.v.",
"n mX+X_.].@X<.( L.jXkXH.p 7 s J.3XjXjXl 7 w [ /.kXkXjX7XwXqXjX`.n A Z m ( {.W %./.jXbXOXH.XXwXwX1X6X>.~ y.XXcXcX<.E y.{.cXjX_.A.5X0XwXvX`.Z &./.kXvX}.G &.F.jXcX XS.[.9XwXG.( /.jXxX` - w T F.7XbX>.j j A F.jXcX+X_.zX+X+XMX>.        .   & DXeXSXeXSXSXSXyX;XeXeX^.I.XXXX(.3XI.~.I.I.L.P.^.*XL.U././.U.~ T { y.y.%.y.L.U.L.P.<XZ.V.U.L.y.P.~.^.Y ~ | [ [ 7.&.y.N.H.N.[ A.U.N.A.W.L.y.U.*XP.[.5X`.Z / &.[ y./.[ /.bX(.{.,XD.Z.>X^.A.,X>X_ N % # O e L e 5 e 7 4 5 3 3 4 t r r e $ e r e e 4 t t e y t t u y y l.M.h.v.v.g.g.M.x.",
"& S.=.K V H S W Z.XXjX:.x z s y.XXjX+Xl 7 t | /.qX7XXXjX7X8XxX|.n ! ' ! &.{.Z &.L.oXjXOXG.XX5X6X6X6X-.Q N.].+XdX<.E N./.jXzX(.A.0X0XwXxX'.Y &.P.7X7X{.W &.A.7XjXXXA.}.5XwXG.Q /.jXxX( % e ! /.+XjX=.k d Z A.XXzX_.K K F J >.k             % DXSXeXSXyXSXSXSXSXyX<X%XD.`.3X{.3XI.S.~.I.B.P.*X*XL.U././.^./ L [ y.| y.Z.P.L.Z.*X*XN.V./.V.Z.P.I.[.{ ! %.T R [ &.&.N./.;./ N./.B.:.[.U.| U.>XP.I.,X,X{ Z &.{ y.P.&.G.HX].G.<XD.Z.>X<XF.,X[.| d $ # # t L t 3 7 7 4 5 5 3 2 e r e 4 5 e e t t 7 t 7 : y t u y y y l.h.h.b.M.g.M.g.M.",
"$ E l p d B N m [ | *.( M N f ~ ) O.*.a 7 7 Y { *.&.~.jX8X8XsX}.d P T P y.9XA T { ) >.5XD.}.0X6X6X6X-.b { *.>.'.C.b [ } *.H.(.S.9X6XwXvX'.v ! { *.:.3XM Z [ %.:.[.A.[.5X8XH.n ( { -.M f r c { =.:./ n B b { -.>._ k l d x P &             % DXeXSXeXSXSXeXSXSXeXeX:XA.D.5X3X>XD.D.3X`.;./.*X/.u.P./.P.P.' A [ y.| y.L.P.L.Z.*X*XL.L.*XZ.V.^.S.I.N.V | T T ! ( &.N.^.N.[ L.*XL.A.^.P.{ U.4XP.I.[.,XB.A | %.y./.%.F.HX7XS.|.U.Z.>X,XF.[.I.~ 6 # O $ u T t 5 7 7 7 e 2 5 2 e r e % 7 7 t e t 4 t 7 y y t t t y u d.M.x.v.b.x.M.v.M.",
"d <XK.C.V.U.U.V.V.A.A.Z.K.U.Z.V.H.S.D.L.%XJ.y.V.B.:.].jXwXsXsX,XE V.*Xq.eXtX~ V.,XA.[.rXF.}.0X6X1X0X:.b y.A.} ,XD.b N.D.:.3X(.S.5X6X8XxX`.d T N.` A.rX~ ( L.%.H.9XS.`.5X6X|.;.&.O.} V.U.y.{ { &.;.} q.V.| y.%.O.O.V.V.7.q.yX'   .         $ GXeXeXeXSXSX;XSXSXeXSX<XA.D.4X3X{.Z.>XbX8X:./.*XL.L.*XU.A.I./ A &.| | N.L.P.L.Z.*X*XV.L.*Xy.N.U.A.I.F.Z [ A x A T ( N./.y.&.P.*XF.B.~.P.&./.tXU.I.<X,X~.A / N.y.P.%.F.bXdXC.<X<XZ.^.<XP.G.C.M % @ O $ I R t 5 7 e 4 5 : 2 $ y e e $ 7 7 r t t 7 t 7 t t t t y y i g.g.g.v.M.M.v.v.x.",
"~ IXvXfXkXtXrXtXtXwXrXtXrXqXfXrXkXkXkXkXHXHXkXkXkXjXwXwXwXsXsX}.) <XbX|.KXvX_ I.bXXXvXvXG.,X0X7X1X0XD.) 4XkX}.JXW.( >XvX>XmX~.S.0XwX7XsX|.W L.kX(.qXbX| P.bX3XjXbXG.[.5X5X6XrXrXbXfXrXrXrXrXtXtXtX9XtXtX9XtXtX0XrXrXrXrXtXIXZ.        .   % GXeXSXeXSXeXSXyXSX;XyXeXL.S.9X>XP.D.rXJXxXH.D.<XL.%X*X/.N.I./ M [ [ y.Z.L.P.L.Z.*X/.L.L.*Xy.V./.V.I.<XM { | / ( Q ! N.P.y.N.L.>XP.;.F.Z.y./.yX/.P.4X}.>X/ G A.%.L.%.F.wXwXP.4XtXK.P.>XU.S.O.d % # O 5 L R z $ 6 6 3 3 2 O 2 r t e $ 7 4 e t t t t 7 t r t t t y i g.v.b.b.M.v.x.x.M.",
"E IXrXwXqXtX7XqX7X7X8X5X0X6X0XwX8XwXrXwXtX0XwXwXjXwXwXwX0XsXvX).Q [.wXH.xXxX` A.wX`.7XjXH.XX9X8XOX6XB.W {.8X`.bXH.Q >XqX).xX).S.0XqXwXxX|.D Z.kX(.5XwX/ N.kX|.5XsXD.|.5X6X X5X0X2X0X0X5X9X0X0XwXsX0X0X0XrXrXfXwXwXrXqX7XjXJX;.  .         % DXeXSXSXSXSXSXZXeXSXZXyXU.V.3X/.P.^.kXJXbX}.D.I.L.*X:XP.V.^.| P { [ y.Z.L.^.L.y./.%Xy./.*XV.U.*XV.[.9XZ ~ U.Z.A.V.[ V.P.V.U.P.*XP.%.Z.F.y.*X4X/.^.9X[.[.C.k } y.P.{ A.7XkX`.4XHXP.A.[.F.;.Q % $ # # 3 L R t 5 5 3 5 O : $ 5 e t y $ 7 7 r t t r e e t e e t y u l.v.x.M.g.M.M.b.g.M.",
"E IXwX5XwXwX7XwXqXwX8X5X0X8X8XwXwXwXwXwXwXwXwXjXjXwXwXsXwXwXsXW.G ~.6X<.8X8X( S.dX].5X8XS.3XwXwX6X5X:.W `.oX(.fX<.W {.3XG.sXI.D.5X9XqXxX|.D D.jX).5XoXF %.5X). X6XS.|.5X X}.5X6X6X0X5X1X9X9XqXwX0X6X6XwX6XwX0XwXwX8XwX5X7XJXV.            % DXeXSXSXeXyXSXeXZXZXeXeX*XJ.3XP.P.<XbXPXbX}.~.A.L.<X<XP.A.^.} Y [ [ L.V.L.*XL.y.*XU.V.*X*XV.*X<XD.^.qXQ M *XU.P.*X} L.L.L.*XU.*X/.;.P.^.A.U.4X/.I.4X[.P.[.A A | P.[ y.7XvX[.,XkX<XZ.,XF.) d % # @ $ t z P t $ 5 3 5 2 2 5 2 5 r e : 6 e t r t t 7 7 t e e t u u l.x.x.g.b.b.g.v.M.x.",
"E PXsX9XwX7XOX7XwXqXwX5XqX6X6XsXjXwXqXqX8XqXrXwXwXwXwXsXwXdXsX`.E ^.6XH.wXXXF D.sX'.wXwXG.3XwXwX5X5XC.G }.5X~.vXS.E {.7XT.wX(.A.5X8X9XxX`.G G.sX`.7X5XQ -.7XW. X0XS.,X5X X].oXoX0X0X5X5X5X5X7X7X6X8X7X9X5XwXsXwXwX0XwX5XqXPXB.  .         & GXSXeXSXSXSXeXSXeXeX;XeX<XU.9XD.^.<XbXIX5XS.{.B.B.<X*XZ.L./.%.! { %.V.y.L.*XL.Z.*X/.V.*X/.y.*X>XZ.[.tX} h U.A.y./.| Z.Z.L.*XL./.^.A./.>XL.P.<X*XU.4X,XB.,X_ h { P.&.&.>XkXI.~.fXtXI.>XD.Q & $ $ O e R c c t $ $ 5 5 : O $ O 5 y e : 6 7 e t 7 7 7 8 r y e y y i l.g.v.M.v.g.g.v.g.M.",
"P PXwX8X8X6XoX7X0X8X8X7X7X5X+XjXwXjX8XOX6X+X8X8X8X8X8X8X8X8XjX).G `.8X(.xX XF C.cX_.8XsXH.,XqXwX6X0XC.D {.6XG.vXH.E [.6XG.xX(.S.5X5XqXvX'.G H.cX).5X5XQ &.8X_.oX7XS.}.9X3X|.XXoX7X7XXXXX3X6X7X7X6X7X7X6XoX7X8X6X6X6XwX9XqXJXB.            & DXSXeXSXeXSXeXSXSXeXeXeXyX*X9XF.>X<XHXPXD.>.|.S.B.>X*XN.P.^.%./ { %.Z.y.L./.L.L.*X/.Z.*X%Xy.>X>XZ.^.9XN.d L.V.{ L.} L.V.L.<XL.*X/.Z.I.<XL.P.4X*X/.4X4XK.}.A.h ) L.N.| /.rX{.I.tXfX~.W.B.n $ # $ # t [ L L t $ $ $ 5 5 5 # 2 5 t e 5 6 r r t r e e e t t t t c i x.M.v.v.g.g.x.M.g.M.",
"D PXcX8X8X8X+X7XwXxX8X+X8XzXOXcXcXcXcXcXzXzXjXcXcXxX8XwX8X8X8XH.G G.zXH.8X+XG A.vX`.8X8XS.,X0XwX6X6XA.F |.+X(.cX<.F ].zX_.xX(.S.5X5XrXfX'.G F.cX_.wX6XF -.8X_.+X+XS.{.3X}.].+XjXzXzXXXOXOX+XzXzX8X8XdXcX+X8XdXcXOX6XsX8XwXLX:.        .   6 DXSXSXSXSXeXSXeX;XeXeXeX;X<XDX[.>X4XHXbX>.>.G.G.A.[.U.A.U.>XV./ / y.V.y.L.*XZ.L.eXP.y.*XU.N.*X/.Z.{.4XF.v B.A.} V.N.P.V.U.4XZ.*X*XP./.<XL.L.>X*XL.4X4XD.[.[.n ! Z.y.N.^.rXtXF.4XkX`.Z.) , $ # # O c [ R R c $ $ 5 $ # # 2 # 5 e 7 $ 3 r r t r 6 4 t r t y y y i -Xg.v.M.v.g.g.M.x.x.",
"D mXpX+X+XoX_._.`.]._.).+X@X_._._.@X_.].pX].F.(.).H. XwX8XwXjXT., ( =.J H. Xl A :.` >.oXD.,XqX6X5X6X:.l S.).=.+X<.l <.H.>.oX`.F.5X0XsXfX`.l { (.=.(. XS F <.*.<.}.S.}.5X5X_.)._.3._._.].]._.3._._._.+X]._.]._.]._.+XOXOX8XmX-.  .         6 GXSXSXeXeXSXeXSX;XeXZXeX;X4XHX4X>X<XHX3XB.S.>.(.G.P.L.A.U./.D.[ ~ N.V.V.U.*XV.L.>XL.y.*XL.N.*X/.N.*X>X[.Z ) N.| &.V.P.y.*XeXL.U.>XU.U.4X/.Z.*X*XL.,XeXI.I.,XQ D N.N.^.^.tXlXI.,XrXG._ A % $ $ 2 5 t [ u.&.P $ # O O 2 # # 2 5 4 7 7 6 r r z t 3 6 t t y t t u l.M.g.x.M.v.M.M.x.g.x.",
": <.J S K G V l / ;.1.=.K K < K K G K S K < S *.:.<.].wX0X8XwXT., a S j W |.k b { A.G.XXG.}.qX0X6X0X1.: h S G (.:.& d b k B.W.F.6X6X0XsXW., h { -.C.}.k : b l Q >XD.}.5X0X(.< < S < S J K < S S S S J K < K K K K J J J _ 1.k             & DXyXSXSXSXeXSXeXeXSXeXSXeXeXHXrX,X<XrX~./.F.-.H.`.F.N.Z.^.^.A.&.{ B.Z.L.*X/.L.%X:XL.L.*XL.y.U.P.N.P.[.}.E D ) E { L.L.y.<X*XN.L.<XL.L.<X*XV.>X4XP.<X4XU.F.3XB.Z | N.4X{.4XrX`.[.9XS.G w $ # O 5 t t R L.u.P $ $ $ # $ 9 O # 2 5 e 7 6 e t t t 6 6 t t r y y y l.M.x.x.v.g.M.v.M.M.x.",
"* D k 0 7 p & v %.>XkX<., & * k S k h , : % Y P.kXvX8XwXqX8XwXG.h x b x ( }.M [ L.lXbXwXG.,XqXwX6X0XS.w s v Y H.N.e c m M L.I.I.5XwXwXsX/.b &./.kXwX Xn f v b ( >XD.}.XX8XW.k j h j , , , , j a , < l a & a j a a d k k v E -         .   6 DXSXSXSXeXSXeXeXSXeXZXSX;XeXGXrX[.[.,XP.[.^.) >.).`.O.D.^.^.A.| %.L.L.L./.L.L.L.*XL.L.*XZ.y./.L.N.U.P.>X) Z [ T &.L.Z.%.*X<XL.L.<XI.L.>X*XL.>XtXP./.4XU.Z.>X{.W [ %.4X4X>XrX{.`.,XN.h * $ $ $ e c R R L.y.P $ 6 5 2 O # 2 O 2 5 7 e 7 e r t t 7 e t t y y y u l.M.g.v.v.M.g.M.x.M.g.",
"s *XV.V.J.J.~ M A.3XcX)., : : h A n x p : : ( P.jXjXwXwXwXwXwXT.l x m b ! ,XZ 7.L.jXvXwXF.}.fXsX6XsXS.b ' y.L.{.A.L y.k.<X4X^.G.5X8XwXxX{.L &./.kXbXoXn z m m F ^.F.}.6XwX|.n k x v f d a a x z h h k s % z x h E V.V.V.J.%XP             & GXSXyXDXSXeXSXeXeXSXSXeXeX4XkX9X~.^.^.D.>X}.K O.S.~.A.B.I.I.V.} V.Z.L.P.*XL.Z.%X*XU./.*XZ.y.U.L.L.>XF.~.N.M ( T &./.L.%.*X<XZ.L.4X^.Z.<X*XL.4XeXL.L.4X^.D.[.4X{ W | 4XqX[.qX,XI.W.) : $ $ O : t R &.y.u.y.c $ 7 7 # 5 O O 2 O 5 4 7 3 e r r e 7 e e t y y y i j.h.g.v.M.v.g.g.x.x.M.",
"E IXrXrXbXHXqXW y.3XxX(.: : $ x A N h p w $ ! /.jXjX8XsXwXwX8XT.b c L L ! {.Y { Z.qXcX8XH.}.wXwX6X6XS.E y.*XlXjX>.T u./.kXkXG.G.7X8XjXjX(.A &.L.7XxXOXn d m c Y `.F.{.6XwXW.l h z c f f a f c c d d b a 6 z x t | bXrXrXHXIXV.  .         & DXeXDXyXSXSXSXSXyXSXeXSXSXeXtX[.I.W.F.F.,X,Xn ` S.S.I.C.S.S.;.V.L.L.P.L./.L.N.P.*XL.U.*XA.L.%XZ.P.>XZ./.P.b [ / &./.Z.y.P.>Xu.L.<X*XV.*X<XL.*XeXP.L.eX>XF.I.,XA.( &.4XkX{.4X9XC.;.n > $ : O y T R y.L.&.| N $ z 7 # O 5 O 5 O 5 e 4 % e t r r e t t y y : y i g.M.x.M.x.M.g.g.M.v.v.",
"! PXfXqXwXkXXX( %.~.oX<.: : : c c N d 7 w : T N.~.].6XsXwX8X8XH.j c c c / {.A R y.F._.6XF.,XrXwX6X0XS.n &.L.].jX>.m &.L.^.5X).G.7X+XjXjX].A &.%.(.].oXk f c x Z ^.S.{.5XwX`.n x c c s a a r c m P x k d % z z t [ tX0XqXqXPXB.            6 GXSXeXSXSXeXeXSXZXyXSXeX;XeX9XF.S.U.U.I.,X,Xv Q A.B.H.I.B.} N.Z.L.V.A.P.%XL.y.L.*XL./.%Xu.*X/.Z.P.^.A./.>XA [ &.y./.L.Z.L.*XZ.Z.>X/.y./.<XL.^.4X*XL.4X<XK.I.[.>Xy.%.>XHXXX{.,XN.E p $ # O $ y L R y.%X[ / B % z 7 # O O O O O 2 7 3 $ e r r 7 r 7 8 t y y 2 i g.v.g.g.g.g.b.g.M.v.v.",
"Y PXfXwXxXxX Xn &.y.{.>.: w e L [ J.{ p f % A %./.F.XXjXwXwX8XG.x T R u.L.{.b T y./._.XXG.,XrXwX6XwX<.b [ A.[.6X:.c &.u./.7X(.(.9X8XsXxX`.k ( &.|.].].b r t t m ~.S.[.9X7XG.n [ J.P.n , : t &.L.U.~ f f s [ u.U./.rXwXwXwXLXB.  .     .   % GXeXeXSXSXyXSXyXeXSXSXyXeXeXqX:.S.I.^.<X,X[.b M N.S.:.I.S./ %.Z.L.Z.N.L./.L.y.L.*XL./.%XZ.*X*Xu././.A.P.qX! Y %.L.L.L.*XP.<XL.Z.>X^.N.U.4XL.*XeXP.L.eX>XA.I.{.,XZ.N.^.JXvX[.W.@.d & $ + $ : c R ' 7.P.y.W N 7 z 3 # # O # 5 O O 3 5 $ e r r e e 7 t t y 4 2 i x.M.x.x.x.g.M.x.x.M.x.",
"P PXxX8XwXcX].Q y.{.jX<., : r &.*XkX5Xj 7 w ! L.7XjX7XjXwXwX8XG.A u.j.lXkX{.Z { L.jXxX5XG.,XrXsX6X8XS.Z &./.jXjX:.T y.*XlXjX(.(.0XwXwXxX_.Z &./.kXxXoXn j c c m ^.F.[.5X8XG.( /.kXbX) : : T L.lXHX_ , w v L.qXbX8X8XwX8XjXPX:.            % DXSXDXeXeXSXSXSXeXSXSXSXeXDXHXA.B.I.<X<X[.|.n n ) G.;.;.G.*._ V.L.V.y.L.U.L.u.*X*XL.%X/.L.*X*XV.^./.A.U.tX{ x [ /.L.U.4X/.4XU.Z.*X^.J./.eX/.U.<X/.L.*X4XU.^.,X>XA.;.^.bXmXT.V.V 6 # $ $ O y [ R ' [ L.L.~ x 7 z 5 # # 2 9 O O O $ 5 3 e e r e e t t y : 2 y i x.x.M.M.x.M.g.M.v.v.v.",
"W PXNXcXcXmXOX/ u.jXvX)., : r y.*XkXjXj : 5 [ F.jXjX8XwX6X6XsXH.A y./.lXvX].G { A.4XxX7XH.>XwXwX6X8XA.F y.{.jXxX:.W y./.jXjX(.F.6XwXsXxX`.D %./.jXcX5XY T [ y.y.<XF.}.1X7XG.( L.jXcX` & : T A.jXbX_ & & A y.4XjX+X+XcXOX8XLX>.  .         % GXeXSXSXeXSXSXSXSXSXyXeXyXkXKXI.S.<X4X[.^.,XM n M ;.S.} :.C.} } P.V.V.L.*XL.L.*XU.Z.%X/.L.*X/.V.^.P.V.P.kXN.z / U.y.%XeX/.>XU.V.*X*XZ./.eX*X%X4X%XL.*X<X[.>XqX^.;.&.I.5X8X:.^ p * $ $ O O c L.| / [ V.D.{ z 7 7 $ # # # O O O O O 3 3 r e t 7 7 t t y y 4 2 i v.M.x.M.x.g.M.v.g.v.v.",
"v xX_._.)._.<.F A.XXcXH.a r t y.{.jXXXl r e &.F.7XjX+XwX8X6XsX<.T y.P.zXjX].A &.F.jXcXOXH.}.fXsX6X7X:.W y.{.jXjX:.! y./.kXjXH.(.6X0XsXxX`.Z %./.zXjXXXR &.u.eXlX,XH.|.9X8X(.( F.7XcXJ & e T A.].cX` & p Z A.XXzX_.J =.=.1.+XF             % DXSXeXSXSXeXeXyXeXZXZXSX;XDXIX`.F.9X4XI.[.4XZ Z v W /.:.-.C.;.} V.V.L.U.*XL.P./.L.u./.P.L.*XP.N.U.U.Z./.tX/.b [ P.y./.4XP.{./.V./.^.N.U.4X%X/.*X/.L.*X*XI.[.4XP.&.| S.`.G._ B * # & : $ $ T *XL.! ' V.L.| v 7 7 5 O # O O O O O O 3 e r r r r e t e e 4 4 y i x.x.M.x.M.v.x.M.x.M.x.",
"& _ K l l l < Z y.F._.;.v x t | A.(.H.a : 7 ! %.H.H.XXxX8XsXsXH.b &.%.A.~.XXn / %.A.G.}.H.}.wXwX6X6X:.m { A.S.}.B.m [ y.A.~.F.F.9XwXwXxX|.A [ :.F.).XXF ! &.A.P.}.D.{.5X8XS.G N.H.H.D f 7 P { =.>.D f e t [ &.>.^ , & - g D &             & DXSXeXSXDXSXeXSX;XeXeXeXeXDXKX,X`.4X>XF.3XqXA A v h A.D.;.-.:.N.;.} V.U.*XL.L.L.L.J.*XL.L.>XP.| L.U.L./.4X<XE [ L.y.*X4X/.*X/.y.P./.V./.4X*XL.*X*XL.*X*X/.*X9XF.;.;.V.S.;.V - $ $ 5 O $ t R P.*X[ W | L.| m r 7 $ # # O O O O O O $ 3 e r r r r e y y e y u l.g.x.g.M.x.x.x.v.v.M.b.",
"% O.~ P Z Z N v ' ! ( Q E ! m ! { _ ) E m c P ( Q G ~.rXsX0XsXG.r T ( W A.7Xv Y { ( _ >XI.>XwX0XoX6X>.x [ } ) {.A.b [ %.*.~.~.(.qXwXsXvX|.h W { ( :.5XD Y | / %.3XW.{.5X6XG.M ~ ( / ] 7.' ! [ | _ | q.8.! [ / ) [ | ' E ~ V.v             % GXSXSXSXeXSXSXeXSXSXeXeX;XtXKXqX{.<X^.H.9XtXA A b r ! D.B.;.>.:.N.) N.>XU.U.P.:XL.L.:XU.L.*XU.| L.L.N.*X<X4X/ [ L.y.*X4XP./.(.%.F./.y.L.*X*XL.>X>Xu.*X*XP.^.4XI.;.P.B.O.E p $ * $ $ $ : c &.%.*XN.W ~ L.y.P 7 3 # # O O # O O $ O O e y r t r e r : : $ y y i x.g.v.x.M.M.x.v.v.v.v.",
"N HX<X^.*X&X<XU.*XW.W.,X<X4X>X<X<X<X<X<X<X<X*X>X<X,X9X0XdX6XsX}.T L.lXF.jXrXQ V.qX/.5XvXI.,XwXsX6X0XG./ <X9X}.HXI./ 4X9X[.bX~.P.qXwXwXxXXX( L.9XI.qXbX{ V.tX>X9XbX`.|.5X5X X[.[.{.{.3X9X9X,X4X9XyXrXUXkXHXbXHXHXHXHXtXtXtXKXq.  .         & GXeXeXSXSXeXeXSXSXeXZXeXeXeXIXwX{.>XP.^.rX4XY Y Y b A N.F.:.:.>.B.;.;.U./.L.U.%XL.*X*XL.N.*XL.O.U.U.L.*X<X4X} { y.y.:X4XL././.%.P.*XZ.Z.*X*X/.4XeXL.L.:XU.I.,XI.-.C.O.E d & $ $ # $ 2 r W y.( L.P./ Z y.V.P 7 3 $ O O O O $ O O O O $ y e e r e t y 2 y y y l.g.v.v.x.x.x.M.v.v.v.v.",
"E IXfXtXrXrXtXkXkXrXkXwXwXtXrXkXrXfXrXfXrXkXrXrXvXfXrXwXwX6XxX1X*.>XbX~.bX7X/ D.bX3XjXvXH.[.qXwX1X0XS./ yXfX].bXF./ 3XqX`.xXG.G.5X6X0XfX}.) {.bXoXvXrX` D.bX}.jXbXG.|.wX6X6X0XqXqXwX9XwX9XqXrXrXrXwXrXrXjXkXsXxXfXfXrXwXrXIXB.  .     .   6 DXSXSXSXSXSXSXyXZXyXeXSXeXDXIXbX}.^.P.>XrX4XZ Z W m b / B.S.B.>.:.B.A.F.P.N.L./.L.*X*XP.N.*XL.N.<XU.L.*X>X4XZ.{ y.y.4X4XL.F./.N.P.*XZ.Z.*X*X/.>XeX/.U.4XU.F.>XF.| ) Q d & * $ $ $ $ r t ( y.T N.P.| Y / y.L 7 7 $ # O O O O O O O O O e e y e : r r e e y y i g.M.x.M.x.v.v.v.v.v.v.",
"E IXwX9XwX6XqXwXwXwXwXqX8X8X7XwXrXfXwX5XwXwX8X7XwXwXwXsXwXwXxX|.( ^.8XH.wX1XW A.wX`.3XxXH.,X0X0X5X6X:.Q 3XXXG.jXA.F `.5XH.8XG.G.7XwX6XfX|.G G.jX).oX5XQ -.wX|.oX8XG.|.0X5X6X6X5X9X7XoX5X5XwXwXjXfX6X6XwX8X8XwXwXwX6XwX8XwXPXB.  .         % GXDXSXSXSXSXeXSXyXeXSXeX;XkXIXJXXX/.P.4XqX4XZ Z Y A b b &.F.A.:.;.:.G.F.;.&.P.U.U.U.*XL.Z.*XJ.y.*XU.y.*X*X>X/.%.%.y.4XyXP.Z.P.N.D.>XZ.N.*X*X/.>XeX>X*XyX~.D.[.V.{ Q k & $ $ $ $ $ e t m [ y.W N.L.y.~ ! | c e e # + O O O O O O O O O 2 e e e 3 e r t y y y 6.x.x.M.x.x.x.M.x.v.v.x.",
"E PXdX0XwX7X9XwXjXwXwX7X8X7XwXfXfXsXwX8X7X8XwXsXjXwXwXwXdXwXwX).F ~.jXT.sX1XW A.jX`.oXsXF.}.wX0X5X6X:.E {.oX).xX<.W {.5X(.sX(.G.5XwXwXwX|.F I.fX_.5X5XW N.wX|.6XwXH.{.5XoX5X6XwXwX8X7X6X6X8XxXxXwX8XwX8X6X8XsXsXwX0XwXwXvXJXB.            % DXeXSXtXSXSXSXSXZXSXSX;XeXDXIXbX`.F.I.4XtX4XY Y Y x m x ( A.A.;.-.1.C.H.;.&.L.U.L.*X*XZ.y.<XA.7.*XL.u./.*X^.^.N.y.V.:XeXP.L.^.V.Z.<XP.y./.*XP.*XtX<XU.9XI.A.I.N.Q v % & & $ $ $ $ t j L [ N.E | L.V.{ | E x r r 5 O O O O O O O O O O 2 4 y e 4 7 y t t y y l.x.x.g.M.x.g.g.M.v.b.M.",
"Y PXfX0XwX5X5X7XwXrX7X7X6X6XwXsXsXsXwX7X5X5XwXwXsX8XwXsXsXwXsXG.G `.jXH.sX1XG A.jX_.oXwXH.}.wXsX6X6X:.Q }.].).xXC.W [.8XW.sXG.H.0XwXsXsX}.F G.vX_.6X9X! ;.jX].OX8XS.[.5X5XOX8XwX6X8X6X8X8X8XjXjXwXwXwX5X5XwXwXjX0XwXwXwXwXPXB.            % GXSXDXSXeXSXSXSXSXeXSXeX;XeXIXHXH./.4X4X,X,XZ Z T c c A W { S.S.>.>.>.S.A.;.A.L.Z.>X>XA.N.<XZ.q./.L.L.*X*XP.4XL.L.L.*XeX/./.&XB.D.>XP.Z.*X>X/.*X4X*XU.yXF.;.L.| v : & & % $ $ $ w x z m [ N.! ~ V.V.| 7.~ z r r 5 O O O + O O O O O O O 2 5 4 6 3 4 y t y y i x.x.g.M.v.M.x.M.x.v.x.",
"E PXsX0X8X7X5X7XjX8X8XoXOX5X8XjXcXxX8X7X6XoX8XwXxXsX6X8XwX8XsXT.G G.dXH.fXOXF A.wX_.6XwXH.}.wX0X6X6X-.F }.oX(.cXS.W `.OX).xXG.H.6XqXwXvX}.F S.xX_.OX6XQ B.cX].jX8XD.}.9XoXoXzXOX8XdXOXxXsX8XcXzXxX8XdX8X8XcXxXcXdX+X8X8XjXLX:.  .         % GXSXeXSXeXSXeXSXZXeX;XeX;XeXIXmX<.~.tX>X^.^.A T T x x T ! [ [.7XS.>.-.>.:.B.B.V.q.U.^.%.N.<XV.} /.L.L.4X*XP.3XL.L.U./.*X/.*X>XZ.Z.>XP.P.^.<X*X<X4X>XD.<XZ.{ / N w & $ 3 $ $ O : t t t A [ N.| [ N.Z.| | ' s s e $ O O O O O O O 9 O 2 O 2 2 5 5 5 4 c i y y l.d.g.M.x.x.M.g.v.x.M.M.",
"E PXcXcXcXdXdXxXcXcXcXOXxXzXOXcXcXcXjXzXcX+X8XjX8X6X7XwXqX8XdXG.G F.+XH.8X+XS -.7X<.+XjXD.}.wX0X6X6X=.S T._.1.8X<.l 1.).1.+X).S.wXwXwXsX].F <.cXT.+XoXF >.dX_.+X8XS.|.5X1X].+X+X+X].+XzX+X_.].+X].@X+X+X_.zX+X+X+X+X+X+X8XmX>.        .   % GXSXSXeXSXSXSXSXSX;XeX;X;XlXIXJXF.{.4X^.P.{.Z T W m c ! ! &.5XPX5X>.-.-.>.>.;.;.O.L.I.} N.<XV.} *XL.L.<X<XP.<XL.L./.U.4XU.^.*XP.F.*XU.L.*X>X*X>X9XU.C.I.A.! v w & 6 $ 6 5 # $ r c z c m &.y.%.V.y.Z.y.O.{ z t e 3 O O O O O O O O O O O # 2 5 5 4 y c u y y l.x.x.M.M.g.M.g.x.M.v.v.",
"n xX_.<.<._.Y.=.1.1.1.1.).<.=.1.:.<.=.1.<.=.` *.>.>.{.wX8XwXsXH., S ` K >.XX< b _ F ` XXG.[.wXwX6X6X_ * l K S H.:.> l K l <.`.G.5X7X8XsX].a A -.J =.].l < J K ` ].H.{.9X8XH.S F G K K J J < K K K S K < < l K K J *.=.X.=.<.l             & GXeXeXSXeXSXZXyXSXeXeX;X;XeXIXJX~.{.4XP.I.4X( T R A Y [ &.y.9XIXbX>.-.-.;.*.&.;.;.B.Z.| N.I.y.V.&XN.L.:X*X/.,XZ.U.*XU.eX<X*XU.F.L.I.F.Z.I.<X^.^.<X[.B.B.] b p 7 % % 6 5 $ # e m L x m A &.y.[ *Xy.| V.V.[ x z 7 7 O O O O O O 9 O 2 2 2 2 2 O 4 e 4 y u t u l.M.x.x.x.M.g.g.v.x.v.v.",
"% _ S a < l , , < , l < S l , j h l l , < , > S *.:.7XwX0XwXwXH., f a , W }.a w b S A }.G.}.wXwX6XdX` @ > , , :.:.: f b k ;.~.D.6XwXsXxX}., & k j F |.j : a a S `.G.}.5XwX<.> , j j , < , , a b S < , : * , j j d k g d v V &             % DXDXSXSXSXeXSXSX;XZXSXeXZX;XKXIXjX{.>XZ.^.qX! T T A ! [ y.V.9XPX6XX.=.-.>.&.} O.&.%.;.} } Z.} N.U.y.L.4X>XP.[.Z.I.<X*X4X<X^.I.F.K.D.D.V.U.I.I.L.>XI.;.Q v p % 6 7 6 6 $ # 3 z m c c m W &.u.[ U.Z.| D.K.' c z e t 3 O y # + O 9 O O O 2 2 # 2 4 y 3 t c y u l.d.x.M.x.M.g.M.b.v.M.v.",
"& ] V N x N d l A h l N n n p b m m S , : > : b Z ( XXjX5X8XwXH.j A A x ! }.j s b A A >XI.}.wX8X6X6X` p h x j A.B.: c m A ;.~.D.5X6XsXdX}.a z v x / }.k w A b Z [.F.}.5XxXH.f h x M f S j f h b n h p : > j A b ~ } N.7.y.U.Z   .         % GXSXtXSXSXSXSXeXyXZX;XZXZX:XIXIXjX{.^.D.3XrXW m m T ! [ 7.V.tXPX_.` O.-.O.*.-._ ` _ } } %.N.| O.F.{ L.eX>X^.*XA.>X<X*X4X<X*XI.D.D.P.D.;.S.D.J.Z.L.O.E d p , 7 6 w 6 $ 5 & z P z c c m T &.A./ L.U.} I.U./ x z r t e 4 t 4 O + O O 2 O 5 5 O 2 e y 4 y y y u l.x.x.x.M.x.g.x.M.x.x.g.",
"B yXU.K.U.*XB.b Z b b k n v p b c m A r , % r A A A `.rX6X8XwXH.j Z W x / [.k s x x m >XG.,XrXwX6X6X` f c b v Z.B.: x m A ;.~.H.5XwXwXxX].d z v c / }.k j Y A A [.G.}.5XsXH.f z x A w h d w x v b d & % : x m v } kXkXrXtXKXV.            % DXSXSXeXeXSXSXeXeX;XSXZXZX:XIXIXbXXXP.P.qXtXW Z T T [ 7.y.N.tXPXC.Q -.;.} -.-.O.^ ) _ ) } } ) ) O.[ N.*X/.P./.D.>XI.^.<X^.P.P.B.B.S.Z.%.N.V.;.} | N d p p r w 6 6 6 $ 3 r m T z r x c m [ A.[ y.3XL.P.F.~ z s t t t 7 z 5 9 O 2 O 2 2 5 5 # 5 t y 8 t t y u l.x.x.M.v.v.v.v.v.v.x.M.",
"~ IXtX9XtXfX XV Z S b b b b r c L m m : : $ A y.>.-.{.wXwX6X8XH.a A Z h !  Xk t c c c >XG.{.wX8XoX6X` r x m x Z.A.: x b h ;.~.F.5X0X8XvX.Xd s v x / ,Xk r c h A [.F.{.5XwXS.w z x x w h f : s j k h w % $ z x j { kXwXjXkXJXB.        .   % GXeXSXSXSX;XZXSX;X;XZXSXZX;XIXIXmX[.Z.*XkXqX( Y ! ! | y.[ L.kXbX>._ >.B.;.O.-.} ` _ } ) ) ) ) | ) / &.L.N.V.Z.A.I.L.P.>XD.B.S.B.O.;.N.} | { ~ M v d f r p w w 7 6 6 e r T c x A x x c A [ L.[ y././.V.K.~ r r e t 4 t c 5 O O O O O 2 O 2 5 5 t t 4 t y y i d.x.x.x.v.v.v.x.v.v.v.v.",
"W PXsX5XtXfX.Xl n b v k n b : c m b b w : $ Y %.>.=.'.sX0XsXwXH., b A m ! }.k z Y T ! >XI.,XrXwX6X6X` : x x x A.:.& s h x } ~.H.5XwXdXcX}.p f x j ( 3Xh w r r A {.F.|.OXwX:.: s s s w v f w s j d d w % $ r x j ) xXwXwXvXJXB.  .         % GXSXSXSXSXlXSX;X;XlX;XZXZX;XHXIXmXI.A.3XkXtXW ! | ' u.N.&.P.tX4X;.>.O.B.D.;._ _ ) _ } _ ) / ) _ ) / { | | } %.%.N.N.;.A.N.} B.;.} _ } / E M v d p d s 0 0 7 7 6 % r s c y.T w Z x s x T [ y.! | P.^.N.C.Y w t t e 5 8 L 7 # O O O 2 2 2 # # y t t 4 t u y i x.x.x.x.x.M.v.M.x.v.v.v.",
"~ KX6X6XwXsX Xl m b b h N b w x b x h , f $ Y A.(.F.}.sX0XwXsXH.b { U.*X[.].n T Z./.~.3XH.,XwXwXOX6X` s b Y P D.:.: z x v &.~.F.5X6XsXfX'.f f x x / XXh r x x A >XF.,X6XxXB.f c c c w x f r x x b f r : : x m N &.xXcX8XxXPXB.            % DXSXSXeX;XSXSXSXSX;XZXZXZX;XHXIXJX(.A.3XrX4XQ ! y.[ y.y.y.^.kX>X;.D./ ) [.B.O._ ) _ } } _ _ _ ` ) ~ ~ / / / ) { _ ) | | | { _ ^ Q W D M b x x d p z s z r s w 6 s T c b A.y.s m Y x c A ( y.! / P.,XA.;.P w z t w $ 7 z 8 5 O O O 2 O 5 5 5 y t e 4 t y y i x.x.g.M.v.x.v.x.x.M.x.M.",
"W PX+X8XwXcXoXS M m b N n v p x m v v & : $ ! G.(.F.].jX8X8XdXH.Z %.XX7X7X XA | {.XX7X5XH.,XwXwX6X6X_ p m P Z D.:.s c m m %.W.S.XXwX8XsX'.d x v h ) {.b s c c Y {.F.,X8XwX:.f c c x w B f r x b b d 7 & 6 x m b *.xXzXdXcXPX<.        .   % DXSXSXSXeXSXSXZXSX;XSXZX;X:XeXPXJX~.I.9XqX9XW M { 7.N.y.Z.{.yXW.B.I.Q N I.I.C.} ^ _ _ } } } ] ^ Q Q ~ E Q W W Q ~ Q Q ~ ~ Q D D n n b v h x x x f s z r p p r e A N./ m y./.D d T m m Y [ y.! R P.3XU.] b r z t 7 $ t t 8 t O O 9 O O 5 y e y t y y e y y i x.x.x.g.v.v.v.M.v.v.M.v.",
"W PX+XXX+XpX].V E E Y n n b w P T ~ D w : % b } *.*.{.7X6XsXsXH.S &.`.].OX].D [ ).+X+X+XD.,XrXwXoXOX_ f m m m P.B.f v m m N.~.S.3XwXwXsX'.d c m A { ,Xb x L m ! *XF.}.5XwXS.b [ [ [ f v d f x N m d p & w N N A F >.1.>.1.].F   .         $ GXeXSXSXSXZX;XSX;XSX;X;X;X;XeXIXJX{.>X9X3X,XQ x [ y.V.y.P.*X9XD.N.I./ g L.W.H.B.O._ _ } -.O._ ` Q Q Q E ~ W E E ~ D D E V M n b b k b x x z c d s s f r r 7 r z ! *XN.Y y./.N.s m T P T { Z.[ &.L.>X}.| z r z r e 6 7 t 8 t 4 2 $ 2 2 e t 4 4 t e e y y u l.g.x.M.x.v.v.v.x.v.v.x.x.",
"a _.=.X.=.=._ S N.D.G.) v v f N.{.{.F.p r % s } } &.XX8X6XwXsXD.A &.~.XXoX}.G ( (.].].6XS.,XwXsXOX X` f P m M L.B.f v M N %.~.S.3X7XdXvXW.d c M m | >Xb m ' [ %.{.F.,X5XsX:.E U.U.J.d x f r z c B s r 7 7 c x x f : p , d V &             % DXSXSXSXSXSXSX;XSX;XAXZXZX;XeXIXJX0X,X3X^.,XQ x | y.u.V.U.>X<XN.Z.U.) x Z.[.W.D.B.} _ ) } } _ ` Q Q Q E ( ~ Q E Q P V D E M M v A x b x x s x x s r s r w f h ! { >X^.W { A.U.k s Y c Y [ N.| L.V.I.U.| s r c e 7 3 y t 5 8 t 4 5 8 y t e 4 y t e e y y y l.b.g.x.M.v.v.v.v.x.g.x.M.",
"* F l , a a : b ;.A.A./ N N p / :.N.O.d r w r { / _ {.8X6X6XwXH.f Y _ *.A.5XN A &.-.>.,XH.}.sXsXoXOX` w c b N D.B.w c M v y.I.H.5XwX0XvX`.a L ! Y | 4XM P | ' y.,XG.1X6XwXB.M / [ / U ' P N P P c P P P z L P Y Y ~ ~ E ] V.N             % GXSX;XeXSXZXZXSXZX;XeX;X;X;X;XKXPXvX,X[.I.9XW m y.y.L.V.U.[.^.V.I.I.| x Z.W.I.I.F.S.;.{ } _ ^ ` ^ Q Q Q ) ~ Q W W E Z P D E M x S h v b z c v h z s s r w m [ N.{ /.qX{ { N.^._ f b m T [ L.y.P.V.B.F.| r t t e 7 3 4 z t 8 t e 4 t t t 3 y 4 y e e y y y l.v.M.M.v.v.v.v.v.M.g.x.x.",
"p N.~ U M T P E [ | | q.V.q.' ' ` ) ) V.u.| 7.y.%.;.{.5X5X6XwX`.m | I.-.^.vXD [ F.-.S.0XH.{.wXwX1X5X` x 7.%.} ,XS.P Z.U.J.tXI.F.9XqXsXxX XQ U.yXP.tXkX[ V.tXU.bXbXI. X6X6X}.`.P./.[.<X4X<X<X<X<XyX<XtXeX<X4X<X4XyX9XyX4X9XKXV.  .     .   % DXSXSXeXSXeXZXSXAXeX;X;X=X:XlXKXIXkX{.I.>XtX( Y 7.y.L.V.U.*XZ.A.^.W.| x y.N.O.;.:.F.P.A.| ) ` ^ ^ F Q Q ] Q Q E Q ~ V Z D E M N v b x b x x x x s s e f m %.N.%.} A.rXC.| A.>XD.k d T W [ P.| *XZ.;.D.| 7 r z t e $ 3 t t t 4 4 8 t L e 4 y 4 t t e t y u l.h.v.v.v.v.v.v.M.x.v.v.v.",
"~ KX9XyX<X4XyX<X4XtX2X0XtXtXtXrXrXvXwXrXUXtX4XtX9X9X5XoX5X6XsX}.[ <XKX3XbXvX{ L.bX,XrXbXD.}.qX8X X1X} ! 4X5X|.bXG./ 9XkX,XHX`.H.5XwX0XxX|.| <XbX,XJXbX{ U.HX,XbXvXH.1X6X7X8XkXrXrXwXwXwX9XtXrXrXkXrXrXqXrXrXvXvXvXrXrXrXkXJXV.            % DXSXZXlXAX;XZXZX;X;XZXZXAX;X:XGXIXmX~.D.9XtX{ [ y.L.P.L.*XI.V.U.>XI.| x } Q D F / } D.>XB.&.-.1.` Q E Q ) ( Q E Q E D E E Z M N v n v v z v B v s s s N ] L.Z.{ ;.B.9X,X} A.4X}.) d ~ [ ) L.y.I.U.{ L.{ 6 r r r e $ e t t z 4 4 4 t t t 3 e e y t t t y u k.v.v.b.x.g.v.v.v.v.v.v.v.",
"~ IXtX9XqX9X9XtXfXrXwX8XwX8XqXrXwXsXwXwX7X7X7XfXsXwX6X6X6X6X6X`.Q /.8X(.sXdXQ ;.kX_.6XjXS.,XqX0X5X1X| ( <X XW.xX:.W ~.3XG.wXT.H.9XwXwXcX|.W /.wX`.bXxX*.F.rX[.8X6XS. X6X6X5X6XwX8X8XoXoXOX5XrXwX8X5X8X8XqXwXxXwXwXwXwXqXwXPXB.            % DXSXSX;XSX;XZXZX;XeXZXZXCX;X:XHXPXJX`.F.tXtX| [ y.U.L.P.<XI.V.^.>XW.} b { Q D F ( Q } U.D.A.9XvX:.F F Q / Q Q ~ Q E E Y E U P n k b b x d z x x d N ! | V.Z.B.) ;.;.I.1XB.B.4XtXF.g Z &.{ L.| L.>XN.I.) % t t t 7 3 r t t t 4 e e t t e 5 e e e e e u y i d.v.v.v.v.x.v.v.v.v.v.x.v.",
"E PX6XoX5X5XoXwX8X8X8X8X6X5XwXsX8XwXwXwX7X6X6X0XwXwX6X6XoX8X8XT.G F.8XH.wX6XF ;.8X).oXOXS.,XsXwX5X6XO.( 1X].'.xX<.W [.OX).8X).G.0XsXsXxX).Q [.wX|.bXxX_ D.wX_.wX8XH.}.6X6X+X5X6XwX8X6X XoXqXwXwXwX5XwX8XwXvXxXwXwXwXwXwXrXPXN.  .         $ GXZXSXSX;XeXSXZX;XAXZXCX;X-X-XGXIXJX6X`.lXtX%.[ Z.%XP.P.<XL.B.U.>XU.} b [ _ Q ^ ) D ~ } A.^.PXIXT.G G Q Q E E Q ~ E E V E M D N x k b v k d B x Y [ J.y.V.C.S.` :.;.C.,XD.B.9XPXfX( k [ &.D.| L.W.P.V.P 3 r t r 6 6 r r 5 7 7 r e t u t 4 e y e y y t 8 0.f.g.v.v.v.v.v.v.v.v.v.v.x.",
"E PXsXOX0X0X5XwXjXjXwXwXwX6XwXxXvXfXwXsX8XOX6XsXwXwX8X6X6X6X8XW.Z P.wX<.wX6XQ ;.dX_.oX8XH.,XwXwX5X5X*.( 1X XT.vXS.( [.+X).cX(.H.0XxXxXvX).Q `.wX].vX6X( Z.wX_.jX6XS.,X6XoXoXOX8X8X8X5X6X X6XwXwXjXoX7X8XsXvXxXjX8X8XwXwXjXPXB.        .   % DXZX;XSXZXAXZXZX;X;X;X;X-XCX:XGXIXJXmX3XrXkXy.{ L.*XP./.<XA.V.^.^.A.&.v ( / V D } Q W / %.[.IXPXH.K Q Q Q Q E W E D E E D V U N b W Q Z n N W [ N.V.J.| ;.C.B._ A.:.[.,XG.;.wXIXJXG.j j [ P.{ L.*XW.O.c $ t r r 7 7 r 6 O $ 4 t t e c r 3 t y e e e y y R g.g.v.v.v.v.v.v.g.v.v.v.v.",
"E PXsX6X0X5X1X8XxXvXxXwXwX7XwXvXvXvXdX8X6XoX6XsX8X6X8X5XoX5X8X(.F (.8XH.8X6XQ A.8X).oXsXS.5XwXwX6XoX&.( }.]._.xX1.( {.+X_.8XW.G.0XsXwXxX`.F |.xX_.xXoXQ A.xX_.8X6XG.9XwXoX XOX8X8X7XoX+X8X8XsX8XjX+X+XOX8XcXcXxX8X8XxX8XjXPXB.            % DXSXlXZXSX;XAXZXZX;XAXAXCXZX-XlXJXPXJX7XwXkXA.V.*XU.L./.[.A.Z.[.W.V.%.x ( ) n n } W D [ ;.{.IXIXS.V ^ B.N.| / Q E ~ E D Z M n b W I.B.D Z ~ V.J.V.7.| E Q ) _ ) F.;.5XkXG.;.}.PXJX}.W > ( P./ N.U.W.7.p 6 t t t 7 7 r 3 O # 6 r 7 t t e 4 y e y 3 4 u 2 6.j.v.v.v.v.x.M.v.v.M.v.x.v.",
"E JXdX X1XoX X8XxXcXxXdXdXOXzXcXcXmXcXjX8XOX8XsXwX8X6X5X5X9X6XT.F ~.cX<.8X8XF A.cX_.6X6XH.1XwX0X5X5X&.F oX].).xX:.W `.OX).OXT.F.rXwXxXxX).F ~.8X_.jXoXF B.jX(.8X6XG. X5X X+X XdX8X+X+XzXzXdXcXzXcXpXcXzXpXjXzX+XOXdXcXcXxXPX1.  .         3 GXZXSXAX;X;XZXZXAX=X;X-X-XCX-XlXKXJXmXxXqX4XZ.U.<XL.U.^.^.A.U.>XD.D.A.b W / n M } ! Y [ C.,XIXPX,.G } B.I.Z.N.} N.7.| } } | ) Q ;.HX}.D E / N.V.| [ / U D D F ) F.-.{.kX~.>.I.bXmXOX:.: G P./ | P.D.} r 5 7 e r e 6 6 5 O O 3 e e e t y e e 4 y 3 y y y l.d.x.x.v.v.v.v.v.v.x.M.v.x.",
"Q PXcX8X8XOX+X+X+XOXOX+XcXzX+XzXOXOX+XzXcX+XoXXX X X5XqX0XwX8XG.S -._.` (.OXA _ _.=.<.5XH.,XsXsX5XOX` a *._ J ].1., ` =.J (.W.G.qXwX8XvX).j ` =.J H.}.b Y ;.*.:.}.H.}.6X6XH.` =.=.=.<.<.=.H ` ` K *.<.=.J *.*.*.` 1.1.=.>.<.l             3 DXSXSXSXZXlXAXZX;X;XZX-XM.CXCX;XJXPXJX8X5X^.P.>X<XL.P.[.P.Z.^.>XD.U.F.n W / n M } / ( | Z.1XPXPX1.` O.) A.P.D.Z.I.>XU.W.>XU.F.A.P.PXfXQ Q ) D ' / ~ ] W W G W ) ~.&.:.7X|.;.S.bXPXjX_.A A /.[ / N.N.) 7 3 t e e 7 6 6 3 + O % e 4 e t e 4 e y 5 e y y u l.v.g.v.v.v.v.v.v.v.v.x.v.v.",
"k 8X_.<.<.<.X.F _ *.>.=.<.=.K J ` *.J J *.K A ` _ _ {.wX5X7XwXH.: b G F *.XXl r A h Z 5XH.,XsXwX5X6X) % r A S (.:.> j b a *.W.P.qXwXwXbX)., f < j ` {.A T /.(.~.,XF.,X5XxX>.< j k j n K g < h a , a l , , S S b k k l j l N *             % DXZXSXSXZXZX;XAX;X=XAX-XM.CXCX;XPXIXPXcX].(.[.,X>XV.D.>XU.U.U.>XU.W.F.M Z { D D } [ / %.V.F.KXLX>.-.:.b / &.| %.Z.^.P.I.[.[.G.F.I.PXKX-.( >.N M ~ / / W W ! / _ [.;.-.rX5X:.(.bXPXJX8X>.n L.y.| ) A./ % 3 e t e e 3 7 3 + # 3 4 4 e y e 5 y y 4 y t y u d.x.x.v.M.v.g.v.x.v.M.x.v.v.",
"& ` K l a a * j ( &./._ S < < W &.~.<., > * A Z.S.<.XXwXqX5X8XH.j R %./.{.XXS t c m Y ,XG.5X8XsX6X6X{ L u.{./.jX:.r Z m x ;.I.F.wXsXxXvX`.k h b j ` {.Y %.lXkXkX1XG.,X5XwX1.j h x l b V a h x h k j g a j Z Z m E / ~ ] / q.x             % DXAXZX;XZXZX;XAX;XAX-X-X-XM.CX:XKXPXPXLX{.(.>X,XW.Z.P./.D.U.>XI.D.W.I.Y W &.Q / y.| / V.N.B.JXJX-.>.I.b Y ! b Z W { / ) _ %.%.:.H.JXIXH.Q F./ h ~ / ) Z V E | } I.A.;.5XwXA.S.vXPXPXbX|.Q y.N.U.} V.U # 5 e e 7 7 6 7 3 2 $ 4 7 e 8 t e e e 4 5 4 y y u d.M.x.x.x.g.v.v.v.v.v.x.v.v.",
"& q.Q V c m r L y.L.qXA.b b t [ A.3X~.a , % [ {.XXXX7XwX8X6X8XH.x &.y./.3X7XA R u./.L.3XG.,XwXwX6XOX_ T u.lX4XjX<.: c m h %.(.(.8XwX8XvX`.h j m s W {.Z y.lXkXkX}.F.5X9XwX:.x x c x v n a x x x x s j f f A T c 7.4X4X<XtXIXV.        .   % GXZXSX;XZXZX;X;XZXAXAXCXM.CX-X:XHXPXLXPX7XF.}.,X>XF.U.I.F.U.>XI.D.>XI.D W | ! / | | | P.%.B.kXJX*.>.,XQ A ! j x b W Z n n W ) &.S.JXIX`.` F.B.d ! / / M b D } } I.S.D.G.9X`.:.jXPXPXmX6X;.] | <XU.O.v @ 3 e t 7 r 7 7 4 4 4 4 4 e t t y e e y 2 4 e y i d.v.M.x.v.v.v.v.v.v.v.v.v.v.",
"E KX<X<X4XtX%.c y.A.4X>.S x t &.y.{.(.a w $ [ XX].].oX7X5XOX8XG.j &.&.A./.XXY y.>XkXbXwXF.1XsXwX5X6X) R u.4X4XjX:.: j c h &.~.F.8XwXsXxX~.h c L c / [.Y &.jXbXcXXXH.3X5XwX:.z c c v v l a h x s s j h : f m c j N.kXrX0XrXPXB.  .         % FX;X;X;X;XAXAXCX;X-XM.-XM.CXM.-XlXPXLXPXmX).W.*XW.I.U.I.F.U.>XF.I.[.I.D Z [ E W ! ( %.P.} N.bXJX>.&.9X;.S &.x x m ( M x v Y { A.:.bXIX5X_ S.P.h W / [ M b E | O.U.S.`.C.}.9XS.XXPXPXdX5XI.( / >X4X) f # 3 y e 8 t e 7 4 e y 6 e e y y e e y e 4 4 y y i g.v.x.x.g.v.v.v.v.v.v.x.M.v.",
"~ IXwXqXtXvXF.b y.y.XX*.S h r T &.&.*.: : $ [ ^.].`.oX8X5XoX8XH.h ! %.:.F.XXA [ /.7X7XjXD.5XwXsX5XoX` T L.XXXXjX:.: j c r %.~.F.5XwXsXxX`.v L R [ y.|.A [ P./.XX}.H.,X9XwXB.N [ ' ~ b k f s s s s h b p w c j j %.jXjXwXvXPXV.            % SX;XZXZX;X;XCXAXCXCXM.:X-XM.-X:XlXIXPXPXmX+X(./.U.>X^.P.Z.[.>XL.I.,X[.~ Z / m A T ! N.Z.{ A.bXbX>.} tXD.N | b x m [ Z x b Y &.A.>.7XIXLX>.:.^.F N { ( A b Y ) ;.[.B.}.~.qXHX'.W.bXJX0X1X9X| ! F.<X/ : # 5 e y t t 7 4 3 e e e e e y t e e e 7 4 8 y 4 i g.x.x.v.x.g.v.x.g.v.v.v.v.v.",
"P PXwX6XqXdXS.j R &.(.*.l h w T ( &.( w w $ m y.>.:.XXsX6X5X6XS.j T y.N.A.XXb R u./.~.XXG.,XwXwX6X6X` L &.F.(.XX;.w t c c %.~.(.wX8XsXxX`.N y./.:X4X{.A [ *X>XjX XS.,X8XsX:.! U.*X/.G n f c z r r f k , r c c t %.jXjXwXxXPXV.  .         6 FXZXZXZX;X=X;X-X;X-XM.M.-XM.M.h.eXJXPXPXLXzX{.{.W.[.[.P.Z.^.>XZ.I.,X<X/ M [ m m ! [ A.V.{ F.tXrX;.&.3X[.M ) Z x m ! Y x m T &.F.&.~.PXPXH.-.3X%.k { { A Z W / ;.W.B.}.{.rXHX1XG. XbX0X6XsXF./ S.I.~ % # e e e t t t 7 3 7 e e y e e y e e 2 t 4 4 y y 6.x.x.x.x.M.x.x.g.x.v.M.v.v.v.",
"W PXdXoX8XxXH.x R &.&.F S x r y./.^.S.f w $ ! ^._.(.oXwX6X6XwXS.b 7.*X>X3X].T y.:XkXkX7XD.3XsX6XoXoX_ ' *XkXkXjX:.r b c j %./.F.5XwXwXvX(.Y L.eXkXkX{.Z y.lXlXkX5XF.,X8XjXB.} lXkXjXG l r R [ T T b j r c &.&.&.F.cXjX8XxXPXB.        .   % FX;XZXZXCX-XM.;XM.-XM.-X-X-Xh.:X:XGXPXPXPXzX].[.[.&X/.D.F.~.I.Z.I.,X,X{ M / m c ! %.L.N.&.P.3X,XO.B.,X,XF ~ [ A Z [ W m m ! %.F.&.F.PXPXF.-.3XI.b ) &.( W / | B.W.B.{.,X5XbX9XS.W.wX1X,XsXW.{ A.P.Z $ # 3 y 8 t t 7 e 6 e e e y 2 y y 2 y e 8 7 8 y u l.l.x.x.x.x.x.x.v.v.v.x.v.v.v.",
"~ PXdX+X+XcX(.A y.y.A.( b x j L.3X7X(., w $ { XX+X].oXsX0X0XsXS.m y.>X3X4XXXF u.4XkXkX7XF.5XwXwX5X X) [ /.kXjXjX>.j m m m %./.(.9XwXsXvX`.Y u.jXkXkX{.T u.4XkXjX3XH.3X5XdX:.&.kXjXwXK b s &.eX4XkX( j r T *X4XqX_._.]._.+XcX_             $ SXZXZX-X=XAX;XM.M.M.h.-XM.M.M.-X:XlXmXMXMXmX].I.>X<XU.Z./.^.U.P.[.}.[.} m [ m A [ N.A.y.N.P.,XI.| D.}.,X` F { Y W ~ ! Y W / y.F.{ H.PXJXH.>.}.[.E D { Z W ! / V.[.B.[.,XI.0X0XS.H. XW.`.vXW.O.A.Z.h # $ 4 y t t 7 8 3 3 e 5 e e e e t e y e t t 8 y u l.x.x.x.M.x.M.v.v.v.v.g.v.v.v.",
"S cX_.<.<.).-.W /.oXoX=.b v s Z.XX+X(., r % &.{.XX].6XwXwXwXwXD.A %.{.XX7XXXF y.>XkXkXjXF.1XwXwX7XoX` [ ^.xXxXcX>.v ! ' ! L.I.F.7XwXdXbX~.Z A.4XjXvX[.T y.lXbXkX,XF.,XwXwX:.*.jXjXjXD N d %.kXjXbX) a s T 3XjXkX:.S S K J ` ,         .   % AX;X;X;XAXCXM.:X:XM.b.CXM.M.M.M.:X4XfXmXmXmX0XS.U.<X/.P.^.^.U.U.>XW.[.;.M | T Y | L.V.N.V./.<XD.} I.[.4X;.V { W W W ~ ~ ! [ V.F.| D.bXJXS.>.}.>X| v / A m Y W Z.^.B.,X1XD.1X9XG.:.[.`.~.rX`.;.A.V.p # 5 7 y e t 4 7 7 7 4 6 e e 3 4 e 4 y e 4 8 e y u l.x.x.x.x.M.x.v.v.x.v.v.v.x.x.",
": X.S a , g , Y /.}.}.O.n v x A._.].<.f 6 3 [ /.].).3X7XwXwXwXH.A &.~.[.XXXXY &./.XXXX+XF.,XwXwX5XXX( ( F.XXXXOX-.j P P Y A.[.F.wXwXxXcX~.b [ V.A.(.~.x T %.:.H.].F.3X8XwX:.D :.<.1.M N 7 M &.&.A.V j f x %.:.:.F j k n M ^ 0             e SX;XAX;X-X:X-XM.M.M.M.BXM.b.h.M.j.:XqXxXxXMXfXB.I.<XP.P.^./.F.U.[.I.I.N.M | ! [ y.L.y.A.V.U.>XB.;.[.P.5XG.l ) V m Y E Q ( / N.P.) D.HXbXC.;.[.[.C.v ~ Y x m ~ L.[.B.[.1XD.[.wX`.S.5X9XH.[.W.O.V.| % # 5 8 4 4 e 7 3 7 7 3 6 7 4 5 3 y 4 e e y 8 y 8 i d.g.x.x.x.x.g.v.v.v.v.v.g.g.M.",
"& ) B f f x r z / { } ~ P P d ' } ) ( x z e c E ( ` XXjXwXsXsXH.h Y _ Q %.,XM Y &.*.:.7XI.3XxXcX6X5X( x ` ` ` OX:.s ' ' Y P.`.S.5XwX8XvX[.b / A.*.~.3XA &./.&.).5XF.,X8X8X~.;.B.:.;.S.P.y.| &.%.| V.Z.y.y.N.;.;.Z.U.U.U.<XDX]             % SXZX;X-XAXM.-XM.M.h.M.BXM.b.M.h.:X:X9XwXdXmXsXC.I.*XP.I.^.I.D.^.<XF.I.A.N / ! [ A.Z.y.L.N.P.>XV.N.[.D.3X3Xl _ W m Y W ~ / { A.Z.) A.bXjX:.C.^.F.[.M Y ! c A ~ L.[.;.I.,XG.W.5X|.H.kXvXI.S.I.N.O.~ $ # 5 7 4 e t e 3 7 r 6 3 e 4 3 4 e 4 y t y 8 2 y i d.M.x.x.x.g.x.v.v.v.g.x.v.v.v.",
"N tXD.L.J.U.<XU.U.P.D.U.U.U.L.L.I.W.<X4X<X<X>X<X{.`.qXbXbXbXbXW.E J.4XD.tXrX/ J.kXF.4XbX`.kXbXbXxXjX&.{ tX~.W.HXF.! <X4XI.kXG.H.5XwXwXvXoX( *XbX{.bXjX[ >XbX5XbXbXH.3X8X6XqXrXrXtXqXrXwXrXkXHXbXHXrXrXkXkXkXwXwXrXtXbXvXbXIXB.  .         $ AX;X;XAX-X;X-XM.h.M.M.n.M.M.v.M.h.:X4XwXOXaX6XG.[.>XP.U.^.I.P.U.>XD.W.P.b ~ [ { Z.y.y.U.L.U.^.A.A.[.A.{.wXD ) ) Y Y ! ! / } F.A.N.Z.rXrXB.D.[.A.4X] x [ m m ~ F.^.{ F.qX1XS.|.|.H.wXHX}.;.I.I.| B * # 3 4 4 e t t 3 7 7 3 6 7 7 3 4 e e y e y 8 8 y &.g.x.x.x.x.x.M.M.v.g.x.x.g.x.v.",
"~ IXrX4X9X9XfXHXHXJXHXbXbXHXHXHXHXHXbXbXbXtXvXvXvXkXvXbXbXbXmX}.| <XbX[.bXvX{ /.HXXXvXbX).qXbXvXwX8X} y.kXqX5XmXA.( 7XjX{.vXG.G.wXwXwXvX|.Q U.vX`.jX}.G F.kX).wXqXH.3X7X0X0XqXrXwXwX7X5XXX7XwXwXwXtXqX7X8XkXxXwX0XwXwXqXbXPXB.            % AX;X-XAXM.M.M.M.M.h.b.b.M.b.v.M.h.:X<X9X X.XdXW.}.,XP.^.>XU.F.^.^.K.[.P.N / [ %.Z.%.J.^.Z.U.^.A.P.^.B.I.vXG E { Y Y T T ( y.U.N.A.D.qX9XB.I.W.C.<XD.v / Y m W /.~._ F.HXbXH.~.wX`.5XKX}.} >X4X] f # # 5 e y e y e e 7 7 3 7 r 7 4 e y 4 y t e 8 8 u 6.x.x.x.x.M.g.x.x.v.v.v.x.x.g.g.",
"W PXwX,X3XXX,X9XwX0X7X6XoXwXqXrXsXsX8X8XwXrXwX8XwXwXwXsXdXsXxXT.Q ^.wXG.xXxXF A.vX).7XxXH.3XvXsX6X3X_ / 7X].`.jX-.W {.7X(.wXH.G.qXwXsXvX|.W I.dXG.7X|.D A.7X).wX5XD.5XqX5X9X7X8X7XjX+X6X5XqXkXvXxXwX7X8XwXwXwX8X6X8XsXsXvXKXN.        .   : FX;XAX-XM.:Xh.M.M.h.b.b.M.b.M.v.h.j.:X9X6X.XoX}.W.[.D./.<XD.P.&XW.D.}.^.m [ &.y.L.{ L.U.Z.U.I.V.S.[.B.I.kX~ n ' m m P Z ! A.U.N.U.S.4X,XB.I.>XD.^.<XZ D ! A ! P.~.{ S.bXbXT.|.JX8X~.kX,X;.2X,X~ 7 # $ 5 2 5 4 e e $ 6 7 6 7 e e 7 e e e t e y 8 y u l.x.x.x.x.x.g.x.v.v.g.x.v.x.x.x.",
"! PX8X3X5X3X5XqXwXwXwXoXoX5X8XwXsXsXdXsXsX8X8XwX7XwXwX6XdX8X6XH.G ~.sXH.8XOXF A.vX_.7XwXS.3XkXwX5X5X{ / 7X]._.xX-.W }.5X).sXH.G.8XwXsXxX|.F G.sX`.wX|.G Z.wX`.jXwXH.3X8X5X5X7X8XjX8X5X5X5XqXrXvXvX7X5X7X8XjXsXsX6X8XdXsXbXLXV.  .         $ AXAXAX=XM.M.h.M.M.g.b.g.b.v.b.M.h.$X%X4X5X.X]. XG.S.A.U.<XZ.F.>XI.D.[.I.m { y.N.Z.y.U.U.L./.U.N.B.[.A.D.fXO.l / P P m A ' Z.Z.V.^.F.4X<XB.I.[.Z.K.9X) b %.[ ( D.I.;.F.qXvX}.6XPXbXS.5X9XB.>XU.P % # # 4 e y e y e $ 6 6 % e t r e 8 4 e e y 4 4 y u l.M.x.x.g.x.v.x.v.v.v.v.g.x.x.v.",
"E PX6X5X7XXX}.wXkXwXwX6X6X5XwXbXvXsXwXwXsXwXwXqXqX8X6X8X8X8X8XT.F ~.dXH.8X}.F A.fXT.+XsXH.5XwXwX6X6X_ / 5X].`.xX>.W }.oXT.sXS.G.8XwXdXvX`.W F.sX).fX XD A.wX_.8X5XD.5X7X7X6X7X7X8X8X+X5XoX8XwXsXwX8X8X5X8XxXwX8XOXOXsXsXbXPXV.          . : AX=X-XM.:XM.M.M.g.M.M.M.b.b.b.h.h.h.$X*X,X X X}.W.-.A.I.U.B.F.&XL.F.,X[.Z / y.Z.%.y./.U.Z.U.U.A.L.>XD.D.rXA.k / Y c L Y [ L.V.N.<XD.,X,XB.P.}.F.G.tXA.a &.Z./ F.Z.F.W.}.fX1X}.JXbXH.[.9XD.D.N.f # # # 4 5 y 5 2 : e 6 3 3 7 r t t 7 4 t e 4 e 4 y 0.d.x.x.x.v.x.v.v.v.v.x.v.v.x.x.v.",
"W PX8X7X5XXX|.wXcXxXbXjXxX6XjXcXxXxXjXjX8X8XqXqX7X8X8X6XwXwX8XT.F (.jX(.jX].F A.cX_.8XsXH.3XrXsX6X6XX.` oX]._.cX>.( XXzX_.dXS.G.wXxXjXxX'.F ~.cX_.cX].F F.vX].xX6XG.,X7XoXXX8X+XjX8X+XzX+XcXjXcXcXOXcXzXjXcXcXjXOXzXcXjXcXPX:.            3 AXCX-XM.M.M.M.h.g.M.v.b.v.h.M.v.M.M.$X%X}. X].].|.:.S.[.I.V.U.W.Z.I.[.[.E b N.L.| Z.>XU.V.U./.Z.I.<XZ.S.9XF.l | / L L T &.u.%.N.3XZ.U.9XN.A.>XD.D.9XI.h Q ^.&.D.B.G.,X`.wX0XW.wXvXW.F.1X[.O.W e $ O 2 4 4 4 4 $ e 4 6 % 5 3 r t t 4 : y : y 2 y y i x.g.x.x.g.M.x.x.g.x.g.x.g.x.g.x.",
"~ PXdXzX8X+X+XxXmXcXcXcXxX8XcXcXcXcXxXcXcX8X8X8X8XwX6X8X8XwXwXG.A F.zX<.8X_.G :.cX<.+X8XD.5XvXsX2XoX_ K ].(.<.jX=.K (.<.1.oXH.G.wXwXwXxX).n ;._.1.].].l *._.1.{.5XS.5XqX7X).)._._.<.).+X<._.)._._._.@X<.<.(.(.<.(.].@X+X+XmXO.  .     .   $ AXCXM.:XM.h.M.h.M.v.M.b.b.g.h.v.M.h.h.L.[.|.'.'.|.T.D.>XI.Z.^.>XC.I.,X<X! x N.V.[ P.>XU.A.I.I.J.U.,XD.A.,XW.V / [ T T ! &.L.{ %.>XD.U.4XD.B.[.D.D.<X,XD h U.N.P.B.D.5XW.qXwXG.|.vX1XC.,X}.] x e $ O # y 5 e 4 y e 3 5 % 3 r e t e 7 y y y y y y u l.g.x.g.x.x.g.g.g.v.x.x.g.g.x.x.x.",
"D LX+X+XOX]._._.@X].@X_.OX].<._.]._._._.]._.)._.]._.oX8X8X8XwXH.j *.*.K >.]., S =.K *.OXH.4XkX8XOX XF * j < < (.*.* l l , 1.G.G.wXqXwXvX)., j G l ` `., j A l _ |.H.3X7XwX1.< K l l l K l l ( >.=.K F S l *.1.1.J K K K J J ,             $ AXCXM.h.M.g.M.M.g.g.v.M.g.M.M.g.g.M.$X%XI.`.W.'..X'.H.[.F.Z.<X^.B.I.,X4X/ M Z.7.{ P.>XD.Z.^.U.L.W.<XN.C.}.}./ W [ T T T &.P./ V.4XP.K.9XI.N.W.G.S.|.,X} f N.V.I.A.B.0X`.,XwX`.).wX5XC.9XfX_ s $ $ O 2 e e e $ e e e 5 3 3 e e e 8 4 3 y y r y y y l.x.x.M.g.x.g.x.g.v.g.v.v.x.x.x.x.",
"p H.J K J J S S K K S l J K < G K *.=.J K < l S n n `.8X6XwXwXT.< A ( b ) ]., * - , h XXG.9XjXwXOX6XG o > * * A.=.o > : > &.G.G.7XwX7XvX`.h f h f ( [.s s A m A.3XS.XX7XjX>., k l j , l : Z %.XX8XJ a a b S.XXXX=.j n b D F 7             $ AX-XM.M.g.M.h.b.g.M.M.x.v.b.M.M.v.v.h.$X*X{.`.'..X'.W.F.B.P.<XI.N.I.1X9X/ E L.N.| F.<XZ.N.U.U.F.^.<XN.B.,X0XO.D ] m c R y./.) Z.4XP.D.4X[.%.U.^.V.>X<XC.h ) V.I.B.:.9XW.G.1XW.S.oXwXG.fXJXO.7 $ $ O O 2 2 5 2 e e 5 $ % e e 6 e e 4 3 y y y y y u l.x.x.x.g.x.g.g.x.v.x.v.x.x.g.x.v.",
"* Q g : - f - M ) G n k S l > b b W Q a : > z c N m {.wX8XsXsXG.A *.( b [ XXj r v v Y 3XF.9XkX8XoX7XF o > & * A.O.@ > & & O.F.I.wXwXwXsXT.h h x t *./.j t L L y.,XS.XX7XjX:.k m c b : b , T %.XX7X` k d A A.XXXXG.K.U.U.U.tX'             $ VXb.M.M.b.M.g.M.v.M.M.M.g.M.g.g.M.g.h.$X/.^.}..XdX.X'.C.;.I.<XI.Z.^.,X4X| ~ Z.} | U.>XA.A.[.U.Z.W.>X;.C.,XqXG.D { m c ! J.P.{ Z.9XU.D.4X>XN.U.}.N.[.}.I.D A } /.N.:.9X[.C.}.].S.W.9X`.tXfXW $ $ 2 O O $ 5 5 $ 5 e 5 $ e e e e e e 5 3 y y y y y i x.M.x.x.x.x.x.x.x.v.v.v.v.x.x.v.v.",
"s I.| ] 7.y.! D | D n b A b f b A A n , : : T y.*X*XqXwXwXwXsXH.A *.&.c { XXh c m m ! 3XH.9XxXwX6X+XJ @ $ $ $ L.-.@ : : : ;.F.(.8XwXsXxX).k z c t *.{.j c T Z y.4XZ.3X7XxX:.k m c x r S : W %.XXoXJ a f b A.XX].oXbXHXrXHXIXC.  .         $ AXb.b.v.g.v.v.M.v.v.g.x.M.M.M.g.M.g.h.j./.*X}.oXpX.XT.:.} I.<XF.P.[.[.,X%./ V.y.N.[.<XS.D.*XD.L.^.>XB.F.|.5X1XG / Y c T L.P.Q A.4XL.D.<X,XB.^.4XB.I.>X[.} k D I.O.;.1X|.H.8XbXG.,.|.W.F.J.d $ $ # 2 2 y $ 5 e 5 5 : 3 $ 3 e e e 3 5 : y y t y y i x.x.x.x.M.g.M.M.g.x.x.x.v.v.v.x.v.",
"~ IXtX3XtXfXW.S _ Z b N n b w m m b b p : 3 [ L.qXqXwXwXwXdX0XT.S ( ( A / XXj x m c ! 3XG.5XvXwX5X7XF @ : % > L._ @ & & : &.F.F.5XwXwXxX(.j s c t ( [.h Y [ &.P.,XH.5X8XvX:.j b c b : b : A &.(.).K h j t &.<.:.].wXwXwXvXPXB.        .   O M.v.v.M.v.v.v.M.x.v.x.M.M.x.g.M.g.g.h.h.$XU.'.2XaX'.T.:.;.I.>XP.P.>X^.>XB./ y.N.V.L.>XA.I.U.Z.Z.^.I.;.I.[.'.bXF ( W L [ U.Z.Q V.4XU.V.<X3XZ.I.,XA.I.,X[.D.h b I.%.N.W.|.[.mXnXW.1.'.[.| E & $ $ O $ y 5 5 3 3 3 e 5 3 5 5 y e e e 5 e t t y y y l.M.x.x.x.x.x.g.x.x.x.M.v.x.v.v.x.v.",
"E PX9X3X5XvX`.l ) Y M n n v w b m v x p e e R y.A.F.5XwXwX8X8XH.b ! ! A [ {.j t m x Z 3XG.7XwX8X6X8XF + $ $ : A.} * & : & &.H.F.8XwXjXcXW.s c L R y.[.x T [ Z.~.,XF.5X7XjX>.j t x h : c : c &.A.(.G l r j &.F.H.`.jX8XwXjXPXN.  .         e M.v.g.M.M.v.M.v.M.v.M.v.g.g.M.g.M.h.h.j.$XU.W.oXpX'.H.:.:.D.[.L.^.^.P.3XD.) %.L.V.U.^.D.I.>XA.J.^.U.;.~.~.W.bX_ Q { Y &.U.Z.Q N.,XI.A.>X3XA.^.4X/.^.4XI.~.G b P.%.{ H.1XW.vXmX.XH.2X,X| d % $ 2 O 2 5 5 5 5 3 y e $ $ 3 3 e r t 3 4 e t r y y 2 l.x.x.M.M.x.x.x.x.M.x.x.n.n.v.v.x.x.",
"E PX6X1X6XsXW.n | V.S.( k N w z c x s w e 6 T y./.[.qXwXsX6X8XH.N ' %.Z.P.|.j c P m ! 3XG.5XjXwX2XdXF @ % & % Z._ @ : & > %.H.H.5X5XwXvX`.b [ u.4XjX`.m [ V.4X7X}.F.5X7XvX:.m | u.N.a h s T A.XX8XF j f m y.4X3X3XjXjXjXbXPX:.            5 AXx.v.v.b.M.v.M.v.M.v.M.x.v.x.M.x.M.g.h.j.u.(._.XX_.H.<.C.B.D.D.^.I.D.4XL.~ %.L.Z.>X[.Z.U.>XZ.J.^.I.;.I.`.G.JX:.J %.( %./.A.) N.>X[.B.>X4XZ./.,X/.{.9XP.I.} l P.y.( D.wX}.].fXoXT.9X>X~ 7 $ # # O 5 5 5 5 5 3 7 7 5 5 3 7 7 e r 4 4 t 7 t t y u i.z.n.n.x.x.x.v.M.x.x.x.x.x.v.n.x.x.",
"~ PXsX1X6XcXI.G A.3XjX-.l b r m L m v : w w [ P.qXqXwXwXsX6X8XH.Z { L.4XqXW.n T [ y.A.3XG.5XrXsX5X6XF o % % % Z._ @ & : & &.G.F.7XwXxXcX(.A &.u.4X+X~.A [ Z.4X7X}.F.3X7XwX;.W P.qXXXn d w T A.XX8X( j f A A.7X+X+XcXcXzXcXLX>.  .         $ VXv.M.v.x.M.M.v.v.M.M.x.M.M.M.M.g.g.-Xh.:Xj./.(.(._.H.W.'.:.;.P.^.U.A.tX>X) y.U.V.>X>XZ.I.&XA.Z.[.F.N.W.G.D.JXT.G :./ %.*XN.B.N.>X[.;.^.3XA.P.,X^.^.9XI.I.A.k N.N.` F.vX5XT.2XoXT.W.V.B $ $ # 2 O 2 5 5 $ 5 7 t 7 4 $ 3 4 4 e t e 4 8 t 7 u 8 0.s.z.x.x.x.x.v.v.x.x.x.M.x.v.c.v.n.x.",
"F PXdX+XOXcXG.G B.,X8X1.l k z ! y.V.&.: % 7 [ P.3X7X7XwXwX0XsXH.L &.A.4X8X`.Z [ Z.qXqX3XH.7XvXsX5XdXF @ % * $ D.X.@ : % & -.G.D.5X0XwXxXF.A &.Z.XXjX(.A / A.7XjXXXH.3X5XwX>.W P.oX].G N r W A.XX6XF k d A N.{.].=.*.=.=.1.T.n             5 CXv.M.v.v.M.M.v.v.b.v.M.x.v.v.x.M.v.g.g.h.j.L.F.(.(.G.].2XF.} D.^.U.A.tX4X) V.P.Z.*X^.L./.<XZ.U.>XD.:.I.I.S.LX5XK :.&.N.I.N.I.B.^.,X;.I.3XB.D.4X[.I.9X^.B.[.D %.V.{ D.tX0XG.1X5XC.B.^ 7 $ $ # O O 5 5 5 5 5 7 t 7 % 5 4 7 4 4 r 7 4 7 7 t t y 6.v.x.x.x.v.v.x.x.x.n.x.x.n.x.x.v.v.v.",
"k oX1.=.=.>.` Q A.}.dX>.k h x y.^.4XF.f w t [ D.XXXX6XwXsXwXsXH.A &.:.~.}.'.D { N.XXXX3XD.9XrXdX5X0XH @ $ $ $ U.} @ 6 % $ } H.G.9XwXsXxXF.m ! %.A.~.~.A ( &.A.F.{.H.3X5XwX;.A *.>.>.N h r T &.>.>.n d p r Y F ` S , < j l F &             $ M.n.v.v.M.v.v.M.v.v.v.x.x.M.M.x.v.v.M.g.g.:Xj.A.S.H.T.6XbX}.;.A.U.F.Z.4X<X} P.^.J.<XU.L.W.*XP.U.[.C.;.P.F.S.JXdXK >.;.B.U.;.I.N.^.,XN.P.4XZ.Z.,X^.U.9X~.B.,X} } N.;.D.1X0X'.1X1XB.^ g # 5 9 2 O 2 # 2 5 5 3 e r 7 3 # 7 7 4 e e t 4 8 t 8 y u l.v.x.x.v.v.v.n.x.n.x.x.x.M.x.v.x.v.x.",
"$ J l , a a , M { O.:.Q f r r ( } &.) p c z T / &.-.}.7XwXwXdXS.x T ( W :.].k b D F *.}.H.9XxXwXoXdXF @ 6 5 5 L.} # 7 z 7 V.F.D.5XwXdXvX|.d Y ( W C.[.x m ( W &.,XG.,X3X9XB.Z Q ( F E E v x D G Q ! / ' E / ~ ~ / ] ' { ;.K.M         .   $ M.v.M.v.v.v.v.M.g.v.v.x.v.M.x.x.M.x.M.g.v.h.$XL.A.(.F.9XJX}.>.V.D.V.Z.<XI.N.I.U.L.<XU.Z.&X^.Z.I.[.B.O.F.D.A.HXnXJ ..N.D.L.N.[.B.I.,XB.D.,XP.N.{.I.L.4XI.;.,XB.) %.D.D.[.9X[.W.1XC.M 0 # # 2 2 O O 2 $ 5 5 e e 7 6 3 5 3 t 7 y t t 7 8 8 y y u z.x.x.x.v.v.v.x.v.x.x.x.x.M.v.v.x.x.v.",
"% } E N N M N P / ^ ( / [ ' Y T ! ' { ] q.[ Y ( ( ( |.qX6X8X6XS.c &.y./ ~.}.Y [ Z.| I. XD.qXxXwX1XsX| ! %XL.L.HXB.! %XL.V.yXW.H.5X8X6XbX1XQ L.,XA.qX5X~ y.tXG.vXvXH.}.7X6X,X[.,X{.|.<X4X<X>X[.}.,X3X9X4X4XtXrXtXrXtXrXtXkXIXV.            2 AXv.v.M.M.v.M.v.M.b.M.v.x.M.x.M.x.M.v.M.v.h.j.u.y.:.P.9XKXH.>.B.O.N.I.<XF.N.*XP.U.<XI.J.>X*XF.^.>XA.} I.P.C.sXJX-.G %.I.A.V.4XN.I.,XA.S.,X/.N.{.[.Z.<X[.;.,X`.! } I.D.I.5X{.H.W.;.v $ $ 5 # O 2 # 5 5 O 5 e e 3 3 5 5 5 7 e 7 r t 4 8 8 y y 0.x.x.x.v.v.x.v.x.v.x.M.M.x.x.x.n.x.x.x.",
"P KX<XI.*X>X&X^.>X>X[.4X4X4X4XyX9X9X4X9X9X4X/.[.{.}.5X7X5X5X5XS.&.4XkX>XHX}.| <XKX3XKX5XF.7XsXwX5XsX;.y.HXrXwXKXC.%.fXfX9XJXH.G.qX8X8XvX}.{ <XbX|.JXwX( /.bXXXbXjXD.,X7X6X5XqXqXwX5X5X5X5XrXkXkXwXqXwXwXrXrXrXwX9X9XqX9XkXKXV.  .         5 AXx.v.v.v.v.v.M.v.v.v.g.M.v.M.M.x.g.M.v.h.M.h.j.u.A.Z.9XHXS.>.:.O.} P.<XF.P.*XL.I.>XU.V.<XU.U.U.<XA.N.I.L.S.5XnXH.l ~ I.N.J.9XV.U.>XV.F.<X^.N.^.3XB.[.[.;.[.,X} | ^.I.G.2X,XB.C.^ 7 $ # # 2 2 O 2 # 5 O 5 3 % 3 5 5 5 3 4 e e r e e y 8 y y l.M.x.x.v.x.v.x.n.x.x.v.x.v.x.x.v.v.x.x.",
"~ IXrX<X3XtX9XqXrX0X5X0XrXqX9XwXrXsX0XwXwX9X5X9XqX9X9XwXwX6X6XH.( >XjX~.jX}.) I.fX).sX6XS.7XwXsX1X6X_ ) wX X'.bX>.` 5X5X}.JXH.S.9XwX6XfXI.E /.8X(.wXoXD A.qX(.jXXXD.XX5X6X7X7X7X8X6X5XXXXX5XwXfXwX8X8X7X8XwXxX8X+X5X5XqXvXPX;.            $ VXv.M.g.v.M.v.v.v.M.v.M.x.v.g.x.M.x.v.v.v.M.h.h.:Xu.N.4XkXB.>.-.N.;.D.U.Z.U.*XZ.U.<XU.L.>X/.Z.^.[.C.C.U.P.Z.,XsXW.l ~ I.} D.yXD.S.[.C.F.,X^.A.^.3XV.U.[.;.F.4XF.| I.}.G.1X[._ ~ d * # # 5 O 9 # O 5 # 5 $ 5 $ # # $ 3 3 7 7 t e e 8 y y 8 u i.x.x.x.x.x.n.n.x.x.x.v.v.x.v.v.x.n.x.x.",
"W IX5X].}.,X3X5X0X9X5X5X5X5X5XwXwX8X6XoX7X6XXX5X5X9X0XwXwX8X6XH.( ~.oXH.7X}.W F.8XT.cX6XS.5XxXwX6XoX` / 5X X`.sXO./ 1X5X].bXG.F.wXwXwXsXG.W ~.8X).wX}.E D.rX`.wX5XS.,X7X6X6X8X8X0X5XoXXX].8XwXjXwX6X6X7XwXsXxX8X X X6XwXbXKXN.  .         $ VXM.v.M.M.v.v.M.v.M.v.v.b.b.v.v.v.n.M.v.v.v.M.b.h.L.y.lX7XH.>.J ;.B.V.Z.L./.*XV.L.>XP.L.<X^.A.*X>XA.A.I.Z.Z.^.5X}.D / U.| L.2XD.A.`.A.C.,X^.V.>X9XD.P.,XC.B.<X[.O.U.,XC.|.W._ k & * # O O O 2 $ # 5 2 $ O $ $ $ O $ 4 y 4 7 t e 4 e y y y i x.x.x.x.x.x.v.v.x.x.x.v.x.v.v.v.v.x.v.x.",
"W PX8X}. X}.5X5XtX0X5XwXqX5X7XwXwXwX6XoX5X6XoX5X5X1X0XwXwXwX8XH.W ^.8XG.wXXXF L.jX(.wX8XD.9XwXsX5XOX) [ qX].`.vX%./ ,XoX(.bX(.H.6X8X0XsXG.G `.8X).wX|.W Z.rX).8X5XS.3XqXoXoX6X8XwX5X}.].].8XwX7X8XoX6XoX8XwXwX7X X6X0X6XvXPX;.            5 M.n.v.v.v.v.v.v.v.v.M.b.b.v.v.b.v.x.v.M.M.v.x.M.h.-Xj.4X/.F.A.n ) ;.;.} P.^.^.V.I.<XL.L.<X*XV.^.U.B.Z.U.Z.L.[.{.9X` ) U.y.P.>XP.P.[.I.A.>X[.A.U.4XU.P.9XP.B.[.^.;.I.9XC.G.K.~ 7 $ # $ O O e t 5 # # # # 5 $ O O $ O 4 z 7 4 t r 4 e y y 2 l.x.x.x.x.g.g.g.v.x.v.x.v.x.x.v.v.v.x.v.x.",
"W PX8X}.9X,XXXqXtXrX9X9XrX5XwXwXfXfX5X5X5X6X X5X6X6X6XwXqX0X6XF.( ^.8XG.wXXXG Z.8X<.8X+XD.9XxXwXoXoX` ( 0X]._.vX;.(  X].(.cXG.G.0X6XwXsXS.G ).dX_.8X].D F.jX_.8X}.S.3X5X}.oX8X8X0X6X{.].].6XzX7X8XOX8XoXwXjXjX7X}.oX8X8XcXPX:.            # M.n.M.v.v.v.v.v.v.b.v.M.g.v.v.M.v.M.M.M.x.v.v.b.h.j.:X4XF.F.G.n D ;.;.| V.P.*XA./.<XL.P.<XP.Z.>XP.;.Z.F.A.P.[.`.9X;.| Z.{ L.>XP.F.[.I.B.>X^.D.I.4XU.F.3XF.:.`.[.;.W.9XC.N.;.B * # # O O $ r L r $ O # 5 $ O O 5 2 O 3 L 7 7 t r e 4 y 8 u d.x.x.x.x.v.z.v.v.x.x.n.x.v.v.v.x.v.x.x.x.",
"E PX6X}.5X}.{.7XwXdX8X5X7XoXOXsXxXsX6XOXoX6XoX5X6X6X5X0XqX0X6XS.Q ~.8XT.sX].F F.cX).8XOXS.5XrXdX6XOX` ` sX.X`.xX=.Q +XXX_.cXT.G.5X6X6XsXH.D (.cX).+X].G S.xX_.8XoXA.3X3X}.].OXOXOX+XOXOX+X+XzXzX+XXXOX].oX+XzX+X]. X+X+XcXmXO.  .         $ M.n.v.v.M.v.x.M.v.M.b.b.M.v.v.x.M.x.v.v.x.v.M.h.h.h.:X:X%.A.[.D k | } N.;.Z./.V.^.<XJ./.<XP.L.>XU.;.C.L.V.I.>XI.9XF.y.Z.~ Z.{.I.C.`.I.:.I.^.Z./.4XI.F.4XI.;.I.I.N.W.9X:.] ^ 7 $ $ # O O e u R t 3 O # # 2 # $ O $ O O t 4 7 z t 4 e y y 0.x.x.x.M.x.v.v.x.v.x.x.v.x.v.v.v.v.x.x.v.v.",
"Q PXzX+X8X+XXX8XcXdX8XOX8X+XcXcXmXbXdXzXOX+X+XXX+XoXoX5X0X0X9XS.G S.].>.XX].S &.].>._.oXH.9XqX0X5X6XF n S.>.` oX_ k >.>._ ].H.G.5X6X6XsXS.< F =.J S.|.a A &.F 1.}.S.,X5X7X1.` *.J J ` =.*.K *.*.J *.>.H S ( F K J _ *.X.1.H.l         .   5 M.v.v.x.M.x.v.b.n.v.v.v.v.M.v.v.M.M.v.M.v.v.v.b.b.b.j./.y.F.}.( f W | N.O.V.N.;.*X<XZ.*X*XL.U.>XP.%.A.B.N.I.>XF.,X[.;.A.{ V.<X`.B.`.[.B.P.^.A.P.>X^.F.4XW.O.I.D.N.,X}.:.^ 0 * $ # $ $ O e T ' c 3 + O # # # 2 O O O # 4 4 7 t e 4 4 y u l.x.x.x.x.x.x.x.v.x.v.x.x.x.x.x.x.x.x.v.v.v.",
"N bX3.<.H._.<.H.(.(.H.<.).<.=.>.<.<.1.<.<.=.X.=._ _ {.qX0X9XwXS.a Z Q S &.XX, j G l Z XXF.5XwXsX6XOXF r D ( Q {.} w T &.&.(.S.H.5X5X6XwX:.: : j : ) `.d A [ B.).}.S.}.3X8X` , h S ( l S , : , , j l l , , b b b d j k b A G &             5 M.x.v.M.M.v.v.v.v.b.v.M.v.g.M.v.v.v.v.v.v.v.b.v.b.g.j.:X/.P.[._ f h [ } } ;.{ { U.<XN.*X<XL.U.>XA.| C.N.N./.{.D.{.3X&.N.%.Z.4X}.A.I.[.B.I.}.A.F.>X~.A.4X[.;.D.I.O.I.C.] g & $ $ # $ O : L ! ' c 6 O # O O 2 O O $ O O 5 4 t t e t t 8 i l.x.x.x.x.x.x.x.x.M.v.v.x.M.v.v.x.M.x.g.v.x.",
"& } K , a j , m { ;.(.*.l S , l S A l < , > b n n Z 3XqX5X6XsXC.Y { ) Z &./.l t W m [ 3XF.5XsX0X6XoXQ L &.^.9XrX*.L y.*XqX7XS.G.5XwX6X8X<.s x x t { >Xm [ L.7XjX,XS.,X5X8X=.j b A A l S j z z s x v l f t A c L ! { } } V.U.M             $ M.M.M.v.x.v.v.M.v.M.x.M.v.v.M.x.v.b.v.M.v.v.b.v.v.v.h.eX<XL.[.O., : Z { } -.} { U.U.N.U.U.Z.U.<XA.| Z.N.%.I.>XS.{.9X-.;.D.Z.<X,XB.I.~.F./.,XP.A.<XU.B.,X[.;.U.F.;.V.{ v & # $ $ $ $ # c 7.| ' c 6 # # O # O O O $ O O $ y e t e y y y 6.v.x.x.x.x.M.x.v.v.x.x.v.x.x.x.v.x.x.x.x.v.v.",
"& } M j s j w T Z./.kX>.> : r A Y W W b : : Y Y m Z >XqX5X5XsXD.~ V.%.W &.XXb c R R [ ,XF.5XwXdX6XoXF T y.{.9XwX*.T &./.7X7X:.I.5X7X5X8XS.r c c t { ^.M R y.3XwX}.S.3XoX8X&.x m c c h v r t L T ! n k w r L c c U.rXfXqXDXIXV.  .         $ M.v.x.x.M.b.n.v.v.v.g.g.M.v.v.v.v.v.v.v.v.b.v.b.b.b.h.SXeXU.W.;.a $ w ) } } } | N.V.y./.^.Z.I.<XV.} I.B.} I.*XF.{.rXA.N.^.L.*X,XB.I.I.P.I.,XP.B.<X[.A.>X[.B.F.P.O.) N & # $ # $ # $ e Y %XV.' P e # # # # 2 O O O O O O 5 y y e e y y l.M.x.x.x.x.x.x.x.v.v.x.n.x.v.x.v.x.v.x.v.v.x.",
"v DXU.V.Z.U.] ' Z.L.jX%.: s r T T T Y f w % T ! / | <XqX5X6XjXF./ y.%.W %.{.x c R &.&.>XP.XXxXsX5X XW T y.[.oXjX*.Z &./.3X7X:.(.0XwXwXwXC.x T [ &.P.~.n / y.XX7X{.A.,X5XwX&.x m A P m v f c [ %.| M h w r m c L P.wXwXwXbXJXN.            $ VXv.x.v.v.x.M.v.n.v.g.M.x.h.g.x.M.g.M.g.g.M.g.g.g.M.h.lX4X/./.A.h $ * E | } _ { %.} O.U.U.A.U.<XB.| I.V._ I.[.D.[.kXI.A.*XP./.{.B.D.W.D.I.>XI.L.4X<XV.I.I.| S.Z.] M w $ $ $ # $ $ $ x [ ~.P.' m 6 # # # 2 9 O O O O O O 2 y y e y 4 u l.k.g.g.x.v.x.x.x.v.x.v.v.x.x.x.x.x.x.x.x.v.x.",
"~ PX9X,X,X9XA./ y.Z.XX*.< r r T Z T A r w e R L.*X^.3XwX0X7XwXS.( y.&.Y &.{.k x R ! &.*XF.3XjXwXoX XD T { Z.(.8X&.b [ A.F.XX:.`.bXbXvXrX:.x [ y.F.{.`.b T &.A._.].S.}.9X8X{ c [ y.y.M n : z Y ~ ) N d r c [ y.N.~.8XdXwXkXPXN.  .         5 M.v.M.v.v.M.x.v.x.v.g.g.M.g.x.M.M.x.g.x.M.x.M.g.M.g.d.lX:X/.>X(.b : $ d ) ) / _ } } %.Z.Z.N.U.<XN.O.U.B.| U.U.D.I.rXW.A.>XD.P.[.;.B.U.Z.F.<XU.D.,X<XO.F.I.) V.N.M , > @ # # $ $ $ % [ &.A./.[ m 6 # # 2 # O O O O O O O O 2 y e 3 y u l.g.d.x.x.x.x.x.v.v.v.v.x.x.v.x.g.g.g.x.g.x.v.",
"E PX5X|.}.6XB.Z y.y.].*., j w A Z Z m w r % R N./.G.3XwX0X5XwX<.Z [ { A { {.j j T T [ 3X(.7XjXwXoX XG A [ A.).OX*.c [ N.(.{.:.`.mXmXvXxXS.x R y./.XX].b ! %./.XX{.A.XX5XwX{ ! L.>X>XV l p c [ | } n d f T L.lXqXXX7X8X8XbXJX:.            2 AXx.v.v.v.v.M.v.M.M.x.x.M.x.M.v.x.v.g.M.g.g.g.g.M.g.-X:XlX/.>X[.A f 7 % W ) ) ) _ } ;.B.} ) Z.U.} N.F.V.O.U.[.D.I.,XU.A.<XL.U.I.;.B.W.D.D.>XU.V.W.<X} B.F.{ | U 7 & * $ $ O $ $ $ r &.&.&./.| c 6 # O # O 9 O O O O 2 O O O 2 5 4 y u l.v.d.g.x.x.v.v.g.x.v.n.v.x.M.v.v.z.g.x.x.v.x.",
"E PX6X|.].6XS.W y.N.3X*.j j r Y Y Y m w % e R Z.[.[.3XqXwX8XwXC.W y.{ Z | {.b x T A [ 3XF.3XjX7XoX XQ ~ y.{.7XqX&.T &./.qX7X:.~.vXvXjXxX<.A 7.L.7XwX|.Z [ A.3XjX}.S.5X5XwX} ! /.qX7Xl j f c 7.Z.D.M B r T /.qX7X+XOXOX8XmXPX:.  .         5 M.v.v.v.v.v.v.n.v.x.x.M.g.g.x.x.M.g.x.g.M.M.M.g.M.g.-XlX:X/.^.}.A f r @ d E Q ) _ { { %.N.| q.Z.| O.D.N.N.U.W.L.I.<XU.D.,XZ.P.I.N.B.[.K.Z.,XD.N.W.<X| N.V.] N f % * $ $ $ $ $ % % c L.&.W y.[ z 7 # # 5 O # O O O O O O 2 2 5 3 e u u l.g.d.s.x.x.x.x.x.v.v.x.v.v.x.v.v.v.c.v.v.v.x.",
"F PXdX].@X+XH./ y./.xX>.a d s Y M Y A s w e [ F.qX5X3XwXqXwX7XC.( y.%.W y.>Xn b A L ! 4XG.3XsX0XOXoX( R y.{.7XjX&.W &./.jX7X:.G.OX8X8XxXA.D &.L.7XjX[.Z [ N.3XjX}.S.3X9X0X&.! /.wX7Xa j f m { J.B.V v s ! /.zX7XH.<.T.<._..XF         .   $ M.x.n.v.M.M.M.v.v.M.M.x.g.x.x.x.x.M.g.g.M.g.g.M.g.x.-XeXeXU.P.3XE s r # % E / ` _ } _ } } } } N.) O.C.%.V.<X^.P.&X[.Z.D.<XZ.P.I.N.N.[.L.B.,XD.;.I.I.) ;.] M p 7 % $ $ $ $ $ $ $ $ A P.[ W y.[ z 4 5 # O O O O O O O O # O 5 5 $ y t u l.d.d.z.v.x.x.v.c.c.v.v.v.v.c.z.v.v.v.v.v.n.x.",
"D JX+X@X_._.>.( y.F.jX>.a a s Y M A b s r e [ F.7XXX7XwXwX9X8XS.W y.{ Y %.{.n c T A ! >XF.5XsX6XoX+X( ( y.{.7XjX-.Z y./.7XoX:.H.oX5XwXxXS.D &.L.XX8X{.Z &.A.{.7X[.F.3X5X9X_ ( B.).'.k a r c ' _ } n h r T y.F.(.J n S G F S >.o           $ M.v.x.M.v.v.v.v.v.v.x.g.M.g.M.g.x.g.x.x.x.M.M.g.M.-X-X;X:XL.P.9X( f f $ % { } } _ _ { ) ) | &.%.| } V.| ;.>XI.Z.[.U.K.I.>XA.Z.I.O.B.W.N._ U.Z.) K.V.) Q N p f 6 6 % $ $ $ $ $ 3 $ A L.( ! %.[ c 7 # O # O O 2 O O O 2 2 O 2 $ y y y u l.d.a.d.x.n.x.v.v.v.c.z.v.z.v.v.g.v.g.v.v.v.v.",
"a ).` K G D b ( y.A.~._ k d s T Y Y A r e w [ L.XX{.5XrXrX9X7X<.( &.| W &.{.A T T ! [ 3XF.5XwXwXoX}.F W &.A.F.oX>.Z &.%.A.`.>.H.5X5XqXsXB.A [ y.:.|.~.x T ( ) S.[.F.5X9XvX%.A / Q Q d x s x P P Y M T m m Z S F E V E Q / ~ -.o           5 M.M.v.x.M.v.v.v.v.v.g.g.M.x.g.x.M.g.g.g.x.g.M.g.M.g.j.>X<XL.P.tX} h s $ w y.A.B._ _ } ) { _ ) } | | } ) | D.V.A.>XD.N.W.,XN.U.U.| ;.U.N.) D.V.| ;.) M v p p 0 6 % % $ $ $ $ $ > $ A L.Y ' y.[ c 7 # O O O O O O O 2 O 2 2 # 5 4 e y y 9.i.l.a.s.n.x.v.x.c.c.v.v.z.v.f.x.c.v.x.v.v.c.",
"@ F l & p d w m / ( } G n h s P P Y c j r e T &.} -.5XqXwXwX8XC.b ! ~ ~ N.{.v Y ! W [ {.G.,X8XwXoXXXZ c [ W F XX>.r T ( ` [.S.G.5X9XqXvXS.h &.y.} XX3Xb &.Z.} }.9XH.3XqXbX,XL.U.C.V.U.^.L.J.L.U.U.*X>X>X/.^././.I.>X>X<X<XtXK.            2 M.n.M.v.x.v.x.M.v.v.x.M.v.M.g.M.g.x.x.M.g.M.g.g.g.x.-XlX<XL.P.3X;.M c % r L.[.W.Q _ O.{ ) ) ) ` ) ) | ) ) y.} q.C.B.N.I.U.%.A.F.{ } D.} ) B.| ^ G N f 0 w 0 % 7 6 $ $ $ + $ $ 5 O L L.Y / u.7.L t # O O O O O O O O 2 O O 5 5 3 e 2 u l.i.l.l.s.x.x.n.c.v.c.c.s.v.v.v.v.z.v.x.v.v.c.",
": N.' ~ [ 7.] ! / ( { | %.| ! ' / [ [ | V.' ! / ) _ ,X9XwXwX5XS.x { V.| *X,Xn ' L.} U.,XD.,XwX8XoX6X` [ eX/.~.HXD.[ <X>X`.bXC.I.5X9XwXmX].Q 4XbX[.JX3X( ^.HX3XJX0XF.1X0XwXkXqXkXtXqXkXkXrXkXrXkXrXrXrXkXrXHXrXvXrXkXvXrXrXbX4X.           # M.n.M.M.v.v.x.v.v.v.x.g.M.x.M.g.g.g.g.M.x.g.M.:Xx.-X$XDX4XV.P.4XA.W x $ L /.<X[.F ( } ) { { _ ) ) / ^ Q Q ) } / | } | N.V.| N.N.^ } } ) ~ / U v d a p s 0 7 : e 3 % $ $ # # $ $ $ &.L.Y ' L.[ L t $ O O O + O O 2 O 2 5 2 # 5 e e 2 i g.v.d.d.v.n.x.z.c.v.c.c.v.v.v.v.s.v.g.x.v.v.c.",
"M HX>X4X4X4XeXqXqXtXtXrXtX2X>X[.^.<XyX9XtX4X>X4X[.,X3X5XwX5X5XH.~ <XHX>XbXoXQ J.HX[.vXwXH.,XwXwXoX6X_ y.kX5XqXmXB.y.vX0X XbXS.G.5XqX8XbXW.~ <XbX|.bX}.W /.wX|.vX}.G.9X7X7X5X5X5X5XXX5X6X6X7X7XqXwXwXrXrXqXqXwXwX7X7XrXrXwXkXHX=       .   # M.n.x.x.v.v.M.v.x.n.g.M.M.g.g.g.M.x.g.g.g.g.x.g.x.x.:XlX<XZ.U.tXG.E z w ! /.U.[.F D ) _ ) } | _ ) ( Q Q Q ~ ^ ~ ~ / ~ ~ ) ) ) { Q ( / E n N v f p p r p p 6 w $ % $ $ $ # $ $ + $ &.%X' [ L.7.L 7 # # 4 O O O O O 2 O O 2 5 2 3 5 O i x.g.f.s.v.x.v.v.x.v.n.c.c.v.c.v.c.x.v.v.x.z.v.",
"Z HX9XqX7X7X9X9X5X5X5X3X}.}.|.|.}.,X5X,X5X3X}.5X}.4X9X7XwX8X6XH.Q *XqX[.bX}.W L.vX`.6X6XF.5XwX0XoX XQ } 6X|.].vX;./ 1X}.`.8X:.G.6X8XwXvXD.E [.wX).fX`.D P.6X).xX`.G.9X8XoXXX}.5X5X3X6X6XoX5XwX7XwXqX0XwXwXwXxXfXkXqXrXwXsXvXHXo   .       5 M.n.v.v.v.v.M.v.n.x.v.g.g.g.M.x.g.g.g.x.g.M.g.M.g.g.;XGX4XL.^.vXI.n r : y./.I.[.) M W | } } } ) ` Q Q Q Q G E E ~ E ~ E ~ ~ E D b n n N v h x d f 0 z s w w : e : $ $ $ * $ $ + r y.L.[ 8.L.7.c 7 # O 4 O O O O O 2 O O # 2 2 e y 2 6.v.f.d.c.c.z.x.v.c.c.n.c.v.x.g.v.v.v.v.v.n.x.v.",
"n bXXX5X7X5X9X3X1XoX5X}.].|.|.|.].}.oXoX6X5X5X6X}.3XqXwX8X5X6XH.Z I.wXG.rX}.D Z.wXT.6X6XF.,XwXwX6X XQ { 5X].|.xX;.) 9X}.).8XC.`.wX0XwXxXS.E ^.wXT.xX`.Z (.7X`.vX`.G.9X5X5X5X,X1X5X5X5X5X5XwXwXqXwXwXwXwXjXxXbXbXxXwXwXwXxXsXbXo           5 M.x.v.n.v.v.v.v.v.x.M.g.g.M.g.g.M.h.g.M.x.x.x.M.M.x.;XKXtXP.*XkXW.b : e u.L.I.I.-.D k ) ) _ _ ) ` ) ~ Q Q W F E E E E E M N b N k b x v d x B z z z 0 p r r e e $ $ w r % * + $ c u.%X[ &.%X7.z 7 # # y O O O 9 O 2 2 e 5 O 2 2 2 2 6.b.x.f.z.z.v.n.v.v.z.v.v.v.g.f.v.z.v.v.x.n.v.v.",
"n bX5X5X6X6X4X5X9X3X5X5X X}.}.].].,X}.oX6X5X5X5X,X1XqXqXwX8X6XS.Y I.wX~.rX}.Z L.wX_.8X8XD.3XwXwXoX}.F } qX}.|.vX-.{ 7X|.(.wX:.G.8X9XwXxXS.E ^.8X(.xX_.Z /.6X'.xX[.G.6X7X3X}.}. X3X X0X9X9XrXkX7XrXrXwXjXjXvXbXxXjXwX8XjXjXwXvXo           $ M.x.M.x.n.v.v.v.v.M.g.g.g.v.M.g.M.x.M.x.x.g.g.M.M.x.;XIXtXP.<XtX,XA : y L.y.L./.V.Q : N ) ) _ _ ) ) ( Q Q D E E E D E E M N M b b v v v d v d z B f r s p r 7 6 : z x m f 6 @ $ L /.L.&.y.L.7.c r $ 3 t O O O 2 2 O 2 2 2 $ 2 e y 2 6.M.x.x.x.x.v.c.z.v.c.n.c.v.v.v.v.z.z.v.n.x.x.v.",
"D bX6X5X5X5X5X5X5X9X6X1X X X X}.].5X5XoX6X X}.7X5X,XwXqXwX6X6XF.Y U.rX`.sX}.Y Z.wX).+X6XD.9XwXwX5X XQ { 7X|.|.xX%.) 7X{.`.wX:.~.wX6XsXvXS.D [.wXH.vX`.Z F.5X).vX[.G.5X6X5XoX X}.5X5XqXwXqXwXjX7XrXjXjXwXwXjXxXwX8XwXwXwXwXrXsXo           5 M.v.n.v.v.M.M.v.v.v.M.g.g.M.g.g.x.h.x.-XM.g.x.M.x.:XM.KXbXD.*XtX3XD : c /.&.F./.U.) : % E { ) ) ) J Q F Q D G E E D V E M m M N M v v v x v B z z z s 0 f 7 6 % x { Y T m d # $ T *Xu.[ y.L.[ t 7 $ e t # O O O O O O e y O $ 2 2 2 l.x.x.x.s.g.x.x.n.v.v.c.v.v.c.v.f.v.v.v.x.x.v.x.",
"Z mX}.5X9X1X9XwXqX6X6X6X X XoX X X6X5X5X6X1XoX5X3XXX5X6XsX6X6XH.Y P.wX`.wX].E Z.wX).8X6XS.5XrXwX6XoXQ { 8X].].vX&.{ 7X].].wXA.I.wXwXwXxXS.Z `.7XH.vX{.A /.5X`.vX|.W.7X7XXX].}.oX8X7XwXwXjXjXvXwXjXjXvXvXxXkXsXwXqXwXwXrXrXbXwXX       .   $ M.v.v.v.v.v.v.n.v.n.x.M.g.x.v.g.g.g.g.g.g.g.g.M.x.x.h.KXkXA.>X4X3XT r &.L.[ Z.P.^.| : @ x ` ) ) ( ^ Q F G n V E E U Y E M m M N M x x v v x z d x d z s 0 r : r [ /.{ } D N * @ ! >Xy.&.u./.[ s 7 $ w z 5 O O O 2 O O y 2 O 5 y 2 y l.x.d.d.g.x.x.v.x.v.v.c.n.v.c.v.v.v.x.v.x.v.v.v.",
"M bX5XqXwX0XwXsX8X8XwX6X6X6X6X X X8X6X6XsX6XoX5X5X3X5X5X8X0XsXF.Y ^.rX|.fX}.E U.wX`.wX0XG.9XjXqX6X XQ } 9X`.|.vX-.) XX|.`.jX:.`.wX8XwXbXS.Z ~.+X<.vX|.A ~.6X).vX`.G.7X7X6XoX X].}.}.7X7X5X5XwX5XqX9X5X3X9X4X9X9X,X9XqX3X3XvX[..           # M.n.v.b.b.v.v.v.v.b.g.g.g.M.v.M.g.g.g.M.M.g.g.M.M.x.h.GXbXF.*X*X,X( r y.L.*.D.V.>X} : # w Z ] | ( Q F F V l M ~ E E E E Z M m M N v x N x z B d d z f f 7 r % c N./.&.A.( E % + ! :Xy.%.L.L.[ t 6 $ r t # O O # O + $ y e O 2 e y y 6.x.x.d.s.x.v.v.v.c.x.n.c.v.v.c.v.x.x.x.x.n.v.v.",
"D HX0XwXvXqXwXwXwX5X6XwX5X0X0X}.}.wX X+X+X+X].XX{.5X5X5X8X0X8XG.Y P.qX|.fX].W D.jX_.8X6XD.9XsX0XOX].Q &.wX].].xX&._ oX].].wX:.I.wX6XwXsXS.Z `.dXT.xX|.G `.jX].bX`.G.5X8X0X0X XH.G.H.I.[.W.{.}.,X9X3X3X3X4X4X4X9X9X9X9X,X,XwXU..       .   5 M.n.v.n.b.v.v.n.n.v.v.v.b.v.v.v.v.v.g.M.v.M.v.g.v.M.h.HXHX(.{.*X3X) s L.N.{ P.} W.N.: $ w : Z &.{ W V V D n G E Q E Y D E M M M N v d v v x x z z d d d p r r Y D.F.;.[.%.W : + ( :X7.y.J.V.' t 6 3 r r O O O 5 + + O y 2 O 2 y 2 u l.v.v.s.x.n.x.v.v.v.c.n.c.v.v.v.v.v.x.x.x.g.v.f.",
"E kX}.<X4X4X{.XX,X^.W.>XU.I.[.I.I.I.G.S.S.:.1.>.:.5X6X5X8X6X8XC.A ^.wX).xX_.b /.xX(.dXoXS.wXjX6XoX].F / 8X).).xX` Q XX).G.8X:.`.wXwXwXvX1.l F._.=.7X(.a S._.>.7X(.S.7XwXwXdX}.S.~.3X|.`.|.9X5X3XjX3XjXJXJXqX{.9X3X>XqX4X3X9XyXX           5 M.x.v.b.v.b.b.v.v.v.v.v.v.b.v.v.M.v.v.b.v.v.v.M.v.v.-XGXHXD./.^.3X&.b L.%.%.V.| <XB.: * r * $ h / *.G _ -.G V E E W D E D M M N b b x v v h d d f d 0 z f z r Y D.I.C.}.~.( j + ! /.| V.L.V.! r 6 6 r e O + $ # O O $ 5 y $ 2 y 2 i l.v.c.d.s.z.v.v.c.c.c.v.v.v.v.c.n.x.x.x.g.c.c.v.",
"@ 9X9X1X5X1X3X5X,X1X1X}.,X,X{.,X,X}.|.}.`.`.[.{.|.5X5X6X0X5X6X]._ -.5X,X|.5XA._ [.]._.5XG.`.5X5X X X>.D :.~.S.oXH.A { ~.S.'.`.G.[.6X6X8X(.Q W A.:.(.}.F S %.>.S.}.H.W.oX6X6X}.F.`.{.{.).].3X X|.{.|.{.{.~.~.G.~.~.~.[.`.~.>XrX@           $ M.v.v.v.v.n.v.n.v.v.g.b.b.v.b.v.v.b.v.g.v.v.M.v.x.v.j.DXKXF.D.[.qX&.( L.{ y.N.| ,XS., @ r $ X @ h ` O.`.,XG n F G E W D M Z M b b v B d B d d f s s f 0 d s % Y /.[.I.I.jX*.h + T /.[ L.%Xy.T r 7 e t e O + O e O + $ 2 2 $ 2 y y i i.x.v.s.s.x.z.n.v.v.c.v.c.n.v.n.x.x.x.v.x.f.v.v.",
". tXnX6X6XoX+XOXoX6X6X2X5X5X5X+X0X0XwX0X5X5XXXjXwX5X5X5X5X0X6XsX<.K I.6XH.vXdXn B.sXS.5X[.B.[. XoX6X}.D } wX`.}.8X) ~ 5X}.G.wXS.S.}.XX}.wXG.A U.8X<.wXI.A P.6XH.7XI.B.,XXX3X1X0X0X9X5X6X6X6X6XsX0X0X5X9X7XjX0X0X5X5X5X6X5XsXnXX       .   # M.v.v.v.v.v.b.v.v.v.v.v.v.v.v.v.b.v.v.v.M.v.v.v.M.b.h.lXKX`.G.3XkXF.;.P.[ N.A.} ,XD., @ r : = + # Z F.5XbXF g n D D W D D n M M n k a a N d f s z d B d f w + Z /.~.[.D.kX<.j * ! L.[ L.U.| P t e e r e O + $ 2 O O O e e 2 5 e 2 6.d.s.x.s.g.v.v.v.n.x.n.v.c.v.v.v.n.x.v.v.x.v.f.v.",
". rXmXOXdX+X+XXXOX+X+XOXzX+XXXzX6X+X8XOXzX+XXX+X6XOX6X6X6X6XdX0X;.G (.6X(.OX_.n A.8XH.8X'.V.}.1X1X5X'.V -.oX_.}.OXQ ) }.'.W.6X<.G.}. X X8XC.S G.oX).8XS.A (.oXH.5X~.D.,X5X1X].OX8XOX5X5X5X6X6X6X0X9X5X6X5X9X0X0X9X5X1X5X1X8XbXo       .   # M.v.v.b.v.v.n.v.v.b.v.v.v.v.v.v.b.v.v.v.b.v.v.v.v.b.h.lXIXkX`.3XJXjX(.Z.) Z.P.N.9X`.a @ s f + + $ *.I.1XsXF l d D Q F Z D n N M n h a E ~ b v 6 p f d d 7 @ + T /.A.[.C.bX5Xn & [ L.[ L.*X| N t e r t 3 O + 3 4 + O e e 2 $ $ y y 6.s.f.f.d.z.v.v.v.z.v.v.v.c.n.c.v.v.v.v.x.c.v.v.v.",
". }.cX].].]._.3.)._._._._._.]._.@X].@X+XzX3._.+X+X+XOX5X6X6X0X6X:.D `.OXH.8X].G S.8X_.+X).S.}. X X6X|.G &.OX_.XXoXQ / oX].'.6XA.I.,X X5XwX,.A ~.OXH.8XS.Z F.6XH.8XW.H.,X5X5X X X6XOXoX3X5X5X5X6X0X6X1X6X5XqX9X9X9X1X5X9X5XwXmXo           # VXv.n.v.v.n.b.v.v.v.v.v.v.v.b.v.v.M.M.g.M.v.M.b.v.b.h.;XIXbX'.{.JXbX~.V.&.P.U.Z.9X,XS $ r s + + r /.H.[.1XQ Q B f U Y Z E A n v N k Q C.;.D ~ p % & 7 v 7 = X ( /.&.G.S.mXvXS w y.P.[ %X*X| c r r t t 3 + + 6 5 O O $ y 5 2 e y y 6.s.g.f.s.x.v.v.z.v.z.x.n.n.v.f.v.v.v.x.x.v.v.f.v.",
"  ` =.K K G J K S K J J K J J K J J J J *.=.J J =.X.=. X6X5X6X6X>., F =.K <.{.< G <.J <.`.S.}.5X XoX'.k G F.>.<.oXF A H.S.<.5XC.I.}.oX X6X:.S H.+X<.OXH.S F.XX3.6XT.C.}.oX}.+XdX+X+X5XoX+X6X8XjX8XdXOX6X+X+X7X7XOXoX5X6XoXwXbXo   .       5 M.f.v.v.b.v.b.v.b.b.M.v.v.v.v.v.v.M.v.v.v.v.b.v.v.b.h.:XIXHX`.|.JXPXG.} &./.U.F.0X1XG : w x $ + L tXD.`.5X` C.E & x M E W D n b b D V.}.F.Q N.N & 7 & f d X X [ ^._ S.A.bXmXF f Z.Z.[ %X*Xy.B 7 e z t 5 O O 3 5 O $ 5 e e O e 2 u 9.s.f.c.s.z.v.v.z.v.v.x.v.c.v.v.c.x.v.n.v.v.v.v.b.",
". M V f & & : & , D G H < > * & < K K l , > * l _ ` X.}.6X5XoXdX>.& s G F *.~.: : l < ` ~.C.}. X5XoX'.a , G A G `.G : D F G G.D.F.}.1X5XwX>.> K J K H.<., F *.J <.G.S.].XXXXT.<._._._.].+X+X_._._._.+XOX+X].oX+X].].OXOX+X+XmXo           5 M.f.v.b.n.v.v.v.v.v.x.v.v.v.v.v.g.v.v.v.g.M.v.v.b.b.h.-XGXJX`.(.bXPXD./ y.P.L.L.9X1XG : r x # + [ kXB.G.9XO.U.} - * f E N M N m N ) U.[.D.Q D./ d f 6 & 7 + X [ P.{ N.B.5XJX_ h P.V.{ /.*Xq.z r t t e 5 + O 4 O O # 4 2 e 2 e 2 u l.s.c.c.v.z.v.x.x.z.z.x.v.c.v.v.v.v.v.n.v.v.b.f.v.",
". Z.K.7.] 7.| v d Q ` ` l * * % A ( J S & * % ) (.(.(.+X5X X X5X=.g W :.S.G.`.a s x k ` /.D.}.5X5X5XT.k v P M D G.D N y.D.V.F.Z.F.,XoX1X6X,.* , , , *.S., n _ ` 1.I.Z.}.1XqXX., < l < < J K S ` ` J J *.J K *.*.J X.1.1.1.<.3.X           # M.c.v.n.v.v.n.b.v.v.v.x.v.v.v.b.v.v.b.v.M.v.v.b.b.b.h.j.lXKXXXF.vXPXD.W V./.L.P.1X1XQ p z z @ O L.kX} S.qX;.[.D.f # w v % & f j r &.4XI.I.` W.V.h x d $ @ + X &.L.( A.A.).JX<.g P.%.( /.*X| s r e t e O O O 4 # O # 5 5 5 e e 8 i l.z.x.x.n.x.v.x.x.z.x.v.v.z.c.v.v.v.c.v.v.c.c.v.b.",
". tXHXyXyXyXfXO.h ( J ` l & $ % Z ` ` A & % % / <.<.<.XX6X1X X5X>.a W >.1.G.'.d b ( W ;.^.Z.,X1X6X1X'.l ' | | | ~.E ~ U.9X,X`.S.H.1X X1XsX:., f g f } D.v { ].].}.G.C.}.5X9XJ - a a j > < , G F.'.T.1 & * < =.<.<.S a l l S V X           5 M.c.v.v.v.v.b.v.v.b.v.v.M.v.v.v.v.v.v.v.b.v.b.v.b.h.h.j.lXIX7XH.xXPXT.F V.U.Z.U.,X1X_ d s x + % :XkX} B.5XO.W.^.h % w s o + @ @ * y.qXI.[.} W.I.M N x & @ + + &.F./ G.D.G.vX`.k F.%.~ I.I.] 7 7 4 4 4 O + $ 4 # O 5 4 5 5 e 5 8 i i.x.m.n.z.c.v.n.z.v.v.v.c.v.v.v.v.v.v.v.c.v.j.b.b.",
". tXUX9X0X9XfX:.a Q ` ` k & $ % G *.` K & * % W <.<.H.1X6X1X X5X=.k Q >.<.).).j A N.D.I.`.A.}.5X1X5X'.N [ I.,XW.`.E ! P.1X|.).S.F.1X5X5XsX1.a d j p | C.d { )._.].T.S.}. X6X_ , a d s , k , G (.]._.S - > A _.].|.O.Q U U ^ ~ .       .   # M.x.v.v.v.M.v.v.v.b.b.v.v.v.b.v.b.b.b.b.h.b.v.v.b.b.h.j.lXJXdXS.wXPX`.F N.L.L.U.>X1X-.d x N @ r tXtX{ :.}._ [.4Xb w w j = X + X # /.9XS.}.>.D.<X' N v w @ + + A.L.( |.~.F.0X}.F I.%.Q P.U./ 7 7 4 4 4 5 + 5 4 5 O $ 5 e 2 2 2 y i x.z.x.x.x.v.x.v.v.n.v.v.v.v.g.f.f.v.v.c.c.v.c.b.b.",
". tXbX0X1X5XsX:.a Z G F , & * % A A G l & % * v F J X.oX6X5X1X6X>.a M ) ` 1.`., n / _ S.|.B.,X6X1X1X].N [ P.[.~.`.E ~ F.{.).~.A.G.1X5X5XdX:.p s d p } D.k ) )._.].).A.,X5X8X` , d f d % j : W {.+X@XS & : A (.]._.W.<X4X>X<XtX=           5 M.n.v.v.n.b.v.b.v.v.v.v.M.v.v.v.b.v.b.b.b.v.M.M.g.h.h.g.:XkXxXG.8XJXW.) J.U.L.U.U.1X:.v d v # c eX/.) C.`._ W.9XP f w x + = + X : 3X9X;.}.:.:.9XN.M c f # = + y./.*.1X}.W.6X0X} I.>._ I.^./ w r 4 4 4 5 O 4 7 # O 5 5 5 e $ y y 6.x.z.x.x.x.n.z.x.v.z.x.z.v.f.v.v.f.f.b.n.b.v.c.b.n.",
"  rXmXoXOXoXdX:.k / } } d & $ % M Q Q l * * $ l F J J }.0X0X1X0X>.f A W ` >.)., h W F >.`.A.}.9X6X1X].k ! N.A.;.[.D M %.B.>.G.A.I.1X5X X8X:.- c v v | S.f D 1.1.T.G.A.,X XwX] - s s p & h w A F.).T.l * # m F.(.(.].wXqXwXrXHX=       .   # M.c.b.M.v.v.v.v.v.b.v.v.v.v.b.g.h.M.b.b.b.b.M.b.h.h.g.g.:XkXsXH.,XbXT.| Z.*XL.U.^.,XS.b j j * L lXN.) S.G.` W.9XQ x w j + o + + x kX<X_ |.W.O.tXI.Y x r $ + + F./.*.,X}.W.1XqXB.S.S.D.,X>XQ 6 e 4 4 4 $ O 3 e O O 5 3 3 2 4 y y 6.x.z.z.z.x.v.c.c.v.z.v.z.g.v.v.f.g.v.v.c.c.g.b.n.v.",
". wXxX+X+X+XdX1.v %.C.S.n & * 6 W _ X.D % % % A >.:.>.,X0X5X6X0X>.h ! A.H.W.W.a n &.>.S.W.C.,X0X1X5X'.Z [ I.}.I.`.G E Z.W.F.G.S.G. X1XoX8X>.f ' V.N.W.S.a M -.-.S.I.S.{.oXwX) w z f 0 & k : v *.X.=.< & > r *.*.*.(.qX9X6XwXbXo           5 M.c.v.n.v.n.b.b.n.b.h.v.g.g.b.g.h.g.b.b.b.v.v.b.b.b.b.g.-XDXwXH.`.sXD.| K.U.J.L.I.,XG.b r x : T qX&.| P.F.} I.9X| b : j % + + + A kX^.) }.|.:.0X}.E j r > X + A.F.( }.1X`.}.5XI.%.`.fX1X[.Y % e 4 4 e 2 O 3 3 $ O 5 y 2 3 2 y y i.x.z.x.z.x.v.z.v.c.c.x.g.v.v.v.g.v.v.v.c.b.v.b.g.b.",
". :.T.=.=.1.<.` b %.S.S.N & & 0 E ` X.V & & % b Q ` _ 1X0X9X1X6X1.j W >.S.).T.a n _ >.S.`.A.,X6X1X6X`.Z &.^.5X|.'.F ( I.9X|.`.A.H.,X1X5X8X>.b N.5X5X5XC.k [ I.|.].I.C.}.oX8X} D L.Z.:., a w Y [.].'.k & % A L./.F.`.qX8X5X8XbXo           5 VXn.n.v.v.v.v.v.v.v.v.M.h.M.v.h.h.v.b.b.b.v.v.b.b.v.b.b.-X4XrXT.I.}.S.N.U.U.V.A.F.5X}.l w x t V.4X/ } W.B.} I.9XN.M w r $ + + @ T lXD.) |.[.;.1X1XQ : j r + + A.A.J  XwXT.`.}.|.) `.JXsXG.n $ y 7 4 4 # O 4 5 5 O y 3 2 2 y 2 u l.x.z.x.z.v.z.c.c.v.v.c.g.f.v.v.g.v.v.v.v.b.b.v.f.b.",
"  D F l v l V , v ) ;.-.N 0 7 7 D / ) V 6 6 6 Z Q ` ` ,XqX0X6XdX>.l ( :.H._.H.a D *.=.<.`.A.}.6X5X1X|.Z &.~.oX|.`.Q / P.oX|.~.B.H. X5X5XdX>.b %.].].oX<.k { )._.].G.B.,X5X0X_ / }.}.W., a w ( ~._.].k % % T /.XX].].dXdX+XxXmXo   .       5 M.x.b.v.v.n.v.b.v.v.h.g.v.v.h.g.M.b.b.b.M.v.v.v.b.b.v.b.h.:XtX`.W.[.A.N.U.U.J.Z./.9X1Xn f t m *X4XF ;.W.N._ H.,XF.F w r : # : $ W lXA.} W.W.;.[.1X} : w r + $ A.A.*.}.fXS.G.`.}.-.G.PXvXS.v % 7 5 3 e $ 5 e 4 # O 4 y 3 y 2 y i d.x.x.z.c.c.c.v.c.f.f.v.v.c.z.v.g.v.f.v.v.v.v.v.v.g.",
". | | U E ~ ~ N c U E D U T P z c N N B 7 I 0 B L V E ,X0X9X6X0X:.f Y / ` :.W., v F Q O.W.Z.}.5X5X X'.n ~ B.G.S.`.Q ~ B.`.(.(.:.D. X5X1X6X:.b &.].@X X<.l { (._.].(.A.,X5X0X} ` {.]._., B w W ~.].].K - 6 Y `.].].<.<.<.3._.+Xo           5 M.n.n.n.v.n.v.v.b.M.M.b.v.b.g.b.b.M.g.h.g.v.g.g.g.v.b.v.j.:X4X_.`.,XD.V.P.U.Z.U.[.9X1XV w r c 4X>XQ :.>XN.) S.}.W.~ s j r r b t [ tXy.%.|.G.:.`.|.:.f % 6 + @ A.A.*.[.jXC.<.'.}.S.S.JXfX>.a 3 e 5 7 4 5 5 7 3 $ O 4 3 3 y 4 2 0.x.x.x.x.x.x.x.x.x.x.v.v.f.v.v.v.v.g.v.f.v.v.v.b.v.g.",
". 4XtXW.&X&X&XI.K.U.U.F.U.&X&XJ.K.Z.V.J.K.U.J.| 7.| ;.,X0X5X5X6X:.- E E N X.H., N Q n _ G.:.|.oXoX.X}.b x Q ~ / [.D d Q Q Q S.S.D.}. X X8X:.a ( >.1.T.H.d D =.>.H.(.C.}.1X0X) D S.<.1.f d 0 Z A.H.<.n s 6 N Z.(.].K g S K K K X       .   # M.c.n.x.M.v.g.M.v.b.v.v.v.v.b.b.g.v.g.M.M.v.b.M.b.v.v.v.j.:X4X/.G.3XP.N./.U.K.U.[.5X0XD s r T tX/.) C.<XS./ B.[.1X| j x r t L m y.tX%.%.I.C.C.,X}.G.k : 6 @ $ /.F.*.}.kXH.:.1X6XF.:.mX6XX.p % e 4 4 7 # 5 3 5 2 O 8 2 4 3 y u i x.x.x.x.x.x.x.x.x.n.f.v.c.b.v.f.f.v.g.v.v.b.n.v.v.b.",
". tXHX0XtX0XtX0XtXrX9X0X0X0X9XtXrXrXtXtXtXfXtXfXfXrXtX0X5X6X5X6XC.N U.,XC.}.H.v Z.,XC.<XI.B.}.1X X].1X) [ <XD.W.fXQ m A.} O.[.:.S.}.5X X6XB.d ) *.^ G.F.f E ` F :.G.C.}.1X0XO.M ~ ~ Q U ' P P V D E U ' I B Z D F N v B d v h .           5 M.c.M.v.v.v.b.v.M.v.M.g.h.v.b.b.h.g.g.M.g.g.g.v.g.M.b.v.j.j.eX[.H.{.I.V.U.U.L.U.[.,XjXD f w ' tXA._ A.2XP._ B.W.9XN.h r e r c L y.4X{ &.W.;.:.0X8X5X( p w % w {.C.} {.vX XH.8XjXG.>.bXOX^ & 3 e 3 7 e $ 5 5 5 5 O 5 4 4 2 4 2 6.x.x.x.x.x.x.c.c.c.c.v.v.v.v.c.f.v.b.g.v.v.g.b.j.b.c.",
". tXHX9X0X6X5X1X5X5X1X5XoX5X1X1X9X6X0X1X5X5X5X1X1X1X9X0X6X6X5X6XC.M U.9XD.0XC.n L.0XI.9XT.N.}.5X X].}.~ %.vX,X9XvX/ / 9X[.W.5X:.S. X5XoX6XS.V ^.1XH.wXH.M L.,XH.5X`.:.|. X5X9X5X5X<X2X0XtXtX2X4X9X2X9XtXUXtX9X4X>X<X<X<X%XU.<Xo           # M.n.v.v.v.v.v.v.v.b.g.g.g.M.g.M.h.M.M.h.h.b.v.g.g.g.g.v.j.:X:X{.F.F.F.N.U.U.Z./.[.[.wXF j r y.eXN.;.B.,X^.*.S.W.0XD.A r : w t b L.jX( _ W.S.>.8XbXfX-.f f r x >XS.( G.wX6XT.8XbXH.:.fX.Xn & e e 3 4 e 3 3 5 $ $ 2 4 2 3 2 2 y l.x.x.x.x.x.x.c.n.c.c.f.f.v.f.v.v.c.b.b.v.v.b.c.b.c.b.",
". tXJX5X6X5X5X6X6X6X2XoXoX6X2X6X0XqXwX6X6X5X5XOX0X5X6X6X5X6X6X6XS.M L.6XS.6XS.n L.9XG.9XI.:.}.5XoX].`.E | 3XW.|.6XQ / ,X`.W.5X:.G. X5X X6XC.D ^.6XG.wXH.Z I.5XG.8XW.A.|.}.oX6X5X9X0X0X5X6X9X9X0X0X0X5X0X9X9XtX0XwXwXwXrX0XrXKX=       .   5 M.x.x.v.v.v.v.v.b.b.b.g.g.h.v.M.M.v.h.M.g.M.g.x.g.b.v.v.g.$X:X>XF.S.A.S.U.U.U.U.[.W.qX) j r L.4X;.B.B.<XI.-.S.G.1X[.A j w r t L *XtX( / I. X:.].mXvXD.k 7 : h >XF.D >.}.oXY.jXbX1.S.0XT.k & 7 t 8 7 7 3 5 $ 5 $ 2 4 4 2 2 2 u l.x.x.x.z.c.z.v.c.c.v.f.v.v.v.v.g.g.b.v.v.v.b.v.f.b.c.",
". tXbX6X6X X5X6X6X6X6X5X1X5X6X6X5XwX0X6X6XoX6X7X9X6XOX6X6X5X1X6XS.Z ^.6XS.6XS.n U.5XG.8XW.B.{. X X X'.F &.5X).|.6XQ ( 3X`.).oXA.I.1X6X6X0XS.M ^.6XT.8XH.D F.5XH.7XW.:. X5X5X6X5X5X5X5XoX6X5X9X0X0X9X1X5XoX5X1X1X6XoX5XXX}.6XnXo           5 M.x.v.v.v.v.v.M.v.M.g.M.g.M.g.M.h.v.b.g.h.g.v.M.M.g.v.v.v.j.:X*XF.F.N.F.^.U.K.U.I.I.wX` s x /.*X| B.B.[.I.} F.I.[.,XA j e e r L *X4X/ ` [.wXH.T.mXnX[.M p : x 3XP.G :.oX6XH.+XxX=.:.].>.d & 7 7 7 7 4 3 3 5 5 5 O 8 2 3 2 2 u d.x.x.z.z.v.v.c.c.c.f.f.v.v.f.v.v.v.v.b.g.b.v.v.b.c.b.",
". tXbX6X6X5X1X5X5X0X0X9X6X1X5X5X5XwX8X6X6XoXoX7X5X5X2X6X6X5X6X6XC.Z ^.6XT.6XH.n P.6XH.8X).C.}.5X X].|.Q { 5X).|.5X^ / ,X`.(.5XC.I.1X1X1XsXS.E ^.OXH.wXG.D P.5XT.wXI.C.}.1X5X5X5X5X8XOXoX5X6X0XwX0X5X5X6X6X6X0X0X5X6X5XXX}.wXbXo       .   5 M.M.v.v.v.M.M.v.v.v.M.g.h.v.h.v.v.M.g.b.g.v.x.x.g.g.g.x.g.j.:X<X/.G.B.I.<XU.Z.U.I.I.fXO., m *XZ.&.B.N.[.F.O.D.F.F.,XY r : y t T 4X*X) _ `.vX`.|.bXbX1X/ f % h 3XF.F B.wXcX_. XxX>.1.W.O.0 $ 4 7 8 7 4 3 3 5 $ # 2 5 : 2 4 2 i x.x.x.x.x.v.c.c.z.c.v.v.v.v.v.b.v.v.v.v.g.b.b.b.b.c.c.",
". wXbX6XoX6XoX X1X5X5XoX5X5X X5X6XOX7X6X6X}.].+X5X6XOXOX6X6X6X6X<.n G.6XS.6XS.n F.+XH.8XW.B.{.1X}.].].Q ) }.).].6XQ /  X).T.9XS.I.,X5X1XwXC.D [.OXH.dXH.Z I.5XG.wXG.S.}.oXoX5X0XwX5XoX5X5X1X6X6X6X6X6X1X1X6X5X6X5X5X6X5X5X5XnXo           # M.v.v.b.v.v.v.M.b.b.g.M.v.M.v.h.h.v.M.v.b.g.v.M.g.g.b.b.g.j.$X:XL./.S.[.*XZ.y.D.U.I.wX;.: / eX&.&.Z.B.[.I.-.D.G.C.9X&.r : : e T 4X^.;.;.S.wX'.'.sX6X XO.d & b 3XF.( :.jXJX.XoXvX,.).5X` & $ 4 7 7 7 7 3 3 5 # 2 $ 4 2 4 2 y i x.x.d.x.x.c.v.s.c.c.v.f.v.v.h.v.v.g.b.v.v.v.b.c.n.b.v.",
". jXmX+X+XpX+X+XOXOX8X8X+X+XOX8X8XjXsX8X6X+X+XzX6X8XOX6X5X0X5X6X<.D (.+X<.8XS.A F.8X(.OX_.B.}.1XXX X}.E `  XT._.8XQ Q XX_.H.6XB.I.1X5X5X8X<.A ~.8X<.8XH.Z F.5XH.8XG.S.}.oXoX X6X5X6X+XXXoX5X6X5X6X6X+X+X5X5X7X8X5X X5X7XoXOXmX=       .   $ AXx.M.v.v.b.v.M.b.h.x.M.x.h.x.M.g.M.g.g.g.v.v.M.x.g.v.g.g.g.j././.Z.D.[.>XL.V.P.U.D.0XS., { <X{ %.D.B.>X~.;.S.F.C.9X| d % w e T 4XA.S.S.:.5X`.G.5X).W.F.k % b qXD.) >.5XJXOX.XxX'.sXsXE * $ 7 7 3 5 5 % 3 5 e $ $ 2 2 8 2 y 6.x.z.z.x.x.v.z.s.x.v.c.v.f.b.v.b.v.v.v.b.b.c.c.v.v.v.c.",
". H.].1.<.<.<.=.1.<.<.H._.@X_._.`.|.]._.+X+X_.].+X+XoX X1X5X5X6X:.l :.].=.oXH.l >.].1.oX`.S.}.1X}. X XF ` OX<.].6X` ( XX_.T.5X<.I.1X1X X6X<.A ~.OXT.jXF.D F.oXT.wXG.C.{.XX|.].8X8X+XXX].oXoX5X7XoX6XoX+X+XoX+X+XOX}.oX+X].6XmX=           # VXv.v.v.v.b.v.b.b.b.h.h.h.M.M.g.g.g.M.v.M.v.v.x.M.g.v.g.x.g.j.:XL.F.F.I.>XP.L.U.I.D.wXG.j y.*X{ V.D.B.,XI.-.D.H.:.9XB.d % e e [ 4X%.D.H.:.}.}.S.].W.T.}.M % A qXS.O.S.oXmX X).8XoXnX6XN $ 5 3 4 8 3 3 e 3 5 2 O 2 2 8 8 8 u l.z.z.x.x.z.z.z.v.z.v.c.c.v.f.v.v.v.g.v.v.c.b.f.f.v.c.c.",
"  D D g , , , - , a D 1.J K < l F _ =.J S K l S G G ( }.0X6X6X6X1.& h F l =.H.* S _ G >.`.C.}.1X}. X Xn a _ J >.oXG h >.-.*.}.A.I.}.1X5X8X:.j :._.=.+XS.k N.G.-.}.G.B.{.,X|.H._.]._._.@X+X].+X+XoXoX+X+X].+X+X+XOX].+X+X+XzXbXo       .   # VXv.b.b.b.b.b.b.b.b.h.g.x.h.h.x.g.g.g.v.M.g.M.x.x.x.g.x.x.g.j./.L.L.U.U.^.L./.*X/.I.vX`.h F.P./ B.Z.C.>XW.-.S.H.;.9XS.v : e t &.4X*.G.G.1.|.'.C.}.W.C.5X! & m 7XS.>.W.8XmX].<.8XdXnXD.p # 5 4 5 3 3 3 3 5 5 $ O e e 8 2 2 i a.x.x.x.x.x.z.z.z.v.c.c.v.c.g.v.b.v.v.v.v.v.v.v.v.c.v.z.",
". ~ ] N a a d & E [ F.sXJ > * c y.{.bX(.; > > w N M D }.0X5X0X8X:.p r f p ) G.w ! P.~.].I.A.[.5X X}.}.n # , , G ].Z % m W Q I.S.I. X X1X8X>.& S F l >.<.: T ;.-.W.I.S.{.1X5XJ K K J J J =.J F ` ` J =.=.=.J *.=.X.=.(.).(.3.+XX           5 M.b.b.v.v.b.b.b.n.b.M.M.M.h.M.h.g.g.g.v.x.g.x.x.x.g.x.M.x.x.j.L.L.y.L.W.U.L./.*XU.D.rX|.l I.A./ Z.Z.Z.[.I.} S.D.;.1X^.b : e e %.4X&.`.G.:.I.W.S.,X[.C.9X%.: m 3X>.C.).wXJX+XH.fXnXsX@.7 % 3 7 4 4 3 3 e e $ 5 5 2 y 8 8 2 i d.d.x.z.x.z.z.x.x.z.v.x.c.c.v.g.v.v.b.v.v.f.f.v.c.c.z.v.",
". eXUX<X&X*X&X{ R /.jXxXJ & % m y.4XbX{., : e [ *XtXyX3X9X5X0X8X:.N ' u.L.^.B.b y.>XvXvX`.A.}.5X1X X}.V c [ y.N.|.Q L y.*X*X>XS.I.1XoX5X8X>.j A ( b *.A.Y u.kXHXvXH.F.{.,X6XJ , < , , , < , j c m v k l , - < , , g l V S K G X   .       $ M.g.v.b.b.M.M.b.b.b.h.h.g.M.b.b.g.M.v.v.v.v.x.x.x.x.v.x.x.x.j.%XL.J.Z.U.K.Z.P.*XU.P.wX}.F I.;./ F.Z.Z.[.I.O.D.S.:.,X,XV 6 $ e V.<X_ W.).>.G.H.A.[.,XB.rXD.d A 3X>.G.T.}.mX8XT.vXJX.XF & 5 5 4 4 7 4 5 3 5 3 2 e 2 4 8 8 2 i s.s.x.z.z.x.s.x.v.x.x.v.z.c.v.b.v.v.v.x.v.v.f.v.c.v.z.c.",
". rXHXtXtX0XfXD.W A.jXcX=.* $ c y.7XmX]., * e 8.<XkXkXqX6X6X6X6X:.V 7.*XGXHX<.h y.>XkXcX).C.}.5X1X}.}.D ! ^.rXqXXX~ R L.lXkXqXA.~. X1X3XjX>.S { *.Z %.A.T /.HXJXbXH.D.,XoXoXX.j j j j : j : R L.4X<XV k , : j s j k n N b M U .           O AXv.b.b.b.b.b.h.h.CXM.g.x.M.v.b.v.v.M.v.v.x.x.x.x.v.v.v.v.M.j.j.u.V.V.U.Z.V.L.*XP.D.6X}._ F.) | P.B.D.W.I.;.I.I.;.[.9X) w % e L.<X` `.`.>.S.H.B.[.}.:.5X[.m D 5X;.).`.H.dXoX`.xXnX:.g & $ 4 4 5 7 3 3 3 % 3 $ $ e $ 2 8 2 l.c.z.x.x.z.g.x.v.x.z.x.z.v.c.v.f.g.v.v.g.f.f.c.v.x.x.x.x.",
". tXJX1X5X9XwXS.Z :.~.+XF > * c y./.oX(., * % &./.qX9X3X6X6X6X8X:.A &.L.qXkX<.b &./.jXjXW.S.{.1X1X X].W / *XkXjX+X( ! /.jXkXqX:.I.1X5X6X8X>.S / &.A &.<.T /.kXJXbXH.S.,X,XoX` B v x j : j j R P.kXkXQ d w w v N v | &XU.U.U.2XX           $ AXv.g.M.b.b.M.h.h.CXM.h.h.M.b.b.b.v.v.g.v.x.v.x.v.M.g.x.x.g.g.j.L.L.V.L.U.V.L.U.L.B.,X1XB.N.Q N.F.N.N.W.I.B.I.I.;.'.qX| w $ r /.^.` I.|.:.I.[.C.[.[.B.,X9XW Q wX>.W.oXH.].].W.1X X@.p $ 5 5 5 5 e 4 3 3 4 5 O y 2 y 2 2 y i.v.z.x.x.x.x.v.z.x.v.x.x.z.c.g.g.g.v.g.g.g.v.v.c.x.x.x.x.",
". 0XJX0X5X5XjXS.A &.F._.A * > r [ A.`.>.- % % [ y.(.~.3X8X6X6XjX:.x [ y.~.XX<.j [ y.|.].(.S.}.5X5XoX}.G Y /.7X3XoX( T u.>X3XXXA.I.1X0X1XjX;.v ! / b &.<.W /.lXjXxXH.D.}.1X6X_ z z z d & k r ! /.*X}.G d f z 7.L.L.^.fXtXrXfXJX@           $ M.v.h.h.h.M.b.b.h.h.h.M.h.g.b.b.g.v.v.v.g.v.v.v.v.x.g.x.x.x.j.j.k.u.V.V.K.V.L.I.L.B.[.5XB.O.Q J.F.;.:.I.S.:.I.I.B.W.jX;.r : t :XD._ I.W.:.T.,XC.I.[.S.[.9X` Q qX-.G.wX).].}.W.|.T.F % # 5 5 5 4 4 y $ 3 3 5 2 : y 2 2 2 u i.z.z.x.x.x.s.c.c.x.z.x.x.v.c.v.s.g.v.v.v.g.c.v.c.x.n.x.v.",
". qXmX8X+XoXzXH./ U.rXbX` * % c y.>XkXG.- % 6 [ P.qXXXXX7XwX8X8X>.A | /.7X7XS.b { Z.7XoX).S.}.5X1X XXXD Y y.A.S.XXQ m y.N.A.`.S.(.5X6XoX0X:.d ~ [ ( F.A.A u.XX3XlXF.<.XX,X0X_ Y [ 8.' p d p 8././.{.G k w c y.L.F./.7XqX5XwXbX=           # VXb.h.b.-Xh.h.M.h.M.h.h.g.b.b.g.g.g.v.g.x.v.v.v.v.v.z.v.z.x.x.g.k.u.A.:.D.K.V.*XL.Z.W.5X:.) W B.F.} ;.H.C.B.I.I.O.F.1XD.h % t :XA.*.I.G.:.G.}.C.I.[.H.[.5X>.` 9XO.G.vX X X}.[.2XV.N & # 5 5 5 5 8 8 5 5 6 5 5 8 5 8 y 2 0.x.x.x.x.d.x.x.x.x.g.d.x.x.v.g.g.v.v.v.v.v.x.g.z.z.v.x.v.x.",
". sXmX+XzX+XjXH.( F.7XcXJ & $ b N.XXcX_.- 6 w y.^.jXjX7XwX8X8X5X>.W y.*XbXvXS.Z %./.bXvXI.S.,X5X X X|.Q 7.*X9X8XoX( [ *XkXkXoXS.I.5X6X5X0XB.Y U.kXlXtX;.T /.lXkXjX(.F.3X5X0X| J.GXHXkXj d d y.eXqX4XG k r ! :X:XXX~.6X8X6XsXmX=       .   $ M.b.b.b.M.h.-Xh.h.M.h.b.M.g.g.M.M.g.g.g.v.v.v.v.n.c.v.c.z.v.s.g.j.u.u.%.V.F.V.U.U.U.W.2XC.{ Q N.U.} B.I.C.:.I.F.;.S.}.W.b $ m >X%.{ G.G.;.C.W.B.I.}.W.[.,XS._ 5XO.S.sX}.1X[.W.1X@.d 3 # 5 5 5 5 5 7 5 5 6 5 5 7 5 5 y 2 i x.x.x.x.x.d.x.g.g.x.x.x.x.s.g.x.x.x.c.v.v.v.v.v.v.v.s.x.x.",
". -.1.*.J J *.K ) F.OXcX` % $ x :.].jX<., 6 w y.~.jXjX7XwX6X6X8X>.G y.`.jXjX<.A &.~.kXcX(.D.}.5X1X}.].Q %.lXbXmX8X` &.lXmXJXjXA.W.5X6X5XqX>.! 4XJXJXbX-.[ :XbXJXbXF.D.3X1X0X} L.KXKXKXb j j u.HXHXJXF a s &.GXKXJXjX+XOX+XzXmXo   .       $ AXv.b.h.CXh.M.-XM.b.M.b.b.M.v.g.g.v.v.v.v.v.v.v.v.v.v.v.v.x.g.g.h.u.u.N.N.L.A.J.P.~.G. XD.} ) V.I.} N.W.I.;.F.D.:.D.W.}.U : T 4X_ _ W.W.;.C.W.:.F.,XW.W.[.S.:.,X&.S.wXW.1X>XW.W.~ 6 $ # O 5 5 5 5 7 6 $ 6 5 5 8 5 8 2 2 6.x.x.x.x.x.s.g.x.s.g.x.x.x.x.g.x.x.z.v.v.c.g.s.z.v.v.x.z.x.",
"  n n a , & , : W &.<.H.) 0 # d &.:.).<.0 7 7 [ (.XXXX+XqXwX5X8X>.F y.G.zXjXH.A y./.jXjXW.C.}.5X5X X}.( %.kXmXmX+X( *.lXmXmXzX%.I.5X5X5X8X>.( 3XmXmXmX>.( *XJXJXvXH.D.}.5X8X{ L.KXHXbXS j x y.kXbXmX^ g j [ lXHXbXXX_.@X_.].cXo           $ M.b.b.b.b.M.h.h.h.h.h.M.b.b.b.M.g.v.v.x.n.n.c.v.c.n.x.v.x.v.g.b.j.k.y.N.%.V.J.N.D.I.H.[.C.} } L.[.;.N.W.F.-.S.S.B.I.I.1X/ % ! *X/ _ [.|.:.C.`.:.S.1X'.W.`.W.H.`.` A.5XI.1X.XF.V.B % 5 # 2 5 5 5 8 7 5 5 5 5 5 2 5 5 2 u l.x.x.x.x.i.s.s.x.x.x.x.x.x.x.g.s.x.v.v.v.v.x.f.c.c.z.z.z.x.",
". 7.q.~ U P ' ~ T / Q ( ] ~ B x T W Q E z B c Y ~ ) } 9XsX8X6X0X>.k ! / ` S.G.h ( &.&.S.).A.}.5X1X1X].W &.XXzXlXoXQ ( (.+X+X+X:.P.5X5X6XdX>.G ~.jXcXcX>.! L.jXvXjXG.D.1X6X6X_ L.HXmXvXk f s y.bXmXcXJ d r &.kXbXmX<.K F K J X.X       .   5 M.b.b.b.b.b.BXb.BXb.M.b.g.b.g.g.g.v.v.v.c.v.v.x.x.n.v.c.x.v.x.x.g.j.u.y.%.y.B.B.C.I.H.W.B.O.O.L.^.;.:.I.S.} S.A.:.H.F.qX%.: [ :X( *.}.}.>.C.W.C.F.,X'.G.I.W.G.:.` S.5XG.5X}.B.! t $ # # # 5 5 5 7 8 3 4 4 5 5 5 5 5 2 u x.x.z.x.x.d.s.x.x.x.x.f.x.x.z.c.c.z.v.v.v.v.x.s.v.v.x.s.z.g.",
". tXUXyXyX9XyXyX<X,X2X,X<X<X<X&XU./.U.U.U.&X%XU.U.D.U.rXfX6X6XwXC.P y.A.| ,X}.x &.y.| W.|.C.|.5XoX1X XD T %.&.<.1XF b %.*.>.`.S.G.5X6X5XwX;.j { >.=._.=.x &.%.>.`.I.S.5X6X6X` [ Z.H.S.N x d [ F.F.G.Z x r W /.~./.*., a f x N .           $ M.b.b.b.b.CXb.CXb.b.h.b.M.g.M.g.v.v.v.n.n.v.c.n.c.v.z.v.x.x.v.x.v.j.k.y.y.| V.V.A.D.H.W.:.;.N.F.U.O.N.I.B._ S.C.O.D.S.qXF.: &./.( ) '.[.>.>.T.D.S.}.W.C.I.`.W._ Q S.XX`.0X,X;.x : $ # 5 5 5 5 5 4 7 4 4 5 5 5 5 5 2 2 0.x.x.z.x.x.x.x.x.g.x.x.x.d.x.v.v.v.c.z.c.v.z.g.c.v.z.x.x.x.x.",
". tXJXrX0X0X6X9XqXqX8X7XwX9X9XtXrXrXfXwXtXfXfXfXfXbXbXkXfX6X6X8XB./ 4XkXU.KX5X~ *XkX{.bX6XS.,X6X1X1X5X{ &.jX(.jXvX( W ^.(.F.5XA.G.5XOX5XwXN.A Z.(.:.XX*.A L.H.-.{.I.S. X5X1XH.A.P.F.S.Z.L.V.y.A.N.:.:.J.%.{ %.O.&.&.%.N.q.V.U.X           $ VXb.b.CXb.CXBXn.b.b.M.M.M.g.g.b.M.x.c.v.v.x.z.n.x.x.n.x.v.n.x.x.x.b.k.u.7.y.O.V.Z.C.D.G.;.C.N.Z.W.N.B.I.:.} F.B.O.F.C.1XG.s y.I.*.*.G.`.>.>.G.G.D.}.`.:.G.W.[.*.F C. XW.0X[.{ s $ $ 5 # 5 5 2 5 5 8 4 4 4 5 5 5 5 2 y l.x.z.x.z.x.z.x.x.x.f.x.x.d.d.x.c.v.x.c.v.c.s.x.v.z.v.v.z.v.s.",
". tXbXwX6X X6X5X6X5X6X6X6X6X6X0XwX0X6X0XwX0XtXwX0XqX8XwX8XwX6X6X:.W [.7XH.dX).A /.7X(.xX].S.}.5X X5X3X( &.jX{.XXjXJ ( XX{.{.wX:.F.1X6X5XwX:.! >X7X`.jX>.T XX}.G.wXG.G. XOX1X6X0XtXqX0XrXtXrXtXrXqX2X9XtXqX9X9X,XXX3XqX9X3XrXHX=       .   $ M.b.b.b.b.b.n.CXM.b.M.g.v.g.v.v.g.g.c.x.c.v.x.x.x.n.x.n.x.x.n.x.x.v.j.u.7.y.7.N.Z.N.B.A.-.C.V.D.U.N.V.I.:.O.I.C.&.I.C.}.[.b A.P.B.B.S.T.-.O.I.`.G.,XW.B.W.I.|.C.F >.|.W.2XD.M % $ O 2 2 9 $ # $ 5 7 4 4 5 5 5 5 5 2 u l.d.x.x.x.z.z.x.g.g.x.x.f.x.x.z.x.x.f.x.z.x.g.s.c.c.c.x.f.z.c.",
". rXbXsX5X5XoX5XdX0X6X0X7X6X0XwXwXsXsX8X6X0X0X8X6X8X8X8X8X0X6X6X:.E W.5XH.0XH.n F.8XT.8X].Z.}.oX6XoX XQ ) oX).}.6XQ Q  X'.`.8XS.I.5X6X5XsX>.W {.oXW.wX;.E ^.}.G.wXW.H.5X5X X X5X5X9X6X5X6X0XrXrXrX0X X5X5X0XrX9X5X1X}.5X5XqXbXo       .   $ VXv.h.h.h.M.M.h.b.b.b.v.b.x.g.v.v.v.v.v.g.x.n.x.x.x.x.v.x.v.v.x.x.f.j.k.8.u.&.y.y.V.} } } D.A.Z.U.;.B.F.;.O.D.C.O.W.S.I.}.G Z.N.F.I.H.W.-.=.G.|.H.,X|.C.I.G.~.D.Q C. XW.W.O.f $ $ O 5 9 2 5 5 # 5 4 8 4 5 5 4 4 5 8 i l.d.x.x.x.z.x.g.x.g.x.x.x.v.x.x.v.x.s.f.s.x.f.s.g.x.x.z.v.z.c.",
". rXnXwX0X6X X5X2X0XdX6X7X7X5XqXrXwXsXjX6X6X6X7X6XwX0X0XdX6XdX6X:.W [.0XH.sXH.n F.dXH.sX'.S.}.6X5XoX.XQ { 6X`.}.6XQ Q  X|.[.8XS.G.5X6XoXwX>.W {.oXT.sX:.W [.1XT.sXF.D.1X5XoX X5X0X8X6X6XOX6XsXwXsX6X X6X5X6X6X6XOX X X1X1XrXmX=           # AXv.M.b.h.b.b.b.g.b.g.g.g.g.g.v.v.x.v.x.x.g.z.v.n.x.c.x.n.x.x.x.v.v.f.$Xu.7.y.| 7.N.| Q } D.K.Z.U.O.B.I.;.} D.C.} D.S.D.,X| F.;.I.W.C.G.-._ H.|.D.}.[.B.I.~.H.S.Q G.0X,XN.E % $ # # 5 5 # # 5 5 5 4 4 4 4 5 3 y 2 8 l.d.x.x.x.i.z.z.s.x.x.x.x.f.x.x.x.x.x.x.x.x.g.x.x.x.g.g.c.z.z.c.",
". wXbXdX+XOXoX.X6XdXdXOXOXOX+XzX6XdXdXOX6XOX+X+X8X8X0X6X6X0X6X6X;.G _.+XG.jXT.A Z.8XH.8X_.S.,XOXOX1X XQ _ 5XT.].6XF Q  X`._.8XA.G.5XoX5XwX>.G {.].T.xX:.D {.+XH.sXG.F.9X5X5X X5X0XwX6X5X6X6XdXwXwX6XOX+X6X6X6X6X6X X6X5X5X0XmX=   .       $ AXh.h.h.h.b.b.b.M.x.g.g.g.g.v.v.v.x.v.x.x.v.x.v.v.v.c.v.v.x.v.x.x.v.v.h.j.8.8.7.| V.| ^ { K.B.C.U.;.D.W.;.O.Z.B._ D.C.B.5XA.I.O.F.[.:.G.-.X.S.T.S.`.`.B.I.~.:.C.~ W.dX&X^ f $ # # 5 5 5 5 5 5 # $ 5 8 4 5 5 2 y 2 u l.d.s.x.z.z.x.z.x.x.x.x.x.g.x.x.x.s.g.x.x.f.s.g.x.f.x.x.c.v.c.c.",
". jXmXcXdXzX+X+XdX8X8X+XzXzX+XzXcXcXcXzXdXdXzXzX8XcXdX6X0XdX5XoX1.F ].dXT.dX<.K H.cXH.xX`.D.}.oX5XOX XF *.dX_.XXOXF J oX_._.8X<.G.5X5X5X7X-.D {.+XT.xX:.D ].].T.sXG.D.9X5X}.].OX8X6XOX1XoX6X8XwX8X6XoX8X6X5X6XwX1X.X X5X5X5XmXo           5 M.b.b.M.h.b.g.M.v.g.x.g.g.x.v.x.v.v.v.v.v.x.n.x.v.x.x.z.x.x.v.v.x.x.v.f.$Xk.y.7.7.| N.) ) A.;.V.F.N.F.[.>.} F.N._ H.S.:.5X[.D._ I.`.:.H.-._ S.`.B.I.[.:.G.`.;.C.) W.fXC.V $ # # O 5 5 5 # 5 5 5 5 5 5 5 4 5 8 y 2 0.d.x.s.x.x.x.x.x.s.x.x.x.x.x.x.x.s.x.x.s.x.x.s.x.v.x.x.s.z.c.c.c.",
". H._.1.=.1.1.*.*.>.1.=.1.<.1.1.<.<.<.<._.@X<.<.(._.).oXsXwX6X5X>.g >.<.=._.H.a &.).=._.`.B.}.5X1X6X XV S S.=.<.+XG S <.1.<.oXA.I.5X5X1X0X;.D G._.<.7X:.Z ).].H.8XH.S.5X5X.X].zXcXzXOXzXdXdXzXcXcXzX+XzXdXzXcXzX+X@XOXcXoXjXmXo           $ M.b.M.h.h.v.M.g.M.x.g.x.g.g.x.g.x.x.x.v.x.v.x.v.v.x.v.x.x.x.g.g.x.x.v.x.h.j.u.7.[ y.N.| | } O.L.P.;.D.[.;.O.Z.N.@.K.S.B.9X,X;._ I.|.G.W.O.J <.I.A.|.5XB.D.`.:.:.O.U.W.] 0 $ $ # # 3 5 5 # 5 5 $ 5 5 2 2 e y y y y 6.x.z.d.x.x.s.x.x.x.x.x.x.x.x.x.x.x.s.s.x.x.s.x.x.z.f.z.c.z.v.c.v.",
". D F a , , a , A :.S.H.K < , , l < 1 K < l < S l l F 1X6X6XoX6X-.- k S l <.H.: j S l &.`.A.,X6X5X X6Xl f ` Q ` '.V * j l S F.F.I.1X5X5XwXO.% S K S H.:., Z F G ).G.G.oX6XoX1.=.<.<.<.<.@X<.<.).3.<.<.+X_.<.<._.<.<._.+X@X+XcXX       .   5 AXb.h.M.M.g.h.v.v.g.v.v.g.x.g.g.v.v.v.c.x.z.x.x.v.x.n.x.x.z.x.v.v.g.x.s.j.h.j.8.8.| %.y.O.| { A.P.;.D.W.-.| A.O.} G.S.:.vXrX;.) G.`.`.}.O.J :.G.:.[.6XC.C.}.B.} O.N.;.k $ $ 5 5 5 8 5 5 5 # 5 $ 2 5 e e $ 2 y 8 u i.x.d.x.d.g.g.x.x.x.x.x.x.x.s.x.x.g.x.x.s.x.x.x.x.x.x.v.z.c.c.c.v.",
"  [ | U b N P p ! >X,X6XJ & * s A l < A , & & v a f ~ 9XwX8X5X5X>.v n l k F.G.a h b j :.`.D.,X5X1X1X XD Y I.{.`. XS * f < b (.F.I.9X5X5XsX;.- p a , S.N.s N Z ) [.G.D.5X5XdXJ n &.=.J 1 K < S S S J J J S < S < J K K J J ` =.X           # AXb.v.g.M.b.v.M.v.v.g.x.x.x.g.g.x.v.c.v.z.g.x.x.x.v.v.x.g.s.x.x.x.x.x.g.f.g.h.u.[ &.} | O.| ~ ;.D.;.U.[.O._ B.O._ F.C.B.vXJXC._ G.G.H.}.-.F :.G.B.T.}.C.S.[.B.} } / n & * $ $ $ 3 7 5 5 # 5 # 2 $ 2 O y 2 y y 2 0.i.x.x.s.g.x.s.x.x.x.d.x.x.x.x.x.g.x.s.x.x.v.s.x.x.v.z.c.c.v.z.v.c.",
". 4XtX&X[.[.<X' W ~.].+XJ & & s T j j W a & % T ' ' V.9XwX6X2X5XO.N v v h D.G.h b b s N.I.S.,X5X6X1X XG ( [. XoXoXn * s l A F.F.G.6X6X6XsX-.d x h j G.:.Z y.W.[.0XG.S.5X6X6X) ) |.'.).< j , Z < a %.F < , A d p V.Q & & & l V .           $ VXv.b.M.g.g.v.v.v.v.g.M.g.g.x.v.g.v.n.z.g.z.g.x.v.c.g.g.x.g.f.g.x.x.x.g.v.b.h.k.u.6.[ } &.| ) { %.O.I.W.} ) B.] } H.B.B.9XJXH.} F.D.>.W.:.H O.T.A.D.[.:.C.'.C.O.] Z 0 $ $ 5 5 9 3 7 # # 5 # $ # 2 $ 2 e y 2 y u l.x.x.x.s.x.x.x.x.x.x.x.x.x.x.x.x.x.x.x.x.x.x.g.s.v.v.v.c.c.z.v.z.v.",
". DXKXtXrXqXkX%.G ~.].oXJ & * s m b c ( , & % [ >X>X[.qXwXwX6X0X,.v x N d D.G.d b b s A.I.S.}.5X5X5X}.D ( (.].+X+Xn @ f a b D.F.G.5X6X6XdX>.j z z h P.:.b A.oX+X5XG.S.1X6XsX( ] oX].T.a a j Y s f A.Q k f n v s A.L.| | ] y.V.X           $ VXb.M.g.g.g.v.v.v.x.v.f.f.v.v.v.c.c.v.c.z.g.g.v.v.x.g.g.x.f.z.v.x.x.v.g.z.v.b.h.k.7.[ { %.| } { ) ) I.U.O.} B.} ` D.C.B.'.HXF.} F.A.;.H.-.H -.S.B.I.[.,.T.W.>.O.E 0 & $ # 5 5 5 3 3 # # 5 # # 2 2 O 5 y y y y u i.d.x.x.i.x.x.x.x.x.x.x.x.x.z.x.v.x.x.x.s.x.x.z.c.v.v.c.c.c.g.g.g.g.",
". tXbXqX0X7XcX>.A A.1.<.G & % w j r r A p & $ ( Z.S.S.5XjXwX0X6X>.a z x s V.G.f z z s N.`.A.}.5X6X5X XG W H.)._.OXS $ s h k D.D.F.5X6X6X8X;.a s s s P.B.b %.].].OXH.S.1X6X0X` ` XX@X_.g a , T h f A.( a f A h r %.qXtXtXyXtXHXo           $ AXb.h.M.v.M.b.v.v.M.v.v.v.v.v.c.v.v.c.c.x.g.g.x.s.g.x.s.x.g.v.v.n.x.g.x.z.v.v.j.j.u.[ [ ;.O.| _ ` ` O.S.} ;.B.} ) S.B.B.W.wXS.O.G.S.O.D.:.` -.C.;.D.[.-.H.[.O.~ v & # # # 5 # 5 4 # 5 # 9 5 O 9 O O O 4 2 y u l.d.x.x.i.x.x.x.x.x.x.m.x.x.x.x.x.x.x.x.x.x.x.v.x.c.c.c.g.v.g.g.g.g.b.",
". fXbX0X9X6XxX:.A N.S.<.S & % e P Z Z Z & % $ / Z.H.H.5XwXwX0X8X>.f Y [ ( D.H.f P [ [ A.W.S.,X5X5XoX5Xl A *.1.S..Xn * h v b D.F.I.5X7X5XsXO.w z c x F.>.j / >.<.'.G.D.5X6XwX( F H.<.1.< f w c s p ) F a f x s w { 3XtXqXtXvXJXo       .   $ M.v.v.h.h.v.v.v.v.v.v.v.v.v.v.c.v.c.v.n.x.g.x.s.s.v.v.s.g.s.v.x.v.x.x.v.x.v.f.j.j.j.y.| ;.>.O.} _ ` _ O.) } B.} ) A.B.B.W.,XC.B.W.I.:.C.C.` ;.C.;.C.W.O.;.W.E v 0 # # 5 5 # 5 5 7 5 # 5 # # O O O 2 O 2 y y i d.x.x.i.x.z.z.x.x.i.x.x.z.m.z.x.z.x.x.s.x.x.s.x.z.z.c.n.c.x.v.x.g.g.g.",
". wXmXdX8X6XcX>.W /.].].J * % r N.I.[.>.% : % %.{.XX].XXqXwX6XwX>.N } ^.~.}.S.k y.[.<X1XI.D.3X5XoX5XoXS W /.].]..Xn $ j b n F.H.F.9X5X6XwX-.h y.U.D.>X-.x { G.G.].I.S.5X6X8X) E S.<.;.a a w Y } ] | l d : c / ! ) I.wXwXwXwXmXo   .       # AXb.M.v.g.M.v.v.v.v.v.v.c.c.n.v.v.v.v.c.g.g.x.x.v.s.g.g.x.v.v.v.x.v.x.g.g.x.f.h.j.$Xu.y.D.C.-.*.&._ O.) Q _ N._ Q C.B.:.D.`.C.S.}.`.;.:.:.` -.H.:.A.I.} ^ | g 7 3 * # # # 5 5 7 5 2 # $ 9 # O 2 O O 2 2 2 u l.d.x.d.x.x.z.z.x.x.x.x.m.x.x.z.z.z.z.x.x.x.s.x.s.v.c.c.v.f.g.g.v.g.g.g.",
". 8XcX+X+X+XzX>.( ~.].+XH * $ z Z.XX1X<.& % 6 %.].].].oXwXwX6XwX-.n -.).`.].S.b %.|.XX+X(.H.3X9XoX X XG ( ~.XX].+Xn * j k j S.S.S.6X6X5XsX-.m N.XXXX5X>.n N.}.oX5XW.S.3X5XwX` | }.XXT.g d w &.>X1X|.V a p ! {.,X}.|.dXdX8X8XmXo           $ AXv.h.M.v.h.b.v.v.v.v.c.v.c.x.n.x.x.v.x.v.z.v.v.x.v.x.s.v.c.v.v.v.x.x.f.g.c.f.v.h.j.%XL.*X`.>.-.-.O._ ) ^ ) { Q Q S.B.;.C.G.>.D.W.`.;.-.;.) O.H.;.C.Z.] D N 0 $ $ 5 5 # 5 # 5 5 5 # # 2 O O O O 2 O 2 2 8 i d.x.x.x.z.z.x.x.z.z.z.x.x.x.n.z.z.z.z.x.x.x.x.x.c.c.c.c.c.f.g.f.b.g.b.M.",
". >.1.=.J J =.G ( ~.].+XF & % x A.XX+X1., 6 7 ;.].oX].6XsX0X6X0X:.n %.].].+XS.n ;.].].+XG.S.3X5X1X1X XG ( ~.+X].+Xn @ : : : :.S.S.6X5XOXwX*.n V.{.].6X-.A y.].].+XG.D.,X5XwX` _ }._.W.a f : { {.].].K a p ! [.}.].].zXcXcXcXmXo       .   $ M.v.g.g.v.v.v.b.v.v.v.v.c.v.n.v.v.v.c.v.v.v.z.v.c.g.x.g.v.f.s.v.v.v.v.x.v.v.g.v.g.j.j.U.rXxX:.-.;.O.O.@.` ) ~ F W B.:.;.C.C.>.H.W.`.O.} -.F } S.&.| ] ~ v 0 & # $ $ # 5 # 5 # # # O O O 2 O O 9 O 2 2 2 u l.d.d.x.z.x.x.x.x.x.x.z.x.x.x.z.z.c.z.x.x.d.x.s.x.c.v.c.c.v.v.g.g.h.b.h.h.",
". Z S a w 0 g f E N.:.<.V 7 3 z &.A.S.O.& 6 7 / 1.>.:.1XwX0X6XwX;.g { :.<.`.C.v { G.H.].W.S.}.5X5X X}.V W S.).T.+Xn @ % % $ V.D.S. X6X6XcX=.A V.]._.oX>.M :.].]. XH.S.3X9XwX` } ].]._.a j f { ].].].G d p ( [.].@X=.1.1.=.1.<.X           $ M.h.h.v.v.g.g.v.v.v.v.v.v.v.v.x.v.x.z.v.c.v.v.v.g.g.v.s.v.v.v.v.f.c.v.v.v.x.v.v.h.b.j.:XHXJX=.` >.O.O.} ` ) ) E F ` } %.B.;.O.C.G.S.} ` _ G ^ ;./ E M d p 6 & 3 # 5 # 5 5 # # # O O O O O O O 2 2 2 2 y 6.i.x.d.d.x.x.x.x.x.z.x.x.x.x.x.m.x.z.z.z.z.x.s.x.x.c.n.v.v.b.g.g.g.h.h.h.BX",
"  7.q.~ U E ] W ~ { ) _ ' ] ' ~ ) ) _ | ] 8.U ' ) ` } }.wX6X6X0XB.x / ) W G.U.d T } Q H.`.A.}.5X X X}.k x Q J ` }.V $ t 0 6 V.D.D.5X5X6X8XO.d / *.X.'.;.d / =.>.T.G.F.5X6XwXQ D >.1.O.f d f T F.T.C.n g 7 Y H.H.(.K < a < l l X         . $ CXg.M.h.g.M.g.v.v.v.v.v.c.v.v.x.n.v.n.x.n.x.x.v.x.v.g.v.v.v.v.v.c.v.c.c.v.v.g.g.v.b.j.:XJXLX` H B.>.>.-.} ` ( F V E Q _ O.} _ ;.-.O.^ ) ( E D Q n B f w 0 7 6 5 6 # # # # 7 t $ O O O O O O O O O 9 2 u l.x.i.x.d.x.z.z.z.z.z.z.d.z.x.x.x.z.c.z.z.z.x.x.x.s.c.v.c.f.v.b.h.h.b.b.-Xb.",
". tXHX<XyXyX<X,X<X,X.X,X<X2XyX9X,X1X<X9XtXtX4X2X9X9X9X0X6X5X5XwXH.] *X2XP.bX}.W L.yXD.vX}.S.1X5X5X X[.n ' `.>.S.oXQ P J.V.| [.C.S.5X5X2XdX-.v N.:.` [.;.h | } ` G.G.S.3X9X0X;.~ [ ) ] ' | U P ] ^ Q ~ ' P P ~ Q F U E E ! ~ ] X           # VXb.M.b.b.v.b.g.v.v.v.v.c.v.v.v.v.v.v.z.v.v.v.c.v.x.c.v.v.v.v.v.g.g.g.g.x.x.x.g.g.b.d.:XKXmX` K } :.:.;.&._ ` E D F F / _ _ ) O.` Q G V n n k v d f f f r 7 6 % 3 % $ $ $ c L t 5 O O O 2 O O O O 2 2 u l.i.i.i.i.d.s.c.z.s.v.z.s.x.z.x.x.v.z.x.x.x.x.f.v.z.v.n.f.v.b.g.h.h.b.-X-XCX",
". UXKXrXrXrX0X8XrXwXwXwX0X0X0XfXrXfXtXrXtXrXrXwXrXtXfX0X0X8X0XwXH.[ 4XqX`.bX).Q >XbX}.mX}.C.1X5X5X1X}.M ;.0XW.].6X] ~ 4X<XU.5XB.F.5X5X6XsX;.E <X1XG.wX:.Y [.,XW.0XG.D.XX5X5X1X4X4X5X<X9X2XyX<X<X>X[.<X2XyX<X[.[.[.>X<XyX<XyXHXX       .   $ CXh.b.h.M.g.v.v.v.v.v.z.z.n.n.x.x.n.v.s.s.v.x.g.v.v.f.v.v.f.c.v.s.v.g.s.g.g.g.g.f.g.j.:XJXbXX.F J O.B.:.>.O._ Q D D Q Q ) ) / ] ( F D v j d a a B d z s s 7 6 % $ % % % r T T c e # O O O O O O $ 2 2 u 6.i.i.i.x.x.z.c.c.z.v.s.g.x.z.x.c.z.c.z.x.x.x.g.s.x.v.v.c.c.n.b.BXh.h.CX#XCX",
". tXHXqX9X5X5XoX6X6X5X6X5X5X0X0XwX0X0X6X5XwX0X0X0XwX0X0X0XwX6XwXG.Q [.oXG.8XS.Z I.0XW.8X`.S.,X5X X1X}.D | 5X).}.0X) / 1X'.).6X<.F.1X6X1XdX;.W 4X1X`.wX>.Y [.7X).sXG.S.5X6X1X5XqX0XtX0X0X0XsXrXrXrX0X5X9X6X0XwX0X0X5X5X9X1XrXHX=           $ VXM.b.M.b.v.v.v.g.v.v.v.c.x.v.c.x.v.v.f.c.v.g.v.v.f.v.c.v.c.v.c.f.v.g.g.g.g.x.f.f.g.j.:XKXsX` _ D F O.C.;.;.} ^ D G ~ Q / ^ Q ^ ^ ( Q D v b h p d f z s 7 r e w e $ f M N [ ' c t 5 O O 2 O O O 2 $ 2 u l.i.i.d.d.d.c.s.z.v.z.z.f.z.x.z.s.c.z.z.s.x.s.g.g.x.c.v.b.b.b.b.CXb.M.-XCX-X",
". kXKX8X6X6X1X5X0X8X5X5X5X6X0X0XdXwXwX8X6XwX6XwXwX0X0XwX0XwX6XsXF.( {.OXT.wX<.A I.0X).jXW.S.5X0XoX5X,XD &.0XT.}.0X) / }.W.T.6XC.F.6X6X6XsX>.E ,X5X].wX>.W [.6XG.xXG.G.5X5X5X5X5X6X0X6X9X6X0XwX0XqXqX9X5X6X6X0XwX0X1X5X5X5XqXmXo   .       O AXv.b.b.b.M.v.v.v.v.v.c.v.v.v.c.c.v.v.f.v.f.s.v.v.c.v.f.f.c.f.v.f.f.v.v.x.g.x.j.j.s.l.%XHX5XX.>.n l O.I.:.-.@.D n V E E D E W Q Q Q Q E V D b % 6 6 0 z e r w w w $ x B./ | ' c t # O O O O O 2 2 2 2 0.l.i.d.d.x.x.f.s.z.v.v.z.v.z.g.x.x.s.z.g.g.x.x.g.x.g.c.n.j.b.b.b.h.-X-X-Xh.CX",
". rXJX8X6X6XoX5XwX8X6X+X8X6X+XjX0XwXwX8X7X7X8X7XwXwXwX6X0XwX6XwXS.( [.oXW.jX<.A ^.8X).jXW.A.5X5XoX6X}.D } 5X).}.8X) ( ,X'.W.0XB.I.5X7X6XwX:.E ,XoX|.sX;.E {.6X).xXI.G.5X7X5X5X7XwXqXqXqX0X6X0XsXwXqX9X9X9X0XwXqX9X5X5X5X7XjXmXo       .   $ CXn.M.h.v.b.b.g.v.v.v.c.v.v.c.v.c.v.f.v.v.v.f.v.n.c.v.f.v.f.c.f.v.v.v.v.x.x.j.j.j.d.l.L.kX,X-.S.G : ~ D.C.-.X.Q n k M D N v n D E V V E N M v * $ % r z z r t w r : n I.} y.[ c e $ O O 2 O O 2 e O 2 i l.x.x.x.z.z.s.s.f.x.z.v.z.z.z.x.v.z.z.s.g.x.v.f.g.g.c.n.g.h.b.b.-Xh.#X-X-X-X",
". fXbXzX8X8XoX XOX8X8X8X8XOX7XOX8XdXdX8X8X8XOX8X8X8X8XwX0XwXwX8X>.F XXoX).xX:.A ~.8X).cXW.Z.5X5X5X5X}.D *.6XT.].8X` ) oX_.`.6XC.F.5X6X5XfX;.F }.OX`.jX:.Y {.6X).sXG.D.5XqX3X5X5X7X5XqX5X6XdX0XwX8X6X5X6X6X6XwXwX6X5X5X8X5XvXJX=           $ VXb.h.v.b.v.v.v.v.g.c.v.f.g.n.v.c.v.f.v.v.b.v.b.b.b.v.v.v.v.f.f.v.v.v.v.v.g.x.d.g.h.j.%XkX{.O.D.F : f | A.B.O.) Q N M G n v n M E M n M N v v $ # $ 7 s c r r j : : W |.S.| [ c r O O O O 2 O 2 O O y u.d.x.d.x.x.s.v.s.s.v.f.s.c.v.z.s.c.x.v.x.z.s.f.f.v.v.b.j.h.#X-Xb.h.-X#X-X-X=X",
". 8XmXzXzX+X+X_.+XoX+XoX+X+X+X+X+XoX].+XpXzX+X.XXX+X X6XwXwX6XdX>.G ~._.1.oX<.l S.].1.OX'.D.5X5XoX5X}.G ` +XH._.+XF J +X'.).8X<.H.oX5X6XwX>.Q oXOXXXjX>.Q oXjX_.bXG.D.4X5X5X+XjX8X8X+X5XdXOX8XsXcX8XoXoXoXOX+X8XOX X}.5X6XxXnXo           5 AXg.h.h.h.v.v.g.g.v.v.c.f.v.v.v.v.v.v.v.v.v.v.c.b.c.c.c.v.c.v.v.v.v.v.x.g.g.g.v.g.h.j.%XtXW.X.S.( > : N ;.D.>._ Q b N W M k N Z Y Z M M N v U 6 # $ 6 r c c j r r G ( }.|.%.&.x y $ O O O O O 2 O O y l.d.d.i.z.x.d.g.s.z.z.z.x.z.c.z.f.g.z.x.z.g.s.s.g.v.g.b.h.b.h.b.-XCX#XBX#X-X-X",
". 1.<.1.=.1.=.J X.=.=.=.=.=.J F =.=.=. .=.=.F ` >.=.>.5X0X0X6XwX-., G F K S.<.& n F l 1.[.A.9X5XoX5XoXj , J K ` ].G , X.J J _.<.G.XX7X6XfX>.a >.1.=.+X>.k :.<.X.].`.D.,XoXXX].oXoXOX+XcXcXOXcXdXdX+X+XcX8XcXcXdX8XOX8XxXOXcXmX@           # CXg.h.M.h.h.g.v.v.v.f.c.v.v.v.v.g.g.g.b.v.g.b.n.c.b.n.b.c.c.v.v.v.v.v.v.v.v.g.g.v.g.j.%X9XI.-.G.) , & w Y C.C.O.( v b V D v M Z D D M E M b ~ f + # 7 r c c r t A &.Q |.8Xy.&.c y O O O O 2 O 2 2 2 y 6.d.x.z.x.d.x.v.s.x.g.c.f.v.z.v.z.z.v.g.x.s.g.s.g.g.g.b.h.h.-X#XCX#XBX#X-X-X-X",
". M G a a g N , Q S.B.<.S < , , ;.H.H.J , , $ ( F.S.S.5XwX6X6X0X-.f W -.>.W.:.: x E Z ;.[.A.3X5X6XoX}.g : a < j `.G * a g , S.G.H.3X6X6XsX;.: A _ Q `.-.% Z _ J <.`.D.}.7X8X` l J *.K J =.J A J J J *.=.*.K *.*.*.*.<.1.<.<.@XX           $ AXg.v.h.b.b.h.g.v.b.g.v.b.v.v.v.v.v.v.v.g.v.g.v.v.v.v.v.v.v.b.b.v.v.v.v.v.b.g.b.v.h.j.L.<XS.B.'.O., : % w ( &.) ~ v v V D N M Z E D n D E x E v # # $ r j c c j &.A.Q S.qXA.| c r 5 O O O O O 2 4 2 y i x.x.x.x.i.x.x.x.x.x.c.c.z.c.z.v.x.c.f.g.z.g.f.g.g.b.b.h.BXBXh.CXh.-X-X-X-X-X",
". 7.q.' ~ ' ] d } 4X}.].H l j h P.XXoX1.> * % %.{.XX|.7XwX6X6X0XO.n N.|.].OX:.j [ U.^.{.`.S.}.1X1X X].k d h j x W.~ % z f f Z.G.P.5XoXOXxX;.k N.|.`.6XO.v &._.]. XG.D.}.5XwX` k y.(.A., , , j ! N.:.S < > , *.<.1.S a a h l l X       .   5 M.v.v.b.h.g.g.b.g.g.b.f.g.v.b.v.v.h.v.b.v.b.v.b.v.b.g.v.v.g.g.b.b.v.v.f.f.g.v.b.g.b.j.j.K.C.G.[.-.- $ e w h A n V n d n D b M D E D n D Y b M m # + 2 y c c c m &./.( -.3XK.| c 7 # O O 2 9 O 5 4 O 2 6.x.x.x.i.x.x.x.d.x.d.c.c.c.z.s.c.z.g.g.z.g.s.g.g.b.h.b.CXb.CXCX#X-X-XM.-Xh.-X",
". tXHXyXyX,X9X/ | XX]._.F l a j A.].@X=.> % $ &.{.].`.8XsX0XwXdX-.n N.].].+X1.x &.>X3X5X`.S.,XoX6X1X|.k x b b m [.Q p P Y Z F.I.F.1X6XOXsX;.M y.|.|.6XO.b %.].]. XG.S.3X5X0X_ W /.3X].j , f P y.^./.A k , A N.~.XX*.A Y P ~ / X           $ M.b.b.b.b.g.h.M.v.g.g.v.v.g.v.v.b.v.v.v.v.v.b.v.f.b.g.b.v.g.g.g.v.g.v.v.g.v.v.v.v.b.$XL.N.>.|.W.;.p $ w c b l k M v a n D n n Z E Q V D D n n Y % + $ : c A T A ! /.) ) ,XL.| z 6 O O 2 # O O 5 5 O 2 6.l.i.i.x.x.x.x.x.x.x.z.c.z.c.v.g.z.x.s.g.x.g.g.g.h.h.b.b.#XBXBXBXh.-X-Xh.h.h.",
". rXKXfXrXwXfX} ` XX].+XJ k j h Z.]._.1., % % &.]._.`.6XqX0X6X8X=.n ;.`._.oX<.x &.~.].XXI.D.5X5XoXoX|.l Y V.H.D. XQ N V.[.~.|.C.H. X6XOXdX:.m N.{.].+X` A :._.@XXXH.S.3X,X0X) W /.jX].l , a b &.~.G.l j : : &.A.<.(.<X<X<XyXHXX           # VXv.b.b.b.g.g.b.v.g.g.v.g.v.h.v.v.v.v.b.v.v.v.b.f.v.v.b.v.M.b.g.v.v.v.v.g.f.b.v.g.g.h.k.| -.W.S.@., $ c L.L.D a n N a v N n v N E Q A k D M v Z w + O 4 c c A j A /.( ~ >XD.[ z 3 # + 5 5 + O 5 2 2 2 l.l.i.d.x.x.i.d.i.x.x.z.c.f.c.z.z.z.x.x.x.x.g.g.b.b.b.b.BXb.#XBXCX-Xh.h.h.h.h.",
". fXJX9X6X6XsX-.Z S.<.<.S , a r &.>.:.` & % $ ( >.>.:.7XwXwX0XwX*.j *.:.:._.A.s Q >.<._.W.F.1X6X6X5X].k P >.<.S. XQ x %.S.S.].H.F.1X6X6XxX-.h &.<.<.XX=.h &.<.H._.G.S.3X3X5X` D %.(.(.j : w x &.A.S.k a w s ( *.*.|.vXqXtXbXKX=       .   5 AXg.v.b.b.g.v.v.b.v.v.b.b.v.b.v.g.v.v.g.v.b.v.v.g.b.M.g.g.g.g.g.g.h.g.v.g.v.v.g.v.g.j.$XV.:.~.:.` , $ Y kXkX_ f g n k k D D N E W Q Q k D E k n p @ O 3 r j x r T >XQ ! I.Z.' z 3 O + e O O O 4 5 2 y l.i.i.z.z.z.x.x.x.z.g.x.c.f.c.c.g.f.v.v.v.g.x.g.h.h.h.b.-Xh.-Xb.BXBXh.b.h.h.g.",
". rXmXwX6X6XdX&.W F.S.H.l - : x y.A.(.` & % 3 / S.(.H.5XwXqX8X8X>.x &.H.(._.:.j Q :.1.(.`.S. X6X5X6X].h Z ;.S.1..XQ h &.:.1.'.D.F.1X6X6XvX-.j / >.-.`.O.f / -.=.G.G.C.}.3X8X) v &.>.&.< j : r T &.*.l k : : b F J I.qX7X1XfXbXo           # M.g.b.b.b.g.b.g.v.b.v.b.v.b.b.v.v.v.v.v.b.g.v.f.v.v.v.g.g.v.g.M.g.x.v.v.g.b.g.g.h.g.j.%XL.S.`.S.@.g % ! KXIXD., a D n n Q / ! | } &.} D ~ Q n n d $ $ $ 3 $ r r W *XW ) *XU.~ s e # O 2 2 O O 2 2 O 8 l.i.i.z.z.z.d.x.x.x.x.c.c.s.c.c.c.v.g.v.g.v.g.v.g.g.h.CXh.h.h.b.BXBXh.-Xh.h.g.",
". vXmXOXOX+XcX>./ 3X}.3Xb % $ c P.3XoX>.& % e y.XXXX].6XwXwX6XdX-.A :.XXXX5X:.b &.).].XXW.S. X5X5X6X'.l / I.}.|.oX^ Z Z.].].].S.G.5X6X6XxX-.b %._.XXXX-.b N.].].}.G.S.<X3X6X) ! /.lX/.< j r c &.F.<.l d % p Z _ ) I.wX8X7XxXmX=       .   $ VXb.g.b.v.h.b.v.b.v.b.b.v.v.v.v.g.b.b.v.g.g.g.v.b.v.M.g.M.g.g.g.g.g.b.v.f.g.g.g.g.g.j.%XU.D.`.C.>.V h | HXPXW.n n ~ M l n E ~ [ %.N.S.| | _ D n N & $ $ O $ e r T /.W { ^.D.~ s e # O e O O O O e 2 u l.z.i.z.z.z.z.x.x.x.x.c.c.f.n.c.v.v.v.g.g.v.v.b.h.g.g.h.b.h.M.h.BXb.BXh.h.h.g.",
". ~.XX<.<.<.).Q / XXXXXXn : w m P.XXoX>.- % w N.XX]._.7XsXwX6XsX-.A :.].].OX:.l -.].].oX(.S. X1X6X6X].N / (.oX].+X` Z S.oX.X].C.G. X6X5XsX>.b A.]._.XX*.l B.].].].H.S.,X5X6X{ ! /.lXXXj < r P %.(.(.l k p f F *.-._.8X8XOXxXmXo           # VXv.v.v.b.v.v.v.v.v.b.v.v.v.g.b.b.v.b.v.v.b.v.v.v.v.g.g.g.g.g.M.h.x.b.b.j.g.b.b.b.h.j.j.%XB.<.:.1.F v ~ :XrXF.G ~ ;.E n - 6 w z ! &.;.} ] | ( D K a : $ + O : : Z A.Z &.U.Z.P f 6 O O e : O 2 e 2 2 u l.z.z.z.m.z.x.x.x.d.x.v.f.v.f.v.c.c.v.g.v.v.g.h.b.g.h.BXh.h.h.h.BXb.h.b.g.h.g.",
"  F D a , , a : / /.|.|.b d s x Z.{.].;.& 7 w y._._.`.8XsXwXwXsX-.A B.].}.oX:.k ;.|.oXoXI.S.}.6X6X2X].l ( (..X]..XF Z F.].].].C.F.5XoX5XxX>.b B.XX].OX-.A A.@X+XXXH.D.5X5X0XO.! /.jX{.< d f P ;._.H.n g p h W *.=.1._._.).].dXo           5 VXv.b.g.v.b.b.b.v.b.b.b.v.b.v.b.v.g.b.v.v.b.v.v.v.h.g.M.x.M.g.M.h.M.v.b.g.g.h.h.h.M.j.%XL.A.C.S.H.F a h W V.;.V W %.( F : + O $ m ( / Q Z [ } Q F n f $ @ # $ $ m %.b y.[.%.b r 6 # O e 5 O 5 4 4 8 u l.d.x.z.s.z.x.z.z.c.f.f.v.v.f.f.f.f.j.v.v.c.g.g.g.h.h.b.h.h.h.b.b.b.h.j.b.b.c.",
". | ] V B N P z Y { ) _ M P m x ! { *.~ z f 7 ~ *.=.-.5XwXsX0XwX-.j ~ } *.W.C.d W ;.-.H.I.D.oX6X6X6X].k Z *.1.:.].Q v ) <.:.).S.H.5X5X5XxXO.h { <.1.|.>.x *.H.H._.W.F.,X9XrX| P y.F.A.f d p P | :.;.n x r c ~ _ -.K S K K F J .           # M.g.v.v.b.v.v.b.c.v.v.b.v.v.g.v.b.g.v.v.b.v.g.v.v.v.g.g.h.g.g.g.x.h.b.b.b.g.h.h.h.h.j.$XL.A.F.F.W._ f & w E { n h / { &.x $ $ : c W Q E x / A._ _ G b w w w : : W A.n ;.4XV.x w 3 O $ e $ O O 8 4 2 i a.d.z.z.z.z.x.x.f.s.c.c.v.c.s.f.c.b.c.c.j.g.b.b.g.g.h.g.b.g.h.b.b.j.c.b.b.b.c.",
". tXUX9X4X<XyX<X^.I.I.U.U.<XU.U.D.C.C.Z.K.J.7.y.N.;.:.9XqXwXwXwX:.P y.;.O.1X[.N | B.) {.[.D. X6X5X5X}.d Z ;.` -.6X] N V.} ` |.S.H.oX5X6XdX-.d | ` F [.;.f W Q G D.D.H.2X5XwX} N Y E E P E P P T D Y M U z B M U Z n V N N Z U .       .   5 n.v.b.v.b.b.v.b.v.b.b.v.v.g.g.b.g.g.v.b.v.b.v.v.h.g.g.h.h.h.M.M.g.g.g.b.M.j.v.h.h.h.h.$XL.L.G.S.'.;.a 6 j ( { b , Z ) %.m : $ $ j T ( Y j [ F.` -.) W Z [ y.y.( y./.n ` >XK.N w 7 # $ y $ O 5 4 y 2 i d.x.d.x.g.z.z.x.f.f.c.f.v.c.f.f.c.v.b.c.j.g.g.g.g.g.g.v.g.g.h.b.f.f.j.c.n.b.j.",
". UXKXrX0X0X0XqXbXrXvXrXrXfXfXDXDXrXbXvXfXHXDXbXvXkXfXwXqXwXwXxXS.} tXfX,XmX|./ <XbX[.mX|.A.}.5X5XoX].A | 6X`.}.bXB.%.tX0X}.JXH.G.1X5X6XsX:.W 9X5X~.fXB.~ <X,XH.fXI.F.3X5XwXrXtX9X9XyXtXyX<X*X<X{.^.<X2X%XL.J.V.N.J.K.K.U.&X<Xo           $ VXv.b.g.g.g.b.b.b.v.b.v.g.v.v.b.M.v.b.v.g.b.b.v.b.h.g.M.h.h.h.h.h.h.h.g.h.v.h.h.h.h.h.$X%X/.D.;.W.>.f w / /.;.b : n ) N.Z : 3 $ t Z ! Z j &.F._ >.O.-.W ' y.u.y.>X4XQ Q D.U.M e 7 $ 5 e O O 2 8 2 8 6.d.x.x.s.x.d.z.z.c.c.f.c.c.f.v.c.v.f.c.n.g.b.h.g.v.v.g.g.v.g.v.g.g.v.v.j.b.b.h.",
". rXHX0X0X6X5X5X0X8X6X9X5X6X0X0X6X6X0X6X6XwX0XrXrXrXwX0X8XwXdXsX>.) ,X5XT.xX|./ ^.kX(.cXW.S.5X5X3XXX|.Z N.0XT.}.vX*.| qX1X}.bXD.D.1X5X6XfX:.~ 4X X`.vX:.( >X3X`.sXG.D.5X9X8XjXbXHXbXbXrXrXrXfXrXvXrXvXfXrXrXrXrXtXtXtXrXtXbXKX=           5 M.v.b.g.h.v.b.b.v.b.v.b.b.v.b.b.v.v.b.v.g.b.b.b.b.b.h.M.h.M.h.h.h.h.M.h.h.g.h.h.h.h.h.$XL./.A.O.W.:.f % y.kXJ.A h Z Q A.] w % $ r L W Y j y.Z.) S.>.C.{ f x T Y <XrX_ ) D.J.P 7 7 5 5 : O O e 4 2 y 6.d.x.x.d.d.s.x.z.c.c.z.c.c.f.c.c.c.f.n.b.b.b.j.x.g.v.g.g.g.x.g.g.v.f.f.v.v.c.c.",
". kXHXwX8XwX5X5XwXwX6X8X6X6XdX0X0XwXwX8X0X6XwXqXwXwXwXsXwXwX8X8X-.Q }.].S.7XW.W ^.6XW.xX).A.,X6X5X5X}.Z N.wXW.}.wX) { XX].W.wXC.I.1X0X6XsX:.~ 4X}.T.xX;.W XX}.).sXH.F.5X5X6X6X5X1X9X5X5X5X6XwXrXwXwXwXqX0X9X0XqX6X1X9XqX5XwXHXo       .   5 M.v.b.g.h.g.v.v.b.v.b.v.b.b.b.v.b.g.b.v.b.b.v.b.b.b.h.M.h.h.h.M.h.h.h.g.h.h.h.h.M.h.h.j.%XP.N.} I.B.d % y.HXP.W W / Q C.O.s $ $ r m ! Z x A.B.F S.O.S.B.: # % w *XbX;.;.>XD.N 7 7 5 4 2 # O 5 5 8 8 6.x.x.x.x.x.z.x.c.c.c.z.c.s.s.f.c.c.f.j.b.b.b.v.g.x.v.g.s.x.g.g.v.f.s.v.v.b.b.h.",
". kXmX7XwX6X X5XwX8XdXwX6X6X6X0XsXwXwX5X6XwXwXwXsXsX0X0XwXsXwXdX>.( }. XH.8XH.Q {.0X'.sXW.D.XXwX5X5X}.Z ;.wX`.}.sX` { 7X}.`.8XC.I.5X6X0XsX;.~ 9X1X'.bX;.( XXoX{.vXG.D.7XwX6X6X6X0XsX0X5X6X6XsXwXxXwX8XwXdX0X0XwX0X6X5XwX5XjXmX=           $ M.v.v.h.b.g.b.b.b.b.v.b.b.b.b.g.b.b.b.v.v.b.b.b.h.b.h.h.h.h.h.M.h.M.h.h.h.h.h.h.h.CXBX$X:XU.&.` F.C.d * [ HXF./ O.) ^ H.N.d % $ e m W Z b F.;.G :._ ;.^.h $ % % U.rX;.N.<XK.d 7 7 5 5 O $ $ 5 3 4 y l.x.i.d.d.s.s.x.c.c.z.c.c.c.s.f.c.c.f.c.f.v.v.c.g.s.v.s.g.x.v.g.c.z.c.v.v.v.g.b.",
". bXbX9X0X5X+XoX8X6X6X6X6XOX6X6X8X8XwX6X6X6X6X8X6X0X6X6XwXwXwX8X>.( 1X XH.OXS.D {.+X_.sX`.F.3X5XoX5X|.G ;.wX_.XXdX) ) oX]._.dXS.I.0X6X6XsX>.E 9XOX_.vX:.W 3XoX_.vXW.G.5X6X5X6X6X0XwX0X5X6X6XwXsXwXwXwXwXfX0X0XwXwX9X0XwXwXkXJXo           5 CXg.v.v.b.v.h.b.n.n.b.b.b.v.b.b.g.g.h.g.g.b.b.b.h.g.h.M.h.h.h.h.h.M.h.h.M.h.h.h.h.h.b.#X%XL.} ^ D.C.B $ ! 4XB.) A.` F D.V.d % $ e x ! Z M I.O.F B.^ *.{.( $ $ 3 U.9XB.S.^.V.d 6 6 5 y $ O 2 5 e y y l.d.d.x.d.x.s.x.z.z.f.z.z.z.f.c.c.c.v.v.v.g.c.f.g.v.s.g.z.z.s.v.c.v.s.z.v.f.b.n.",
". bXmXcXcXcXcXzXcXcXcXcXzXzXzXzXzXcXjXzXcXzX+XzXcXcXOX7XwXwXsXsX>.F +X+X<.8X<.G ].6X_.xX).S.5X5X6X5X}.V >.cX_.+X8X` _ oX].].zX<.(.9X6X6XxX>.F 7X+X_.mX>.( XXOX_.vXW.I.5X6X5XoX+XOXzX+X+XOX+XjXOX8X8X+X+X+X8X8X8X7X6X6X8X6XxXmX=       .   # M.v.h.v.b.b.g.b.b.b.h.v.h.v.v.M.j.g.b.h.h.b.h.h.h.h.h.h.h.h.h.h.h.-X-Xh.h.h.h.$Xh.-Xh.-X$XP.%.) S.C.v % E F.) _ F.( V B.B.N % $ 6 f E Y E D.] G O.^ _ ,X/ & $ % U.<XD.>XU.N.z 6 6 3 y 5 # 5 2 8 2 y l.x.d.x.x.x.d.z.z.z.s.c.c.c.c.z.z.x.n.c.c.v.f.f.c.s.c.c.z.c.v.s.x.x.g.x.g.v.b.j.",
". ].+XH.T.<._.1.=.1.1.=.<.3.<.=.1.<.<.<._.].<.(.<.).(.8XwXwXwXwX*.l >.<.=.{.>., *.<._ ].`.D.5X0X6X5X].l F ).1.<.OXK S H.1.:.+XS.P.5X6XoXsX=.b S.H.<.dX>.A /.].<.cXG.F.}.oX XXX+X+X+X_.+XzX+X+X+XOXOX+XdXOXOXOX8X+X+X8XjX8XcXmXo           $ VXv.v.v.b.b.b.b.b.b.h.M.h.g.h.v.M.h.h.h.b.b.h.b.g.h.h.h.-Xh.M.h.h.h.h.M.-XM.-Xh.-Xh.h.j.:X%X;.} S.B.N % ~ V.Z O.I.` Q C.B.M : $ % z Y E / Z.Q G O.Q } [.;.7 # : /.>XZ.rXW.V.f % 3 3 4 3 O $ 2 y 2 u l.x.x.x.s.d.x.z.z.z.s.z.c.z.z.c.c.c.x.n.c.c.c.z.c.s.z.z.v.z.x.g.x.s.s.x.v.s.f.v.",
". F F < , , , * > a , , , , > @ , < l < < < , < l , S qXwXwXwXwX*.* j l < :.>.* f k , -.].D.5X9X2X5X X, : S l A  XK * l l l F.D.I.5X6XOXsX_ & A Q K H.1.> A W K T.|.G.5X6X6X=.H J J J *.1.*.*.*.=.=.1.T.<.>.<.<.1.<._._._._.zXo           $ AXx.g.b.b.b.b.BXb.BXb.h.M.g.h.g.g.h.h.h.b.h.b.h.b.h.h.h.-Xh.h.h.h.h.h.h.h.-X-Xh.-X-X-X-X:XU.B.;.C.B.n & | V.n } I.} ;.I.V.Q : $ $ e P A [ D.D V ) D &.`.:.a $ : /./.V.rXW.| f 6 6 8 7 5 $ 2 y e 2 i d.s.x.d.s.x.z.z.c.z.m.m.z.c.c.c.z.z.c.c.c.c.c.c.z.s.s.c.z.c.z.s.g.s.s.x.f.s.g.v.",
"  W ~ B f p f * j Y G A , : * > < h A l > > * j k a n 9XrXwX8XwX-.> h A h N.>.& s M h %.[.S.5X9XOX X}., : k l A {.D % v b v D.S.I.oX7X6XcX_ l %.`.I.1XB.t ( :.S.`.~.G.5X6XwX` n *.-.` < l , A B.1.>.K K < A :.>.:.G V V G H J .       .   $ M.v.M.v.b.M.b.b.b.b.b.h.h.b.h.M.h.h.b.h.h.BXb.b.CXh.M.h.h.h.-XM.-Xh.-XM.h.h.h.-Xh.-X-Xj.$X%XB.} >.C.D : | ;.n ) A.O.D.,XV.) f $ % w b z ) A.M Z ) V O.I.B.N * : /.%XO.rXD.Q 7 % 3 7 4 5 O O e 2 y i d.s.d.x.x.d.x.i.z.z.c.z.z.z.z.z.c.z.c.c.c.f.c.c.f.z.c.c.v.z.s.v.x.s.s.s.s.g.x.v.",
". *XyXK.K.U.U.! s Y m A f : % % x z h s : : $ j v d M 9XrXwX8XwX=.p b Y S A.V.p m W Z y.`.F.3X0X6X5X.Xf p b A T {.D w m Y A Z.D.~.5X7X6XxX*.A y.|.XX8X;.m y.*X{.3X/.G.5X6X0X` &.9X6XG.a k a { }.oX].H n , W XXXX1X_ V U U Q ~ X       .   5 M.v.M.h.h.h.b.b.b.BXh.M.h.h.M.M.h.h.#Xb.b.b.b.h.BXb.h.h.-Xh.h.M.h.h.h.-Xb.-Xb.-X#Xb.h.h.$X*XZ._ X.:.D f N.;.V { :.} K.5XV.;.B $ $ e x z | A.n D ;.E } I.B.~ % : *XU.O.rXC.N & % 3 4 3 5 # 5 y 2 2 i g.x.d.d.d.x.x.x.z.z.z.x.c.z.z.c.z.v.s.c.x.s.s.f.s.x.s.z.z.s.z.f.g.s.x.x.s.f.z.s.",
". kXJXrXrXtXfX| f Z A A p & $ % x x h f : e $ x x h M tXrXsX8XwX*.: x Z h A.N.: b Y A N.[.Z.3X6XOX2X}., f b m A {.D : c Y b A.S.~.5X7X6XvX%.A :.].].OX>.c y./.{.5XI.I.3X6XsX` -.XX].H.< d p { ].].].G k w W XXXX].`.^.*X<X<XyXX           $ VXb.b.M.b.b.b.BXb.b.h.h.M.M.h.M.h.h.b.#XBXb.h.h.b.BXh.h.M.h.-X-XM.-Xh.-X-Xh.-X#X#XBX-X-X$X:XL.O._ ;.Q h N.O.~ N.A.} I.,XA.B.n * $ e t c | V.l E I.) ) I.;.} : : *XF.O.0XN.v 6 $ 7 4 3 3 5 7 y 8 2 6.s.x.x.s.x.x.i.x.z.c.z.z.z.c.c.z.z.s.c.c.g.g.x.x.x.g.s.g.x.f.s.z.s.g.x.d.z.c.z.z.",
". fXbXwXwX6XbX} , v b k p & $ * f s j f : $ # j x x M tXrXdXdXwX_ : c b x A.;.: c A m :.[.S.5X5X6X2X]., r b x A ,XD : x b x F.Z.G.5X6X7XxX_ A %._._.OX:.c y.*XXX5XI.I.3X6XsX) _ ].].<.a h a / ]._.].J h : T {.].'.oXrXrXHXHXKX=           $ AXv.b.b.CXb.BXBXb.b.=X-X:XM.h.M.M.h.b.h.#Xb.h.#Xh.b.-Xh.-Xh.-XM.:Xh.h.h.-Xh.#XBXh.#XBX#X$X*XU.B.-.=.Q D N.) Q I./.O.I.,XB.D.Q & $ 5 r m Z.P.V ) }.} E B.%.;.h : <XI.| <XB.d & $ 6 7 5 5 5 5 2 2 y 6.s.x.x.d.z.i.z.z.z.c.c.v.z.c.m.z.x.v.z.x.x.g.s.x.s.x.g.x.x.z.v.s.s.x.x.s.z.s.z.z.",
". kXbXwXwX0XfX_ : b x k p % $ % s f j w % : # r x x M 9XwXsXsX6XX.& s x r A.:.& x A x %.[.D.3XwX6X5X'., w h h x >XV % h x x A.D.F.6X6X7XxXO.: ( =.*.].:.r ( %.*.`.W.F.9XwXwX( W S.:.=.l k f Z :.1.<.S l : m <.H.<.'.kXrXbXbXHXo           O AXg.b.b.b.b.b.BXCXb.-XM.h.h.M.:Xh.h.-X#Xh.b.CXh.h.CXM.-Xh.h.-X-Xh.h.CX-Xh.BX-Xh.#X#X#X#X#X%XU.B.>.O.) ! %.) ) I.[.%.F.,XN.S.) % $ e r A L.I.Q ) ,XB.Q B.;.D.Q , >XU.O.[.V.d $ 6 7 8 5 5 5 4 y 2 y 9.x.x.s.g.x.i.z.z.z.c.z.z.v.v.x.v.f.x.s.s.x.s.x.s.x.x.x.x.s.s.v.z.s.x.d.x.x.s.x.z.",
". vXmXwXxXdXcX-.a Z Z M , % $ 7 m m M d % 6 $ x P M E 9XwX8XsXsX=.: c Z b S.>.& c A b ;.[.F.3X8X6X1X'.a j b m L ,XD : c Z m L.F.G.5X5X6XcX=.j %.`.). XB.t y./.D.{.I.F.9X0X0X) { /.(.>.a k f ( F.G.T.S d , A F.(.G.].8XjXbXbXmXo   .       $ CXb.b.h.b.CX-XBXCXBXM.-XM.-Xb.#Xh.h.BXh.CXb.b.-Xh.h.h.h.-XM.CX#Xh.#XCX#X#XCX#X#X-X#X-X-X$X%X*XD.>.>.} { B.) ) I.<X) ;.I.-.S.&.: O : w m F.F.*.O.`.B.) P.I.I.O.a ^.C.| W.7.s $ 3 7 4 6 5 5 8 5 2 u 9.z.z.z.z.z.z.i.z.s.f.z.v.s.x.g.z.s.z.z.s.x.x.d.f.x.x.x.x.z.s.v.z.s.f.z.x.z.d.x.z.",
". xXmXOXzXzXcX*.f Z Z A p & $ % m Z Z d - & $ k Z Z W 9XwX8XdXsXO.p b Y N A.>.: b Z m %.`.A.5XwX6XoX'.a s L m Y {.V w b m b F.S.G.oXOX5XsX} A A.{.}.8X:.m Z.4X3X5XI.G.5X6X6X{ } 4X7XG.a h f { }.]. XG d r W XX3X].XXjXdXcXmXmX@           # AXv.b.CXb.h.BXBXBXCX-X-X-Xh.CXb.CX#XBXBXBXCX-Xh.CXh.-X-Xh.-Xh.#X-X#X#Xh.#Xb.CXh.b.-X-X#X#X%X%XS.-.>.B.&.N.} | [.W._ ;.S.} A.&.r : 2 e A /.F.~.:.S.>.) /.,XI.B.l I.;.] D.| w $ 6 5 7 7 5 5 5 8 8 u a.z.m.z.p.z.z.z.z.s.s.f.z.z.s.s.x.g.s.s.x.s.x.x.x.s.d.x.s.x.s.v.z.z.z.z.z.z.x.x.x.",
". >.1.X.` J X.n v T Y Z f 6 % r m P E d & 7 % M Y Y Y qXwXwXwXsX_ p b P m S.;.w m Y m N.[.A.5X6X6X6X].h z A P A XXZ w m Z m A.F.H.5X6X6XxX-.A V.].].7X:.b y.3XXX3XG.G.9X8X8X) } 3XXXG.a k f { |.].].G g f ! ].].@X_.].].dXcXcXo   .       $ AXh.CXb.-X-X#XBXBXBXh.-X-X-X-X-X-X-Xh.CX#XBXh.-Xh.h.h.-X-X-X#X#X#X#Xh.-X#X-X-X-X#X-Xb.-X$X$X*XD.O.=.C.V.B.%.} [.U.;.S.D.} A.A.j : : : T /.H.xXT.=.} ` I.4XD.S.Q S.O.) C.~ $ 5 6 5 3 5 5 5 7 4 2 0.p.z.z.c.c.z.z.z.z.g.c.c.c.v.s.g.s.g.s.g.s.x.s.x.x.s.s.s.s.g.x.x.v.z.z.s.x.x.z.x.x.",
". Z D < p : - * z N c x 0 7 $ 7 c c N f 6 7 $ z v x Z tXfXsXsXrX} w x m c A.;.6 c N z N.[.A.5X6X6X X}.d r c x m ,XM w c c j Z.F.G.5X6XsXvXO.b N._.{.XX<.A y.XXXX3XG.I.5XqXwX/ &.].XXH.B v d { `._.`.D B r W [.].oXJ J J J ` =.X           # AX#X-XCXb.-X#XBXCXBXCX-X-X-XCXb.-X-X#XCX-Xh.-X-X-XCX-X-XM.-XCX#X#X-X-X-X#X#X-X-X$X#X-Xh.#X$X%XP.O._ A.D.B.N.} `.I.N.W.I.%.H.F.b $ : : ! /.:.mX6X-.=.] D.<XD.I.;.} ~ O.U.M $ 5 6 5 3 7 5 5 5 8 8 i p.c.z.z.s.z.z.z.z.z.s.z.c.s.z.s.s.x.x.s.x.s.s.s.s.x.x.s.x.x.x.x.x.z.z.d.x.x.d.x.d.",
"  y.V.' ~ ~ ' ' I U R U ' ' ' I P ' P ' ' 8.R I ' P ~ 0XfXwXsXfXq.z T ! P U.C.t R ! P U.[.A.1X6X5X X.Xd z P N ! 0XM p P m m P.F.I.5X5X0XvX} , E Q F G.C.f W ) ) W.I.G.5X0X0X( Z &.-._ N P d M | *._ U N z N | O.-.V k k l l N .           $ AXh.CX#XBX#X#XZXBXCX-XCX#X-XCX#X-Xh.-X-XCXh.-X-X-X-X-X-Xh.CXCX#X-X-X-X-X#X-Xh.-X-X-XBXj.$X$X%XP.:.` N.A.N.D.) B.B.N.^.`.N.D.`.D % e % { ~.O.xXdX<.S.| D.4XD.F.I.) D | U.M $ $ 4 4 5 e 5 O e y 2 i x.z.i.z.c.z.z.z.x.s.z.x.s.g.x.s.x.z.s.z.g.x.z.x.x.x.g.z.c.s.x.s.x.z.z.z.z.c.z.d.x.",
". tXUX4X4XyX9XyX<X<X<X4X4XyXUXtX2XyX9XtXDXtXtXtXtXtXtXrXwXwXsXbXD.] yX9X>XHXI.] <X<XK.HX}.D.5X0X5X1X XM { >XV.~.sXQ ' >XL.A.4XA.I.5X5X8XvXS.E U.G.&.rXS.x y.-._ {.G.I.5X5X6XD.| ;.q.O.L.U.K.J.Z.D.F.U.<XU.U.U.F.D.D.V.V.O.K.K.X           $ CX#XBXBXBXBX#X#XBXZX=XCXCX=XCX-XCX-XM.-X-Xh.-X-Xh.-X-X-X-XCX-X-X#X-X-X-X-X#X-X-X-Xh.BX$XBX$X:X/.D.O.O.V.B.I.) } ;.B.<X[.B.F.|.( w % $ N.[.` 8XsXH.`.:.V.9XI.C.,X) D ) L.v $ 5 7 3 3 5 $ 2 e 8 8 6.x.z.z.s.s.z.z.z.x.s.s.s.s.s.s.v.s.f.z.s.x.x.s.s.s.x.s.z.f.s.s.s.x.z.z.s.v.z.s.x.d.",
". UXHXrX0XtXtXtXrXqXrXrX0X0XtXtXrXrXrXrXfXtXrXtXrXrXrXrXwXwXdXxXA.) tX9X,XJXG.) 9XrX,XbX`.D.5X6X5XoX}.D V.rXW.5X6XF y.tX|.{.wXS.G.5X6X6XvXG.} kXbX}.JXD.~ 4X9X`.vXG.I.5X5X5XwXrXrXtXtXtXfXHXHXbXbXbXfXbXbXbXfXfXvXHXrXtX9XrXKXo       .   $ AX#X-X#XBXBX=X#XBX#X-X=X#X#XCX-X-X-X-X-X-XCX-X-X-XCX-X-X-X-X-X-X-X-X-X-Xh.#X-X#X-X-X#X$X#X$X:X*XG.:.7.;.D.I.;.A.N.B.,X>XN.C.[.( : $ % Z.[.G 6XdXS.}.A.V.<XF.N.rXN.Q ) %.z $ 5 6 4 3 5 $ y y 8 y l.i.z.z.z.z.z.m.z.d.d.s.s.g.x.g.z.s.s.f.s.s.s.x.s.x.x.s.x.z.v.s.x.x.x.s.s.s.v.x.x.x.",
". kXKX0X0X0XwXwXwX5XwXqX9X0XsX0XwXqXwXqXdXwXwX0XwXwXwXwXwXwX8XvXF.) 1X X).bXG.~ >XoX`.sX).H.9X0X5X1X}.D V.0X`.5XdXQ } wX].`.wX,.G.5X8X6XfXC.W ,XoX(.vXC.D >X,XG.fXG.I.5X8X6X5X0X6X0X0X0XwXtXrXrXkXwXwXwXsXqXtXwXqXqX9X0X9XkXKX=           $ AXh.-X-X-XCX#XZXZXBX=XCX#XCX-XCX-X-X-X-X-X-X-X-X-X-X-X-X-X-X-XBXBX-X-X-X-X-X#X#X#X-XBXj.BX$X:X<XG.B.O.} P.[.B.<XI.C.<XW.;.F.~.{ : $ % P.F.K OXcXC.[.C.| I.B.;.tXU.) ] ~ : # 5 4 e 4 3 3 2 y 2 y l.d.z.z.d.z.z.z.z.g.g.s.x.x.x.s.z.x.x.s.z.f.x.s.x.g.g.x.v.v.z.s.x.s.g.x.x.x.z.s.g.s.",
". kXJXwX8XwX8XdXwXwXsXwX9X0XwXwXwXwXrXwX8XsX8X8XwXdXwXsX8X8XsXvXS.} 5XOX`.vXC./ 3XXX).sX`.G.5XwX5XoX}.D V.wX|.5X6X( } wX|.`.8X<.G.9X8X8XxXB.W XXoXG.vX,.D 3X3X).jXG.G.3X6XOX5X0X6X8X5X5XwXsXwXxXwXxX8XwXwX8X6XsX7X7X6XwX7XvXHXo           $ AX$X#X=X=XCXBXBX$XBX#X=X#X-XCX#X=X=X#XCX=XCX#X#X#X=X-XCXCX-X=XCXBX-X#X-X=X#X#X#XBXBXh.#XBXBX%X<XI.B.O.| ^.>XA.4X[.A.>XI.;.D.`.{ f $ w P.B.n oXdXS.|.S.~ A.N.;.qXI.;.| M % # 5 3 7 4 3 5 8 t 8 u l.z.z.s.s.c.c.z.z.s.g.s.c.z.x.s.s.x.s.z.z.c.z.c.z.c.c.c.c.c.z.x.x.z.s.z.g.z.c.z.z.z.",
". kXJXwX8X6X6X6X8XwXdX8X6X8X6XwXwXvXwXwXwXwX8X8XwXsX6X0X6X8X8XsX:.) 5X8X`.xX:.Q 3X+X_.xXI.I.5X6X5X1X}.D :.8X).oXdX( &.6X'.`.kXC.I.9X7X8XfX:.Q 3XoX).bXS.D 3XoX).xXG.I.3X5X5X5X6X6X8XwX5XwXdXsXsXvXwX8XwXwX0XsXsXwX5X6X8X6XvXJX=       .   $ ZX#X=X#XCXCXBXZXCXZXCXCXCXCX=XCXBXBXCX=X-X#X=X#X;XBX-X-X-X#X-X#X=XBX-X-X#X#X#X#X#X$Xh.#XBXBX$X*XI.B.| } >X[.C.<XW.;.D.I.:.K.W.} d % s *X%.S ].dXC.G.A._ D.K.N.4XI.;.O.N $ $ 5 4 4 4 3 5 7 8 8 i a.z.z.s.s.c.c.z.z.s.s.c.c.z.g.s.x.g.v.c.c.c.c.c.z.c.c.c.c.c.s.d.z.x.x.x.z.z.s.f.s.z.",
". kXmXjX8X6X+XOX8XdXjX+X8X6X+X8XwXwX8X8X8X8X+X8XwX6X6X0XwX0X0XxX>.` 6XOX_.cX>.Q oX+X_.cXW.P.5X9X5XoX}.D A.jX_.+XOXF -.8X].|.sXC.I.wX7X8XxX:.F XX+X).xXC.D 3XOX_.xX(.G.5X5X5XoX6X8X8X8XjX8X6XsXwXsXwXOX8X8X6XcX8X6XoX6X7X5XxXmXo           $ AX=XCX=X=XCXZXBXCXCXCXCXCX=X=X=XCX=XCX=X=XZX=X=XZX$X=X=XCX=X-X-X=X-X-X#X#X#X#X#X#X$X$Xh.#XBX$X:XI.D.} O.[.I.B.[.I.} ;.B.;.}.|.:.M % b *X` V '.dX<.S.:.;./.<XA.>XI.] ] B & $ 5 4 4 4 5 5 7 8 8 i d.s.z.z.s.f.c.c.c.f.g.s.s.g.x.x.s.x.z.c.v.z.c.z.z.c.z.v.c.c.z.x.z.x.s.x.z.x.v.z.z.c.",
". vXmXzX8X8X+X+X+XjXdXOX+XcX+XzXOXcXcXzXcXcX+XzXdXxX8X6XrXsXsXxX-.G _.].H.8X-.G _.+X<.jX).H.5X8X1XoX}.V :.+X<.+XdXF _ 8X_._.jX<.`.6X9X0XxX:.G oX+X).vX<.G }.OX_.vXW.H.3X5XoX+XdXjXOXzXzXcX8XcXcXsXdX+XcXOX8XzXzXOXOX8X8X+XxXmXo           $ ZX#XCX=X#XZX#XCXCX$XCXCXCX-XCX=X=XCX=X=X=X=X#XCXCXBXCX=X=X-X=X=XCX=X#X#X#X#X#X#X#XBX-X#X#X#X$X%XI.F.B.;.I.A.;.W.W.;.;.N.B.9X}.C.Q 6 m P.Q D D.6X,.>.O.| U.4XA.[.D.] ~ B $ $ 5 7 4 4 3 8 8 8 2 6.g.z.c.z.c.z.c.c.z.m.c.g.f.f.v.s.x.z.f.z.c.z.z.z.c.z.z.z.c.z.z.z.z.z.g.x.v.z.c.z.c.z.",
". H.].1.=.1.<.J J *.=.=.=.<.=.X.=.*.=.=.1.4.*.*.=.J =.7XwXsXwXsX=.* S K S G.-.> F J G (.`.F.9X5X5X X}.a g ` K ` 7XS > *.J K XXH.I.6X6X6XxX-.> Q J G |.B.: ` >.` |.I.F.,X5XoX<.H.<.<.<.<.]._._.)._.T._.@X<.<.<.<._.(.+X+X+XdXmXo   .       $ AX=X=X=XCXCXBX=XCX=X=X=XCX=X=X-X=X-X=X=X=X=XCX=XCX$X=X=X=X=X=X#X=XCX#X$X#X#XBX=X$X$X#X#X#XBX$X%XU.I.S.;.C.;.;.[.W.:.H.D.N.,X}.C.} , Z D.D G B.'.X.} _ ~ D.9XP.W.U.^ V p & # 5 5 3 5 8 y y y y 0.x.x.c.z.c.f.c.c.j.m.f.g.s.g.s.z.z.z.z.s.c.z.z.z.z.z.z.x.x.c.z.z.c.c.z.z.x.z.z.c.z.z.",
"  W J l p N C , a S n l l K < , K S < < , , > < < , A jXtXwXwXfX-., a k f :.>.* , k , ;.`.F.5X0X5X5X].a p l j n 3Xk > j j , H.F.~.6X5X5XxX=.& , , : :.A.: / >._ G.G.G.5XoX6XF < l l S K J S F >.:.>.K J S < S S l K J J J =.=.X           $ ZXCX=X;X=X=XZXCXZXCXCXCXCX=X=X=X=X=X=X;X=X=XCX$X=XZX=XCXCX=X=X#X=X#X=X#X#X#XBX$XBXBX#X#X#X#X$X%XU.P.C.-.:.;.;.`.D.C.W.I.O.D.F.S.:.a W D.V D O.C.O.:.B.! Z.tX^.<XW.~ B 7 # 5 5 7 5 5 5 2 8 y u l.x.x.z.c.c.z.c.c.c.s.f.g.s.g.g.v.z.x.z.z.s.x.c.z.z.c.z.z.z.z.c.z.z.z.z.z.c.z.z.z.z.c.",
". 7.N.~ U ' ] f x Y Y M k n a a W Z A < : & : A h h ( rXrXwXwXfX-.d c x z B.:., b m x V.[.P.5X5XoX6X].l x Z N W 9Xn : A A b A.F.I.0X5X6XxX-.a h l j Z.A.j Z.7XXX XG.F.5X6X5XF , j h S , < , F F. X|.S l , : f f p k j j k N l .       .   $ ZX=X=X;XZXCXZXBXZXBXZXCXCX#XCXZXCX=X=X=X=X=XCX;X=X=XCX=X=X=X=XCX=X=X#X=X#X$XBX=X$X=X#X#X-X#X#X%X*X/.D.:.;.O.| B.-.:.>XW.N.I.D.W.'.g / D.n v ) } O.I.I.{ Z.9XU.[.>X' d % $ # 5 5 5 5 5 5 y 2 u l.x.i.z.s.f.m.c.s.c.c.g.g.g.d.x.s.z.z.z.s.c.x.z.c.z.c.c.z.z.z.c.x.z.z.z.z.c.z.z.z.z.z.",
". tXUX<X<X<XyX~ B ! ~ P b n p a A A A j % % r A b x Y tXqX0X0XfX-.a x x s V.B., x m x V.[.H.9X6XoX1X'.N c Z b W 5Xn r m m b A.S.~.7X6X6XxX-.f x h r Z.S.h :.]._. XG.F.3X9X5X` A &.V.*., a j ( /.5X.XS l , : s z s ) V.N.q.J.%XX           % AX#X;XCXZXZXBXZXZXZX=X=X;X=X=X=X=X=X=X=X=X=X=X=X=X=X=X=X#X=X=X=X=X=X=X#X#X=XBX$XBXCX#X$X#X#X$X$X:XU.H.C.:._ } ;.O.;.[.[.C.,X[.W.wXD / D.M k } O.N.[.I.| J.4XU.I.I.~ 7 5 5 5 5 5 3 5 5 2 2 2 u l.x.x.f.s.f.c.c.f.c.c.z.s.g.g.z.g.s.v.s.z.z.g.z.z.c.z.m.c.c.z.z.z.z.z.z.v.c.c.z.z.z.z.",
". HXKXrXrXrXvX| c ' ' E N n p d T A A j : % : c x x T lX8X8XsXwXO.j s v f V.:., h b j y.W.G.5X6XoXoX].S b A b Z 5Xn w c m j Z.A.(.8X5X6XxXO.p v h r N.S.j &.]._.XXG.F.2X5X0X^ Q P.3XG.a j d ( F.}.].K k : w z r w J.rX9X4XkXKX=       .   $ AX=X=X;XZXBXZXZXZXCX=XZX=X=X=X=X=X=X=X=X=X=X=X=X=X=X=X=X=X=X=X=X=X=X$XBXZXBX$XCX$XCX#X=X#X$X-X$X%XL.S.H.C.) N.G.} -.[.I.V.9X0XW.nX) ) D.E Z ;.I.V.W.^.| V.<XF.K.K.Y % 5 # 5 5 5 5 8 5 5 8 2 i d.x.x.f.s.x.x.c.c.c.c.z.f.f.g.z.x.f.z.v.s.x.z.g.z.z.f.s.c.c.s.z.z.z.z.z.z.c.c.c.z.z.z.",
". rXmX7XqX7XxXO.N ! E ~ l N , f b b A , % % : x z s T kX8X8X6XsXX., j j r A.B.& f h j ;.[.D.9X0X6X6X|.j : b x A 1Xn 7 L x z L.S./.5X7X8XxX_ 6 d x r A.B.: *.<.:._.G.F.3X1X0X) Z N.(.:.f j r Y ;.H.H.S a , r P T A P.rXqX9XkXJXo           $ AX;X=XZXZXZX;X=X$XZXZX=XZX=X;X=X=XCX;X=X=X=X=X=X=X=X$X=X=X=X$X=X=X=X=X=X#X$X$X=X=XBX#X$X=X$X$X$X$XL.A.C.C._ B.W.;.;.I.C.B.0X1XH.fX>.} A.W D B.}.C.U.[.| _ F.B.F.V.B 3 # 2 5 # 5 6 5 5 2 8 y 6.d.d.g.f.d.g.g.v.v.f.c.z.g.g.s.z.z.s.c.z.v.c.v.x.s.f.z.c.c.z.f.f.z.z.z.z.z.m.z.x.x.z.z.",
". HXJX6X7X+XcXO.m ' ' ~ n l p f A m b j % % e x z z T kX7X5XwXxXO., s h s A.B.& j x t >.[.F.9XwX6X6X{.j j m h b ,XV z P T P P.S.~.7X6XdXvX_ 7 v b z A.<.: *.1.1.T.I.F.5X5X6X) Z y.I.1., j r Z &.(.S.l k : z [ L.L.[.qX7X5XkXJXo   .       $ SX=XZX;X=XZX=X=XZXZXZX;XZX;X;XCX;X=X;X=XCX=X;X;X=X=X=X=X;X=X=X=X=X=X=X=X=X$XBX=X$XBX#X#X#X$Xh.-X$X%XZ.B.H.O.C.W.;.-.I.B.N.,X1XC.6XD.O.V.~ W ;.>XS.P.[.} ) S.B.L.| p $ $ # 5 5 5 3 5 2 2 8 y 6.f.s.x.g.s.s.x.c.m.c.c.c.c.s.s.g.s.x.f.z.s.f.x.z.v.s.c.v.c.z.f.s.z.c.z.z.c.c.c.m.n.z.z.",
". bXmX+X+X+XcX=.P 7.| [ n N f d m m A r w % r T [ ! [ tXwXwXwXxX*.j x c r B.:.f c x c y.[.F.9XwX6X5X].h m A M Y ,XD P [ | / /.S.`.5X7X6XxX_ p U Y L L.F.j &.{.].}.G.F.3X1X6X) ! /.7XG., j r ( L.XX XV h w Y u.*X,X,X6X+X5XfXJX=           * AX;XZXZX;X=X;X;X;XZXZXBXZXBX;X;X=X;X=X=X=XZXCX=X=X=X=X=X=X=X=X=X=X$X=X=X=X=X=X=XCX$X#X#X$X#X$Xh.$XL.L.S.G.:.B.F.:.^ ;.O.} 1X1X-.W.W.;.N.} ) O.[.C.S.[.;.;.[.D.O.~ % $ 5 5 3 5 3 3 3 2 2 2 u l.v.s.x.s.g.s.x.c.c.c.c.c.c.f.s.z.c.x.s.f.s.z.z.s.s.f.c.f.f.f.p.f.c.z.z.z.c.z.z.x.x.m.z.",
". XXzX<.).<.@X` ' 7.[ | N M f B Y m M f 6 % e [ 7.&.y.tXwXwXwXsX=.s c N z A.:.p b c c Z.~.F.5XwX6XoX|.k ! [ ] [ 1XE T | [ [ /.:.(.7X6X6XfX_ w m m c A.S.k ;.].].oXG.D.3XOX5X` / (.5XT., f f ! A.3X].G d r Y N.3XXXoXOXzXdXcXJXo           $ AX;X;X;X;XZX;X=X;XZX;XCX=XZXZXCX=X;X=X=X;X=X=X;X=X=X=X$X=X=X=X=X=X=X=X=X=X=X#X=X=X#X#X#X#X$X#X#X$X$XL.J.F.D.C.C.-.( } _ } >X,X>.C.F.} } N.>.-.[.B.:.I.-.;.2X*X] n 6 $ 5 5 3 5 5 3 5 8 y y u i.x.d.x.s.g.f.c.c.c.c.c.c.v.s.s.s.z.s.g.f.z.c.v.z.s.s.f.s.z.c.s.z.c.z.z.z.c.z.z.z.z.z.z.",
". F X.n l l K d ~ 8.[ ] n N z c ' ' ' x 6 % e 7.| 7.y.tXfXwXsXsX-.b ' [ ' I.N.B ' [ ' L.`.I.0X0XOX6X|.b ' O.| %.1XD T [ | [ ^.C.G.qXwXoXsX_ s P Y P L.S.h ;.]._.XX~.P.,X6XwX` ) F.XXH.a d z ( A.XX_.V d p Y y.{.].<.1.1.1.<.<.=           % SX;X;X;XZXZXZXZXZX=X=XZXZXZXZXZX;X=X;X=X=X;X;X=X=X;X;X;X=X;X;X$X=X;X=X$X=X=X=X#X=X=X$X=X$X#X#X#Xh.$XL.J.D.G.H.B.O._ %.} ] I.W.O.C.G.) ) :.>.-.`.B._ N._ N.[.D.E p $ 5 $ 5 3 5 5 5 3 2 8 y i i.x.x.x.g.s.s.c.c.c.c.c.f.z.x.g.v.z.x.s.s.f.c.s.c.s.z.c.c.f.c.s.z.s.z.s.c.z.z.z.z.z.z.z.",
"  W ^ B f B N d P ~ E ! P E B z T ! U L t 7 7 T T P / rXwX8XwXvX_ f E ~ ! U.B.f R ' R K.`.I.5X0X6X5X[.k P / ~ ' 1XM B ' ~ T I.:.G.9X0X6XsX) % c P N U.C.p ) :.>.`.W.G.oXOX0X/ M { -.` f d r P / *.>.l B r m &.:.A.G j , < b l .       .   $ AX;X;XZX;X;X=X;X;XZX;XZX;X;XZX;XZX=X;X=X;X=X=X;X=X$X=X=X;X$X;X=X=X$X=X=X=X$X=X#X$X$X$X$X#X#X#X#Xh.$Xk.u.A.I.F.;.` O.:._ Q >.C.X.C.W.-.` S.S._ I.;.` ;.} B.W.q.x 3 $ $ 5 5 5 5 5 5 5 y 8 y 6.d.x.x.d.s.g.z.v.c.c.v.c.s.c.x.s.s.g.g.s.z.c.c.c.c.z.c.c.c.c.c.f.f.s.z.z.z.z.z.z.z.z.z.z.",
". <XyXU.%XU.U.K.J.J.L.L.U.&X*XL.J.Z.L.J.%X%X%XK.U.J.U.bXwXwXwXvX:.P J.V.N.tXD.N y.V.| <X[.G.0XwXOX5X XM ' V.| C.rXE P u.7.| 4X;.I.0X6XdXfXN.x J.V.| yXU.v | B.} }.[.G.3X5X9XO.~ / ) / ] ' P P E Z W U E x c A b n D D U T / [ X           $ SX;X=XZX;X;X;X=XZX;X;X;X;X;X=X;X=X;X;XCX=X;X=X=X;X=X=X=X=X=X$X=X=X=X$X=X=X=X=X=X=X#X#X=X#X#X#X#Xh.$X%Xu.N.S.F.O.G B.C.&.) O.>.` B.|.C._ T.].` <._ ( B.B.B.U.] 7 % 5 2 # $ 5 5 5 5 8 8 y u 6.x.d.x.x.g.s.g.s.c.c.c.c.c.z.s.g.d.s.x.g.f.c.c.z.c.f.c.c.c.f.c.c.s.m.z.c.z.m.z.z.z.z.v.m.",
". HXKXHXHXrXrXkXbXUXbXrXUXfXHXbXrXbXrXUXkXHXHXHXHXHXHXbXsXsXwXvXS.%.HXkX9XJXG.| tXfX4XJX|.G.0XwX1X1X6X) D.HX>XrXbX} y.HX<X9XbX;.[.kXxXsXbXC.| HXrX4XKX}.( 4XfX}.HX,XG.1X5X5X,X&X>X,X,X1XyX<X*X<X>X<X9XyXyX<X4X<X4X4XyXyX<XyXHX=       .   $ AX;X;XZX;X;X;X;XZXZXZX;X;XZXZX=X&X;X=XZXZX=X=X=X=X$X;X=X=X=X=X:X$X$X=X$X$XBX=X$X$X$X-Xh.-X-Xh.h.h.h.$Xu.y.N.W.:.H ;.I.N.O.B.-.` -.'.,.` ].xXX.X.` _ I.D.N.N.P 6 7 4 2 2 5 5 5 5 5 5 2 y u l.c.z.c.c.f.c.f.f.f.c.c.z.c.c.z.f.s.g.g.s.x.c.s.c.c.c.c.c.v.c.f.c.c.z.c.z.z.z.z.c.z.z.x.x.",
". HXKXtXqXwX0XwX7XqXwXqXqXqXwXtXwXwXfXwX7XqXkXjXsXfXrXfXsXwXwXfX>.[ 9X3X[.vX<.( >X6X'.xX|.I.wXwX6X1X XQ B.bX`.9XvX` ;.vX`.}.vX:.3XbXbXsXvX;.! 4X5XG.bXW.W 3XrX[.mX}.T.1XoX1X1X0X9X9X0X0X9XtXtXrXrXqX0X9XtXrX0X0X0X0X9X0X9XvXKX=           $ SX;XZXZXZXZXZXZX;X;X;X;X;XZXZXZXVX;X;X=X=XZXZXZX=XZX=X=X=X=X=X=X;X=X$XZX=X=X=X#X-X-X:X-X-Xh.h.:Xh.h.$Xk.y.y.I.G._ _ S.A.S.W.C.` :.W.S.` ].mX1.-.` ) W.F.] ~ z 7 7 8 5 5 5 5 5 # # 5 y 8 R a.c.c.f.f.c.c.c.c.s.f.c.c.s.c.z.v.v.s.s.g.c.c.c.f.c.c.f.m.c.c.c.c.c.s.z.z.c.z.m.c.z.z.c.x.",
". UXJXwXsXrX0X8XwXwXwXwXwXwXwXwXsXsXsXwXwX7XwXwXwXsXwXsXsXwXwXxX&.) 9X5X`.xX:.W ,X6X`.sX).I.wX0X6X X|.G B.wX`.].8XF &.8X).`.6X:.XXvXxXwXxX-.Q 5X].G.kXS.Z {.6XT.sX`.G.5X6X X6X5X5X0X5X5X5X5X7XwX8X6X1X0X5X5X5X5X1X1X6X5X5XvXJXo   .       $ SX;XZX;X;XZX;X;XZX;X;X;XZX;XZXZX;X;X=X;X=X;XZXZX=X=X=X=X=X=XCX=X=X=XZX$X=X$X$X-X#X#Xh.-Xh.h.:Xh.h.j.j.%Xu.y.A.W.S._ O.V.I.,XH.` >.I.:.` _.JX,.1.O.} I.S.U c 7 8 t 8 5 5 5 4 5 2 5 5 8 y 6.j.c.c.s.f.c.c.c.f.f.c.c.s.v.x.c.v.v.s.s.f.c.c.z.c.c.c.f.f.c.c.c.c.c.f.s.s.x.z.z.x.z.z.x.z.",
". bXmXwXwXwX0X8XwXjXsXsXqX0XwXwXwXvXwXxXwX8XwXwXrXwXwXwXwXwXwXvX>./ 9XOX`.xX<.W ,X6X|.sX`.~.6X0X6X5X}.D A.8X).oX8XQ ;.wX_.].OX:.|.8X8X8XvX*.( 0XoX).bXS.W {.6X_.sX`.G.5X5X6X6X6XwX6X0X5X5X6XwXjXwX6X6X6X7X8XqXwX0X0X0X0X1XvXJXo           % AXZX;XZX;X;X;X;XZX;X;X=XZXZX;X;X=X;X;X=X;X=XZXBXZX$X=X=X;X=X#X;X;X=X#X#XZX$X#X#X#X#X-X-X:Xh.M.h.h.h.j.j.k.y.%.G.W.-.^ } D.,XH.Q ;.I.-._ _.mX<.1.:.O.H.;.N s 7 8 8 7 5 5 5 5 5 5 # 8 8 u l.f.c.c.f.c.v.c.c.c.f.c.c.c.s.f.v.s.c.c.f.c.c.c.f.z.s.c.s.s.s.v.s.f.c.c.z.z.z.x.z.z.z.z.x.x.",
". kXmXjX7X8X8X6X8X8XjXOX8X8X8XwXjXjXcX8X8X7XOXzXwX6X8XwXwXwXwXdX&.( wXOX_.xX:.Q }.7X|.xX`.I.8XwX6X6X].F B.dX(.XXsXQ ;.wX`.}.8X1.`.wX6X8XxX&.F 3X+X_.bXS.F }.6X_.xX`.G.5XqX5X6X6XwX8X8X6X6X8XwXxXsX8X6X8X8XwXwXwXwX7XqXwX,XvXKX@           $ SX;XZX;X;X;X;XZX;X;X;X;X;XZX=X;X;XBXZX;X=XZXBXZX=X=X;X=X=X=X=X=X;X=X$XZXZX#XBX#X#X#X-X-X-X-Xh.h.j.j.j.-Xj.y.&.P.|.H._ ~ :.}.H.Q :.W.O.-.).cX,.<.H.) C./ d 7 8 y y 5 5 5 5 5 5 5 2 5 8 0.i.x.c.c.f.f.c.c.c.c.c.c.z.s.g.s.s.x.s.v.z.s.c.c.f.c.f.z.s.c.z.c.s.x.c.z.x.s.z.x.s.x.x.s.x.x.",
". bXmXjXdX8X8X+XwXcXcXcX8XOX+XdXjXjXjXzXcX8XzXjXdXxX8XjXwXwXwXsX=./ wXOX].xX<.Q 3X+X).xX`.G.wXqXdX6X].F B.wX_.+XdXF ;.xX]. X8X:.[.wX5X8XxX=.Q 5X+X).xXS.G }.wX_.xX`.G.}.5XoXOXdX8X8XOXoXOX+X8XdXwX6XOXOXoX5X8X+X8XoX7X7XoXsXJXo       .   % AX;X;XZX;XZXZXZX;X=X=XZXZXZXZX;X;X;X=X;X=XVX&XVX=X=X=X=X:X$X=X=X#X=X$X#X$XBX#X$X#X#X$Xj.$X$Xh.h.h.h.j.j.j.u.7.S.'.W.:.} } ,.:.H ;.I.} :.`.].1.C.,.^ / n p 6 7 8 4 5 # 5 8 5 5 5 2 2 8 6.x.z.c.v.c.f.f.f.f.v.c.z.f.z.g.s.g.z.s.f.f.f.c.c.c.f.z.s.s.c.s.v.c.s.v.c.c.z.s.x.s.x.x.x.s.z.",
". XXcX@X].+X+X_._.).).).@X@X).<.3._._.<._._.<.(.).).).wXrXwXsXsX` j >.1.J ].1.k ;.<.-. X].G.5XwX0X5X].l ` ).1.(.8XK F _.<.S.5XB.{.6X5X6XfX*.D {._.<.zX:.A (.}.<.OX~.F.3X9XoX].+X+X+X+XdXzX+XzXzX8X+XOXcXOX+XOX+X+X+X+XpX+XdXmXo       .   % SX;XSXZX;X;XZXZX;X;XZXZXZX=X=X;XZX;X=X;X=X&XBXZX;X=X;X=X;X$X=X=XZX#XZXBXZX$X$X#X#XBX-X-Xh.j.h.j.h.h.j.h.j.u.7.A.'.'.S.C._ ^ Q G O.F.*.S.T.W.O.>.;.V M d w 3 5 4 4 O 9 5 3 7 5 5 9 2 8 l.s.s.f.f.v.c.f.f.f.c.c.c.c.c.x.s.v.g.g.z.f.c.f.c.c.c.x.z.z.c.s.z.s.s.s.x.z.s.s.x.s.s.g.g.d.z.",
". ( ` S l K K j W } _ J K J S < S S =. .S S < J K K 1.jXsXwX0XsX` s { :.>._.>.r ! %.*.G.`.~.9XqX6X6X Xg : K l G 5Xl , Q J J  XS.[.wXqXwXfX` : G ` H _.<.: ( -.` G.I.F.5X5XOX=.` >.=.=.=.1.J J *.=.*.=.<.=.J *.=.` =.1.1.=.<._.X           $ FXZX;XZX;X;XZX;X;X;XZX;X;XZX;X;X=X=X=X;XZX=X;X$X;X=X=X=X=X;X=X=X=X$X#X$X#X#XBX#X#X$Xh.h.$X#Xh.h.h.g.h.j.j.%XV.N.H.W.G.D.:._ ^ G ) -.) B.C.-.` } / M x r w 7 5 5 $ O # 5 5 5 8 5 2 2 u l.g.s.f.f.f.s.v.c.f.f.c.c.c.c.f.s.g.g.g.z.c.f.c.f.c.c.v.v.f.c.c.f.c.c.x.s.f.c.x.s.s.s.s.s.z.z.",
". ~ / d 0 p d f Z.kXjX3XS l , j b a >.=., * : ( V D F.wXwXfXwXxX_ W *XkXkXbX:.Z u.kXkXkXXX(.7XwX6XdX Xl : k j b }.D h &.(.<.}.S.[.7X7XwXsX` a } H.H.|.A.x y.3XXX5XI.F.1X9X6X` F (.[.S.< l < < , S K < < > > , , < , - p , l n .           % SXZX;X;X;X;XZXZX;XZXZXZXZXBX;X;X;X=X;XZX;XZXZX&XVXZX=X=X=X;X=X=X=X$X$X=X=XBX-Xj.h.-X-Xh.-Xj.h.h.h.h.h.h.h.j.J.&.>.H.T.W.H.C.-.Q Q ) Q } } F G V E N s r 7 6 3 5 2 # O 5 5 4 2 2 2 2 6.i.x.s.x.f.f.g.g.v.g.v.c.f.c.c.f.f.f.v.f.c.c.f.f.f.g.f.c.v.s.c.c.c.f.c.c.p.s.c.c.s.c.p.s.s.z.z.",
". <XyXU.U.J.Z.Y L.kXbXvXJ l a b Z b D G , : e T A b ) rXkXsXwXdX` T /.jXjXbX:.T /.kXbXbX(./.qXjX6X6X].n j v j m ,XG A A.(.).XXS.{.7XqXwXvX) n V.}.{.oX:.Y P.kXvXxXP.F.3X9X6X_ &.jXbXXXa j , b s A ( b l , : a f h A N P P ' 7.X       .   $ SX;XZXZXZXZX;X;X;X;XZXZXZXZX=X=X;XZXZX$XVX%X=X=XZX=X:X;X=X=X=X=X;X$X=X#XBX#X-X-X-X-X-Xh.h.h.h.h.h.h.b.g.h.$X%X;.*.S.(.'.'.W.H.O.` } ) ~ ] Q D n N x z r e e 4 $ # $ # $ 5 5 y 2 2 y l.x.d.x.v.g.f.g.z.z.x.c.c.v.c.c.f.f.f.f.f.c.g.g.f.f.g.s.s.c.z.f.s.z.z.c.c.c.f.c.s.c.s.z.f.z.s.d.",
". UXKXrXtXHXbX%.u.kXkXkXF n f b Z c m f : : r T Y M / rXwXsXwXsX_ / /.kXbXcX:.W /.lXkXmX_.(.jX7XdX6X].l r x x b ,XF Z A.`._.}.<.`.5X5XwXfX) b N.].].+X>.A F.jXjXwX(.F.3X9X0X} &.4XvX].k j j b j m Z k k : : s j s L.<X*X*XyXHX=           $ SX;XZXZXZX;X;X;X;XZXZX;XZXZX;X=XZX=X%X=X=XZX;XBX=X$X=X=X=X:X=X;X$X$X$X=X-XBX-Xh.h.h.h.h.h.j.h.h.h.g.c.b.j.j.%XL.:.:.G. X].'.).S.;.B.;.) ~ Q D M N x c z t 4 3 $ O % # O $ 2 2 2 2 y l.i.x.x.g.f.f.s.s.g.f.c.g.c.c.c.f.c.b.f.v.c.f.v.g.s.g.g.c.c.f.c.s.c.m.f.c.s.c.c.c.f.z.f.c.c.z.z.",
". kXJXqXqX9XvX-.:.jXjXjXS < w h Y c N h w % w &.N.y.A.rXwXwXwXwX` Y F.XXzXjX:.Z y.XXjXjXXX/.3XjX8X6X].b r z t c >XG A y.(.G. XA.}.5X8XwXxX_ v N._._.+X&.m A.7XOX8X(.H.3X6X8X} { XXOX)., < j x r c A h h : w s w f I.kXqXqXHXKXo       .   % FX;XZXZX;XZX;X;X;X;X=XZXZXZXCX&X=XZXVX;XZX=XZX;X;X=X=X=X=X=X=X=X=X$X=X#X-X-Xh.-X-X#Xh.-Xh.h.b.b.h.b.j.g.g.$Xj.F.~.S.H.oX}.].'.G.F.I.F.N.) / ~ D P m L z t 7 5 $ e r $ O O e 2 2 2 u l.l.d.x.f.g.g.x.f.f.c.f.f.v.c.f.v.j.f.f.g.v.g.g.s.g.g.s.c.c.c.c.f.f.f.c.s.c.s.s.s.z.f.c.c.s.z.s.",
". kXJXjXjX8XxX;.*.~.(.`.< : % c y.&.y.A : : r u./.[.[.9X8X6XwXsX*.c %.(.(.].1.b &.F.(.XX`.I.wXwX6X0X}.l c T [ [ 3XG x &.;.>.}.S.{.7XwX6XjX/ j &.:.<.].;.c &.(.(.XXG.H.,X5XdX_ ! A.).>.< j r m R ! ( x d : : r r s L.jX3X5XvXJX@         . $ SX;XyXZX;X;X;X;XyXZX;XZX&XVX;X=X;X$X;X=X=X=X=XZX=X=X=X=X=X=X=X=X=X=X#X#X#XBXCXh.h.h.#Xh.h.h.g.j.b.b.j.v.j.j.%XL.}.W.<. X`.'.].W.I.I.U.V.| / ~ E P m c c t t 3 $ c c $ O 5 5 $ 2 2 u l.x.s.f.g.g.f.f.z.f.f.v.f.v.c.c.c.f.m.g.v.g.f.g.g.g.g.f.c.c.c.c.c.c.p.c.c.s.c.s.c.f.z.f.z.s.z.z.",
". bXmXwXjXzXcX;.y.kXbXjXS , % ' kXkXHX>.: : x /.rXkX5X7XqX7X8XsX*.&./.jXjXjX:.G P.jXjXjX`.`.qXwX8X6X}.D [ :XtX4X3XD m A.(.`. XA.}.qX0X8XxX*.A y./.~.}.:.A u.3X4X5XI.F.3X6X0X_ [ ^.wXH., j r y.4XkX,XN d p r x s j F.jXjX5XvXJXo   .       5 DX;XZXZX;XZXZX;XZXZX;X;XZX;X=X;X=X;XZX=X=XZXZX$X=X=X;X=X=X=X=X$X#X=X#X#Xh.BX#Xh.h.#Xj.h.h.m.h.#X#Xf.g.g.v.j.$XL.,X}.-.|.].W.}.T.G.I.F.A.O.] ~ E M P c c t e e r ' P $ O 5 5 $ 2 8 u l.x.x.g.g.g.f.f.f.f.f.s.c.c.f.f.v.c.c.j.f.v.f.s.s.s.g.c.s.f.c.c.c.f.c.c.z.f.c.c.s.c.c.p.d.g.z.c.",
". bXmXcXzXzXcX:.y.kXvXjXS : % [ lXjXcX>.: % c >XkXvX7X7XwXwXwXjX*.T *XjXcXcX>.( /.jXcXbX`.W.qXwXwX8X].D &.>XkXkX7XF Y A.|.].oXS.{.6X0X8XxX_ T F.oX3X6X;.Y /.kXbXsXI.G.9X9XdX*.&.3XbX)., j h L.jXvX0Xl d : s s j j F.jXzX+XmXJXo           $ FX;XZXZXZXZXZXZX;X;XZX;X=X;X;X=X=XVXBX=X=XBXVX&X=X=X=X=X=X=X#X#X#X#XBXh.#X#X#X-Xh.h.j.j.j.BXj.$X#Xf.h.g.j.j.%XZ.[.}.` W.6XW.W.G.S.I.U.J.7.| ~ U v c z t t w r Y ' c $ $ 5 5 O 2 y u l.d.x.g.d.g.f.g.v.f.f.f.f.v.f.c.v.f.c.c.f.f.s.f.f.g.c.s.s.f.c.c.f.z.c.c.c.f.c.s.s.c.c.s.s.s.s.z.",
"  H._.=.*.*.=.G F.kXcXcXS w 6 ! jXjXcX>., 6 c 3XjXcX8X7XjXwXwXjX*.( XXjXbXjX>.( ~.vXcXcX`.G.9XwX8X6X].G &.3XjXjX+XF Y F.].]. X:.}.wX8XwXvX_ Z L.+XoX6X:.Y /.jXvXjXG.F.9XtX8X&.{ 3XxX'.a h j A.7X8XoXl k w r z r j *._.3.<._.+Xo           & DX;XZXyXZXZXZXZXZXZX;X;X;XZX;X=X;X&X=X=X=XZXCX=X=X=X=X=X=X=XBX$X#X-X#XBX#X#Xh.-Xh.#Xh.j.j.#Xk.j.j.j.j.h.k.j.$XL.G.[.D ;.0X.XG.C.C.I.W.B.O./ E P P c x t z t T ! ' z 5 5 5 5 $ 2 2 u l.d.x.x.g.f.f.g.f.f.f.f.f.f.v.f.f.c.n.j.v.f.g.s.g.s.f.f.f.f.m.c.c.c.c.c.c.z.c.s.c.z.s.z.s.s.s.z.",
". Z F l g k d p y.}.XXXXG x r T >XXX5X} p 7 z P.3X+XoXwXwX8XsXsX` ~ Z.+X+XjX<.Z F.OXzXjX).W.5XwX8X5X XG ( G.XXXXOXQ Y A.~.`.}.S.{.wX7XwXsX_ Y L.XX].5XC.Y Z.7XjX7X(.I.9XqXwX} _ ~.+XG.n v h Z.7XzX].l k p P ' ~ E n V l l K F X           % SXZXZXZXZXZXZXZXZXZX;X;X;X;X=X;X=X=X=XCXZXBXZX#X;X=X=X=X=X#XBX=X$X#XBX#X#X#Xh.h.h.h.h.$Xj.k.k.k.k.k.j.j.j.j.*XZ.B.[.l ( 5X).S.:.:.D.W.V.q.' U N m c c z r A 7.! [ z 5 3 5 5 5 2 2 i l.g.x.x.f.x.g.d.g.j.f.f.f.g.g.g.c.f.c.c.f.c.c.c.f.c.f.f.z.s.f.z.f.c.v.x.c.f.s.s.s.s.g.x.g.d.s.z.",
". | 7.' ~ ~ ] E [ | _ } ] ' P Y } *.-.) P P P | >.-.:.rXkXsXdXvX_ x { ` ` ].B.a ( &.&._.`.I.7XwX8X5X}.n Y %.*.>.5XW c ] ) _ }.S.|.wXwXwXsX) s { ;.*.[.D.x { :.;.`.`.I.5X5XwX} E ) / ' E P z ~ &.*._ V U z P | 7.7.~ E v v P ' .           $ SXZXZXSX;XSXZXyX;XZX;X;X$X;X;X=XZX=X=X$X=X=X=XCX#X=X$X=X$X;X=XCX$XBX#X#Xh.b.h.h.h.h.j.h.k.k.l.u.u.l.l.k.k.k.%XA.N.[.n b W.W.,.>.:.C.W.Z.V./ E N M c c z r Y y.T [ z 6 5 # O 5 5 2 u l.g.s.v.g.g.g.g.g.f.f.f.d.g.g.s.s.f.c.c.z.c.c.c.f.f.v.s.f.z.z.s.s.z.z.x.s.z.s.s.x.s.z.s.z.z.s.x.",
". eXUX4X<X4X3X4X4X4X5X,X9XtX4XyX,X[.[.<X4XyX^.*X/.~.{.qXsXwXwXbX:.[ <X{.(.HX`.' *X,X`.bX|.~.5X8X6X5XqX[ 7.9XF.{.bX| [ 4XI.{.wX,.{.wX8X8XbX>.Y /.F.C.bXI.T /.^.A.rX}.G.3X7XjX,XU.%XU.W.&X^.J.J.Z.A.D.U.&XU.L.Z.L.L.D.K.U.K.*XyX=   .       % SXZXZXZXZXZXyX;X;X;X;X;X;X=X=X=X=X=X=X=X=X$X$XBXBX=X#X=X=XCXCXBXBXBX#X#X-Xh.h.h.g.h.h.j.k.k.k.k.9.l.k.k.l.l.%XP.S.<XQ > { I.:.O.:.C.F.B.N.] ~ N v z z m r Z | ~ [ z 3 5 5 O 2 2 2 i k.f.v.c.f.d.f.f.d.f.g.f.v.s.g.s.c.s.c.c.s.s.c.c.f.f.f.f.s.z.z.f.s.s.z.s.g.s.z.s.x.x.s.x.s.z.s.x.",
". HXJXqXrXwXwXrXrXkXfXrXwXwXrXfXrXrXvXvXkXvXfXkXkXbXkXwXwXsXsXvX;.| kXrXXXbXT._ 9XvX}.mX_.~.qXwX6X6X5X) A.bX1XkXbX} V.bX5XqXbX:.{.wX8XwXbXB.&.UXkX,XKXI.| tXbX5XKX}.I.5X7XwXvXbXHXbXbXbXfXrXrXfXfXrXtXtXrXrXqX0XqXqXqXrX9XbXKX=           % FXZXZXSXZXZXZX;X;X;X;X;X;X;X;X=X=X=X=X=X=XBX#X#XZXBX=X#X$XBXZX$X#XBXBX#Xb.b.#Xh.h.h.j.h.j.j.j.k.k.k.l.l.l.u.u.U.D.9X{ > l A.D.X.-.:.C.q.| ) / N z z z x r Y | P [ z 5 3 # O 5 5 2 I d.f.f.z.x.f.f.f.g.g.x.f.s.g.x.x.s.c.p.f.f.z.f.f.f.f.f.s.c.s.c.c.f.x.s.g.s.z.s.f.s.x.d.x.x.s.s.s.",
". UXJXwXrXwXwX7XjXkXwX8X8X8X8XjXrXwXwXwXsXwXwXfXsXrXwXrXwXwXsXfX*./ 9XoX].xX1.Q ,X6XT.xX`.~.9XwX8X5X}.W %.0X`.1XsX) &.wX`.].wX:.{.8X7XwXsX*.( qX+XG.vXS.W ,XqX`.vX|.G.5X0X8X8XwXdX6X6XOX5XqXqXqX0X9X1X5X9X9XqXwXqX9X6XqX5XkXKXo           6 SXZXyXZXZXZXZX;X;X;X;X;X=X;X=X=X=X=X=X$X$X$XCXZXZXBX$X=X$X#X#X#XBX#XBXh.b.h.b.BXf.#Xh.h.h.-X$Xj.$Xj.d.j.j.k.:XU.D.rXB.: & / I._ } :.D.;.| | E N s c c r r ! 7.Y ' z 3 5 # 2 O 4 2 i j.j.z.z.f.g.j.f.g.f.f.f.f.s.c.c.s.c.s.s.s.c.f.s.c.f.f.s.c.f.c.c.s.z.f.s.s.s.x.s.x.x.d.d.x.x.s.d.",
". bXbX0XwXwX7XwXwXxXsX8X7X8X6XwXfXsXjXwXwXsXwXvXfXjXsXsXsXsXsXxX%.) 9X5X'.vX:.) 5XOX'.xX`.`.0XwX8X6X XQ N.wX'.1XsX( &.wX|.|.6XS.{.wX8X8XsX} ( qX].).xX,.F {.6X).sX`.G.3XwX6X6X8XdX6X8X6X6X9XwXwXwX0X6X6X0XwXrXrXwXwXwX7X7XxXKXo           % DX;XZX;XSXeX;X;XZXyX;X;X;X=X;XZX=XCXZX$X=XBX#XBXBX$XBX#XBXBX#X#X#XBX#Xb.h.h.m.j.f.b.h.h.h.-X#X-X=Xh.j.h.j.j.:XU.Z.kXF., * x N._ ^ ;.F.N.N.| E N w x c e % ' | ' [ t 5 $ # # O 2 y R j.s.v.g.g.s.d.g.f.s.f.f.f.g.v.s.c.c.c.s.f.f.s.f.z.f.s.c.c.s.p.f.z.f.z.c.z.x.z.g.d.x.x.s.d.d.x.s.",
". kXJX0XsXwXqXwXjXwXsXwXwX8X8XwXvXsXfXjXwXwXwXsXjXwXsXsXxXfXfXbXO./ 9X+X'.vXA.( ,XOX'.fX`.`.qXwX6X6X XQ ;.6X'. XsX` &.wX|.'.wXC.,XwX6X8XxX_ Q 5X].).vX:.F {.6X_.xX`.G.3X9X0X5XwXwXwX0X6X5X5XqXqXwX8X6X5X6XsXwXsX8X7X8X9X9XbXJX@           $ SXZXZXSXZX;X;X;X;X;X;X;XZX;X=X=X$XBXBX#X$X$X$XBXBX$X#X#XBXBX#X#X#X$X#XBXb.g.h.h.j.b.h.h.h.-Xh.h.-Xh.j.h.g.$X;X*XD.tX[.f % 6 E ) ^ O.D.C.N.O.Q n 7 f z : $ [ 7.| 7.z $ $ $ O $ 2 y i d.f.j.d.f.f.a.a.s.a.d.f.f.c.c.f.c.p.p.c.z.f.f.s.c.p.c.c.c.f.f.f.f.p.f.z.z.z.s.s.s.x.s.x.x.d.s.z.",
". kXmXdX0XwX6X6XsXsX8XwX8X6X+XjXsXwX8X8X8X8X8X8XsXxXdXsXsXsXfXxX-.) 5X+X.XcX1.` ,XOX'.xXW.(.7X6X8X6XoXF &.6X_. XdXQ *.8X`._.8XA.,X5X7X8XvX_ Q 3X].(.vX:.Q {.7X).vX`.G.5X5X5X6XwXwX8X6XoX6XOX8XwX8X8XOX6X6X0X0XdX8XOX5XwX5XvXJXo       .   % DXZXZXZXZXeX;X;X;X;X;X;X=X=X$XZX=X#X#XBXBX#XBX$X=X#X$X=X$X#XBX#XBXBX#Xn.#Xh.h.g.b.h.h.h.M.-X$X#X-Xh.j.h.j.j.%XU.A.4X~.f * w M O.n ~ U.D.q.O.~ B 0 % e $ w y.7.7.7.7 e 5 $ $ O 2 2 i l.6.l.a.a.a.l.l.l.l.a.d.f.c.c.c.c.f.c.c.f.z.f.s.f.z.c.s.s.m.f.s.f.c.s.f.c.c.v.s.d.d.x.s.x.x.z.g.",
". bXJXcXdXxXcXjXcXcXcXcXcXcXzXNXmXcXzXzXcXcXzXzXcXcX8XwXvXxXsXvX=.F 7X+X_.vX1.( 7X8X(.xX`.`.5X6X6X5X XG *.oX<._.jXG J XX(.(.OXS.{.9X7XwXwX_ F ]._.<.xX:.D ).+X(.xX|.D.}.5XoX+XcXdXjXzXcXzXzXzXjX8XdXOXcXzXjXjXxX8X+XjXcXdXbXmXo           $ SX;X;X;X;X;X;XeXZX;X;XZX$X$XZXBXBX#XZXBX#XBXBX$XBXBX#XBX#X#XCXh.#Xh.#Xh.h.h.g.j.n.h.b.j.h.#X#X#XCXh.h.h.j.$X%X*XL.^.F.p $ % W V.v d ;.J.O.O.D k j $ $ $ t L.q.y.| 7 3 $ 3 # O 2 2 i 6.i 6.l.l.6.6.6.l.9.9.d.x.g.x.s.c.s.s.s.g.s.c.f.f.c.c.f.f.f.c.c.p.c.m.f.c.m.f.s.s.s.z.c.s.x.s.s.",
". [.zX3._.T.T.1.<.<.<.<.<.<.=.=.=.1.1.<.3.<.1.<.1._ B.wXwXsXsXxX` , ` ` G _.>.f ( ) Q `.`.~.5X0X6X5X].j a J G F ].K : G A J ].A.>X5X6X0XxX` : ` J J |.;.: Q &.J (.|.S.5X5X5X<.>.=.=.1.<._.<.<.<.<.<._.].<.<.<.<.<.<._._._.].cXo           e SXZXZXyX;XZX;X;XZX;XZXZXZXZX;X=XZX$XBXBXBXBXCXBX$X$X#X#X#XBX#X-Xh.#X#Xh.b.b.n.j.b.b.g.g.-X#Xh.#X-Xh.h.h.h.j.:X*X*XI.I.a * e ] V.g & U / ~ D g n m $ O $ t /.| 7.{ 7 $ 5 3 $ $ O y 6.i.6.6.l.l.l.6.l.l.l.a.z.g.s.z.s.s.s.v.s.f.s.s.s.z.z.s.c.f.s.s.s.c.c.s.c.c.c.z.f.c.s.s.s.s.s.s.s.",
"  E ` S V S k p h W ) F , < > * j < l , j , : h Z W -.wXwX8X6XsX` > a a a :.>.s T F.{.5X`.`.6X0X6X6X}.g & l j l ).D : j A G ).D.}.5XwX8XfX) > f , S {.;.s Y %.H.`.W.D.5X5X7X` A <.F.*.< < , < S j l K K , b *.*.*.G K G K G J X           % DXZXZX;X;XeX;X;XZX;XZXZX;X=X;X=X=XBX#XCXZX$X$XBXBXBXBX#X#XBX#Xh.h.-XCXh.h.b.h.h.#Xm.g.h.h.-X$X#X-Xh.j.h.h.-X$X<X^.<X,Xb * r %.A.v $ : d a d a M Y : $ : c L.| | ~ 6 5 5 3 5 5 y y 6.d.i.i.i.i.6.9.l.l.l.i.s.g.s.z.s.s.v.s.f.s.s.f.c.m.s.z.s.s.s.s.x.f.c.f.z.m.s.c.c.s.s.f.s.s.c.s.s.",
". ' { Z N P N f ~ U.9X,Xl > & r c S A j : > j y.*XqX5X9X8X8X6XdXO.f j v h A.N.T L.lXHXbX`.~.0X0X6X6X].l h A b b {.D , b Z D ~.S.|.9X5X8XxX) j h h &.4XN.Z y.*XbXjX`.D.,X5X8X_ &.qXbXoX< > > A m j j l l : ! /.lXqX) k A n D ~ .           % DXZXSXZXZX;XZX;XZX;X;X;XZX;X=X=X=X$X=X=XBXBX$XBX$XBX#X#X#X#Xh.-X-Xh.h.-Xb.h.h.m.h.#Xh.g.h.#Xj.#X-Xh.h.h.j.j.%X:XU.W.3XG # s y.Z.M & % p f k Z } ( w $ $ c A./ / M 6 $ 5 7 3 e y u 9.x.d.x.x.d.i.l.d.l.i.i.d.s.s.z.v.z.c.z.z.x.c.s.c.c.z.c.s.f.s.d.g.z.c.c.z.z.z.c.p.f.c.s.z.s.c.f.f.",
". <X9XU.U.>X>X/ [ <XkXjXA : * r c j A j w % t y.4XbXjX8X8X8X6X8X*.a x v x A.%.! y.4XbXbX`.~.wXwX6X6X].V b A b N {.D p b m Z ^.D.}.5X0X0XjX` r c j &.7X%.Z y.XXkXxX).D.1X9X6X*.%.7XxXXXa $ e c m j x N g s { {.jXbX[.K.U.L.>XyX=           % SXZXSX;XSXZX;X;XZXZX;XZX;X=X;X=X;XCX=X#XCX#XBXBXBX$X#X#X#Xh.-Xh.CXh.h.h.b.h.h.f.j.m.c.h.#XBX$X-X-Xh.h.h.h.j.$X*XI.I.rXQ * x P.U.~ : 7 f d Z ( ;.) x : O T /./ { m 7 6 3 4 5 0 8 y l.d.d.d.x.f.a.a.s.p.a.p.f.f.x.v.z.c.s.s.c.c.c.z.c.c.z.c.z.s.g.s.s.s.z.z.z.s.z.c.f.s.s.s.s.z.s.p.s.",
". HXKXqX0XrXvX;./ ^.7XoXS : # w c c m j : $ j y.{.wX7X7X9X8X6X8X*.j x b r L.:.T u.7XjXvX~.G.7XwX6X6X].n m M m N }.F r c m M U.S.}.6X6XwXjX( j c t &.XX&.G y.XXjXcX`.S.3X5X7X*.&.7XjX].a : : m T Y M v k f [ /.jXwX0XwXtX9XbXKX@   .   .   % DXZX;X;X;X;XSX;X;XZX;XZXZXZXZX=X=X#X=X=X=X=X$XBX=X=XBXBX#XBX-Xh.h.h.h.h.b.c.j.b.b.f.h.h.BX#Xh.#X-Xh.h.-Xh.h.$X%XU.F.qX} % m P.D.{ f d s c Y { A.&.Z : > &.jX%.%.P 4 4 4 4 7 8 8 u l.x.d.d.x.j.s.a.j.f.d.f.f.s.s.c.z.c.z.c.s.p.p.z.c.m.z.z.z.x.s.g.s.z.f.z.z.p.z.p.z.s.c.f.s.f.s.f.s.",
". UXJX7X6X0XfX*.! Z.F.H.l : $ w c c t : : : y y.L._.|.7XwX0X6X8XX., j x j L.%.A &.A.(.+X`.(.wXwX6X5X.Xl b T c Y [.D w c Y P I.H.}.6XwXwXjX*.t c T &./.&.*.&.%.XX X).A.,X6X6X) / P.`.S., : e [ y.L.Z.N v w ( A.(._.oXwX0X2XbXKXo           % DX;XSX;X;X;XZXSXZXZXZX;X;XZXZX$X#XZXZX=X=X=XBX$X$XBX#X#X#Xh.b.h.b.h.h.h.b.j.b.m.#Xb.h.g.h.#X$X$X-X-X-Xh.h.h.j.%XU.I.wX-.: T L.;.} h c c s A &.F.:.{ : > &.kX>.O.P 7 5 7 8 5 8 8 u 9.g.d.g.d.f.d.k.s.f.d.s.c.f.z.c.z.z.c.s.f.c.z.z.p.c.z.m.s.s.g.c.s.z.z.s.z.z.z.m.c.c.s.s.z.z.s.c.s.",
". kXJX7X0X0XxXO.R /.3XXXl > $ c y.y.N.A & : t y./.7X}.6X0X5X6XwX_ r j c j F.%.m y.~.jXjXW.`.0XwX6X6X'.V ! %.U.^.,XG T 7.*X>X,XS.}.wXwXqXlX*.A &.j./.4X&.j &.y.XX6X`.D.XX6X6X) [ ^.9XH., : y &./.4X^.k b j ! A.].|.}.wXwX9XbXKX@           5 DXeX;XSXSXZXZXZX;X;X;XZX;XZXCXZX;XBXZXCX=X=XBX$XBX$X#X#XBX#X#Xh.BXb.g.g.b.h.b.b.j.b.b.b.#X#Xj.-X-Xh.h.h.h.h.%XU.&X[.wX>.: ' N.%.A.A x z t A &.3XA.Z.t > y.lXN.N.c 7 8 8 5 5 t 8 u l.x.d.d.g.f.f.f.p.f.p.p.f.s.z.c.z.z.z.z.s.s.z.c.p.z.c.f.s.s.g.s.s.s.c.z.s.z.c.f.z.f.z.f.s.s.s.s.c.",
". jXmX8X8XjXcX>.| 4XbXjXl & & R /.kXHX:.& % c L.lXbXjX7XqX5XqXwXX.v c b z P.B.! L.qXbXbX(.).wX0X6X9X'.F { /.vXbXXXW &.L.lXbX6XS.,X6XwXwXfX{ ! u.lXbXjX;.W y.>XkXjX_.F.3X9X5X&.%.lXbXXX< % s y.4XjX5Xl k r &.{.xXjXzXOXcX8XbXJXo   .       % DXZXSXZX;X;XZXZX;X;X;X;X;XZXZXZXCX=XZXZX=X=X=X=X$XBX#X#XBX#X#Xh.b.#Xj.b.BXf.b.j.b.c.h.h.#X#Xh.$XBXb.h.h.h.h.$XU.*X<X0X;.f | V.N.[.Q v t s Y %.qX:.I.G & A.kXN.q.B 7 5 4 5 2 y 8 u l.d.d.d.d.f.f.d.j.p.f.d.f.f.c.s.z.z.s.s.z.s.s.s.x.g.s.z.s.s.s.c.f.s.x.s.s.d.g.g.s.x.s.x.s.s.s.s.c.",
". jXmX@X@X@X].X.&.>XjXjXD p % R P.lXbX1.& 6 c u.lXbXjX+XjX7X8XjX_ v Y A h /.:.W N.4XcXbXW.).5XwX6X5X'.Q &.F.jXcXzXY &.L.jXcX+XS.}.6XwXwXsX_ ( L.lXkXjX>.( N.XXkXjX~.F.3XqX6X&.&.7XvX]., : z &.3XjXOXn k j &.{.jXjX@X+X+X+XNXmXo           $ SXZXyXZXSXZX;XSXZX;X;XZX;X;X;X=XZXZXBX;XBXZXBXZX=X$X#X#X#XBX#X#Xh.c.n.h.m.b.b.b.h.b.h.h.h.#X$X#XBXBX#Xb.b.#Xj.%XU.[.1X>.h y.Z.P.1X~ x s r Z y.jX-.I.&.& N.rXO.] z 3 2 e e e y 8 u a.x.d.d.g.p.f.d.p.f.p.f.p.s.s.z.z.x.s.g.s.s.x.x.s.d.z.z.s.z.f.s.s.s.s.x.s.s.s.s.s.s.s.s.s.x.s.c.s.",
". *.1.J F F G n &./.7XXXD z s T P.jXcX>.p 7 L L.XXjXzXlXwX7XwXjXX.m ' ! ! /.>.W y.{.jXjX`.W.5X0X6X2X'.F | F.+XjX+X( [ F.7XzXoX>.[.wXwXwXjX*.[ y.XX7X8X;.Y y.{.jXjX(.H.3XqX7X_ %.3XxX'.f : c %.XXjX+XS N j &.`.8XzX=.H J J =.:.X       .   % DX;XZX;XZX;XZXZX;X;XZXZX;XZXZXZXZXZX&XBXZXZXBXBX$X=X#X#XBX#Xh.h.h.b.m.h.m.#XBXm.b.j.g.h.-X#X$XBXBXBXh.BXn.#X$XL.%XI.}.B.M V.N.I.1X/ h s r m N.kX-.`.A., V.qX| ] 0 5 5 y e $ t y i i.d.d.d.g.f.f.p.d.f.p.f.f.c.p.p.c.z.s.s.s.s.g.s.s.z.s.f.s.s.z.c.s.s.g.z.s.s.s.s.s.s.s.s.x.s.s.s.c.",
"  m A g p d n d R &.&.O.E N f x / *.=.F 7 7 z [ *.*.%.jX8X8XwXvX_ z T E T >XN.x / &.*.~.[.G.5X6X6X6X}.A ! &.>.S.].G Y &.&.>._.A.|.0X6XwXjX( m &.&.=.|.N.b ) *.:.(.F.F.}.6X+X` Z _ -._ d r r ! *.1.>.n m r ( -.>.>.G g d k v N .           3 SXeXZXSXSX;XZXyX;X;XyXZXZX;X;XZX;XZXVXZXZXZXZXZXBXBXBX$X#XBXBXj.h.b.g.b.b.b.b.h.j.g.g.h.#X#Xh.BXBXBXh.BXb.b.j.%X*XL.W.B./ A.| W.wX} h r t m A.lX*.H.A.a B.9Xq.| z 5 3 e 5 e y 8 i d.x.d.d.x.s.j.s.s.j.a.d.f.c.z.z.c.z.s.f.s.s.s.s.s.f.f.f.s.z.s.z.z.s.s.d.z.g.s.s.s.f.x.s.s.d.s.z.f.",
". L.U.q.V.J.K.J.y.N.N.A.D.U.V.N.A.A.A.Z.K.J.7.y.N.;.S.0XwXwXwXvX} ~ %XJ.L.HXF.! /.^.:.jX{.F.5XwX6X6X}.V ! N.} S.8XW ! A.;.D.5X:.{.6XwXwXxX) x { { _ 5XU.N y.V.*.}.[.S.,X6XoXB.} | } | J.V.| [ | &.} 7.V.7.| | } } N.q.| | L.%XX       .   $ FX;X;XSXSX;XSX;XZX;XSXZXZX;XZXZXZXZXZXZXZXZXBXZXZXBXCXZXBXBX#Xh.g.h.g.g.b.j.n.v.j.c.h.b.h.#X$X#XBXj.j.b.b.#Xj.%XL.U.W.F.} V.| I.rX;.k s r L L.qX_ S.C.k D.4XN.| t 3 5 e 3 e t y 6.d.x.d.g.f.s.d.k.f.f.d.p.c.f.s.s.c.f.s.f.s.p.m.p.z.s.c.s.z.p.c.s.z.z.z.s.c.x.s.s.x.s.s.x.s.s.d.s.z.",
". HXKXrXbXtXrXrXeXqXrXrXtXrXtXfXvXjXrXkXUXHXbXkXkXkXwXwX8XwXsXxX>.V.kX9X0XJXD.&.rXvX].JX}.I.9X6X6X5X5X) Z.kX{.rXbX_ y.bX,XvXvX>.|.wX5X8XjX&./ 4X,XI.bX`.{ tXkX{.JX1XD.,X5X5XrXrXrXbXfXvXrXrXtX9XqX9XtXtX9XtXtXtXtXrXtXtXkXHXIX=           % SXZX;X;XZXSX;X;XZX;X;XZX;XZX;XZX;XeXZXZXZXZXZX=XBXBX=X$XBXBXh.h.j.g.b.h.v.b.j.b.b.j.f.c.j.h.j.BX#Xb.$Xh.m.h.j.$X%XU.[.W.N.7.7.^.tX:.b r r A P.5X) :.S.F D.4XV.' 7 3 3 4 5 e t y 6.d.g.d.d.x.x.g.s.s.p.f.p.s.s.f.d.f.s.s.f.p.f.z.z.p.z.s.f.p.p.z.z.z.x.z.s.c.s.x.s.x.s.s.s.x.z.z.z.s.",
". HXKXwXqXqX7XqX5X7X6X9X5XwX6XwXqXwXwXjXtXrXwXjXjXwXwXsXsXwXfXwX_ %.wX].|.mXH.` 3XOX`.vX`.(.qX8X6X1X XQ ;.vX|.6XwX` N.qX|.oXjX:.|.wXwXwXjX&.[ qXXX`.vXH.( ,XwX).vX|.G.5X6X5X5X5X6X0X0X5X9XtX9XrXfXwX0X9XqXfXfXwXrXwXjXwX7XvXJXo           $ SXZXZXZXZXZXSX;XZXZXZXZX;XZXZX;X;X;X;X;X;X;X=X=XZXZX#XBXBXBX#Xg.j.b.b.h.j.n.c.h.h.g.h.b.h.h.BXj.#Xf.h.h.g.g.h.%X%XP.[.[.N.| 7.*X9X>.b w r c ^.{.) S.W.} C.>X7.T 7 3 4 4 5 e t y 6.x.d.d.j.x.x.z.p.d.j.p.s.f.f.f.f.f.s.f.c.s.f.z.z.z.z.s.z.z.c.p.z.s.v.z.s.f.s.d.d.z.x.d.s.x.c.p.p.z.",
". kXKX7X7XwX8XwX7XwX8X5X5X8X8X8XsXwXwXqXqXwXwXwXwXjXwXsXwXwXsXwX` } 0X).).bX:.) 5X6X`.xX`.(.qXwX6X5X}.Q &.8X). X6XQ %.wX).}.6XB.{.0X8XwXxX} ( qXoX|.jX:.D [.5X(.8XG.H.5X X X X5X6X2X6X1X6X5X5XwX8X6X6X6X9X8X8XwXwX8X8X7XXXkXJX=       .   % DXZXZXyX;XZX;X;X;XZXZXZX;XZXSX;X;X;XZX;X;XZX;X=X=X$X$X#X#X#Xh.b.n.j.h.b.c.b.b.g.g.g.h.f.h.h.m.#Xj.BXh.h.h.j.j.j.L.U.W.[.O./ B.[.,XO.b w w b *X[.( H.[.H.:.D.| P 7 3 5 5 5 7 y 2 l.x.x.x.d.x.z.d.d.f.f.f.s.s.s.f.f.d.s.p.c.m.z.z.z.z.s.z.z.z.z.c.z.z.s.z.s.s.x.d.x.z.z.x.x.d.z.z.c.z.",
". kXJX5XqXwX6X6XqXwXwX6X0X0X7X8XsXrX7XwX8X8XwX7XwXwXwXwXwX8XwX8X_ { wX_.'.vX>.) 5XOX].bX[.`.qXwX6X5X}.Q ;.wX).1XqX( ;.wX`.}.qX:.{.8XqXwXsX_ ) 6XOX`.sXC.Y [.oX(.sXW.G.7X5X{.}.oX6XwX5X5X5X5X7XwX0X6X8X7X5X7XqXsXwX0XwXqX5XbXKXo       .   6 SX;XZXZXZXZX;X;XZXZXZXZX;X;X;X;X;X;X;X;XZX;X;X;XCXBXBX$XBXBXb.b.h.b.j.n.c.b.f.j.f.g.j.g.g.h.h.j.BX#Xf.#Xm.h.j.$XL.L.I.I.} ] J.`.W.O.n w w c *X^.( I.0X,XO.N.| N 7 4 5 5 5 4 t 8 6.x.d.f.f.z.s.p.p.f.s.f.f.s.f.s.f.d.f.s.c.f.c.z.z.z.z.z.z.z.s.g.x.x.s.s.s.s.g.s.x.x.z.z.m.s.z.s.c.p.",
". rXmX6XwX6XOXoX5X8XsX6X6X6XoX8XwXjXwX8X6X8XqX8XdX8X8X8X8X8XdX8X` *.7X].'.bX-.`  X6X_.cX'.I.qXwX6X5X XQ ;.wX`.1X8X) } wX).}.7X:.|.5X9XsXxX_ ) oXoX'.vX:.F {.+X).xXW.F.3X5X}.].oXoX5X5X,XoXoX5X7X6XqX9X8X5X7XwXwX8X7X0X0X9XvXJXo           3 SX;X;X;X;XZX;X;XZXCX=XZXZX;X;X;X;X;X;XZXZXZX=X=X;XZX=XBXBXBXj.c.j.h.b.v.b.b.j.n.v.g.j.f.j.h.h.b.j.b.j.m.g.h.j.$XL.P.I.I.} | U.,XD._ n w w m 4XF.Q /.bXrXB.} | c 6 4 4 5 # 4 y y 9.z.s.f.f.z.z.f.p.f.p.d.d.p.m.s.p.f.p.f.c.m.c.p.z.z.z.z.p.z.s.s.s.f.v.s.s.s.s.s.d.d.z.z.s.z.z.z.c.p.",
". bXmXdX8X8X+XoX8XsXxX+X8XdX+XcXcXcXcXzXcXdXjXcXcXcXjX8X8X8X8X8X` ` OX]._.bX=.Q 6X8X_.bX`.I.9XwX0X5X X( -.jX_.5X8XJ -.xX|.+X8X:.|.5XwXsXjX*.` jXOX].vX1.G _.+X_.cXG.G.3X5X}.].8XzXjXoXoX+X+XzX+X8X8X+XdX7XzX8XdX8X+X8XcX5XbXmX@           $ SXZXSXZXZXZXZXZX;XZX;X;X;X;XyXZX;X;XZXZXZXZX;X=X;X$X=XBXBXBXh.b.h.b.h.j.b.b.v.v.f.g.g.v.c.c.g.h.#Xc.j.b.h.g.j.j.J.L.U.W.;.N.U.>XD._ A r e m 4XA.Z /.KXvXN.) ] z 7 4 4 5 # 4 8 u 9.z.s.f.f.s.s.f.p.p.f.f.p.p.c.f.f.s.p.c.f.m.z.p.z.p.z.z.z.z.z.s.s.z.z.g.s.z.s.s.x.d.p.c.p.z.z.c.z.z.",
". kXmXOX+X+XoX_.`.].'._.].+X_._.]..X@X_.+X+X_._.).(._.8XwXwX8X8XF S >.=._ 6X=.j &.>._ ].).I.9XwX6X6X,XG ` `.1.T.OXK ( _.1.T.5XS.|.6X9XfXjX` b (.<.>.7X>.b -.<.=.].I.G.3X1X}._._.]._.3.].+X_._._._._.].+X_.].@X].@X+XOXOX6XcXmXo           % SX;X;X;XZX;XZX$XZXZX;X;X;XZXZXZXZXZX;XZXZX;X;X=X=X=X$XBXBXBXj.h.c.j.j.h.m.c.v.f.f.g.g.j.j.h.g.h.m.j.c.b.h.h.j.$Xj.L.W.W.B.A.D.U.C.B.( r : A 4X%.A /.HXrXC./ ! z 5 4 4 4 5 4 y u l.z.s.f.m.z.z.c.p.f.f.p.f.f.c.p.f.f.f.p.z.p.z.z.f.z.s.m.s.c.c.s.s.s.s.s.s.s.s.s.s.x.z.c.z.z.z.s.z.p.",
". _ =.F F G F l G &.;.-.K J S S J K K K G S l F ;.1.S.8X0X0XwX8XF : j l a G.*.f E %.A.|.`.G.9XqX5X5XoXb > G S _ ].k : n k G [.S.|.6X0XsXsXQ : W -.*.W.:.& k b l S.^.I.5X6X5XJ < S l S K *.S l K S S J X.S l K K K J ` J ` =.:.X       .   % SX;X;XZXZX;X$X;XZXCX;X;X;XZX;XZXZX;X;X;XZX;X;X=X=X#X#X#X#Xh.c.g.h.g.v.f.j.c.f.f.f.v.g.f.f.g.j.g.c.h.b.b.h.j.j.$X%XV.U.^.N.I.D.D.C.I.&.r : R 4X&.A A.tX0XG.] Y s 3 5 5 4 5 y y u l.z.z.c.m.s.c.c.p.s.c.p.p.f.z.f.m.d.m.s.s.z.d.z.z.z.s.z.s.c.s.z.s.s.z.d.s.s.x.s.s.s.c.z.p.p.z.z.z.z.",
"  b G f & a , : ! P.qX6XK , > , l l h a , > f %.3XbXsX8XwX0X6X6X` j b k h /.;.Y y.<XbXbX|.W.5XwXwX6X6XA r h M ) `.A r L P ~ >XD.}.wX0X8XsX_ T y.3XkXwX:.p x b N A.[.G.XX6XwX` , j < , , < > a j < , < g , , k a a a k g k n U .           $ FX;X;X;XZXCXZXCXZX;X=X;X;X;X;X;X=XZXZXZXZXZXZX;X=XCX#X#X#Xg.h.c.g.g.v.j.n.f.s.f.f.f.v.g.g.g.g.g.j.b.b.h.h.b.c.j.$XJ.U.I.N.I.U.I.W.,X:.j : ! 4Xy.W y.9X9XI.} P e 4 5 8 4 5 4 8 u l.z.d.z.f.c.z.c.f.c.c.c.c.s.p.c.z.f.p.z.c.c.z.z.z.p.s.z.c.p.f.s.c.f.s.g.s.s.s.s.s.s.p.z.z.z.z.s.z.d.",
". V.Z.7.7.w.7.N / /.jXcXK , & f b n b f w : x N.>XjXxX8XfXwX8X6XQ h c A b P.;.T y.>XrXvX'.I.9XsXdX6X5XF T [ J.P.XXT R u.*X<X3XZ.}.6XwXsXsX_ ! Z.3XvXxX>.f x m b V.^.G.5X7XwX} k b x x w l a h s b x x v 6 r h h x | V.V.V.J.%XX           6 SX;X;XZXZXZX=X;XZXCX=XZXZX;XZX;X;X;XZXZXZX;X;X=X=X#XBX#X#Xh.h.b.g.j.g.v.v.f.f.f.f.v.g.g.g.g.g.h.g.g.c.h.h.c.#X$X%XJ.D.D.N.[.W.U.4X9XA.h w ! 4XA.&.A.tXqXF.| P 4 5 5 8 4 5 8 y i l.d.z.f.s.c.c.f.m.f.z.z.s.z.p.c.z.s.z.z.z.z.z.z.p.z.c.z.m.s.s.s.z.f.s.x.s.d.g.s.x.s.z.z.z.z.z.p.z.s.",
". bXKXtXUXHXHX} ( /.jXcXK & % r m m b f : : t y.{.xX8XwXwXwX6X6X` x m L c P.N.( y.^.jXxX|.I.9XwXwX5XXXW [ L.qXkXXXT &.u.eXkX7XS.XX0X8XwXwX{ ! y.3XjXxX>.f v m b ;.`.F.7X6X7X_ h j c z w j : x c t j k n & w z c c <XrXrXUXHXKX@           5 SX;X;XZX;X;X;X=X=XZX=XZXZX=X;X;X;X;XZXZXZX;X=X=X#XZXCXBX#Xh.b.b.g.g.g.v.c.f.v.c.f.c.g.f.g.g.g.g.g.g.h.b.h.j.c.$X$XL.L.C.N.[.I.I.>X2XF.c w ! >X/.F.A.tXrXC.| P 7 5 8 8 4 5 8 8 i a.z.p.s.s.c.c.s.d.p.z.z.s.z.f.s.f.m.z.z.p.z.z.z.z.z.z.c.s.f.c.s.f.s.s.s.s.s.s.s.z.x.c.p.z.z.c.c.s.s.",
". kXJXqXwXwXbX>.( P.XXXXG & 6 r b c c f p % r %.(.XXXXjXwXwX8X6XF s c L c /.*.A &.L.(.+X].(.qXjXwX6X5XQ ! N./.XX+XZ ! y./.XXXXA.,X8X8XjXjX( A &.F.].8X>.: c A x N.~.H.4X9X0X_ h c c x f j : z c m b d k % e s t x /.rX0XwXbXJXo           % SXZXZXZX;XZX;X=X=X;X=X;X;X=X;X;X;XZXZXZX=X=X=X$XBXCXBXBXBXm.#Xm.#Xf.f.v.v.c.c.c.c.c.g.g.g.g.f.f.b.j.h.j.h.h.h.#X%X%XI.U.P.,XI.I.<X1XL.A : [ ^.kXkX/.>X4XC.| N 7 8 5 8 8 4 8 y i a.d.z.p.f.c.z.s.s.s.g.s.g.s.z.f.s.z.m.z.p.z.z.i.z.z.z.z.z.p.m.s.f.f.s.c.p.p.f.z.s.s.c.z.s.z.z.p.z.m.",
". UXJXwXjXsXvXO.Z y.(.).S : 6 r R y.y.m - 6 r [ y.{.(.jXsXwX8X8XQ c R y.y.>X&.h &.y._.XX{.~.qXrX0X6X1XG Y %.F.{.XXZ T y./.{.3XS.,X8XwXdXjX*.A &.F.{.OX>.: j t r &.W.F.3X6X5X) m 7.L.} : , w T y.L.V.d h p P 7.L.L.,XrXwXwXbXJXo           % SXZXZXZXZXZX;X=X=XZXZX=X=X;XZX;X;X;XZX=X=X;X=XZXCXCXBX$XBXj.j.f.c.j.f.c.v.f.c.c.v.v.s.g.j.f.g.f.v.h.h.g.h.h.h.j.j.L.D.I.I.}.P.K.9X2X~.W r &.4XbXJX/.{.9XU./ z 4 8 8 8 5 5 y y 6.i.z.z.f.p.c.f.s.s.z.s.s.s.s.s.f.c.c.f.z.z.z.z.z.z.i.z.z.z.z.f.s.c.s.f.s.c.c.p.z.m.z.z.z.z.z.z.z.z.p.",
". kXmXwXxXjXcX-.[ /.4XOXK : 6 L u.4XkX*.: 6 x %.^.jX7X7XsXwX8X6X( R u.:XDXkX&.D y./.kXcX'.I.qXvXwX6X6XF ' y.jXjXXXT R u.qXjX}.S.XXqXwXsXjX/ ! y.3XjXjX>.r c t x | ^.F.5X6X5X_ &.4XHXXX, : r y.:XUXqXa p e [ /.kXjX8XwX8XdXcXJX@           3 DXZXZXZXZX;X;X=X=XCXZXCX;X=X=X=X;X=XZXZX;XZX=X=XZXBXBXBX$Xj.h.j.h.v.f.v.v.c.c.b.c.j.g.g.j.g.g.j.m.#Xb.g.h.h.h.h.$XL.A.U./.[.F.U.9X<X~./ x L.kXbXPX/.>XtXU.] s 4 5 8 8 5 8 y y 6.p.z.p.s.p.f.z.f.s.s.s.s.s.s.s.f.p.c.z.c.z.z.z.z.z.z.z.p.z.p.s.c.c.f.f.z.p.z.z.z.z.z.z.z.s.z.z.z.z.z.",
". bXmXcXcXcXmX1.[ /.jXjXF : % T /.jXbX>.: 6 c y.{.jXjX8X8X6X6X6XJ [ u.4XkXjX=.W y.>XjXjX`.I.qXsX6X6X XQ { L.jXjXzXW &.L.lXvXoXS. XwX8XjXjX*.( A.jXjXcX:.c R 8.| L.[.G.3X5X5X_ &.XXbXXX, : j &.{.jX7X, : : *.~.jX+X+XcXcXjXmXmX@       .   5 SXZXZXZXZXZX;X;X=XZXZX$X;X;X;XZXZX=X$X;X=XBXBXZXBXCXZXBXBXBXf.f.j.f.v.f.f.f.c.c.c.c.s.j.f.g.g.g.b.j.b.b.h.g.h.h.h.L.D.W.I.~.N.P.<X[.{.[ c *XkXjXPX~.}.fXI.| t 4 8 8 8 5 5 8 u 6.d.z.z.f.f.z.s.s.z.s.s.g.s.s.f.p.f.p.z.c.z.p.z.z.z.z.z.z.z.z.c.c.c.p.f.c.p.z.z.s.z.z.z.z.z.p.z.z.d.s.",
". XXdX_._._.].J *./.jXzXF f r T P.3XjX&., 7 c N.XXjXOX7XwX8X6X6X( &.y.4XjXjX=.W N.~.jXxX).I.qXsX8X6XoXQ { P.7XjXXXW { L.lXjX}.<.}.wXwXsXsX_ ( A.XXzXjX:.T u.*XlXtX~.G.5X5X5X_ &.XXcX]., 7 s %.(.cX].f 7 r &.(.jXOX1.=.=.1.).].X       .   % SXZXZXZX;X;X;X=XZX=X;X=XZX=X;XBXZXZXZXBX=XZX=X=X$XCXBX$XBX#Xh.j.f.c.v.f.f.c.c.c.c.v.g.f.g.g.b.m.#Xb.h.c.BXh.h.h.j.L.Z.F.W.[.N.Z.U.S.}.| m >XvX9XJX{.[.fXU.] t 4 8 8 y 2 2 y u 6.i.d.s.s.s.p.z.s.s.s.s.s.s.f.s.f.s.f.p.c.c.s.p.c.z.z.z.z.c.s.p.c.s.c.z.c.p.p.c.z.z.z.z.p.z.s.s.z.s.z.",
". Q ` K S l l d [ Z.(.W.D N r Y N.F.].` & 7 z %.A.(.(.wXsXwX8X6XF T &.A.F.7X_ A %.B.G.}.`.G.qXwX6X6X}.G ! %.A.G.XXW R &.A.F.|.S.}.qXwXsXsX{ Y %.A.(.XXA.Y | N.L.{.`.G.3X6X6X) { A.(.>.j 0 t / &.>.-.d 0 e T %.>.:.k > : , n V X           $ SX;X;X;XZX;X=XZXZX=X=X=X=X=X;X=X=X=XBX;X=X=XCX=XZX=XBX#X#Xh.b.f.h.b.f.v.c.f.f.v.j.f.g.g.g.g.j.b.h.j.h.b.b.g.h.h.$XL.L.I.,X>X;.A.I.C.}.N.Z >XtX,XKX[.W.,XZ.~ 7 4 4 y y y 2 y y l.x.d.s.z.z.z.s.g.s.z.s.g.s.c.s.s.z.f.s.p.s.s.c.p.p.z.m.c.s.m.c.p.p.z.p.z.c.z.c.z.s.z.s.m.s.s.s.s.s.z.",
"  ~ { P M P n d T ! Q ) E E m P ] ) } Q N N c E ( F *.qXsXsX8XsXW c ! Y ( 7X;.d / [ F S.[.I.5XwX6X6XXXA Y &.` :.4XD Y %.*.&.XXA.{.wXwXsXxX_ x / { ) ].F.h / { / I.}.G.5X5X1X) M Q ( ( ] 7.P ~ { _ ) 7.7.R ! ! ! / ] ' P Y { 7..           $ SX;X;XZX;XZXCXZXZX#X=X;X$X=X=X$X=XZX;X;X=XBX=X=X=XBX=X$XBXh.#Xb.f.c.n.f.c.f.c.f.f.v.g.g.g.h.f.j.h.h.g.g.b.g.h.h.j.L.Z.I.5X[.N.Z.,XG.,XA.Z >X1XI.KX^.U.W.V.P t 4 8 8 4 5 2 y y l.i.d.z.d.z.z.s.s.s.x.x.s.s.s.f.f.s.s.s.p.p.f.c.z.p.f.c.z.c.f.c.p.s.c.z.z.z.z.z.z.z.z.f.s.s.s.z.s.z.s.",
". <X9XU.U.W.&XU.%XU.U.I.>X<X>X^.>X<X[.<X<X<X*X/.^.{.XXqXwXwX8XxX*.[ 4X/.(.bXZ.! <X3XI.vX,XI.qXwXwX5X5X) y.tX[.0XkX{ N.tX/.7XwXA.,XwXwXsXvX;.{ <X{.~.bX~.~ <X4XI.bX5XI.3X5X1X}.I.^.[.{.4X9X>X>X4X4X2XtXHXkXkXbXHXHXHXfXtX9XDXKXX       .   % FX:X;XZXCXZX;X=XZX=X=XBXZXZXBXZX=X=X=X$X=X=XCX=XZX$X=XBX$XBXh.c.j.h.j.f.c.c.f.c.b.c.b.v.v.b.b.c.j.j.h.b.h.g.h.j.h.j.L.F.9X[.B.I.rX[.}.F.Y >X}.G.HX[.I.[.O.N 7 8 4 4 5 5 2 y u l.d.x.d.p.z.z.x.s.z.z.z.s.s.x.z.s.f.z.s.s.s.m.c.z.m.f.c.s.p.z.s.s.f.p.p.z.z.d.z.s.s.x.s.s.c.s.s.g.s.s.",
". DXKXrXrXrXrXkXkXvXjXkXwXrXwXkXvXfXUXtXvXkXkXrXkXvXfXwX0X8X8XvX;.V.HX6X5XmXB.) 9XrXXXmX}.I.5XwX6X5X5X^ Z.bX}.wXkX) B.kX{.6X8XB.}.9X9XwXsX>.%.bXwX5XbXG._ 5XvX}.mX,XI.5X8X6XwXqXrXqX7XqXwXqXrXrXrXrXrXfXrXvXkXsXvXfXfXwXrXHXJXo           $ SX;XZXZXZXZXBXZXZXBXZX$XCX=X=XBX=XBXZXBX=XBXBXZXZXBX$XBXBXBXh.j.c.b.f.f.v.c.c.f.v.f.j.v.c.#Xc.h.j.h.h.g.g.g.h.b.j./.L.C.}.[.A.I.rXG.[.I.D 3X[.C.bX<X2XtXV.x 7 4 8 7 4 5 8 y u l.i.i.i.z.d.d.z.d.d.x.s.d.x.s.g.s.s.s.f.p.p.z.s.m.z.s.s.s.s.f.s.s.s.s.s.s.s.s.s.s.s.s.x.s.s.s.z.f.s.s.",
". bXHX6XwXqX9XqXjXwXwXwX7XwX7XwXwXrXrX7XwXqX7XwXqXrXwXwXsXwXsXvX-.} wX'.`.bX>.( ,X9X~.jX|.I.9XwX6XoX}.Q y.9X).XX6XQ ;.5X(.].6X<.}.8XwX0XsXO.{ qX+X`.xXA.F [.8X`.xX|.G.5X6X5X6X5X5X5X7X5X5X5XwXwXrXwX6X6X8X8X8X8XwX6X6XwXwXmXJX@       .   % FXZXZXZXZXZXZXBXBXZXBXZX=XZX=XBXZX=XBXZX$X$XBXBX$X$XBXBXBXBXBXc.c.b.v.f.j.c.b.f.f.b.c.b.c.j.h.h.f.h.h.g.g.h.b.h.h.k.L.D.I.W.Z.I.1X;.I.I.! 9X>X;.1X<X4X2XV.B 4 4 y t y 4 8 y i i.d.i.x.z.z.z.d.z.d.x.s.s.s.s.d.s.s.s.s.s.c.m.z.z.c.z.f.s.s.s.s.s.f.s.s.f.s.s.s.s.z.z.f.s.s.s.p.p.f.s.",
". bXnX0XwX6X9XqXwXwXrX7X7X8X8XwXxXfXwX8X6XwX8XwXsXsXwXdXdXwX8X8X_ &.sX'.|.vX>.! 3X6X).xX|.G.9XwX6X5X.XE N.7X).5XoXQ ;.wX`.].5XB.XXwXwXwXwXO.` qX X).vXB.W [.6X`.vX`.G. X5X5X6X6XwXwX8X8X7X6XsXxXsXwX6XwX8X8X8XxXwX0XqXwXwXbXJXo           % SXZX=XZXZXBXZXBXBXZXZXBXBXZXZXBXBXBXBXBX$XZXZX$XBXZX#X#X#XBXb.j.j.v.g.g.n.v.v.f.c.f.h.j.c.h.g.h.j.BXg.g.g.h.b.h.h.%XL.D.I.I.P.I.,X:.W.,X) 9X[.} 4X<X<X[.| z 7 5 8 8 8 4 5 8 i a.z.d.i.z.d.z.z.d.d.d.s.s.d.s.s.s.s.s.p.f.z.z.s.c.z.p.s.f.s.z.s.s.z.s.f.p.f.p.s.s.s.d.s.s.s.f.s.s.s.c.",
". HXJXwXwX0X5X7X8XjXwXqX6X6XwXrXsXsXsX8X5X5XwXwXwXsX8XwXwXwXwX6X` _ sX'.'.bX:./ ,X8X).vX].G.qXwXwX6X}.F N.8XG.OX6X( ;.wX`. X6XB.}.qXwXwXxX-._ qXoX_.fXC.( >X8X'.vX`.G.,X5XOX6X6X0XwX6X+X8X6XwXsXsXwX0XwX5X6XsXjXwX0XwXsXjXbXJXo   .       $ AXZXZX;X=X=XBXZX$XBXBXBXZXBX$XBXZXBX=XBXBXBXBXBX$XBX#X#XBXBX#Xc.c.b.g.m.v.c.f.n.j.h.c.BXb.g.h.g.j.m.j.g.g.h.g.g.j.$X%XP.D.I.I.`.,XC.,X9X) <XI.O.kXrX>XW.^ z 4 8 8 7 7 4 4 y 0.d.z.z.x.z.z.d.d.d.d.d.d.x.x.s.s.s.z.z.s.z.z.p.z.z.z.z.s.s.s.s.c.z.f.s.f.p.p.f.g.s.s.g.s.s.s.s.s.s.f.c.",
". vXJX6XwX6XoX7XjXwXjX+XoXOX5X8XjXcXcX8X6X+X+XjXsXsX8X8XwXwXwXdX` ) 8X].|.bX>.( XX+X_.xX|.G.5XwX6X6X}.F >.8XH.8X6XQ >.8X_.oX6XS.|.8XwXsXxX>.` 6X+X_.cX:.( XXzX].cX`.I.9X5XoXOX8XzXjXOXjXcXjXcXcXxXsXpXjX+X8XjXjXxX8X8XdX8XmXJX@           $ DXZXZX;X%XBXZX$XBXBXZXBXZX$X#X#XZX=X=X$XBXBXZXBXBX$X#X#XBXh.j.m.h.g.b.g.c.c.c.b.c.h.g.h.h.g.h.j.j.b.g.h.g.h.j.j.j.j.%XU.I.I.G.>X2XF.,X0X} I.N.A.KXHX>XD.~ r e 8 8 4 y e 2 u 6.d.d.d.z.z.i.x.x.d.d.x.s.d.x.d.z.d.z.z.s.z.z.z.z.z.d.d.s.d.s.c.f.c.p.p.p.p.j.s.f.s.s.c.s.s.s.s.s.s.f.c.",
". bXmXdXcXcXdXdXcXcXcX+X8XcX+XcXcXjXcX7XcXjXOXjX8XwX6X7X6XwXwX6X` ` oX_._.cX=.G [.+XF.xX'.G.9XwX6X6X|.S ` +X<.`.6XG ` _.<._.6X,.}.wXwXwXsX-.( oX+X(.cX>.F ].zX_.vXT.G.,X5X}.XX+XXX+X@X+XzX].].+X+X].+XzX@X+XzXzX+X+X+XOX+XcXmXo           6 SXZX;X;XVXZXZXBXBXZX=XCX#XBX=X#X#XBXBX=XBXCXBXBXBXZXCXBXBX#Xh.h.m.b.g.v.v.v.n.j.f.h.h.h.g.h.g.h.f.v.h.g.g.g.h.j.j.j.%XU.I.W.I.[.,XI.,X[.} D.) S.KXHX<XK.E 7 4 5 e 8 $ y 2 2 6.i.z.d.i.z.z.d.d.d.d.d.x.x.x.d.d.p.z.z.z.d.z.d.d.z.z.d.s.s.s.s.s.s.p.f.d.f.d.f.f.s.c.f.s.s.f.s.s.s.s.s.",
". 5X+X_.<._.T.1.1.1.<.1.<._.1.>.<.<.<.1.<.<.=.*.>.>.S.wXwX0XdX6XF , ` J F XX=.: ( *.F G.}.G.9XwX7X8X_.< , J S J ].l > G K F ].S.|.wXwXwXxX*.< *.=.J ].=., G J K H._.G.5XqXOXJ K J J K J =.S K K K K S K < < K K J _ =.=.=.1.1.X       .   & SXZXZXZX=XZXZXVXZXBXCXCX#XZXBX=X=X#XBXBX$XBXZX$XBXBXZX#XBXb.h.j.c.c.v.v.v.v.c.v.j.b.g.h.g.g.h.b.c.b.g.g.g.g.h.g.j.j.%X*XW.U.D.F.I.G.[.I.;.S./ B.HXHX,XL.m 7 3 5 e e 5 5 2 2 6.z.i.d.z.z.d.d.x.d.d.z.z.z.z.d.d.z.z.z.z.i.z.z.z.d.s.s.s.s.s.f.p.f.p.f.f.p.d.s.s.c.f.s.s.s.s.s.s.p.s.s.",
"  Q J l a l l < j < l < S G < , h l l j < < > , J &.(.wXwX0X8X6XG : a j f I.*.> j S l ;.}.G.qXwX8X7X_., @ , , S {.S : h v n ~.S.}.8X8XwXxX` * f k j H.-.& , a a >.[.I.5X8X8XS > , j < , l > , j l l , , > > j j a k k k k n b .         . 5 SX;XZX$X=X;XBXZXZXBXBX=XBXBX=XCXCXBXCX$X=XCXBXBXZXBXBXBXBXBXb.h.b.c.f.j.v.v.b.j.v.c.h.h.b.j.h.n.j.h.g.h.g.h.h.g.j.j.j.%XI.U.C.C.I.D.W.S.S.C.E B.HXHX>XV.z 7 4 5 y y e 2 2 y 9.z.d.z.z.d.x.x.d.x.z.i.x.d.z.x.z.z.d.p.z.z.z.i.d.z.s.s.d.s.d.f.f.f.p.f.f.p.f.f.z.f.s.p.f.s.s.f.s.s.s.f.",
". E Q N g c B f A j n b l n j a N b A j : : & a Z ( :.jXqX7X8X6XQ h Z b h U.;.: c Z b %.3XG.0XqX8X6X'.a s z d E }.n w m Z W ^.A.[.6XwXsXxX_ , B N b I.;.& x P h :.^.(.5X7X8XG f c m v p b : j b N n f f : r v b n ' %.| | N.V.X           % SX;X;X;X;X=XCXZXCXZXBXCX$XBX=XZXBX#XCXCX=X#XBXCXCXZXBXBXb.BXBXb.j.b.v.f.f.b.b.b.b.c.h.b.j.b.b.b.j.m.h.h.j.f.BXh.c.$Xk.L.H.U.K.`.,XI.I.S.W.;.D ;.fXfXK.| s 7 4 5 4 y 4 2 2 y l.i.z.z.i.z.d.z.z.d.z.p.p.z.d.z.z.p.z.z.d.z.z.i.z.x.i.d.p.s.s.s.s.f.f.d.f.s.s.f.s.s.s.s.f.f.f.s.s.s.f.f.",
". U.U.K.K.L.U.D Z b k b b n d s L c m x : : % x A S *.jXqX7X6X6XF h W n x I.} w c m s y.>XI.qXrX6X6X).k z v x W {.n f c m W `.A.{.wX8XsXfX` p x b x P.:., m Y x ;.[.~.5X8X8XD f z m k p v : s v b b : % % w c b n <XbXrXtXDXKXo       .   % FX:X;X;X;XCXZXCXZXBXZXBXCX=X$XBXBXBX#X=X=XBXBXZXBXBXBX#X#X$Xb.c.n.g.g.f.g.g.f.f.h.j.h.h.#Xm.c.v.v.c.b.c.m.b.f.f.n.j.$Xu.D.D.I.1X1XI.I.D.'.O.n ;.rXbXH.~ r 7 5 8 4 4 4 8 2 u l.x.d.z.z.d.d.z.z.z.d.z.z.z.z.z.z.z.z.p.i.z.z.d.i.z.d.x.f.s.s.c.s.s.s.s.s.f.f.s.c.p.p.f.p.f.s.c.s.s.p.f.",
". GXHX9XtXtXbXO.V M b b v A a s A b m x : % : [ %.&.A.7XqX6X6X8XJ j Z m x I.;.6 z c r %.}.G.9XwXOX6X'.d z b b T [.n r x b Z `.S.|.0X8XsXvX_ w x m x F.>.: x b j :.^.G.3X5X6XD w z b s f h : s x j v w : $ w x b b [.kXwXkXbXJXo           3 SX;X;X;X=X;XCXZXBXZX=X$X=X=XBXBXCXZXCX#X=XBXCXBXBXBX$XBXBXm.j.n.m.h.v.v.m.h.b.f.j.b.f.#Xh.c.b.b.m.c.f.j.b.j.h.g.c.b.%XJ.D.U.W.,XI.V.A.S.oX:.n } ,XfXD.~ w 4 5 5 4 4 2 2 2 u l.i.i.x.x.d.z.z.z.z.z.z.z.p.d.z.z.z.z.z.z.z.z.z.i.i.z.d.c.p.c.p.p.p.f.s.s.s.s.z.s.f.c.f.f.p.s.s.c.m.f.p.",
". UXJXoX0XwXvXX.k n b k k Z f r L m m j : % e &.;.-.<.wXwXwXwX6XF f A Z x F.:.: L Y Y N.}.I.qXwX8X6X).a r h c W }.n : h h n ~.D.{.5XwXdXvX) : s x x /.;.% r j s ;.^.I.5X6X5Xn w t s w f b & r j d h f : $ w z x b [.xXcXjXbXKXo           3 SXZX;X;X;XCXZXBXZX$X=X=XBX#XBX$X=XBX#X#XCXBXBXBXBX#X#Xb.#Xb.b.j.BXc.g.b.f.b.n.j.h.h.#Xj.h.b.b.g.g.v.f.f.m.#Xh.f.v.f.j.J.K.D.W.,XB.O.B.:.dXC.D ) W.fXC.E w e 8 5 y 4 8 y 2 0.l.i.d.d.d.z.d.z.m.i.z.z.z.z.z.z.p.p.p.z.z.i.i.z.z.d.z.d.p.f.p.f.s.s.s.s.s.s.s.s.p.s.c.p.f.m.s.s.s.s.p.f.",
". kXbXOX0XwXvXX.k m b v N M d p c h b f : 6 w %.S.H.H.8X0XwX8X6XQ A N.^.I.}.-.x &.L.P.{.|.I.qXvX6X6XT.h x A Y ' }.N w s v M I.S.[.7XwX8XsX_ : x v x I.:.: r x j N.{.~.5X6X1XM f c c s f N % s x b h p 7 % r c m A |.xX8X8XmXKXo   .       % SXZX;XZX;X;XZXBXZXBXCX=X$X#X#X#X#X#X#XBX-XBXBXBXBXBX#Xb.b.j.h.b.b.b.v.b.g.v.m.h.h.h.f.j.j.b.m.g.f.v.g.m.b.m.j.j.c.v.j.L.J.V.W.W.C.D.F.:.0XT.F / W.bXC.h 6 e O 2 4 4 8 2 2 0.d.d.d.x.s.z.s.m.p.c.z.p.m.s.z.p.s.s.m.p.z.p.z.p.z.z.i.d.s.s.p.p.d.z.s.s.z.p.p.z.s.p.s.s.f.f.s.f.s.f.s.s.",
". kXmX+X0XdXxX=.n m b b n M f f m b b f : % r V.`.(.(.7XwX8XdX5XQ ~ P.7X5XwX-.Z Z.3X7X7X'.I.9XwX8X6X'.k h A A [ {.V f m N Y /.S.[.5XwXdXfX` r x b b G.;.w c c c V.^.(.5X8X5XD s c b s f v p z x b v , 0 % s N Z A ].cXcXzXmXPXo           % SX;XZX;XZXBXBXZXBX=X$X=XBXBX$X#X#X#X#XBXCXBXBXBXBXBX#Xj.BXj.c.j.f.c.v.f.f.f.b.b.c.h.f.j.f.h.c.j.v.f.g.j.b.j.f.j.b.c.$Xk.V.V.I.'.I.I.W.S.5XG.F ` W.HXN.f e 4 2 # 4 4 8 8 2 0.d.x.x.d.f.s.c.p.s.s.c.p.p.z.f.z.c.s.s.z.p.p.z.z.z.z.z.z.f.p.f.s.z.s.s.s.z.z.z.p.z.z.z.s.p.f.s.s.s.s.s.s.",
". bXmX+X8XpXcXX.n U Y M k n f z T E W d : % : / &.*.:.wX6XdXsX6XQ Q F.].XX8X>.M Z.XX+X+X`.G.qXwX8XoX_.k x P m / [.M z b Z W I.S.[.7X8XsXsX` f m A A ~.N.s c m m V.^.I.5X0X6XF P [ [ m r N , z v N v w 7 % s m n A *.<.1.1._.}.X       .   % SX=X;XZX=XZXZXZX$XBX=XBXBXBXBX#XBX#Xh.h.CXBXBXBX#XBXb.BXb.j.j.b.g.v.g.f.g.j.j.c.c.b.b.j.j.b.b.b.j.f.j.b.b.c.f.f.v.f.j.J.u.q.D.W.I.D.{.`.,XG.` ` `.dX] w e 3 O # 4 5 8 2 2 i d.d.x.d.s.p.c.f.s.z.m.s.p.c.z.f.z.p.p.c.z.p.z.p.p.z.d.z.m.f.p.z.s.s.p.m.s.z.z.z.z.c.z.s.d.f.f.s.s.f.s.s.",
". (.<.=.=.=.1.G ) A.F.B.n M d Y U.[.[.Q % w : W *.{ D.7X8X6XsX6XF W A.+X].8X>.b N.].].OX`.I.qXxX6XOXT.h c c T ! }.Z s m M T I.S.`.7X8XsXfX^ s P m T I.N.z T [ [ P.~.`.5X6X5XE y./.U.' r v 6 z x x x p w 3 s c x h f , , , n n .           $ FX:XZXZXZXZXBXBX$XZXCX$X#XBX$XBXBX$X#Xh.g.b.n.#Xh.b.b.BXm.b.h.h.b.b.g.f.v.n.h.m.b.b.m.h.j.c.g.c.n.v.v.j.c.j.j.c.v.j.$Xk.y.q.D.>XD.B.{.3X1XT.,.X.H.F.N 7 3 5 O 2 5 8 2 2 y 6.s.z.d.x.p.f.p.s.f.s.s.f.z.p.s.c.s.m.z.f.p.z.z.p.z.z.z.d.p.z.c.p.z.z.z.p.z.p.p.z.z.p.c.s.d.s.s.s.s.s.s.s.",
". D G , a a a : { A.S.>.M m s c ;.A.A.F p t 6 P | / S.wX5X8XwX6XQ s ( &.&.5X:.j / >.O.(.`.F.wXjX6XoXT.a z N b / [.n s v N P U.S.{.7X8XsXfX( s R Y Y ^.N.z ~ | ' I.[.I.6X6X XF W [ / ~ P ' c L P L N L P z z L P P U E U E ] V.X           % SX;X%XVXBXZXBX%XVXBX#X=X#X#XCX#X#X#Xh.h.h.BXBXj.#Xb.BXm.b.h.h.b.b.f.f.g.v.f.f.f.h.c.n.j.g.h.b.j.f.b.f.j.j.f.h.f.f.f.j.k.y.y.F.>XT.B.[.9X}.T.'.1.:.} f 7 7 5 O # 4 8 2 2 8 9.d.d.x.i.s.p.f.p.s.d.z.s.z.s.z.s.p.c.z.p.m.p.c.p.c.z.z.s.m.c.p.s.p.z.p.z.z.m.s.s.s.s.c.c.s.p.f.p.s.s.s.s.",
". / { V P P P N ! | { { q.q.| U ~ ) Q _ y.8.' 7.O.} D.5X X6X6XwX{ P Z.>.-.fXD.N N.B.*.}.|.F.qXwX6XoXT.h T y./ A.5XQ [ U.Z.U.tXC.{.5XwXwXvXO.{ *X^.%XbXP.' <X4X^.KX}.W.6X6X5X[.F.I.I.*X<X4X&X*X<XyX<X4XyXyX*X<X<XyX4X4XyXyXkXHXo       .   * AX;XZXZXZXZXZXBX$XZX=X#X#X=X=XBXBX#X#X#Xb.b.m.BXj.BX#Xh.g.b.b.b.BXf.g.v.v.g.f.f.m.c.c.h.h.c.c.h.m.f.c.c.f.f.f.f.c.h.j.j.u.V.D.<X[.:.G.3X XH..XC.O.~ 7 7 4 # O 2 4 2 2 2 y l.x.d.d.x.s.f.c.f.s.d.s.s.s.s.s.z.c.p.p.m.p.f.z.c.p.c.p.p.p.s.p.s.z.z.z.z.z.p.c.s.s.s.z.p.s.f.s.s.s.s.s.g.",
". tXrXyX<X<X<X<X<XyX4X,XtXrXtXtXrXrXwXrXkXkXeX9X9X9X9X5XoX6X6XsXN.y.HXvX9XJXG.[ tXfX}.HX{.G.9XqX5X1X|.Z A.rX[.qXwX} J.bX,XrXfXS.{.0X8XwXxX;.V.HXrXkXJXG.&.rXfX5XJX'.).0X6X6XwXkXrXrXfXwX0X0XrXvXrXrXrXrXrXkXfXvXvXrXkXrXwXbXKXo           $ AX;XZXZXZXZX=X=XBXBX#X#X#X#XBXBX#X#X#Xb.#Xj.$XBX#Xb.h.v.f.g.c.j.m.j.g.c.g.f.g.f.g.b.b.j.j.n.b.c.b.f.j.f.h.j.j.f.m.h.j.j.u.y.V.[.2X:.>.`.|.H.1XC.] M % 5 3 # O 5 5 2 2 2 u i.i.d.d.x.p.f.p.f.s.d.d.s.p.z.z.z.s.z.p.z.p.z.p.m.s.z.m.z.p.z.m.s.p.z.p.c.s.f.p.z.s.m.c.p.s.s.s.d.s.s.s.s.",
". HXKX9XqX9XtXtXrXfXfXsX8X6X8XkXwXwXsXwXwXwX5XqXwXwXwX5XOX6X6X8X} &.qX]._.bXH.( >X8X_.bX).I.0XqX5X5X`.D V.5XW.6X6XQ &.qX`.XX6X:.}.wXwXdXxX} } qX}.3XJXG.{ ,X9X`.xXG.`.5XOX6X7X7X7XwX6X X X5XqXqXwX7X5X8X8XwXwXrXwXwXwXwX7XbXJX@           % SX$XZXBXBXBX$XZXBXBX=X#X#X#X=XBX#X#X#X#X#Xj.#Xh.h.h.j.b.b.b.n.n.BXc.g.f.v.v.g.v.f.f.g.m.v.j.b.j.f.f.c.b.f.h.v.v.v.j.j.$Xk.8.V.,XwXH._ >.W.C.}.B.~ B % 4 e 5 5 5 8 8 2 2 i i.d.i.x.x.c.p.c.p.x.s.s.d.s.p.z.z.s.s.m.c.c.s.s.s.s.s.s.p.z.c.s.s.z.p.z.p.z.m.p.p.c.p.z.f.s.f.d.p.s.s.s.s.",
". bXbXoX5X6X X5XwX8X8X6X8X6X6XwXwXwXwXwX6X8X6X8XwXqX6X8XoX5X8X6X_ ) 9X].T.vX1.F {.+XH.vX_.(.wXwX0X5X`.W B.0X(.+X XQ %.8X).}.+X<.}.sXwXsXxX_ &.wXoX,XmXG.{ 5X5X'.cX).~.6X5XOX6X8XwXwX6X+X+X1XwXwXwX8X5XwX8XwXvXxXwXwXwXwXjXHXKX=           & AX;XZXBXBXZXBX=XBX$X-X#X#X#X#X#X#X#X#XBXh.#X#XBXb.b.b.h.g.b.b.b.b.f.g.g.g.g.v.g.v.f.j.f.j.b.f.h.f.j.j.f.j.h.j.f.v.j.h.j.%Xu.Z.4XvX|.=.Q ,.C.W.N.N f 3 3 3 3 4 5 8 8 2 2 0.x.x.i.i.x.s.s.s.s.s.s.s.x.s.z.z.z.p.z.c.p.p.z.m.s.s.s.p.c.p.z.z.p.z.p.z.p.p.c.p.m.s.c.m.p.s.s.s.d.f.s.s.d.",
". HXJX6X6X6X5X6XwXwXjXwXwX6X5XrXxXvXfXwX8XoX6XwXsXsX8X6XOX6X6X6X} ) qX].).bXC.Q }.+XT.vX_.(.wXwX0X5X`.D B.wXT.8XOXQ N.8X_.oX6XC.,XwXxXfXsX_ -.wXoX3XmXS.) 3XOX].bXW.`.5X5XoXoX8X0X8X5X XoXoX0XwXwX5X5XdX8XxXvXxXdX8XwXjXjXmXJXo   .     . $ AX;XBXZXBX$XBXBXBXBX-X#X#X#X#XBX#Xh.#Xh.#Xh.h.#Xh.h.h.j.g.c.b.c.j.h.g.g.g.g.f.g.f.g.v.f.v.j.b.b.h.f.c.j.f.f.j.v.c.v.c.j.k.u.L.,XqXwXG.` =.O.O.Q p 7 4 7 3 r y 4 4 2 2 y 6.i.i.x.i.x.s.s.s.s.s.s.s.d.s.s.p.z.p.p.p.z.z.p.p.z.s.z.z.p.z.p.z.p.z.z.p.z.p.z.p.z.z.f.z.z.s.s.d.s.p.z.s.s.",
". bXHXdX6X0X5X5XxXxXjXsXwX8X6XvXvXvXxXdX8XoXoX8X0X6X8X6X5X6X6X6X_ _ qX_.).bX<.! XXOX).xX`.W.7XwX6X5X`.D B.8X(.OX6XQ :.8X_.oXOXS.,XwXsXsXsX_ -.jX+X XxX1.( 3X6X_.xX).[.qX5XXX+X6X8XjX5XoX+X8X8XwX8X8X+XOXOXcXxXxXcX6XxXjXjXbXJX@       .   $ AX$XZXBXBXZXBXBXBXBXCX#XBX-XBXBX#XBX#Xh.h.h.h.h.#Xh.g.j.j.b.n.j.n.f.f.g.g.g.g.f.f.g.v.g.f.j.j.c.c.j.c.h.h.j.j.j.j.c.b.g.j.u.L.*XvXnX6X:._ Q E B 0 7 t 7 e u t 4 4 8 2 u 9.i.x.x.i.i.s.s.s.s.s.g.d.d.z.z.p.z.z.p.z.p.p.z.p.z.d.z.z.z.p.z.p.z.p.s.s.p.m.c.s.c.p.m.p.p.d.s.s.s.s.z.f.z.",
". rXbXOX1X X}.6XxXcXxXxXdXjX+XcXcXbXmXOXcXOX6XdXsX6XsX6X5X9X5X6X_ _ 7X].).cX:./ 3XOX_.xX`.I.wXwX6X6X`.G :.jX).+XOXF -.8X].XXOX1.,XwXwXsXwX_ *.8XoX].xX>.( 3X5X|.xXW.'.5X6X].+XOXOXjX+XOXcX+XcXzXcXcXcXcXOXcXOXjXOX8XcXcXcXmXLX@           7 ZX$XZXBXBXBXBXBXBX$X-XBXBXh.-XBXBXBXBXh.$Xh.#Xh.h.h.g.b.g.h.c.n.j.f.g.g.f.f.g.v.f.f.g.f.f.v.b.b.h.b.c.j.f.f.v.c.j.j.b.h.j.k.L.U.bXJXvX X,.F V a 7 7 t 7 e I u 4 8 y u u i.i.i.i.x.x.s.f.s.s.s.s.d.z.z.z.p.p.z.s.p.z.c.p.z.p.z.p.p.z.c.p.z.p.m.s.c.z.s.s.z.p.c.z.p.p.d.d.d.s.s.s.s.s.",
". bXmXdXcXOXOX+X8X+X8X+XcXzX+XzXzXdXzX+XcXcX+XoXoX XoX7X0XqX5X6X` F (.<.=.jX>.A (.T.=.oX'.I.8XsX7X7X_.j *.*.*.&.XXK l >.X.-. XS.}.wXjXxXxXQ n 1.*.=.OX;.j &.>.` ].).~.oX6XoX1.=.=.=.=.T.<.=.` =.J J 1.<.=.=.=.*.*.=.1.1.1.1.<.X           % AX$X=X#XBXBXBXBXBXBX#XBXBXBX#Xh.#XBXb.#Xg.#Xj.b.#Xj.b.b.h.j.c.c.b.f.g.g.g.g.g.f.g.g.x.g.g.f.c.h.h.h.f.h.c.j.c.h.h.f.g.f.j.k.L.^.wXbXbXxX`.` n d s z z e y R u 4 8 y 8 0.a.p.z.d.s.s.s.s.z.s.z.d.z.d.i.m.p.z.z.p.p.p.s.s.p.z.p.z.p.z.c.p.z.p.s.m.p.c.z.z.s.m.s.p.z.p.d.s.s.s.s.s.s.s.",
". |.+XT.T.T.1.H ` *.-.-.1.<.J J J *._ J J ` K F _ _ :.9X9X5X5X6XF , A F G (.>.: b A j S.|.I.wXsX5X7X_.r : j r *.}.h : b k l I.S.,XwXwXwXvXF , a j l ~.%.z y.F.S.}.I.I.5XwX Xl < l l l G V , g a a < < l , < S S l a l l j b g .           $ AX$XBX#XBXBXBX$XBX#X#X#Xb.BX#Xh.h.BXb.h.j.b.BXh.h.b.#Xm.c.f.h.b.b.h.g.g.g.g.g.g.g.v.g.g.g.g.n.j.f.h.f.f.j.f.j.c.j.j.f.f.j.$XL.P.`.vXmXbX XO.n d t 7 7 4 z R L 8 8 8 2 6.p.p.z.d.f.s.p.s.s.z.d.d.z.z.d.z.z.p.p.z.z.z.z.z.s.p.p.p.z.z.z.z.p.z.p.p.z.c.c.s.s.p.z.m.z.c.s.s.s.s.z.s.s.s.",
". F J S j < , & Z / A.F.K K , h ) A.[.G , > : &.S.<.G.8X5XwX5X6XF m [ Z./.7X:.j c c z V.'.W.qXwXwX6X(.m R u./.>XoXn x A b A I.S.,XwXxXxXxX` d x l b /.;.T *XkXbXvXI.^.5X0X1XG h x x k l l a v h h h h h w A A A P ~ / W Q ] | X           $ AX$X#X#XBXBXBXh.b.h.h.b.BXBXh.h.BXb.BXh.h.b.$XBX#Xb.c.h.h.v.f.b.b.f.g.g.g.g.g.v.s.s.g.g.g.v.j.f.f.b.h.j.v.v.g.h.c.j.g.f.j.k.L.N.;.qXLXmX8X>.M x r r 8 7 L [ z 4 8 2 u 6.p.z.p.p.p.c.s.s.d.z.z.z.p.d.z.p.p.z.z.z.z.d.p.z.s.s.z.p.p.z.p.p.z.z.f.p.p.f.p.c.p.c.p.z.z.p.s.f.c.s.z.s.s.s.",
". / ) M b k x r [ y.{.7XF l j P y./.7X` p & z P.XXXXXXwX9X8XOX8X( m &./.^.7X>.m [ L.L.>X`.~.wXwX6X8X(.T &.:X4XlXoXA s m b m /.S.XXwXjXwXsX) f x h j F.;.T /.kXkXjXG.`.qX0X XD x c x k A k s x c s s j a : x A L P ^.4X>X9XHXHX+       .   # AX#X#XBX$XBXBXBX#Xh.#Xb.b.h.b.h.b.#Xb.b.b.h.m.j.b.j.h.m.j.j.h.c.b.j.g.g.g.g.g.g.g.g.f.g.g.g.b.f.j.j.h.j.f.j.j.m.c.j.g.g.h.$Xj.N.-.}.PXPXsX:.W b r e 3 3 I 8.z 5 8 8 u 9.z.p.z.s.f.p.p.f.z.d.d.z.z.s.z.z.z.z.z.p.p.z.z.s.s.s.m.p.z.d.p.z.p.c.p.z.s.m.s.m.z.p.z.p.p.p.s.s.p.z.z.s.p.f.",
". 4XtX<X4X:X<Xb R y./.{.D n s P &.y.jX*.% % t L.].].XXjX5X6X6X6X( m &.%./.7X>.T u.jXkXkX|.I.wXxX0X6XH.Z &.:XlX4X Xn f h x A /.<.}.wXwXsXsX) s c c c /.%.T /.kXmXxXG.`.5X7X XZ c c c v n h a x h s j j j : c A b A >XkXqXjXHXKXo       .   $ ZX#X$XBXBXBXBXb.#Xj.-Xg.h.b.h.b.h.h.j.BXBXm.#Xj.h.h.b.m.b.j.j.b.j.c.g.g.f.g.g.c.f.v.g.g.f.g.g.j.j.j.g.j.f.f.v.f.j.f.f.s.g.h.%XU.B.~.PXPXvXG.( N r e $ % R R z 5 8 8 2 i.i.i.p.m.f.f.f.p.f.p.p.z.p.s.z.z.p.z.z.d.z.p.p.z.z.z.m.s.s.z.c.p.z.m.s.m.s.s.s.m.s.s.z.p.c.z.s.p.s.s.s.s.s.p.",
". HXHX9XqXqXwXW [ y.~.~.K n w c [ &.%.A : % z Z.{.].{.7X6X5XOX6XF b &.%.:.XX&.T u.lXjXjX`.~.qXsX0X6XG.Z &.*XXXzXoXN r x z A /.S.].7XwXsXxXQ c ! [ [ ~.&.A u./._.6XG.~.5XwX1XD T ' [ E k h p x z s s l k : z c j A 3XkXjXwXJXKXo           $ AX#XBXBX#XBXBX#Xj.#Xh.h.h.h.b.h.h.b.f.b.b.b.BXb.h.h.h.j.f.f.c.h.h.b.g.j.f.g.g.g.g.g.g.f.v.j.g.g.f.h.g.g.f.f.v.f.j.f.g.s.s.k.$XU.D.S.JXPXxXG.) N r w 3 e R R u 5 5 2 u 9.i.i.p.s.d.f.s.f.p.z.z.z.s.s.z.p.p.z.z.p.z.z.d.z.z.p.p.z.s.c.c.z.f.p.p.m.f.p.p.c.z.s.p.z.s.c.s.f.s.s.s.m.c.z.",
". DXJX9X7X7XjXA L &.A.F.A n : c [ ( *.h w % e { :.1.H.jX6X5XoX6XF c &.y.%.XX&.b y.L.(.XX`.I.qXxX6X6XG.x ( L.(.~.].n r z s A I.D.3XwXwXsXdX` Y u./.:X4X*.W u.4X{.5XG.`.qXwX1XD y.*X*X} k j r c r t s j h r t x j A {.jXwXjXmXKX@           $ AX#XBXBXBXBXBX#XBX#Xh.h.b.h.#Xh.j.h.#Xb.b.j.m.b.b.g.j.f.j.b.f.b.b.m.g.s.f.g.f.g.g.g.g.g.v.f.g.j.c.c.b.f.f.v.m.f.m.h.s.x.j.j.L.L.I.S.bXPXcX`.) v r e e t 7.R y 2 2 2 u 6.i.x.s.p.p.c.f.s.f.z.z.p.z.d.z.z.p.p.p.z.z.p.p.z.p.z.z.p.f.m.z.z.p.z.f.f.m.p.p.z.z.p.s.s.s.f.p.f.s.p.p.c.f.p.",
". bXnXOXjXzXjXA L ( &.&.S S r T L./.^.F : % r Z.(.(.).8X0X6X6X5X( ! u.>X*XzX:.T k.eXjXjX`.~.wXwX6X8XH.E y.4XkXjX].A x c c T /.C.}.0XwXsXxX{ [ :XlXkXjX&.( :XlXkXvXI.I.5X8X1X` /.lXbXS.l k x ' T Y m j h r L &.&.&.3XxX8XjXmXLX@       .   $ AXf.BXBXBXj.BXb.#Xb.CXh.h.h.h.b.h.b.b.j.j.b.j.n.b.m.g.f.f.b.j.h.h.b.g.g.g.g.g.g.f.f.g.g.g.v.c.h.c.b.g.f.b.f.j.s.f.f.g.g.d.j.%X%XF.G.8XLXbX].} n r r e P J.R u 2 2 2 2 i.x.i.s.s.s.p.s.s.s.p.p.z.z.p.p.p.z.d.z.z.d.z.z.z.p.z.s.z.s.p.z.s.s.s.p.f.f.f.s.f.p.z.s.s.s.p.f.f.p.s.p.z.s.s.",
". mXmXzX+X8XcXF ! y.A.&.S A r ! {.XX5XQ & % j P.+X+X].8XwX8X0X5X( W P.3X3XqX%.! /.lXkXkX`.~.wXjX6X6XS.W y.7XkXjXoXA x m c Z ^.S.{.wXwXsXjX/ [ *XkXkXjX&.! /.lXkXkXG.`.5XwX3X( [.xXbX<.l x c L.lXlX/.a h t y.4XjXXX_.XX].].zXcXo           $ AX#XBXBXh.BXb.b.BXBX#Xh.j.h.h.g.j.c.b.h.j.h.b.c.v.b.g.g.g.j.j.m.h.c.b.c.j.v.v.j.v.v.f.b.b.c.j.f.f.v.f.g.g.f.f.f.f.f.f.f.f.j.:X/.C.W. XJXJXW.| Z z r z ! J.R t 4 5 2 u 9.x.i.z.i.z.f.c.s.p.f.p.m.p.s.p.p.d.z.p.z.z.p.p.z.i.z.i.z.z.d.s.z.s.s.f.s.j.p.s.s.s.s.s.p.s.f.d.z.p.p.f.f.s.f.",
". 5X+X3.<.)._.F y.3X7X(.G b s ! XXXX+X( : w t /.].XX].wXwXwXwX5X( ( L.XXXXjX>.( L.kXjXbX`.~.7XwX6X6XH.W L.jXjXxX].K A ' R &.^.S.,XwXwXxXjX*.[ *XkXkXwX} ! /.kXkXjX(.[.5XwXXX` ~.xXcXH.N h m >XkXkXXXa x z N.jXkX3XJ S K F J ` .       .   # CXh.BXBXBXBXj.BXBXf.m.BXh.g.g.g.b.c.j.m.j.b.b.c.f.f.g.g.f.b.b.f.b.f.f.j.f.f.j.g.j.b.j.c.j.h.v.b.v.v.g.f.g.g.f.f.j.f.j.d.f.j.:X*XV.I.}.mXmXD._ E x s L 8.L.R L 8 5 8 u 9.i.x.z.z.d.z.s.s.f.s.f.p.s.c.z.p.z.z.p.z.p.z.p.z.z.z.z.d.z.z.d.f.s.p.s.s.p.f.s.s.s.f.s.s.p.p.s.s.f.s.c.p.s.f.",
"  ` ` l a k j a N.XX X`.D M d ! /._.].F : : c L.].`.].wXwXwXwX6X( W A.XX{.jX:.W L.3XXXwX`.~.qXwXOX5XD.Z &.{.+X+XoXn N T T / >XS.}.wXwXxXjX) A y.F.F.XX{ m &.F.A.[.G.~.qX8X}.F _ F.<.) B h r [ :.S.&.d k r ( :.:.&.k , n v D E X           $ CXh.BXBXj.BXn.BXf.j.f.b.b.h.h.j.c.j.c.h.h.j.j.b.j.v.f.g.f.b.c.b.h.g.f.v.g.g.f.g.v.j.c.b.j.m.v.c.g.g.f.g.f.s.f.f.k.p.k.f.j.k.%XP.N.I.W.nXJXF.} ~ c c T y.J.R t y 4 8 u l.s.s.d.s.d.d.s.s.f.s.p.z.m.p.z.p.z.z.d.z.p.p.z.z.z.i.i.z.z.p.s.m.p.f.s.f.s.p.s.f.p.s.p.s.f.p.d.z.f.p.f.p.f.f.",
"  Q D f f f s : Y / } } M P d N &.*.` A r t r Z ) ( :.jXwXwXwX0XW x / ` ( ~.V.z [ *.*.{.].~.rXxX7X8XG.j W ` ` S.5XN c ' Y [ >XS.{.qXwXxXxX) m N.*.%.qX&.T A.:.&.5X`.~.6X8X5X;.;.N.>.:.A.N.&.| { } } q.V.y.%.;.;.;.S.L.U.&X<XyXX           # AXh.m.BXm.BXBXj.#Xm.b.b.j.n.j.c.j.c.c.j.#Xm.j.f.f.v.v.f.b.j.j.b.c.g.f.g.f.g.f.g.b.g.j.b.f.f.f.b.g.s.g.g.s.f.f.p.j.k.k.j.j.j.$XL.A.[.`.vXJXU.;.] A P / [ u.I e e 8 2 y l.f.s.d.z.z.d.s.s.p.p.s.p.z.f.p.p.z.z.z.p.z.z.d.z.z.i.i.p.z.z.s.s.m.p.s.s.s.j.s.p.s.s.f.f.f.f.s.s.p.f.p.f.f.d.",
". U.<XV.J.V.%XU.K.P.D.D.L.U.L.J.U.I.I.<X*X:X*X^.^.I.{.vXvXbXvXfX| ' <XI.F.bXF.' eX}.S.bX3XXXbXbXvXxX{.Y /.tXB.qXkX( y.9XI.3XwX:.}.8XwXsXvX:.| rX5X,XJXA.%.kXlX7XJX{.~.7X8X0XqXrXrXrXqXrXqXrXHXbXbXtXtXkXkXkXrXqXwXrXkXvXbXKXKX@   .       # AXg.b.BXb.b.b.j.c.h.f.j.b.j.v.j.f.f.j.j.j.c.h.j.c.j.h.g.j.n.j.v.j.m.f.g.g.f.g.g.g.f.n.j.v.s.f.g.g.g.f.g.f.d.d.l.l.k.l.l.k.k.%X*XU.>XG.1XbX[.V./ E ~ ' | 7.L 4 7 8 8 u l.a.d.j.f.f.f.d.f.d.p.p.z.z.p.s.s.z.p.p.z.z.c.z.z.z.d.z.z.d.z.m.p.s.f.j.s.f.p.s.s.s.s.s.c.f.p.s.s.f.p.s.s.j.d.",
". HXKXqX4X9XrXHXHXHXHXHXHXbXHXHXbXHXHXbXbXkXHXfXvXvXkXvXnXbXmXvXN.V.bX9X5XKXI.{ tXvX}.JX X}.bXbXxXwX|./ *XbX}.bXjX( Z.bX}.qX6XA.}.wXwXxXsX;.| fX5X}.vX-.&.4XXX].bX`.|.qXwXqXqXrXrXwX8X7X3X3XqXwXkXrXwX7XqXkXvXwXwXwXwXqXrXHXKXo           $ VXg.m.j.b.BXm.#Xh.m.f.b.b.f.f.n.j.v.n.g.j.b.c.c.b.h.b.g.f.v.v.j.f.c.g.v.g.g.g.g.g.g.f.f.f.c.f.f.g.g.f.f.f.g.k.l.9.l.8.9.l.8.%X*XI.[.S.:.,X>XJ.^ Y ~ ' u.7.L t 7 5 5 u 9.j.a.p.p.p.p.p.p.f.p.p.f.z.z.s.p.z.z.p.p.z.p.p.d.z.s.d.z.d.p.f.p.f.p.p.s.s.f.s.s.s.s.s.s.s.f.p.f.p.f.d.s.d.s.",
". HXHX3X,XXX}.5XwXwX7X6XoX5XwXqXfXfXjX8XwXwX0X0X7XwXwXwXsXdXdX8X_ } wX].`.mXH.Q 4X6X_.bX|.G.wXkXwX6X(.Z F.OX(.OXXXG ;.wX~.XXoX,.XXjXwXsXsX} ) 6X].|.wX_ ( XXXX`.xXT.`.qX9X5X8XwXjX8X8X7X5X7XwXvXvXwXwX8X8XwXjXsX8X8X8X8XwXmXKX@           # AXc.h.j.b.c.b.b.b.j.f.j.b.c.j.c.j.v.v.b.n.g.h.j.h.g.f.g.j.j.c.v.f.v.g.v.f.f.g.g.g.g.v.f.m.h.f.f.d.f.d.f.j.d.d.l.k.u.u.l.6.6.u.*XF.W.G.G C.<XJ./ M [ ' y.y.L t r 5 2 u l.j.p.p.k.p.p.d.d.s.s.p.s.z.z.z.p.p.z.z.z.c.z.p.p.d.d.s.p.z.p.f.f.f.s.f.f.f.p.s.s.f.s.p.c.s.c.f.p.d.f.j.s.s.s.",
". HXmXXX5X5X1X5XqXwXwX6X X5X6XwXsXwXdX8XsXwX8XwXwXwX8XwX8X8XdXoX` } wX].).xX:.( 5XOX).bX).~.wXwX6X6X~.G F.8X(.7XoXZ :.wX).5X1X:.3XwXwXfXsX&.} 8X X|.vX} ( XX7X].bX~.~.7X6X6X7X7X7X8X8X7X5X5XkXjXxXwX5XqX7XwXjXsX8X6XdXxXvXHXJX@       .   5 CXj.f.b.j.h.f.b.c.v.f.f.j.j.h.c.f.v.v.j.b.g.b.h.c.c.j.f.b.b.b.j.f.j.g.v.f.g.g.g.g.g.f.j.f.f.g.f.f.d.j.f.d.j.j.d.j.k.k.k.u.l.%X:XV.F.W.n Q <XZ.~ Z / ~ y.7.L t y 2 9 u l.p.k.a.a.a.k.a.a.s.s.s.p.p.m.s.z.p.c.p.p.p.s.z.d.s.s.s.f.p.c.p.f.f.s.p.m.f.s.s.f.p.s.c.p.f.p.f.p.f.j.p.s.j.p.",
". bXHX6X7X5XXX7XwXkXjX7X6X6X6XfXxXxXxXwXdXsX8XqXqXwX6X8XdXwX8XOX_ } 0X]._.jX>.( 5X6X(.mX).~.jXwX6X6XW.Z F.wX(.+XXXW ;.wX).oX X:.XXsX8XsXjX*.{ wX.X].vXO.( XXoX_.vXW.`.qX7XOX5X7XjXjX+XoX+X5XjXjXxX8X8X8X+XjXjXjX8X+X8XxXvXHXJXo   .       # VXg.g.v.c.h.j.b.c.c.g.f.f.j.b.f.v.g.b.c.h.b.m.h.g.j.j.j.g.g.g.g.f.g.f.g.g.g.g.f.g.f.f.f.f.f.f.f.f.p.f.f.p.s.d.j.j.j.$X$Xk.L.:X*XN.N.I.l N U.K.W Z / ~ V.7.t e 4 2 O y 9.l.9.l.l.9.l.l.l.i.z.d.d.z.z.p.s.s.z.p.p.f.f.p.s.p.s.f.s.f.p.s.f.p.f.p.m.s.s.p.f.p.p.f.f.p.s.s.f.f.p.p.f.p.s.",
". bXmX6X7X5X|.3XvXxXbXjXwXsX5XxXbXcXxXwXxX8X8XqXwXwX6X8X6XwX8X6X_ } 0X].].cX=.( oXOX(.mX_.~.qXkX6X6XT.F H.8X(.+XXXG :.xX_.+X X:.oXsXwXxXsX*.{ 8XoXOXbX=.) 7X8XXXbXG.`.5X6XXX+X8XjXcXzX+X+XOXjXjXcXjXOXzX+XjXcXcX8XOXcXzXcXmXLXo           $ CXv.b.j.f.h.c.j.j.b.f.c.g.g.g.c.g.g.f.j.b.j.h.h.h.j.v.h.g.j.g.g.g.f.f.g.g.g.g.g.f.g.f.f.p.f.f.f.f.f.p.f.f.d.j.#Xj.$X-Xj.j.k.:XeXV.O.F.D g } O.P Y / P V.y.L t 4 O 2 y 0.6.0.0.6.0.0.9.i.d.d.d.z.d.z.s.s.s.p.p.f.s.s.z.s.s.s.s.s.p.f.s.s.f.f.f.p.s.s.f.p.f.p.f.p.m.f.s.s.f.f.d.f.f.p.",
". bXmX7XwX+XoX8XbXmXcXcXxXxX8XcXcXbXcXcXxXjX8X8XjXwX8X8X8XwXwX6X` *.6X].).jX*.J 6X+X3.cX`.~.rXxX8X6XT.S >.+X<.].XXS >.].<.(. X:.3XwXwXwXjX_ F `.<.<.8X_ G G.(.S.jXG.`.qX7X].(._.3.<.<.+X@X(.].]._._._.].<.(.(.(.H._.+X+X+XcXcX=           # CXf.c.f.h.b.c.j.c.j.g.g.g.j.g.v.f.f.c.c.j.c.b.f.b.c.c.h.g.f.g.g.g.f.f.g.f.v.b.f.f.f.c.c.c.f.p.f.p.f.f.s.f.d.d.h.j.j.-Xh.j.%X$XeX^.F.9X| a N ! N / | A y.8.c t 8 5 8 u 6.6.0.6.0.6.6.9.p.f.p.z.z.z.p.s.p.s.f.p.p.p.f.f.p.s.p.s.s.s.s.p.p.j.p.p.j.p.s.s.f.p.f.p.p.s.f.p.j.p.p.d.j.j.s.",
". xXmXXX+X+X_.@X@X+X@X@XoX+X_._.]._.]._.+X_._._._.].].5X6X0X8X6XF l -.X.F ].*., ` =.K ].|.`.rXjX6XOXH., , S < *.].< , K < F T.S.}.wXwXjXxXF : G S S `.) : S S S `.G.).5XqXoXK S K S S K K < Z *.>.X.K J l J =.1.=.K K K J J _ X       .   $ n.v.b.h.j.c.c.j.f.v.g.g.g.g.j.g.b.f.j.j.h.h.h.f.b.j.j.f.f.g.g.s.f.g.f.g.g.f.g.f.f.f.c.f.m.f.f.f.p.j.f.f.s.d.f.j.j.h.h.j.j.j.%XyX<XI.fXN.f p z v %.Z.T J.| t t 8 5 8 0.a.a.6.i.i.9.i.l.p.p.f.d.z.p.p.s.f.p.p.f.p.f.p.p.f.s.s.p.s.s.s.s.s.p.f.s.p.p.s.p.p.f.p.f.f.s.s.f.p.f.f.s.s.s.s.",
". >.1.J J J H l K K K S K ` < S G J >.` J S S l G n _ 8X6X8X0X6XQ j A A x {.*.@ > , > :.[.`.rXwX6X6XG.* $ * @ b _.: @ > > b ~.:.XXwXwXwXsX` , f j j /._ : A m ( >XG.(.7XwXoXS < l b : j j : &.F.7XH.< k : &./.XX).V k v N E D .           5 CXv.m.b.b.c.h.j.f.f.g.g.f.g.g.f.b.g.b.f.f.g.b.j.c.h.b.m.#Xf.g.f.g.g.c.f.g.f.f.j.p.f.s.m.f.f.f.s.s.f.s.f.s.f.s.h.h.h.h.j.j.k.k.<X*X~.qXN.d 7 r x y.>X| U.7.t 4 4 4 8 i l.d.6.i.i.i.l.p.d.f.p.p.z.p.s.s.s.s.s.p.f.f.p.f.p.s.p.f.p.s.s.p.p.d.p.s.k.m.f.s.s.s.j.s.s.j.p.p.f.f.f.p.f.s.s.",
". n V - , p p , ` Q k l l S , , b n ` S , > : b N h } lX8XwXsX6X` W *.( A ~.*.: c A t A.|.`.kXjX7X+X).* @ > * x {., * > & b G.C.5XwXwXwXdX) s c c c /.) e c L ! ,XI.~.5XwX7XG v c b r j b : &./.jX).l h w &.].XX|.D.L.K.U.*X<XX           # BXf.h.b.b.j.c.h.b.j.g.g.g.g.g.f.b.c.j.g.b.j.f.v.j.c.f.j.j.f.f.f.f.g.g.f.f.g.f.f.p.f.f.f.f.f.s.f.s.f.f.s.s.s.f.h.h.h.M.g.j.j.L.eX3XP.[.%.x r r r %./.7.U.7.7 e 7 8 y i l.d.l.i.i.i.i.k.s.p.f.s.p.f.s.s.f.p.f.s.s.p.f.p.s.p.f.p.f.s.s.f.f.s.p.s.p.s.p.m.p.s.s.s.f.p.s.p.f.p.p.j.p.f.s.",
". V.V.~ ' 7.| n *./ n N b A j j A m A j w : t [ L.*X*X7XwXwXsX6XJ W *.( b /.*.r c Y c L.|.`.wXvX8X7X(.* * : * b {., * : & l ~.A.3X8XqXsXcX` f x c j /.&.w L L T *X/.~.6X8X6XZ v c c r j j j &.y.7XH.a k r *.~.XX].wXbXfXkXKXKX@           # CXf.h.j.j.c.f.j.f.f.j.f.g.h.g.g.m.j.c.c.h.v.f.f.j.b.j.f.f.h.g.f.f.f.f.g.v.f.f.f.f.s.m.f.f.s.f.f.s.m.s.f.s.s.s.h.h.j.h.b.g.j.%XDXtXA./.:.A r r : y.>X| %X| z t 7 8 8 i l.d.l.l.i.l.i.p.p.f.p.f.z.s.s.s.s.p.d.p.f.s.p.f.f.p.p.f.f.p.s.p.f.s.s.f.d.p.f.f.f.p.f.s.j.f.f.j.f.f.j.p.d.f.f.",
". HXHX,X9X9XrX( Q / M b n A j k A m n f e : t y.>XqXkXjXwXsX6X6XJ Z *.T c /.&.j P c x D.|.`.kXsX7X7X~.> + : $ m {., # : & j ~.:.}.8XwXdXsX( w c c t (.*.x R &.%.,XG.`.7XjX6XA x b b j r b : &.:.).1.g k r W :.S.H.8XwXwXjXJXKXo       .   # M.v.j.n.v.v.j.f.v.j.f.g.v.h.g.g.j.b.j.c.j.j.g.j.f.j.j.j.f.f.g.f.f.v.j.f.f.g.f.f.f.s.p.f.s.p.f.f.f.f.s.s.s.d.j.j.h.j.M.h.h.j.k.eX4XB.^./.W c r j u./.%.L.7.t 7 8 8 y i l.d.i.d.i.l.i.d.p.p.f.d.m.z.s.s.s.s.p.s.p.p.s.p.p.s.f.p.p.f.p.f.p.d.s.f.d.p.p.p.f.p.p.f.p.f.f.p.p.p.f.d.f.p.f.",
". bXJX5X5X0XsXQ G ( A M n M p f m x b f w 6 z y.A.S.`.wX0XwX6X6XQ A ( ! m ~.*.: c c t F.].~.jXjX6X6X).& * % $ A |., $ : : h G.A.XXwXwXxXdXQ w c T ! ^.&.z R y.A.XXI.|.5XwX5Xn d c x d p h w W &.).>.k k w Z :.F.H.8XjX8XjXbXJX=           # VXc.c.c.b.h.f.j.b.m.m.h.g.b.v.f.m.j.j.c.j.m.c.f.f.f.v.f.f.g.f.s.j.f.j.f.f.f.f.s.f.f.f.f.p.f.p.f.f.s.s.p.s.p.f.j.j.f.h.b.f.j.k.>X^.:.4X4X| N r r y./.{ U.' s 4 8 2 8 i i.d.d.l.d.l.d.a.d.p.p.f.p.p.f.d.f.f.p.f.p.p.f.j.s.s.s.s.s.p.f.p.s.d.s.d.s.p.s.p.f.p.s.s.f.f.f.s.p.s.p.p.p.f.p.",
". bXbX1X5XdXsX) D y.B.>.n N f r c c c f w 6 z { P./.}.wXwXsXOXOXQ A [ y.y.,X} w L T c P.`.`.wXjXdX6XW.& # % $ m `.: * - & h `.:.}.wX8XwXcX( Z y.%X*X7X{ T | /.7X7XI.[.7XwX5XD T 7.y.Q p j x &./.8XH.g h s [ /.jX3X+X8XcXvXJXJX@       .   # CXj.m.b.m.b.f.f.f.h.h.f.h.j.v.j.j.b.m.v.j.f.g.v.f.f.f.f.g.f.f.j.f.g.p.j.f.j.f.s.f.f.f.f.s.s.f.f.p.f.s.f.f.f.d.f.g.g.h.j.j.j.k.*X^.:.4XtX| m r r /./.' J.~ 7 4 8 8 y i i.d.d.d.d.a.a.j.p.p.f.p.s.s.p.s.p.p.p.p.f.p.p.p.s.s.p.s.s.f.p.p.f.f.d.f.s.d.p.s.s.p.f.f.d.s.f.f.j.f.f.f.j.p.p.",
". bXmX6X6X6XjX) ) ^.9X}.S A s z P m N f 7 6 c y.4XqXwX0XwXsX6X+X` T y.>XqXqX_ x [ y.%.^.`.|.jXsX6X6X).* * : $ m [.> $ & & j ~.:.}.7X8XxXjX` ! y.^.7X8X{ Y y./.7X8XG.|.7X8X}.F %.>XqX;.a j r &./.8X(.a h r [ /.XX+XjXcX+XcXmXmXo           # n.c.h.f.f.f.j.f.j.h.f.h.m.b.f.b.j.j.h.j.j.f.g.j.f.f.f.f.f.f.f.s.f.f.f.f.f.f.s.f.p.f.f.f.f.s.f.p.p.f.f.p.f.f.f.f.j.j.c.j.f.j.j.4XrXI.tXUX| v r t %XL./ Z.~ 7 7 4 8 y i d.x.d.d.a.a.d.p.p.f.p.p.p.f.f.f.p.p.j.p.f.p.f.p.s.f.f.s.f.p.f.s.p.f.f.s.f.d.d.s.d.p.f.p.f.s.s.p.s.f.p.p.p.p.j.",
". bXmXOX6XOX8X` ) [.6XoXK n s P [ y.N.A : % m y.{.3X7X0X8XwX6X6X{ ! %.^.qX8XO.Y &./.qXqXG.|.rXvXdX6X'.* * $ * m [., % % > j W.:.|.7XwXwXjX( T y.{.5X7X_ Y %.^.jXjXG.~.5XqXXXW ;.{.8X:.k x c &.(.oX(.k k j *./.XX<.=.1.1.1.<.H.X           # CXf.h.j.j.b.c.j.h.m.j.h.h.j.j.c.n.f.j.v.f.f.v.v.f.f.f.f.f.f.f.g.f.s.f.f.f.p.f.f.f.f.f.f.m.s.m.p.f.p.p.f.s.p.f.c.j.f.h.j.f.j.k.:XrX~.lXHXO.k r c u.L.7.U.~ e 7 4 2 y i x.d.d.k.d.l.d.j.p.p.f.f.p.s.s.f.p.p.p.f.p.p.j.p.s.p.p.f.s.s.d.f.p.p.p.d.p.p.s.p.f.d.s.s.s.s.s.f.s.f.p.p.f.f.f.",
". W._.=.1.1.>.F } ~.6X XK k s T L.>X3XW % 7 L y.{.+X7X7XwXxXwX6X( ! &.(.{.8X_ W %.(.}.7X).[.rXsXdXOXT.& * $ # m {.- $ 6 % s I.S.}.wXwXsX8XQ Y { A.F.}.{ m | B.H.{.(.`.5X9X}.Z ( -.<.) d d s { ;.S.} a z : A W ` F < g l l V V .   .       # VXv.h.m.f.c.h.h.f.j.h.f.h.b.h.c.j.f.c.m.j.j.j.v.f.f.s.f.f.f.s.f.s.j.f.f.f.j.p.f.p.f.f.f.f.f.z.p.f.f.c.p.p.p.j.f.h.j.h.j.f.j.k.%X9XI.qXKXN.N s c L.L.N.*X' 7 3 e 4 y 6.a.p.s.s.d.d.s.f.d.p.p.p.p.p.f.d.s.p.p.p.f.p.p.j.p.j.p.p.f.p.f.f.p.f.p.s.d.z.p.p.s.p.p.p.s.s.s.s.s.s.s.p.p.f.p.",
". D F j j a , j / } >.-.k s : P { &.%.n f c c / &.&.H.qX8XwXwXoXF m ! ( ) }._ h Y F Q W.`.`.rXsX6X6X`.* # 3 # c >Xw 5 s w c I.B.}.qXwXsXbXQ x W ( ( }.} s W ! F ~.~.~.5X5X,XD E ( F F M P f m D F Q Q ~ Y T ( Y E ~ ! ~ { V.J.X           $ CXc.h.j.h.v.f.f.b.j.j.h.f.f.j.j.m.f.f.s.f.c.f.f.c.f.c.f.s.s.f.d.f.f.p.j.p.s.f.j.p.f.s.p.p.f.c.s.s.s.c.p.s.s.f.c.f.h.c.f.k.j.j.L.>XP.4XKXS.b r c U.L.V.<XU 3 5 4 4 y 6.f.p.s.k.d.k.j.f.f.f.d.f.s.f.d.s.s.p.f.p.f.f.s.p.p.f.p.p.f.f.p.p.s.p.s.p.p.s.p.s.p.f.p.p.s.s.f.s.p.k.s.f.p.p.f.",
". ~ ) k N N N N ~ / ( ) ' ' P L W Q / ' | 7.T W W W ;.qX6X5X6X XQ Y y.{ | 9X} Y N.%.{ oXG.[.wXxX6X0X,XP 7.%X7.eXtXE | K.7.U.0XA.{.7XwX8XbX;.| >XA.~.bXB.W *X>X~.JX[.~.XX5X9X[.[.{.[.}.<X4X>XI.[.[.{.4X4X4X9XtXtXrXtXtXtXtXHXHX=           # VXf.j.f.v.j.m.j.f.j.j.m.f.f.v.f.m.j.s.s.f.f.f.f.f.c.m.f.f.f.f.s.p.f.f.s.s.f.f.p.f.p.d.p.f.f.s.s.s.s.s.s.s.s.f.j.f.c.BXj.f.s.k.%X4X(.I.KXU.N r t /.Z.J.*XP 5 5 5 2 y 6.l.p.f.j.d.p.f.d.d.f.p.p.f.f.p.f.f.f.p.p.p.f.p.s.p.p.p.p.f.p.f.f.p.p.s.p.p.p.s.s.s.p.p.j.p.f.p.p.f.p.m.p.f.p.f.",
". eXtXI.U.U.>XU.U.>X^.{.4X<X4X4XyXtX,X4X9X2X[./.[.{.{.7X0X5X5X|.} L.kX>X9XbX:.y.HXbXqXJXG.{.jXwX6X6X}./ <XKX,XKXfX_ *XHX9XbXfX,.}.wX8XwXbX;.V.HX7X7XJXB.{ kXwX5XmX~.~.6X7X5XqXwXqXqX9X5X5X9XkXfXvXwXwXwXqXrXkXqX9X9X9XqXwXHXKX@       .   # BXj.f.j.j.j.h.f.j.m.j.f.f.f.f.c.f.f.f.f.c.f.s.f.s.c.f.d.s.s.m.f.d.f.p.j.s.p.f.f.s.f.f.p.f.p.s.s.s.s.f.s.s.f.p.j.f.j.m.j.f.j.k.:XeX~.A.kXU.M r t *Xy.| U.P 7 4 4 y y 6.a.p.p.p.d.d.f.f.k.s.d.f.p.p.f.p.p.p.f.j.p.p.s.s.f.p.f.f.p.f.p.f.p.s.s.p.z.d.p.p.p.f.p.p.f.p.p.f.p.f.p.p.f.p.p.",
". HXJX3X,X9XtXtXrXrX9X5XqXrX9XqXfXwXwXwXwXwX5X5XqXqX9XwXwX0X5X X_ A.rX}.3XbX>.&.tX+X`.mXG.|.wXxX8X5X).D I.sXG.xX XF S.fX|.bXsX:.}.0XwX0XqX) &.7X].].bX;.( 3XXX_.vXG.~.5X6X6X5X7X8X5X5XoXXX7XwXwXwXwX6X8X7X8XsXwX6XoX6X5XwXbXJXo           # n.f.f.j.f.f.f.f.f.j.f.f.f.f.f.f.f.f.c.f.f.d.f.f.s.f.s.s.p.f.z.m.f.f.c.f.p.f.s.p.s.s.s.p.s.s.c.p.p.f.p.f.f.f.s.j.p.j.j.j.f.d.k.k.yX>XP.tX^.Y t t %X7.] y.P t 7 4 y y l.l.d.d.f.d.f.f.f.d.p.f.f.d.p.p.f.p.f.p.s.d.p.f.s.s.s.j.p.f.f.p.p.p.p.p.s.p.p.p.z.z.p.p.f.f.p.s.f.p.f.f.p.p.f.p.",
". HXHX].}.,X1X}.9X0X9X5X8X5X6XwXwXwX6X6XOX6X3X5X5X5X5X0XwXwX6X X) &.5X).`.jX>.[ 5X]._.bXG.[.wXwXwX6XG.D Z.xXH.8X}.E S.rX`.8XjXN.,XwX8XdX0X` { wX].}.sX*.[ 4X3X].kXG.`.7X5X6X7X8X0X5X5XXX}.oXwXsXsX8X6X6X6XsXjXdXOXoX5X5XkXJXKXo           # M.f.j.f.j.f.f.f.j.m.f.f.f.f.h.m.s.f.c.m.f.f.f.m.p.f.f.f.f.s.z.p.s.s.p.f.c.p.s.s.s.f.s.j.s.s.c.f.f.f.f.p.p.p.s.s.j.s.f.d.f.f.j.%X<X<XI.kX,XE r c /.| { | z e 4 e 8 y 6.f.d.d.j.a.p.f.j.a.s.p.p.f.j.d.p.f.p.f.f.p.f.p.s.s.s.p.p.p.s.s.f.p.p.f.s.p.p.s.z.z.f.p.p.p.p.p.p.p.p.p.j.p.p.f.",
". HXJX XoX}. X5XwXqX9XqX9X5X5XwXwXwX8XoX5X6XoX5X5X5X5XwXwXwX8XoX) y.qX|.|.vX-./ 9X+X).bXW.`.wXsX0X6XT.D P.xXH.wX1XE A.8XH.+X8X:.}.wX6XsX6X) } 8X X}.xX} ( 9XXX`.vXH.~.qX5XXX6X6X0X0X X}.].XX8XwXwX6XoXoX6XwXwXwX5X}.5X7XjXHXJXo           # BXc.n.f.f.f.f.f.f.f.j.v.j.m.j.f.p.f.c.f.s.s.s.s.s.p.s.c.p.s.p.c.z.s.f.s.s.s.p.p.f.f.s.s.f.s.f.s.d.f.f.p.f.f.j.f.s.j.f.p.d.j.j.%X*X^.[.UX4X~ j L L.| q.y.t 4 2 8 8 8 6.f.d.p.p.p.j.f.f.k.d.j.p.f.p.j.f.p.f.s.f.p.p.s.s.p.p.p.m.s.m.s.p.p.p.f.s.s.p.s.m.p.p.p.p.f.p.p.p.f.f.p.d.p.p.p.",
". bXbX X5X4X}.5XwXrXqX6XqXwX5XwXsXfXwX5X5X5X5XoX7X5X5XwXwXqX7XXX) %.qX].|.xX>./ 3X].).cXG.[.jXsX6XoXG.A D.8XH.wX XW A.jX(.+XwX<.1X0X6XsX6X` _ 8X.X].xX-./ 5X+X].sXH.~.5XXXoXOX6X8X6XoX].].].zX+X8X8XoX5XoXxX8XjXoX].8X8XxXmXmX@       .   5 n.j.m.f.f.f.f.f.f.c.m.f.f.f.v.f.c.s.s.s.s.s.c.s.s.z.p.f.m.p.f.p.z.s.p.f.d.s.f.p.s.s.f.f.s.s.s.s.f.d.p.j.d.f.s.f.j.s.f.f.j.f.k.j.<XI.P.4X{.W r T %X{ V.V.z 7 y y 2 y 9.f.p.f.j.a.d.p.f.d.d.p.f.p.f.f.p.f.f.p.s.f.s.s.p.p.f.p.p.s.s.p.m.p.m.p.p.p.s.p.p.p.p.f.p.p.p.f.p.p.p.p.p.p.f.p.",
". bXmX+X,X3X{.XX8XwXwX6X7X5XXXjXsXvXsXoX6XoX+X X8X7X5X6XwXrX5X,X` &.8X@X].xX=.) 5X+X_.cXH.[.jXwX6X8X(.A G.xX).8X XG A.dX).OX8X<.}.5X5XwX6X) _ 8X@X_.jX*.` 7XOX].xXH.~.3XXX}.+XOX7X+X+X+XOXOXjX+X+X+XOX+X].OXjX+X+X].8X+XcXcXmXo           $ n.c.m.f.f.f.f.f.f.f.c.c.s.s.f.s.s.z.d.z.s.s.z.z.p.p.f.p.p.f.p.p.c.p.s.z.p.s.s.f.s.s.p.p.s.p.s.f.a.d.f.p.f.f.j.d.f.f.f.f.f.p.j.J.*X>XP.<XI.~ r T P./ J.V.z e y 5 2 u 6.g.d.p.j.s.p.f.f.s.d.p.s.s.p.f.s.p.f.p.p.p.s.p.p.f.p.f.p.p.p.z.p.m.p.m.p.s.p.p.f.p.p.s.f.f.p.p.a.p.p.f.s.s.z.p.",
". bXmX+XOX8X XOXxXxX8X6X8XzX7XcXbXmXcXdXdXOX+X+X+XoXoX5X9XwX0X1X` ) }.H.S.jXX.Z W._.1.jX(.[.wXwX6X+XG.l &.T.J H.].l Q S._ S.}.A.}.6X6XwX5XG l -.*.*.XX` f _ *.F |.G.W.3X7X`._ =._ *.J =.=.K *.*.*.*.1.=.G J J J F ` =.O.=.<.:.X           5 n.f.f.f.p.f.s.s.s.s.p.f.f.c.s.s.s.d.s.s.s.s.z.d.z.p.p.f.p.p.c.p.s.z.s.f.z.z.p.p.s.s.f.p.p.j.f.a.f.j.p.j.p.f.s.s.f.f.j.p.j.f.s.L.:XU.Z.U.<X{ r R L.[ Z.V.z e y y y u l.f.d.d.p.p.f.f.s.s.f.f.d.j.p.d.j.f.p.p.p.f.f.p.p.f.p.p.z.z.p.p.s.p.s.p.p.s.p.f.p.p.p.p.p.p.j.p.f.p.f.p.s.p.p.p.",
". 7XdX<.<._.).<.~.`.T.<.(._.<.1.<.H.<.<.).<.=.=.=.*.:.wX9X0X0X5XF j ` F A }.*.: A A j F.`.~.wXwXdX6XH.w x ( W -.|.j b [ } >._.>.|.5X6X6X7XS > a j j ~.` r W &.:.,XG.~.3X7X].a k h F F l S > f j a j l l : h b x h j k l S D M .           # n.s.f.f.f.f.f.p.s.s.f.f.c.f.s.s.s.d.s.s.s.s.d.z.p.z.p.s.p.s.s.z.s.d.m.p.s.c.s.p.s.s.f.f.p.j.s.s.d.s.s.s.j.p.p.f.s.j.s.j.p.j.s.k.<XI.} P.9X| r [ U.[ D.q.r 3 8 8 y y 9.s.p.p.f.p.p.p.s.f.p.p.p.j.p.j.p.f.j.p.p.p.p.p.s.p.p.p.p.p.z.p.p.s.p.s.s.s.p.p.p.p.p.s.f.p.p.p.p.s.p.s.p.p.p.p.",
"  Q J l l j j j ( { S.<.S S , j l S S l < > , A A b ;.kX9X5X6X1X~ ~ { W A ~.*.w m Z b F.`.`.jXwX6X6XH.x ! V.3XrX|.A R Z.4X7X{.N.}.6X7X8X5XG r x x z [.| T y./.jXjXH.~.5XoX].n b m A S l b r j t h k b k : b L c Y / { { %.J.J.X       .   # M.c.f.f.f.p.f.f.f.s.s.s.f.z.s.s.z.p.s.z.s.s.z.z.z.p.s.s.d.p.s.s.p.z.s.s.s.s.s.p.s.s.p.p.f.p.s.k.j.p.j.f.f.f.j.p.j.p.p.s.s.p.k.$XSXyXN.D.yX| c [ *X] V.] r 4 5 2 y u l.d.d.a.j.p.s.s.s.j.f.d.f.p.f.p.f.p.p.f.f.f.p.f.s.p.s.p.p.z.d.p.s.p.p.s.p.p.p.p.f.p.p.p.s.p.p.f.p.f.p.s.s.p.s.p.",
". W ~ d f f f s y.Z.4XjXl , : j Y W W A w % x T A c %.rX5X5X5X5X) | N.[ Y ^.&.j L R T /.[.~.wXwX6X6X<.N [ u.jX7X`.A [ y.3XjX(.:.,X5XqX6XoXE s z u x /.{ Y 7./.7XwXF.`.5X7X].b c c x x h x e L T T E v d : t c c [ 4XqXqXtXHXKXo           # M.z.f.f.s.j.d.f.s.s.s.f.s.z.s.s.z.p.z.z.p.z.z.z.p.z.s.p.s.p.s.s.s.p.c.f.p.s.s.s.s.s.f.p.f.p.s.p.j.d.f.s.s.p.j.f.d.j.j.p.p.f.k.%XeXDXF.U.<X| z y.*X[ V.~ w 4 8 8 y u l.x.i.i.k.f.p.p.p.f.p.f.s.p.p.f.f.p.f.p.p.f.p.p.f.p.p.f.p.d.p.p.p.p.z.p.p.p.p.p.p.p.p.p.p.d.z.p.p.d.p.s.f.p.p.p.",
". *X2XV.V.J.J.T y.N.>XXXh f : c T T Y m r : z R ' ! Z.qX5X5XwX0X[ { y.| Y >X-.s T [ R P.[.`.jXxX6X6XS.N &.A.XXjX].A [ A.>XjX_.:.5XwXqXwX5XD m R &.&.{._ Y &./.XXwXH.(.3X7X{.m m m T A m h w T | y./ k s e c m c ( lXwXwXvXHXKXo       .   2 n.d.f.p.s.f.d.p.s.f.s.s.s.s.z.d.p.z.p.z.p.z.z.p.z.d.s.d.z.s.s.z.s.c.p.p.f.p.s.s.s.s.p.f.p.f.p.f.p.d.p.j.f.f.p.f.j.s.s.s.j.f.f.k.:XrX^.P.yX| t &.U.| A.' 6 3 2 y y u 9.i.i.x.p.s.p.f.p.f.p.p.s.f.p.p.p.j.p.d.f.p.s.p.p.p.p.p.f.p.z.d.p.p.i.p.p.p.m.p.p.p.p.p.p.p.i.p.p.d.d.p.p.p.p.p.",
". kXHX,X,X1X,X/ y.y./.].l j w c Y Y T h : : c y.P.^.[.qX0X6X8X5X) &.;.{ Z {.&.r T [ R /.|.I.wXxX6XOX<.x [ y.F.XXXXb T y.F._.[.:.wXHXbXjX XD T 7.L.F.7X_ c ! %.H.5XS.~.5X8X{.b T | y.) N j w Y W ~ W d d e T &.y.A.5XwX8XxXbXKX=           # n.z.f.f.p.p.s.s.d.f.z.d.p.p.p.z.p.z.s.p.z.p.p.p.p.z.z.d.s.p.z.p.s.s.f.p.p.p.f.s.s.f.p.f.p.p.p.f.p.j.f.p.f.p.f.f.f.f.f.f.p.p.a.j.%X>XD.Z.yX7.z y.*X| U.~ 6 5 2 y u u l.z.x.i.p.p.f.p.f.p.p.p.p.j.p.f.p.s.p.d.p.p.d.d.p.p.p.p.p.p.s.d.d.d.p.p.s.s.m.p.p.d.p.p.m.i.i.i.a.p.p.p.p.f.d.p.",
". HXmX}.]. X XQ &.y.~.(.l f w x Y Z Z r e : t y.L./.[.wXwX6X5X5XQ ( { W A ^.} , L T Y F.|.~.wXwX6XOXS.h ! &.F._.].A L &.Z._.~.:.wXmXmXwX6XD L [ Z.~.7X_ m [ F.{.5XS.~.5X0X`.Z 7./.4X;.k h w Y [ ;.~ d d t &.:XjXXXXX8X8XxXbXJXo   .       # n.d.d.f.s.d.s.d.d.s.d.z.p.p.z.p.s.d.s.p.p.z.p.z.p.z.p.p.z.p.s.s.p.s.s.d.f.f.p.s.s.p.f.p.f.p.p.p.p.p.p.d.f.j.j.p.f.f.f.p.j.p.j.k.&X>XZ.V.>X7.c y.U.y.U.~ 3 $ 8 2 8 u l.i.d.d.p.p.p.f.f.p.f.p.f.p.p.f.f.s.f.d.f.a.d.d.p.p.p.p.s.s.s.p.d.z.p.p.s.s.p.p.p.p.p.m.i.z.i.i.p.z.p.d.p.d.d.d.",
". HXmX X|.oXoXQ [ &./._.l j w m T M Y d w $ c y.P.[.[.wX9XwX6X X( [ &.( A *X>.r m T m /.}.~.wXwX5X6XS.N | L.3XjX{.Z [ u.4XjX(.:.7XbXbXxXoXF ! y.{.jXjX_ T y.^.7XwXD.~.5X0X|.E y.>XkX>.a x s ' y.D.| B d x y.>XlX3XoXOX8XcXmXLXo           # n.d.s.d.p.s.s.s.d.f.s.z.d.z.p.p.p.z.d.p.z.z.z.p.p.p.d.z.p.p.z.s.p.m.s.s.f.p.s.f.s.p.p.f.p.s.p.p.p.f.f.s.p.d.d.f.f.f.p.f.f.d.a.j.*X<XD.%.<Xy.m u.U.V.>XE 6 $ 5 8 y i l.i.d.d.d.s.p.p.p.s.s.p.s.s.j.p.s.s.d.p.p.d.p.p.z.p.p.z.z.d.d.i.z.z.i.p.p.s.f.p.d.p.d.i.z.z.m.i.z.p.p.p.d.p.p.d.",
". vXmX X'.oX+X) &.u.4X+Xl h w m E P Y v r : L y.>X7X5XqXrXwX6X5X( &.y.[ W 3X&.j A T c L.{.`.wXwX6X6XH.Z &.L.XXjXXXG &.y.4XjX~.>.].8X+XwX6XQ [ y.{.jXjX/ T %.~.7X7XH.[.qX0X|.E y.3XxX>.> d s R N.S.} k z c &.XXzX].<.).<._.+X].X           # n.z.f.s.s.s.f.d.p.p.s.p.z.p.z.z.z.d.s.p.p.p.p.z.z.p.p.z.z.p.z.d.f.p.p.s.p.p.f.p.a.j.s.f.k.p.p.j.f.p.p.f.s.s.p.p.f.f.f.f.d.j.j.k.%X,XD.| *XV.m L.L.} U.! 6 5 4 y u I i.i.p.a.p.p.f.p.p.p.p.j.s.s.p.f.f.f.p.f.f.d.p.p.p.p.p.p.p.p.d.z.i.p.p.p.s.p.p.p.d.d.d.i.z.i.i.i.m.p.p.i.d.p.p.p.",
". vXbX@X@X_._.( &.y.XXXXS h p m Z A M s w : m y.{.7XoXqXrXqX5X X( &.&./ T {.&.j L c b y.{.~.wXsXOX6XS.Z &.L.XXjXXXG [ A.XXjX(.>.].6X7XwX7XQ / y.^.7XjX{ ( %.(.XXqXD.[.3X5X~.Z %.G.}.} , s s T ) O.~ k d z &.A._.<.S G G G F G X       .   # n.s.p.p.s.p.p.s.f.p.z.p.d.p.p.p.z.p.p.z.z.p.z.p.z.p.p.z.p.p.p.p.z.p.f.f.p.j.s.s.p.p.f.p.f.p.p.p.p.p.p.p.f.p.f.p.s.s.p.p.s.s.j.k.%X^.Z.%.*XL.Y L.L.| V.P 3 5 5 t y 0.a.i.i.d.p.p.p.p.p.p.p.f.s.s.s.p.f.p.p.p.s.d.p.p.p.p.i.z.p.i.d.i.p.p.d.z.s.s.p.p.p.p.i.i.i.z.i.m.i.p.d.z.p.i.d.p.",
". B.<.J K J Z A &.y./.(.b k f m W Y Y h r e m y.^.XX}.qXwXwX9X X` [ &.{ W /.&.A T &.W /.[.~.wXwX5XoX<.b [ y.(.{.}.Z ( &.A.(.(.>.|.5X7XwX6XW ! %.:.S.7X{ m ( { &.}.H.{.9XwX3XZ ( Q ` M f x r P M Y M M m x A T W F Z M D Q ! / .           O n.p.p.s.p.z.p.s.p.s.p.z.z.p.p.z.p.z.p.p.p.z.p.z.d.p.z.p.p.z.d.z.p.p.p.p.f.p.s.s.f.p.p.s.p.p.f.p.p.f.d.f.p.f.p.f.f.p.s.f.a.s.s.k.:X*X^.L.<XL.T L.Z.| w.N 3 5 8 8 u 0.a.i.p.d.p.f.f.p.p.f.p.p.s.s.s.p.p.f.f.p.p.p.s.d.p.z.p.d.p.p.d.i.i.z.p.p.p.s.m.p.d.p.p.i.z.i.m.i.p.p.p.d.p.i.p.s.",
"  n D , : r f s / / { ) n M s c Y A P s z w z [ %.&.H.rXqXwXwX XF Y / ' ! }.} x T ! Y P.`.~.7XwX6XoX:.h R ! G ;.,Xx b ! Q B.W.:.}.5XqXfX0XD Z y.} :.fX| b y.&.>.kXG.|.5XkXbXD.L.Z.N.V.U.L.N.J.J.L.U.^.>X*XU.P.P.D.*XU.<X<X,X9XX       .   # n.z.p.z.p.z.i.p.p.z.z.d.z.p.z.p.p.d.z.p.z.p.p.z.p.z.p.z.p.p.d.m.s.s.p.f.p.f.f.p.m.p.f.p.f.p.f.p.f.p.p.p.s.s.s.p.f.p.p.f.d.p.p.k.:X<X[.P.4XU.T /.V.y.J.N $ 4 y y y i p.p.s.p.p.p.p.p.f.p.j.p.f.p.f.p.f.p.p.p.p.p.p.s.p.p.s.f.p.p.p.p.p.p.p.p.p.m.f.p.i.i.i.i.z.z.m.i.p.d.d.p.p.p.p.p.",
". / | E ! ] ] ! ! W ! { | | ~ ~ ' ' / [ 7.[ T / ^ ( S.9XqXwX0X}.D m y.| N.9X-.b y.V.%.>XW.~.7XwX6X8XT.Z L.<XA.qXrX/ V.4XF.qX,X:.XX9XqXxXbX} y.bX,X9XJXB.%.UXtXjXJXG.`.5XwXkXrXtXkX9XtXbXkXrXrXkXtXtXrXkXkXkXbXvXrXrXvXkXrXkXHX@           2 x.d.p.p.z.p.p.z.z.d.p.p.p.z.p.p.z.p.z.i.z.p.p.z.z.p.p.z.d.p.f.p.p.s.f.p.f.p.f.p.j.f.p.p.f.p.p.f.p.f.p.f.s.s.p.p.p.p.p.f.p.s.j.j.;X<XU.Z.4X*X/ /.V.J.J.N 7 4 y y u i k.p.k.p.m.p.f.f.p.p.f.p.p.p.p.p.p.f.j.p.p.f.s.s.s.p.p.m.s.p.p.z.p.p.p.p.p.p.s.p.i.i.z.i.i.i.i.i.p.p.p.i.p.p.p.p.",
". <X4X>XyX4X4X4X4XrX9XtXrX9X,XU./.[.<X<X9XtX<X>X,X[.>X5X8XwX6X}._ y.UX4X4XbX:.' yXrX,XbX).~.qXwX6X6XG./ *XbX}.JXwX) ^.HX}.fX X:.5X5X8XxXxX_ V.bX5X5XbX} &.qX}.5XvXG.}.9X7X7X5X5XqX3X5X5X5X7X7XwXrXwXwXqXrXtXqXjXwX6XjXrXwXwXHXo   .       # x.i.p.d.z.z.z.d.p.z.p.z.p.z.d.z.p.z.z.p.p.p.z.p.z.d.z.d.d.p.p.p.s.p.p.p.p.j.p.s.f.p.p.f.p.f.p.p.f.p.f.f.s.s.d.f.p.f.d.p.p.p.d.k.:X*X^.A.4XyX[ *XV.N.V.N 4 4 8 y y 6.p.p.p.f.f.p.k.p.f.p.p.p.f.p.j.p.p.p.p.p.f.p.s.p.s.p.p.p.s.d.p.d.d.p.p.p.p.f.p.p.i.p.z.i.i.i.i.z.p.d.p.p.p.p.z.p.",
". 9XkXqXqX9XqX9X5XqX5X5X,X,X|.{.,X}.3X9X5X5X}.3X5X,X9X5XqXwX5XoX) %.kX,X5XbXO.[ 0X6X`.vX`.~.wXwX6XoXS.W ~.7X(.wX,XQ F.7XT.6X|.>.XX6XqXxXwX~ %.kX].}.vX_ [ 3X].XXwXS.,XwXoXoXXXXX5XXX5X6X5X6X8XqXwXwX0XqXwX8XwXxXkXwXwXwXrXwXbXo           2 x.z.p.p.p.p.p.p.p.p.p.z.p.z.z.p.p.p.i.p.z.d.d.p.p.p.p.z.p.s.p.p.p.p.a.f.s.s.s.p.p.p.p.p.p.d.f.p.p.p.p.s.s.p.p.p.p.p.p.p.m.p.p.j.:X<XU.B.yXtX&.U.V.K.7.c 3 5 8 8 y 6.p.p.k.s.p.p.s.p.p.p.f.p.p.p.p.p.p.j.a.p.p.s.s.p.s.s.p.p.p.p.s.z.p.p.i.p.s.m.p.p.p.p.z.i.i.z.i.i.p.p.p.d.p.p.p.p.",
". ,X8X5X5X7X5X3X3X3X5X}.].].|.'.|.}.,XoX6X6X5X5X3X}.9XqX8X8X6XoX` { 9X].}.vX&./ 9X X`.xX`.`.7XwX6XOXS.Z ~.8XG.8X}.W F.qXG.8X`.:.5X0X8XwX0XQ | rX].XXxX` _ 5X{.oXjXS.,X9X5X5X5X}.5XXX5X9X5X5XwX7XqXqXwXwXjXxXvXbXvXwXwXwXwXxXbX=           5 n.i.i.i.z.d.p.i.p.z.z.p.p.d.p.p.d.d.p.p.z.p.d.p.p.z.z.p.d.z.p.s.p.p.p.f.p.p.f.p.p.p.f.p.f.p.p.p.j.p.f.p.p.p.p.p.s.f.s.z.z.z.p.d.;X4X^.y.&XtX} P.V.J.7.z 4 4 y 8 y 6.s.p.k.p.p.s.p.p.p.s.p.p.p.f.p.f.f.p.p.p.f.p.p.p.m.p.p.f.p.s.s.p.d.z.i.d.z.i.p.p.z.p.p.z.i.i.z.i.z.p.d.z.i.d.z.p.",
". 5XwX5X5X6X5X9X5X5X5X6X X}. X|.'.}. X}.oX5XoX5X5X,XqXwXqXwX6X X/ | tX}.|.fX&.! 5XoX_.vXW.~.qXwX5XoXS.Z ~.wX~.8X}.Q G.qXF.7X|.>.5XwXqXxX6XQ %.wX_.}.xX) [ 5X].oXwXD.}.0X5X X}.}.1X1X5XrX9XqXwXwXwXrXkXwXjXxXvXbXxXwX8XwXwXjXvX=           O x.i.i.z.i.p.p.z.p.p.d.p.d.p.d.z.p.d.z.d.p.p.z.d.p.p.p.p.p.p.p.p.m.p.p.p.f.m.p.f.p.f.p.p.p.f.p.j.p.p.p.p.f.s.s.p.p.f.p.c.p.p.p.d.:XeX[.N.U.4X&.P.| V.| z t t y y u 6.p.p.p.p.p.f.s.s.p.p.f.p.p.p.p.f.p.f.p.p.p.f.p.p.p.p.p.p.p.p.p.d.p.p.z.d.p.d.p.i.p.p.p.p.m.i.i.m.p.p.p.p.i.p.i.p.",
". 4XwXoX5X9X5X5X5X9X5X5X X}. X X'.1X5X+X6X6X X5X5X,X5XqXwX8XOX3X/ { tX,X}.vX&./ ,XoX`.cX(.^.wXwX6XOXS.M ~.8XG.wX}.W F.wXH.8X[.;.3X8XwXsX5XQ } rX`.}.xX) ) 3X|.XXvXS.}.6X5XXX X}.oX6X5XqXwXwXjXwXwXwXwXjXwXwXxXwXwXwXjX8XwXjXkX=           O n.i.z.i.p.p.p.i.z.p.z.p.d.p.z.p.p.p.p.p.d.z.d.s.p.z.p.p.p.z.p.p.p.p.p.p.p.p.p.p.p.p.p.s.p.p.p.p.p.f.m.p.m.s.p.p.s.s.d.p.f.p.s.k.$X4X9XI.U.,X%.P.[ 7.' z t 8 y y y 6.p.d.f.d.s.p.p.s.j.f.p.f.f.s.p.p.d.p.p.p.p.f.p.m.p.p.p.p.p.p.s.p.p.d.i.i.i.d.z.i.p.p.i.p.i.i.i.m.p.p.p.p.p.p.p.p.",
". 3X8X5X9X5X5XwXqX6X6X0X5X1X5X X]. X6X6X5X6X X5X5X3X5X5X0X8X6X6X/ [ 9X X XvX-.' 4X X`.xXG.`.wXrX0X6XS.D I.8XG.sX XW I.qX).wX|.:.5XwXwXsXwXQ { jX).}.bX{ ) 9X|.5XwXD.XX7X7X}. X}.6X7X7XwXwXwXkXjXjXjXkXvXvXjXvXkXwXwXwXjXrXrXbXo       .   # x.z.i.z.i.z.p.p.z.z.p.p.z.p.p.z.i.i.p.z.z.p.z.p.p.d.d.p.p.p.p.p.p.f.p.p.f.p.p.p.p.p.p.f.s.p.p.p.p.p.p.p.p.p.f.p.j.p.p.m.s.s.p.d.$X<X,XI.U.I.&.Z.{ U.| z 7 4 4 y u 6.d.p.d.d.s.p.p.s.p.p.f.p.p.p.p.p.d.d.p.p.p.p.p.p.p.p.p.s.s.p.p.p.i.i.i.d.z.d.p.i.p.p.i.z.m.i.i.i.z.z.p.d.p.p.p.p.",
". 5XwX5XqXwX0XwXjX8X8X8X6X6X6X5X].6X8X5X8X8XoXoXoX3X3X5X6XwX8X5X) [ 9X3XoXvXO./ 9XoX].bX`.[.vXwX6X8XS.D I.8XG.sX}.Q S.7XH.8X{.:.5XwXwXxX8XF { wXH.].bX_ { jX'.oXjXS.oX5X7X5XoX].}.XX5X0X5X5XwX7X7XqX5X9XqX9X9X9X5X,X9X9X,X9XbX=           O x.i.z.i.p.p.z.z.p.m.i.z.i.z.z.i.z.i.p.p.p.d.z.p.d.p.p.p.p.p.d.d.z.p.p.p.p.s.s.p.p.p.p.z.d.p.z.s.p.z.f.p.p.p.f.f.p.s.s.p.s.s.s.p.$X<XW.I.U.[.B.A.| U.] t 4 5 8 8 y 6.p.p.p.p.s.p.k.m.p.p.p.p.d.d.i.p.p.p.d.i.z.p.d.p.p.d.a.p.p.p.p.d.d.d.d.i.i.z.i.i.z.p.p.z.m.i.i.p.p.p.d.p.i.p.p.p.",
". qXvX9XfXrXwXwXwX5X5XwX7X}.6X5X|.9X5XoXOX6X].].}.XX5X6X6X8X6X5X/ [ 9X}.5XsX-.[ 3XoX].cXG.[.wXwX5XOXS.D I.8XH.8X}.Q H.7X).8X|.;.5X8XwXwX8XF &.wX_.].xX` ) 8X].7XjXS.}.7X8X8X6X).S.S.S.`.I.`.{.{.3X3XXX>X,X4X<X4X4X,X9X4X}.3XwXQ   .       # x.i.i.z.i.m.i.p.i.i.z.i.z.i.i.m.z.i.p.z.d.d.i.z.p.p.p.d.p.d.p.d.p.p.z.p.p.p.p.p.p.j.p.z.d.p.p.p.p.d.p.p.a.j.p.p.p.p.s.s.p.p.f.k.j.eX<XF.U.9XI.D.| U.[ t 4 5 8 8 u 9.s.p.k.s.s.p.s.s.f.f.p.d.p.p.p.p.i.p.i.p.p.p.p.z.i.p.a.p.s.p.p.p.d.d.i.i.d.i.d.d.p.p.p.p.i.i.p.p.p.p.d.z.p.i.d.i.",
". 4X9X,X5X9X,X}.9X,X[.,X4X<X,X9X[.[.`.G.G.G.H.<.<.~.jX8X6XwX6X6XF &.vXXX}.vX_ ( kX+X_.bXH.[.jXwX6XoX:.n ~.cX).vX].S H.8XH.6X|.:.9XwXqXsX6XA ) OX<.(.cXF G XX(._.jX:.|.wXwX8X8X`.|.5X7X3X}.0XxX7XwXkX7XJXJXJXqX4XkX7XjXrXrXrXHX`           5 n.i.m.i.i.p.i.i.p.i.i.m.z.i.i.z.z.i.z.p.i.i.p.i.d.i.p.p.p.p.i.p.z.i.p.a.p.p.p.s.s.p.p.p.i.i.p.d.z.p.s.p.j.p.f.p.p.j.p.f.p.p.p.d.$X*X<XI.I.9X<XU.q.I.[ z 8 8 y 2 u 9.s.p.p.p.s.f.p.p.p.p.f.p.p.p.p.p.d.p.p.d.p.p.i.d.p.p.d.p.p.p.p.p.i.d.d.d.i.d.i.z.d.p.p.p.p.p.p.p.p.p.s.d.i.i.d.p.",
"  } rX4X,X4X3X3X:.;.S.A.:.~ ~ ! { B.S.,.` W Z ( %.S.G.|.6X5X5XoX>.D A.G.).].<.W %.S.(.|.`.G.3X5XoX X).F G ` F _ A./ S ) *.A.G.S.G.}.6X5X+XO.n Q ` *.(.-.k A F _ H.H.G.}.5X6X}.^ Q ) _ _ ( } &.S.G.G.;.` *.F ( ) { ) ) ) / ` &.&           O x.i.i.i.m.i.z.m.i.z.i.z.i.i.z.i.i.m.z.i.i.i.i.m.p.p.i.d.d.p.d.i.i.z.z.a.p.p.s.s.s.s.p.z.z.d.p.d.p.d.s.p.p.p.p.p.p.p.p.s.p.d.d.k.k.yX>XG.B.0X1XK.| Z.' z 8 8 u 2 u l.p.p.k.s.p.s.p.p.p.f.d.p.p.f.p.z.d.p.d.p.p.i.p.z.p.p.a.p.p.p.a.d.i.i.d.i.i.i.i.i.z.p.p.p.i.p.i.i.p.d.d.d.i.i.d.p.",
"  M KXvX5X1X6X1Xl , K V S @ @ = % Z G H - * + % G ` F S.qX1X5X1X Xk d ` <.<.6X( f [ H.S.}.C.G.]..X X2X,.: s M d } I.& j ` =.:.`.-.W. X}.1X6XV f W -._ }.Q f ( 1.-.).B.I.}. XW.< p p p - & , * _ 1.<.H * @ + v ( ^ Q U U U N U -           # x.i.i.z.i.z.m.z.i.z.i.z.i.i.i.p.z.i.i.i.p.i.i.i.d.d.i.i.d.i.i.i.i.d.z.p.p.p.s.p.p.a.p.p.d.z.d.d.z.i.s.s.p.p.p.s.p.f.p.p.d.a.a.d.j.eX,XF.;.9X9XC.] N.P t y y y 2 u l.k.p.f.p.p.d.p.p.p.s.p.s.i.p.p.p.z.d.z.d.d.i.i.d.a.p.a.d.p.a.a.i.d.d.d.d.d.p.d.i.p.p.p.p.p.p.p.p.p.p.p.p.p.a.a.p.",
"  Z KXwX1X5X.X Xn a n V k * % # w n K K , & $ : A G G C.wX5X5X X'.k h D J ` T.F a G *.*._.C.I.}. XoXOX>., b Q W C.S., b ( ` >.~.:.`. X5X5X Xl d Q O.=.'.F d F >.1.T.S.G.}.6X'.k F | ) g p a : *.<.1.J & : : Z &.>.>.|.<X&X>XrX|   .       # n.i.i.i.i.z.i.i.i.i.i.m.i.i.i.i.m.i.m.i.p.p.i.z.z.i.d.x.i.i.i.i.i.i.p.p.p.p.p.s.s.p.p.p.p.p.p.z.i.i.s.s.s.f.s.p.p.p.p.s.f.d.j.a.j.DX9XI.N.,X,XN.] | P y 8 y y y u l.s.p.p.p.p.j.p.p.p.p.d.d.z.p.p.p.i.i.i.i.i.z.d.i.i.a.d.i.d.d.a.d.d.l.i.i.p.p.p.z.p.p.p.z.p.p.p.p.p.p.p.p.p.p.a.p.",
"  M JXdX+X8XpX+Xl p E F n & $ * f Q ` J , * $ w Q _ ` S.0X5X1X X].< p E X._ `.F , D _ _ ).S.G.}.oX1X6X=.& h n n :.S., s n K ` I.>.`.1X1X6X Xk p n K F ).F : G F J S.:.G.].5X].l n ) _ n : s > ` =.=.H > : & l ` ` =.,X9X5X1XKX;.  .   .   O x.i.z.i.i.i.i.m.m.i.i.i.z.i.i.i.m.i.p.p.d.d.i.d.z.d.i.z.i.i.i.i.z.i.p.f.p.p.s.s.p.z.p.p.d.z.p.d.p.p.p.p.p.p.p.p.p.s.d.f.s.s.a.d.j.SXtXW.H.>X1XO.q.V.L t y y u 2 u 9.j.p.p.p.s.p.p.f.f.p.d.a.i.p.d.i.z.i.i.d.i.i.d.i.i.d.d.i.d.d.d.d.i.d.d.d.p.p.p.z.p.d.p.p.p.p.p.p.i.p.p.p.p.p.p.p.",
"  k mX+X_._._.].g a Q F V * % @ f ` =.X.f * * f ` >.-.G.9X5X X5X].g p [ H.:.].) s { H.G.|.S.I.}. X X6X-., N Q W B.S.a v W ) *.I.B.|.1XoX5X Xl w M W F T.E f D ` _ G.S.W.]. X'.g l G J g f r : W `  .K & % $ k F K ` }.5X}.5XmXO.          2 x.i.z.i.i.i.i.i.i.i.z.i.i.i.i.z.i.z.p.p.p.s.d.d.i.d.i.i.i.z.i.i.z.i.p.p.f.p.p.p.p.z.d.d.i.i.d.s.p.j.p.p.f.p.p.f.p.p.d.s.s.d.a.j.k.eXtX[.P.}.[.| 7.V.L z u y y y u i.p.p.p.p.f.s.p.p.p.p.p.p.z.i.z.i.d.i.d.i.i.z.i.p.d.i.d.d.i.d.d.d.d.i.d.d.i.i.p.d.p.p.p.p.f.f.p.p.p.p.p.p.i.p.p.p.",
"  - >.J C V K S - d ( ^ V 6 & # f ` =.X.g & # d ] 1.=.I.0X5X1X5X.XB p ~ <.>.|.Q h ) <.G.].C.G.XXoX1X6X-., m ) ( S.S.a M | >.:.~.:.[.oX5X X Xn h / >.;.'.Q x | D.S.W.C.I.}. X'.l F -.=.l , d : _ :.,.F - % % n ` ` }  X5XoX+XmXO.          # x.i.m.i.i.i.i.i.i.i.x.i.i.i.x.i.i.i.m.i.i.i.x.i.i.i.i.x.i.i.x.i.i.i.i.i.m.i.i.i.i.x.z.p.i.i.i.d.p.z.i.d.s.p.z.p.p.s.p.p.z.p.p.p.k.yXyX[.H.}.>X] N.y.L t t y y 8 0.l.i.i.d.a.p.p.f.p.d.p.p.i.p.z.i.i.i.i.i.p.i.i.i.z.i.i.d.i.d.i.z.d.p.p.p.p.p.p.p.s.p.i.p.i.p.p.j.p.p.a.p.p.a.p.p.p.",
"  $ V d - & , p # & k B v f 0 7 7 M F H p $ # z ) O._ D.dX6X6X5X}.d p ~ <.1.].` j ` <._.].:.G.}.1X1XdX-.p M ) ) S.<.g Y %.:.<.(.:.{.oX XoX].n x { :.>.'.F h ` <.<.G.:.I.,X5X'.k F -.>.l & d 7 } <.<.J & % % M -.-.>.oXzX+XXXmX-.      .   O x.i.i.i.i.i.i.i.i.i.i.i.i.i.i.i.x.i.i.i.i.i.i.i.x.i.i.i.i.i.i.i.i.x.i.m.i.x.i.m.i.i.d.d.i.i.z.d.p.d.i.s.d.i.d.p.p.p.a.z.p.p.p.p.k.;XtX[.B.[.}./ 7.7.z 7 8 u u 2 0.l.z.i.d.p.p.p.p.p.p.p.z.p.p.p.m.p.p.i.i.a.i.z.d.d.d.d.i.d.d.d.d.i.p.f.p.p.p.p.p.p.s.p.p.p.p.p.a.p.p.p.p.p.i.p.p.p.",
"  d %Xq.7.q.O.7.U P U P U ' ] P N N M V V z z z P V V :.2X6X5X6X Xf 6 z n n `.Q w N F _ ).S.P.}. X XoXO.0 v E E A.C.d m ) *.;.(.>.{.oXoX.X].V c ) 1.1._.G b _ H.H.).:.`. X6X'.k Q 1.1.V - s 7 _ <.<.` - % % G -.1.X.1.<.<.<.+XJ       .   O n.i.i.i.i.i.i.i.i.i.i.i.i.x.x.i.i.i.i.i.i.x.x.i.m.i.i.i.i.i.i.i.x.i.i.i.m.i.i.i.m.i.p.p.d.i.i.i.d.p.p.p.p.d.d.d.p.p.p.p.p.p.p.p.j.:XtX,XC.I.W./ 7.| I 7 8 t u 8 0.i.i.i.i.p.j.p.p.p.p.p.z.d.p.i.z.p.p.i.p.i.p.d.d.d.z.i.i.i.i.d.i.z.p.p.p.p.p.p.p.s.d.p.i.p.p.p.p.p.p.p.p.p.i.i.i.p.",
"  P KXtXyXtXtX9XyXtXyX4XyX2XyX&X<X&X&X&X&X<X&X&XU.I.F.|.5X5X5X0XwXU I J.] | 9X] r ^ ^ E I.C.I.}.1X X6X>.z ~ / E D.C.f N E A ) (.B.|.}.}. X Xk f N D G I.D f D F ` H.S.~. X6XW.a N D F k s z & ~ >.1.F & 7 % n _ _ J l l S S F -           # x.i.i.i.i.x.x.i.i.i.i.i.i.i.i.i.i.i.i.i.i.i.i.i.i.i.i.i.i.i.x.i.i.i.i.x.i.i.i.i.x.i.p.p.p.d.d.z.p.p.s.d.p.p.s.p.p.d.p.p.z.p.p.p.a.%XyX,XD.S.W.' ' ! z 8 8 I y y 6.i.i.z.i.p.p.p.p.p.p.p.i.d.d.z.i.p.p.d.p.p.p.p.d.p.i.i.i.i.z.d.i.i.p.p.d.d.p.p.s.p.p.d.d.p.p.p.p.p.p.p.p.p.i.i.i.d.",
"  M KX0X1X0X6X1X9X9X0X0X6X6X6X9XtX0XrXwX0XrXrXrXfXtXfX0X5X9X1X0XfX| L.HXwXrXHX;.~ 4XW.U.9XB.I. X X X8XD./ <X9XU.vXI.B 7.U.N.G.[.B.`.3X X X,XZ P V.) | [.E N 7.( ( I.B.I.|. X,X] ~ ~ U ' 7.| P P W U U P I z B N V N N B l v D -           9 m.i.i.i.i.i.i.i.i.i.i.i.i.i.i.i.i.i.i.i.i.i.i.m.i.i.i.x.i.i.x.i.i.i.i.m.i.i.i.i.i.x.p.p.p.p.i.i.p.p.d.d.p.p.p.d.p.p.a.z.p.p.p.p.k.%XeX,XI.H.[.| ' T t 8 u 8 t u 6.i.p.p.p.p.p.p.p.p.d.d.d.d.p.i.i.i.p.p.p.p.i.p.p.p.i.p.i.i.i.i.i.i.p.p.p.p.p.a.p.p.d.p.d.p.d.d.p.p.i.p.i.i.d.i.i.i.",
"  M KX6X X1X2X X1XoX5XOX1X X X1X5X5X5X5X5X5X5X5X5X1X1X1X1X6X6X6XsX_ y.qX`.].bXO.Q ,X}.W.6X:.G. X X X6XB.~ >X6X[.bXG.n L.tXI.0X}.:.[.3X X6X XQ [ tX[.,X9X~ | tX>X[.1XB.I.}. X1X9X9XyX2X4XtXyX<X<X>XW.U.<X&XK.Z.K.V.K.U.U.U.K.&XU       .   2 x.i.i.i.i.i.x.i.i.i.i.i.i.i.i.i.i.i.i.i.i.i.i.i.i.i.i.i.i.i.i.i.i.x.i.i.i.z.i.m.i.i.p.i.p.d.p.i.z.p.d.d.p.p.p.p.p.p.p.p.p.p.p.f.k.j.yX4X~.G.2X;.' L z 8 8 y 8 8 6.i.p.p.p.p.p.p.a.p.i.d.i.i.p.m.i.i.p.d.p.p.a.p.i.p.p.p.i.i.i.i.i.i.p.p.p.p.a.a.j.f.d.p.d.d.a.d.a.p.p.d.i.i.i.i.i.d.",
"  P KXsX5XOX1X1X1X5XOX2X1X5X1X6X5X6X5X5X5X5X+X7X2X0X6X6X6X9X5X6X8X` ;.9XT.`.mX>.W 9X].).6X:.I.}.1X2X8X;.U ^. XG.wXS.n Z.9XD.1X}.B.{. X X5X XQ / 4X`.`.5X/ / 1XI.'.1X:.I.}.,X1X,X9X9X0X1X2X0X0XqX9X0X0X0X9X9X9X9X9X0X9X0X9X9XHX;.      .   O x.i.i.i.i.i.i.i.i.i.i.i.i.i.i.i.i.i.i.m.i.i.i.x.m.i.i.i.i.i.i.i.i.i.i.i.i.i.i.i.i.x.p.p.p.i.p.z.z.i.p.p.p.i.p.p.p.i.a.p.p.p.p.p.a.j.eX4XG.C.1XO.~ N t t t 8 8 8 9.i.p.p.p.p.a.p.p.p.i.i.i.i.p.z.i.i.p.p.p.d.d.p.p.i.i.p.i.i.i.i.d.d.p.p.p.p.p.p.p.p.d.d.p.p.p.d.d.p.p.z.i.i.d.i.i.i.",
"  V JXfX5XOX.X5XoX6X6X2X1X5X1X1X5XwX6X5X5X5XXX+X6X6X6X1X5X0X6X6X XG ;.9X|.'.bX>.W 2X}.W.0XS.I. X1X.XOX>.D `.1XG.0XS.M Z.6XH. X].:.[.oX X1X1XQ / 1XT.`.5XQ / 1XT.|.5XB.`.5X5X5X1X5X9X1X5X1X6X6X6X0X5X1X9X5X5X9X6X5X1X1X1X1X1XmX;.          # x.i.i.i.i.x.i.i.i.i.i.x.i.i.i.i.i.i.i.i.i.i.i.i.i.i.i.i.i.i.x.i.i.i.i.i.m.i.i.i.i.i.i.p.p.i.i.i.p.p.p.i.d.z.p.p.i.p.p.p.p.p.p.p.k.k.%X4X`.;.,XO.P z 7 8 8 8 8 8 6.i.i.m.p.p.a.p.p.p.i.i.i.i.m.i.i.m.a.p.p.p.d.p.i.i.p.p.i.z.i.i.z.d.p.p.p.p.a.p.a.d.p.d.p.d.p.d.d.p.p.i.i.d.i.i.i.i.",
"  Z JXdXOXOX+X+XoXOX+XOXOXoXoXoX+X+X+XOX+X+X+X+X6XOXOX6X5X6X6X0X XG } oX_.].cXX.W 3X].).8XS.I.}.1X X5X-.D ~.oXW.sXS.A A.6XH.oX|.:.[.1X X6X1XF _ 5X).].8XF / 5XW.`.5XC.W.,X9XoX X6X6X6X6X1X5X6X0XwX0X6X5X5X9X9XqX9X1X1X9X1X1XmX;.      .   O m.z.i.i.i.i.i.i.i.i.i.i.i.i.i.i.i.i.i.x.i.i.i.i.i.i.i.i.i.i.i.d.i.i.i.i.i.i.z.z.i.i.p.p.p.p.p.d.p.p.i.i.z.i.d.d.i.d.p.a.p.p.p.p.k.k.L.>X{.:.D.] N s y y 2 y y 2 l.i.i.m.p.a.a.p.p.p.p.i.i.i.z.i.z.i.p.a.d.p.p.p.p.p.p.p.p.i.i.p.p.p.p.p.i.p.p.p.d.p.d.d.d.a.p.d.i.i.i.i.i.z.i.i.i.i.",
"  b mXOX+X].+X]._.@X+X+X].+X].].+X@X+X+X+XOX+X_.+XOX6XOX6X6XwXdX XF ;.8X]._.sX_ Q oX+X_.8XS.I.}. XoX7X>.G (.+X).dXS.A S.OX).5X|.B.}. XoX6X XF ) 5X_.].7X( { 5X).'.6XS.[.5X5X}. XOX6X5XXX5X5X1X6X0X0X5X5X0X5X8X7X0X5X5X5X5X5XmXO.          # z.i.i.i.i.i.i.i.i.i.i.i.i.i.i.i.i.i.i.i.i.i.i.i.i.i.i.i.z.i.z.d.i.i.i.m.i.i.i.i.m.i.i.p.p.p.p.p.d.p.i.i.i.i.z.p.i.d.p.i.i.p.p.d.p.k.L.*X1XT.,.^ N r y y 2 2 2 y 6.i.z.p.p.p.p.p.a.p.d.i.i.i.i.i.i.i.a.p.p.i.d.i.d.i.p.i.p.i.i.p.p.p.p.p.p.p.d.p.d.d.p.d.i.d.d.i.p.i.i.i.z.m.i.i.i.i.",
"  , <.=.J J ` J K J J J J *.=.J J *.X.=.=.<.=.*.=.1.>.T.6X5X6X6X XS n >.X.`  X` j <.1.>.].S.I.5X1X X+X-.b <._.:. XH.k ;.`.,.}.'.B.[. X XoX XF _ oX)._.8XJ ) XX_.'.OX:.W. X X}.oXOX+XOXXX+X6X6X7X6X6X+XOX5XoX7X7X5X+X X5X5X5XJXO.  .   .   O x.i.i.i.i.i.i.i.i.i.i.i.i.i.i.i.i.i.i.i.i.i.i.i.i.i.i.m.i.i.i.i.i.p.i.i.i.i.i.i.i.i.z.i.i.i.p.d.p.p.i.i.i.z.i.p.d.a.i.i.i.d.p.p.s.k.u.U.2XW.O.~ z t y y 2 y y u 6.i.i.i.i.a.p.p.p.p.p.p.i.i.i.i.i.z.p.p.p.a.a.i.i.i.a.d.p.p.p.p.i.a.i.p.i.d.p.p.p.f.d.p.p.d.d.a.i.p.p.p.p.m.i.9.i.i.",
"  * D k & - 6 - & j K K S > , * , S S S < , > , F J J :.6X6XoX6XoXj & l G K W.` > < l l H.S.I.1X1X X+X` & b F l 1.S., b Q G -.`.B.[.5XoX6X Xl g =.J *.].G l >.X.=.].B.~.}.5X|._.@X+X].].+X+X+X+X]..X+X+XdX+X+X+XOXXXOX7XOX+XmX-.          # x.i.i.i.i.i.i.i.i.i.i.i.i.i.i.i.i.i.i.i.i.x.i.i.i.i.i.i.i.z.i.z.p.p.i.i.x.i.z.z.i.i.p.d.p.i.p.p.p.p.p.i.z.i.i.i.i.i.i.i.z.i.p.d.d.k.k.U.3X_...N s t y 4 2 2 2 u l.i.i.i.a.i.p.m.p.a.p.d.i.i.i.z.z.i.p.p.p.i.i.i.i.i.a.p.p.i.p.a.i.i.p.p.i.d.p.p.p.p.d.d.d.i.p.a.i.z.i.p.i.9.i.i.i.i.",
"  p K.7.~ U ' V p A ` J K * * * j W ` F , & * j :.T.H._.6X1X XoX.Xn v ) C.:.}.) : j l l F.D.I. X5X1XOX_ f M N v } S.p ! ;.B.;.I.B.|. X1X5X Xl * < < j ).V : Q ` J T.C.~.XX9X|.1 < K S S J =.G ` _ J X.=.=.*.*.=.=.X.<.<.<.<.+XH   .     X 2 i.i.i.i.i.i.i.i.i.i.i.i.i.i.i.i.i.i.i.i.i.i.i.i.x.i.i.i.i.m.p.p.i.i.a.i.i.p.i.i.i.i.p.i.p.i.i.p.i.d.i.i.i.i.i.i.a.i.i.i.i.i.d.i.d.k.u.%X4X]._ v r 7 e 4 5 y 2 i i.i.a.a.a.d.m.i.i.i.p.p.i.i.i.p.p.p.a.i.p.p.i.i.i.i.p.p.i.i.i.i.i.i.i.p.p.p.d.a.p.p.d.d.p.a.i.i.i.m.i.i.i.i.i.i.i.i.",
"  M KXyX<XyXyX<Xb A ` ` J , % * j ( ( J , & # x ;.H.<.`.5X X5X X].l b _ :.<.}.` r A W ( ~.L.I.5X6X1X6X_ c [ | ] B.B.v V.<X3X[.I.B.[.1XoXoXoXV , a a h ~.F M A.].'.|.B.`. X9X].< , < , , , < , *.).T.J , , > J =.1.` l S S V K ,         . 2 x.i.i.i.i.i.i.i.i.i.i.i.i.i.i.i.i.i.i.i.i.i.i.i.i.i.i.i.i.i.p.p.p.i.p.a.p.i.i.i.i.m.p.i.i.p.p.d.i.i.i.i.i.i.i.i.d.i.d.i.i.i.d.i.d.l.k.u.,X5XO.M 7 7 t 4 5 y y 0.i.i.a.d.l.i.i.m.p.p.p.p.p.p.i.a.p.p.i.a.i.p.p.i.i.m.p.i.i.i.i.i.p.p.i.d.p.p.p.p.s.p.a.p.p.p.i.i.m.9.i.i.i.i.i.m.z.i.",
"  P KXtX9X9X0X6XG b ` ` G > & # h ` *.` , & $ x =.<.<.|.6X5X5X1X.XS n } H.<.].` j / L.A.{.F.~.3X1X1X5X_ m V.W.[.I.B.b y.>XXX`.G.<.[.1X5X6XoXA a h a h I.F A 1.]._.}.S.I.}.6X|.g j j h p , j a :.].+X1., & : ;.]._.H.V P N V ~ &       . . 9 i.i.i.i.i.i.i.i.i.i.i.i.i.i.i.i.i.i.i.i.i.i.i.i.i.i.i.i.i.i.i.i.p.i.i.p.i.i.i.i.i.i.i.a.d.p.p.p.i.i.i.i.i.i.i.i.d.i.i.i.i.i.d.i.a.d.k.u.3X7XT./ s 7 y 4 y y 8 0.p.i.a.p.a.a.i.z.p.p.p.p.p.p.p.a.i.p.a.i.i.p.i.i.i.m.i.p.i.m.i.i.i.p.d.p.p.p.p.p.p.p.a.p.a.p.i.i.i.i.i.i.i.i.i.i.i.i.",
"  M KXrX1X5X0XOXn h G G A & : * j A G K , & * : J *.` H.0X6X1X1X}.S N Q -.*.XX` a W *.;.`.S.G.5X6X X5XO.m V.{.{.[.B.v N.`.XX).G.B.|.5X6X6XOXV s s d h G.F A A.].@X].C.~.5X5X|.a , j s w & , , :.].@X=.- % w ;.]._.(.^.W.&XU.tX]         . 2 i.i.i.i.i.i.i.i.9.i.i.i.i.i.i.i.i.i.i.i.i.i.i.i.i.i.i.m.i.i.i.p.p.i.i.i.i.i.a.i.i.i.a.i.i.i.i.d.i.i.i.i.i.i.i.d.i.i.i.i.i.d.i.d.d.l.k.L.4XkX}.O.z t t 8 y y y 6.p.i.a.p.a.a.m.m.p.p.i.p.i.p.p.p.i.i.a.a.i.i.i.i.i.i.i.i.a.i.z.i.i.i.i.p.p.p.p.p.p.a.i.p.a.i.i.i.i.i.i.i.m.i.i.i.i.i.",
"  V JXwXOX+X8XOXn M ) } E & $ # g V E F - & * 6 G F K :.sX6X5X1X Xl s A ` Q `.` : A F F W.F.I.5X0X5X6XO.x | A.;.H.A.h { :.B.C.G.A.}.5X1X6X Xl f z d N I.D h } <.<.'.S.I.1X6X'.d f d p 0 p h w ;._.].1.- * : &.~._.).oXwXrX9XKX;.          # x.i.i.i.i.i.i.i.i.i.i.i.i.i.i.i.i.i.i.i.i.i.i.i.i.i.i.i.i.i.i.i.i.i.i.i.i.i.x.i.i.i.i.i.i.i.i.i.p.p.a.p.p.m.p.d.i.i.d.i.i.i.i.i.i.i.k.u.<XrX1XV.L t t 8 8 8 u 9.i.i.p.p.a.p.p.p.p.p.p.i.p.i.p.p.p.p.d.a.i.a.p.p.i.i.i.i.i.i.i.i.i.i.i.i.i.i.i.i.i.i.i.a.p.p.i.i.i.i.i.i.i.i.i.i.i.m.",
"  M JX8XOXOXOX6XG W B.S.O.& & & N ) X.` , % $ a ) :.-.H.qX0X5X6X XA m &.S.,. XQ a Q ;.>.`.S.I.5X5X1X6X} m V.[.~.I.B.v } P.F.S.G.C.|.1XoXOX Xn x | N.N.[.F s ) X.=.W.A.I.1X2X|.d 7 r p & f h : ( *.=.K , % > W &.&.>.3XwX7X5XbXO.      .   O z.i.i.i.i.i.i.i.i.i.i.i.i.i.i.i.i.i.i.i.i.i.i.i.i.i.i.i.x.9.i.i.m.i.i.i.i.i.i.i.i.x.i.i.i.i.i.i.i.p.a.a.i.i.d.p.i.d.i.i.i.i.l.i.i.l.k.k.*XrX2XC.P z t t u y u 9.i.i.p.p.p.a.i.i.p.p.i.i.a.i.p.p.p.p.p.p.p.i.m.p.i.p.i.i.i.i.i.i.i.i.i.i.i.i.i.i.i.i.i.a.i.i.i.i.i.i.i.i.i.i.i.i.i.i.",
"  d oX<.1.<.T.<.n W B.H.} & & $ v ) ` ` 0 & $ p G _ ` S.wX0X1X6X XV b ` H.<..X` a Q >.-.`.S.I.5X5X X6X} Y L.,X3X|.:.n N.>X5X`.I.B.|.1X5X6X XV W /.5X1X2XQ n N.].).|.A.W. X6X`.l ) V.N.n , f r N.)._.O.* % : &.P.F.F.XXjX5X5XJX-.          O z.i.i.i.i.i.i.i.i.i.i.i.i.i.i.i.i.i.i.i.i.i.i.i.i.i.i.i.m.i.i.i.i.i.i.i.i.i.i.i.i.i.i.z.i.m.i.a.p.a.i.p.i.a.d.p.p.p.i.i.i.i.i.d.i.i.p.k.L.rX0XD.U t t y y y u l.i.i.p.p.p.a.i.9.m.i.a.p.a.p.i.a.p.p.i.i.a.i.i.i.p.i.i.i.i.i.i.i.i.i.i.i.i.i.i.i.i.i.i.a.i.a.i.i.i.i.i.i.i.i.i.i.i.9.",
"  * ` K l n K l a E B.:._ p 0 3 c ( ` ` a 6 % d F ` Q A.qXwXwX2X}.G A { H.H. XF j ( >.-.`.S.I.5X5X1X6X=.Y A.oXXX'.1.Z N.{.oX`.F.>.|.1X5X6X XD W F. X]..XF A B.`._.}.A.I.5X6X`.V D.,XoX_ & a j N.].+X>.& % r y.>XXX].OXcX8X+XmX>.  .       2 z.i.i.i.i.i.i.i.i.i.i.i.i.i.i.i.i.i.i.i.i.i.i.i.i.i.i.i.i.i.i.i.i.i.i.i.i.i.i.i.m.i.i.i.i.i.p.i.i.i.i.i.i.a.d.p.p.p.i.i.i.i.i.i.i.i.d.k.J.tX6XK.' z t 8 y y i i.i.i.p.p.a.a.p.p.z.i.p.p.p.p.i.i.p.p.i.p.a.p.i.i.i.m.i.i.i.i.i.i.i.i.i.i.i.i.i.i.i.i.a.i.i.i.i.i.i.i.i.i.i.i.i.i.i.m.",
"  % O.~ V U U N z N U E U P I 0 z N M N 0 0 z 7 N P V :.wX0X0X6X XV v W -.} ].Q a G ) ) W.A.I.5X6X XoXO.m N.W.).~.C.M ;.`.].G.F.:.|.oX5X6XoXG W G.oX].oXH A :.].'.].A.I.1X0XW.G D.].XXJ , d s A.`.].:.- w r N.{.].).<.3._.@XcX_   .       O x.i.i.i.i.i.i.i.i.i.i.i.i.i.i.i.i.i.i.i.i.i.i.i.i.i.i.i.i.i.i.i.i.i.i.i.i.i.i.m.i.i.i.i.m.i.i.i.i.i.p.a.a.p.i.i.d.i.d.i.i.i.a.a.i.i.d.l.y.tXwXI.' c t e y y i d.i.i.i.p.a.i.p.p.a.p.p.p.a.d.a.p.p.i.a.i.p.p.p.i.p.i.i.i.i.i.i.i.i.i.i.i.i.i.i.i.i.i.i.i.i.9.i.i.i.i.i.i.i.i.i.i.i.i.",
"  B tXK.U.U.U.U.B.J.V.B.B.K.U.J.7.N.7.| 7.J.w.8.' ^ ! D.qX5X6X1X}.n f D V n W.F : D D S D.B.I. X X X6X;.p Z Q E N.S.f Z ( ` -.G.;.[.,X X5X}.A A -.<.<. XF k { <.<.`.A.W.1X0X[.n N.H._.F 0 d f ;.)._.O.a 0 r %.`.].H.S K K K J a           # z.i.i.i.i.i.i.i.i.i.i.i.i.i.i.i.i.i.i.i.i.i.i.i.i.i.i.i.i.i.i.i.i.i.i.i.i.i.i.i.i.i.i.m.i.i.i.i.m.i.p.i.a.i.a.i.i.a.d.i.i.i.a.i.i.i.d.k.u.tXHX}.| c z u y u 6.i.i.a.i.i.p.p.p.a.p.a.a.a.p.p.p.p.i.p.i.a.i.i.i.p.p.i.i.i.i.i.i.i.i.i.i.i.i.i.i.i.i.i.i.i.i.i.i.i.i.i.i.i.i.i.m.i.i.i.",
"  U IXfX0XtXrX0XrXtX9X0XtXwX0X0XtXfXtX0XtXtXtXtXtXtXtXtX9X7X6X5X,XD ' >XS.B.}.Q P W.S.V.,X:.F.1X1X].6XD.m A.I.;.9XG.d { ;.Q C.I.>.`. X X5X XV b _ ` _ |.E d ~ F J ~.:.I. X6X|.N U Q F V U P d n G G V P I z b D E D d d B f k *           O m.i.i.i.i.i.i.i.i.i.i.i.i.i.i.i.i.i.i.i.i.i.i.i.i.i.i.i.i.i.i.i.i.i.i.i.i.i.i.i.i.i.i.i.i.m.i.i.i.i.i.i.i.p.a.p.i.i.i.d.i.i.i.i.i.i.p.l.8.4XKXyXy.c c L u y 6.a.a.i.i.i.p.p.p.a.p.a.p.p.d.p.p.i.p.i.i.p.i.p.p.i.a.i.i.i.i.i.i.i.i.i.i.i.i.i.i.i.i.0.i.i.i.i.i.i.i.i.i.i.i.i.i.i.i.i.",
"  M KXtX5X0X9X1X1X9X5X1XoX5X1X5X9X5X0X9X2X6X0X2X6X5X5X9X5X6X6X5X XQ | 9XW.`.6XQ ] 9X}.[.6X:.P.5X5X]..XS.! >XfX>XbXW.N P.9XS.5XG.>.|.1X X6X1XD | ,XH.W.0X^ ! }.G.G.5X:.).}.5X5X}.[.>XW.<X9XyX<X&X[.[.<X2XtXyX>X[.U.K.&XU.U.V.U.U           2 z.i.i.i.i.i.i.i.i.i.i.i.i.i.i.i.i.i.i.i.i.i.i.i.i.i.i.i.i.i.i.i.i.i.i.i.i.i.i.i.i.m.i.i.i.i.i.i.i.i.d.a.a.a.a.p.a.i.i.i.i.i.i.i.i.i.i.l.8.*XKX9Xq.N z R t u 9.a.i.i.z.m.9.p.p.p.p.i.a.p.i.p.p.i.i.i.p.i.a.i.i.i.a.i.i.i.i.i.i.i.i.i.i.i.i.i.i.i.i.i.i.i.i.i.i.i.i.i.i.i.i.i.i.i.i.i.",
"  M KXsX6X6X5X6X5X6X5X5X6X6X6X5X0X0X0X0X5X6X6X5X5X5X5X6X6X6X5X6X1XQ [ 2X`.I.oXQ W 4X|.[.6X:.G.,X1X X'.:.Y I.5XG.qXG.M D.5XG.5XG.:.|.1XoX6X XQ } wXW.|.0X( { 9X[.}.9XC.(.}.5X5X6X5XqXtX0X0X0X0XtXrXrX9X0XrXqXrXrXvXsXfXrXrX9XKXV.  .       O x.i.i.i.i.i.i.i.i.i.i.i.i.i.i.i.i.i.i.i.i.i.i.i.i.i.i.i.i.i.i.i.i.i.i.i.i.i.i.i.i.i.i.i.i.i.i.i.i.i.i.a.i.i.i.a.i.i.d.i.i.i.i.i.i.i.i.k.8.u.HX4XV.U L R t u 6.l.i.i.i.i.i.i.p.i.p.p.p.p.p.p.d.d.i.a.i.i.i.i.p.i.a.i.i.i.m.i.i.i.i.i.i.i.i.i.i.i.i.i.i.i.i.i.i.i.i.i.i.i.i.i.i.i.i.i.",
"  M KXsX5X6XoX5X6X5X2X5X X1X5X5X1XwX0X0X6X7X5X6X5X6X5X6X6X6XoX6X X^ | 0X`.`.6XF [ 4X|.`.0X:.I. X X]. X:.Z ~.}.G.0XH.n D.3XD.oXW.:.[.6X5X6X1XQ | 0X).|.wXQ ) 9XT.'.5X:.~. X5X6X5X5X5X5XoXoX5X9X9X5X9X1X1X5X X5X1X1X5X}.5XXX}.JXO.          O m.i.z.i.i.i.i.i.i.i.i.i.i.i.i.i.i.i.i.i.i.i.i.i.i.i.i.i.i.i.i.i.i.i.i.i.i.i.i.i.i.i.i.i.i.i.i.i.i.i.i.a.i.i.i.a.i.l.d.p.i.i.i.i.i.i.i.k.8.y.kX9XV.U N T y t l.i.i.i.l.i.i.i.p.p.p.i.i.p.p.p.d.a.i.i.i.d.a.i.a.i.p.i.m.i.i.i.i.i.i.i.i.i.i.i.i.i.i.i.i.i.i.i.i.i.i.i.i.i.i.i.i.i.i.i.",
"  Z KXjX5X5X5XoX6X0X0X0X6X1X5X7X5XwXdX6X+X5X+X+X6X5X6X6X6X6X6X6X XQ | qX'.'.6XH ) qX`.[.6XC.G.1X1X]. X:.D I.oXG.0XS.M A.5XH.5X`.B.,X5X X0X5X^ | qX_.].dX` ` 9X`.}.6XC.W.}.5X5X5X5X8X6XoXoXOX6X0X0X6X6X5X6X6X5X5X9X9X6XoX X}.JXO.          O m.i.i.i.i.i.i.i.i.i.i.i.i.i.i.i.i.i.i.i.i.i.i.i.i.i.i.i.i.i.i.i.i.i.i.i.i.i.i.i.i.i.i.i.i.i.m.i.i.i.a.p.p.p.i.i.i.i.i.i.i.i.i.i.i.i.i.k.8.u.tXtXU.~ M ' t u 9.i.i.i.a.a.p.a.i.a.p.i.p.p.a.p.i.i.i.a.a.i.i.d.a.i.p.i.i.i.i.i.i.i.i.i.i.i.i.i.i.i.i.i.i.i.i.i.i.i.i.i.i.i.9.i.i.i.i.i.",
"  Z JXwXoX5X5X+X1X1X6X6X5X5XXX+X6X6X6X5X7XXXXXXX1X6XoXOX6X1X6X6X XE _ 5X_.).6XE / 7X_._.6X:.I.,X X X XB.A H.oX<.0XH.D S.5XH.1X`.B.,X1X5X5X1XQ } wX).].8XQ { 5X`.].1X:.I.5X5X X5X9X7XOX6X5X6X6X0X0X6XOX5X5X5X5X6X6X5XoX6X5X,XmX-.      .   O z.i.i.i.i.i.i.i.i.i.i.i.i.i.i.i.i.i.i.i.i.i.i.i.i.i.i.i.i.i.i.i.i.i.i.i.i.i.i.i.i.i.i.i.i.i.i.i.i.i.i.p.p.p.i.i.i.i.l.i.i.i.i.i.i.i.a.d.u.7.*XtXU.~ E [ t u 9.l.i.i.i.i.p.p.i.p.p.i.p.a.p.a.i.i.a.i.i.i.i.a.d.i.p.i.i.i.i.i.i.i.i.i.i.i.i.i.i.i.i.i.i.i.i.i.i.0.i.i.i.i.i.i.i.i.i.i.",
"  Z JXcX+X+X+X+X+XOX+X8X7XOX+XXX6X8XwXwX8XoX+X+X6X6X+XoXoX6X6X5X}.J { oXT._.8XF / 7X_._.8X:.I.1X X}.oX:.A H.].(.8XH.A A. X<. X`.C.{.5X5X5XoXF { wX_.`.6XQ ) 7X).].5X:.`.oX6X X5X7X3XoXXXoX5X6X7X5X8XOX5X9X5XOX6X6XoXoX+X5X}.mX;.  .       O z.i.i.i.i.i.i.i.i.i.i.i.i.i.i.i.i.i.i.i.i.i.i.i.i.i.i.i.i.i.i.i.i.i.i.i.i.i.i.i.i.i.i.i.i.i.i.i.i.i.p.p.p.p.i.i.i.i.i.i.i.i.i.i.i.i.i.k.8.[ J.<XD.~ ~ | t i l.a.i.i.i.i.a.p.i.p.z.m.9.m.a.i.i.a.a.i.i.p.i.d.i.i.i.i.i.i.i.i.i.i.i.i.i.i.i.i.i.i.i.i.i.i.i.i.i.i.i.i.i.i.i.i.i.i.i.i.",
"  k dX_.<.)._.<.<._.).).).+X+X@X].oXoXXX+XdXzX3.+X8XjXoX5X6X5X5X].F Q +XH.<.6XF W ]._.(.6XC.~.1X1X}.oXC.G (.@X<.8XH.A :.OX<.OX`.B.,X5X1X6XXXF *.wX_.].6X( { 6X).].6XB.I.}.}.|. XzXzXoX].}.oXoXOX6X5XoX6X6X X+X+XOX X}.8X6X].mX-.          # z.i.i.i.i.i.i.i.i.i.i.i.i.i.i.i.i.i.i.i.i.i.i.i.i.i.i.i.i.i.i.i.i.i.i.i.i.i.i.i.i.i.i.i.i.i.i.i.i.i.p.i.i.i.i.i.i.i.i.i.i.i.i.i.i.i.i.k.l.7.N.Z.;.] | | t i 9.a.a.a.i.i.p.p.a.p.m.9.m.z.i.i.i.i.i.i.p.a.i.i.a.a.i.l.i.i.i.i.i.i.i.i.i.i.i.i.i.i.i.i.i.i.i.i.i.i.9.i.9.i.i.i.i.9.i.i.",
"  * _ G < g < < , k g _ X.J K S G ` -.X.K  .J S H ` ` H.5X5X9X0X Xn : F F K  XS , ` J J '.S.I.1X X}.6X:.a ` 1.*.].H.j *.H.X.W.`.B.,X}. X5X XG ( ].<.T.6XF Y ~.<.G.1X:.I.}.3X)._.3.zX+X_.+X+X].+X+X+X+X+X+X+X+XzXOX+X].OX+XXXmX=.          2 z.i.i.i.i.i.i.i.i.i.i.i.i.i.i.i.i.i.i.i.i.i.i.i.i.i.i.i.i.i.i.i.i.i.i.i.i.i.i.i.i.i.i.i.i.i.i.i.m.m.i.i.m.i.i.i.i.i.i.i.i.m.i.i.i.i.i.l.k.J.K.B.;.N.V.7.T R l.p.p.i.a.p.p.i.p.m.i.p.i.i.i.i.i.i.i.d.p.i.p.i.i.i.i.i.i.i.i.i.i.i.i.i.i.i.i.i.i.i.i.i.i.i.i.i.i.i.i.i.i.i.i.i.i.i.i.i.",
"  & ' M f - 0 & , E ( }._.< > * W B.4X6XS > > > f k j -.wX5X5X8X XS % f f , W.D r &.F.S.].C.I.,X1X X X:.$ * , a :.H.: j Y A -.~.B.}. X5X6X Xl , F K F ].G s | O.>.|.:./.,X5XT.K J *.J *.1.1.*.*.-.&.=.<.<.=.=.1.1.1.(._._._.cX_       .   O m.i.i.i.i.i.i.i.i.i.i.i.i.i.i.i.i.9.i.i.i.i.i.i.i.i.i.i.i.i.i.i.i.i.i.i.i.i.i.i.i.i.i.i.i.i.i.i.9.i.i.i.a.i.l.i.i.i.a.i.i.i.i.9.i.i.i.l.u.L.U.I.P.W.&XZ.R 6.9.p.i.i.i.i.i.i.a.p.a.p.i.a.a.a.i.i.i.d.a.i.d.a.a.i.a.a.i.i.i.i.i.i.i.i.i.i.i.i.9.i.i.i.i.i.i.i.i.i.i.i.i.i.i.i.i.i.i.i.",
"  B GX<XU.%XK.V.L y.4XjX].< & e [ P.kXbXJ - % L u.*X<X>X5X6X6X0X XV L ' 7.y.[.G T /.lXkX7XS.~.,XoX X5XC.r m &.[ F.S.t R y./.*X/.B.}.1X3X6X XS j Z A k ).W R /.lXjX3X:.~.XX7X_.< , < , , < < : x k v g S S > , < , < l G G K ` a             . . . . . . . . . . 9 . . . . . . . . . . . . . . . . . . . . . . . . . . . . . . . . . . . . . . . . . . . . . . . . . . . . . . . . .   . . . . . . .   .   . . . . . . . . . . . . . . . . . . . . . . . . . . . . . . . . . . . . . . . . . . . . . . . . . . . . . . . . . . . ",
"  V IXfX0XrXtXwX( &.>XcX]., $ : [ /.vXbXJ & $ P L.tXHXqX9X6X0X6X XQ [ Z.tXGXqXD ( L.jXkX7X:.I.1X5X}.5X>.A u.4X4X7XS.c u.>XkXkX~.S.}.1X5X5X XG W &.{ M I.W &.lXJXJX3X:.{.3X3XT.n k a h f , j t y.U.<X} k j > j h h B g g B v V -                                 . . . .                                                                                                                                                                                         . .                                                             ",
"  P KXrX2X9X9X5XJ &.(.XX_., * % [ L.3XjXF * * c L.4XjX9X5X6X6X6X XG [ u.4XkX8XD ! y.jXjX8X<.~.}.1X XoX:.m y.jXjXjXH.Z y.>XkXkX`.B.}.5X5X8XoXG W { { Z ~.( &.lXbXmX7X<.~.,X5X(.l B d d w s j x y.eXbXI.d h & r b x m J.Z.K.J.<XU                                     .                                                                                                                                                                                           .                                                               ",
"  D PXfX1X9X8X7XG W :._.=., & $ T %.F._.V & $ c y.P.~.|.qX6X6X6X XD E { P.~.oXG A &.(.XX].S.~.5X5X X5X:.A %.4XjX+XF.A y.*XqX7XI.B.}.9X5X6X XS Y / W n `.( &.lXkXkX7X:./.1X5X).v c z z p , j x y./.3XS.d h p T y.A.V.9XrXrX9XJX;.                                                                                                                                                                                                                                .                                                               ",
"  M JXsXXXOX+XoX) | ,XbX]., & 3 [ F.4X7XG & $ v y.^.XXXX5X0X8X6XXXA T &.{.3XoXF Z &.{.XX].S.I.5X5X1X6X:.x [ %.<.(.F.r &.y.A.(.(.B.,X6X6X6X1XA A ! ! ! [.W [ /.XX5X|.B.'.1X6XW.N T R ' B , s c L.*X{.:.j x r &.u.L.F.3X0X5X9XmX-.                                                                                                                                                                                                                                                                                                ",
"  D PXcXzXzXzXOX_ y.XXvX]., % % [ /.jXjXJ & % P L.qXjXjX6XwX8X6XXXW &.L.jXbX7XF [ A.lXbX6XB.`.1X1X X+X:.Y L.{.lX7X(.A u.4X4X7X(.B.}.6XoX5X1XZ [ *X4X3XXX! [ lXkXbX}.C.[.1X9X`.( eXDXHX7.: x L /.4XtX:.l j j u./.*X~. X6X6X7XJX;.  .                                                                                                                                                                                                                                                                                             ",
"  , _.<.=.1.>.=.G %.XXcX.X, $ % &.F.+XzXK : : T y.+XjX+X6X0X8X8X}.F { N.jXcXoXW { y.qXbX8XS.~.5X5X.X5X:.T *XbXbXbX<.W /.HXmXmX`.C.,X6X5X6X}.F N.HXJXJXXX( y.lXJXJX,XB.[.,X0XI.[ GXKXIXF., z T eXHXKX[.a j c :XKXJXbXoX6X+X+XmX;.                                                                                                                                                                                                                                                                                                ",
"  * D l f > , : h &.<.(.S.B & % T :.(.XXD 6 $ T A.XX7X7X0XwX6X5X].F &.A.XXjX8XF [ y.3XxX8X:.I.1X2X XoXB.( *XmXmXmX<.W /.kXmXmX(.C.}.5X5X6X X( A.bXmXJXXXQ y.lXJXJXXX:.|.1X0X)./ lXbXJXS., d T 4XbXJX].< : c :XHXbXvX_.+X].].mXX.                                                                                                                                                                                                                                                                                                ",
"  % 7.U B B I U N T Q Q ( E B 7 c W W Q B 0 z c ! ) _ F.wXwX6X8X].V Y / _ >. XQ Y { ;.:.`.C.I.5X5X X6X:.T F.jXjXjX<.Z A.jXjXcX_.B.}.5X5X8X XF %.zXmXcXXX( &.lXmXvXXXA.|.1X6X).) lXbXJX<., s Y 4XmXmX'.d a c /.bXbXjX*.*.J J 1.l                                                                                                                                                                                                                                                                                                 ",
"  N KXyXyX<X<X<X&X^.[.[.[.&X&X%XL.P.P.C.Z.J.%XJ.J.V.N.&XbXwX6X8X}.E Y N.) ;.0X) c y.} &.}.S.I.oX5X X5X:.x { :.>.{.A.j / *.*.F.(.B.}.5X5X0X Xn Y %.<.<._.S T &.:.F.XXC.|.5X6XT.E P./.(.*.p z c A.(.XX>.v B z Z.3XXX).< , j , M *                                                                                                                                                                                                                                                                                                 ",
"  Y PXbXtXwX0X9X9XqXwX0XsX0X0X0XrXrXqXrXtXrXfXUXkXbXbXvXbXwX6X6X}.) V.UX<X4XJX;.7.rX,X,XnXG.I.5X5X X7XG.Y ~.3XF.kX(.n %./.>.].~.N.}.5X5X0X1XM / (.;.H.].A [ H.&.:.}.B.`.5X6X|.;.N.A.A.:.q.q.| N.&.&.-.} 7.~ { &.&.} { | [ [ J.N                                                                                                                                                                                                                                                                                                 ",
"  D KXrX6X6X6X1X6X0X6X1X6X6X6X5X9XwX6X0X6X0XqXqX0X0XwXwX0X0XwX6X}.Q y.jX`.|.sX_ [ qX X}.vXH.I.oX5X1X8XF.W {.wX).bX(.A S.7X(.jX].:.{.6XOX6X1XQ y.jX`.3XXXW %.qXG.XX5XC.'.oX1X5X5XtXtX9X9XtXtXtXtXlX7X3XqX9X4X,X{.[.{.,X2X3X3XKXO.  .                                                                                                                                                                                                                                                                                             ",
"  Z JXjX6X5X5X5X6X0X6X0X6X8X6XwXwXsXsXsXdX6XdX0X6X6X8X6X6XsX0XdX].Q ;.9XW.`.8XF ( 6X@X_.8XS.~.5X6X6X6X:.D I.oXH.wXH.G :.7XH.8X`.B.}.6X6X0X}.Q N.jX).,X XE } 9XG.}.5X:.|.6X5X X5X6X9X0X5X0X9XwXrXrXsX5X1X5X9XwXrX5X5X1X1X5X5XJX;.                                                                                                                                                                                                                                                                                                ",
"  A PXxX5X0X2X X6X6XdX0X0X9X5X7XwXwXwXwX0X5X2X0XwX8X8X6XdX6X6X6X}.Q %.8X`.].dXQ ( 5X'.'.sXS.~.5X X X8XC.G G. XW.wXH.n A.5XG.8X].:.}.8XoX0XoXG %.7X). X1XW y.0XW.5X5XB.}.5X5X X X6X6X6XOX5X6X8XsXwXfX X5X6X5X9X5XOX X X1X3X1XnX-.                                                                                                                                                                                                                                                                                                ",
"  Z JXcX6XOXOX.X6X6XOXdX+X7XOX7X6XwXdXdXdX6X5X5X8X8X0X0X0X6XdX5X'.E -.8X_.].dXQ ( 5X|.'.dXS.~.XXoX XOXS.n G.+XG.sXS.M C.6XH.6X|.:.}.6XoX0X XG ;.8XT.oXoXF O.wX_. X6XC.>X9X5X X X0X0X6X6X6X6XdXsXdXwXOXoX6X6X8XwXdXoX1X1X5X1XJXO.                                                                                                                                                                                                                                                                                                ",
"  D LXcXdXzXdX+X+XcXcXOXdXzX+X+XdXcXcXzX8XzXOXOX+XdXsXdX6XwX6X5X].H ;.dX_.].dXJ / 8X].].8XS.`.5X6X5XOX:.D `.OXT.dX<.S <.+X<.8X|.:.}.5X5X0X].G &.zX).].6XE -.OX<.].6X:.}.9X1X]. X6XdX6X1X1XOX6XwXwX0X XOXOX5X6X0X6X X X6X5X}.JX:.                                                                                                                                                                                                                                                                                                ",
"  k 8X_.<.<.<.<.=.1.:.1.1.<.@X<.<._.3.<._.zX_.3.XX].XX_.8XwX6X X].K F _.1.<.OXG A `.<.H.6XC.I.5X5X1X6X,.l -.(.=.+X<.l *._.1.XX_.:.}.5X5X0X|.G } +X<.].+XG &.8X(.XXoX:.[.5XoX_.+XOXcXcX+X8XzXOXcXdXzX+X+XOX+X8XcXOX+X+X+X+XXXmX>.  .                                                                                                                                                                                                                                                                                             ",
"  * _ S < , l l , / B.<.=.< < < l l K K S K S < K K K <.wX8X6X5X].k , K K F  XG : G K S (.S.~.oX6X1X7X<.& n ` G S.S.> < S S *.`.C.,X5X5X0X,Xd x ` G ) XXn k _ F =.|.<.|.6X8X_.1.).).<.<.@X_._.@X].@X<.+X@X_._.@X_.<._.+X+XoXmXO.                                                                                                                                                                                                                                                                                                ",
"  % | D B B x f x Z.3XoX(., > > b b a k l > > j d f j F.rX6X6X5X|.V d n k Q 5XF j k k A [.S.[.1X6X1X5X:.j %.~.(.|.S.* & a j ( |.A.,X5X5X0X Xk - a , S }.N x b l >.{.C.|.5X6XT.l ` *.X.K K K S K S J =.J J S K S K J J ` J *.<.S                                                                                                                                                                                                                                                                                                 ",
"  N tX&XU.K.U.J.b N.>XXX).j : : m A h m S > % z T T ! /.rXwX0X5X'.U N k k W 1XQ h b h Y {.A.~.6X5X5X8X:.n A.}.XX6X:.& : h A *.~.S.,X6X8X0X Xn x h d W }.M ~ Z.I.}.,XC.|.6X6X`.n S.).].J , < j b , D >.< l , v , S A., & , , K &                                                                                                                                                                                                                                                                                                 ",
"  Y IXrX0XrXrX3XZ ;.XX].(., : & N b x A S & * z L.<X^.>XjXwX6X6X].V N v h W 3XE x b x Z {.A.`.,X5X1X6X:.n ;.XX].oX<.* : f j ) `.A.}.6X6X8X Xn d x d ~ ,XZ ! /.6XoX XB.|.6X0XW.M I.].oXX., a x Y : W B.l a v M s Y *X' ~ W E q.x                                                                                                                                                                                                                                                                                                 ",
"  E KXfX0X9XwX5XS &.S.<.1., * % z h s b b > $ x V.F.H.[.wXwX0X6X XV z c s Z ,XQ r x s A [.C.`.,X5X5XdX:.b >._._.oXS.* : j j ( `.B.}.6X5X8X}.V d z s ~ ,XD ( (.oX+X X:.`.5XwX).S ~.].+X` , a h Z r W A.k a h Z r A [.9XtXyX4XHXO.  .                                                                                                                                                                                                                                                                                             ",
"  M KXfX0X0X6XOXA { B.<.=.> : $ z N B M d % $ r y.S.<.(.wXwXwXwX}.l x E ~ ( }.G f ! ' [ [.B.[.3X5X5X6X:.f { >.:.`.H.* r v k ( [.B.}.5X6X6X Xk r z f T |.n Y &.<.T.].C.`.6XwX`.k B.H.3.` , f s c : n ;.k f s c w b ~.0XrXrXtXKXB.                                                                                                                                                                                                                                                                                                ",
"  Z JXxX6X0XdX7XG y.{.].S., % % T L.F.I.n & % c P.}.{.].wXqXwX6X XG Y K.I./.}.D A J.>X{.,XS.~.5X5X X6X:.j %._.`. X<.* r k b / [.C.}.0X6X6X}.b Y y.A.Z.}.l Z :.H.H.].A.{.5XwX`.k &.>.<.K , a r ! ~ ! Q a a w Z Z Y %.5X0X0X0XJXO.                                                                                                                                                                                                                                                                                                ",
"  Z JX+XzX+X8XoXW :.].].H., & $ ' {.}.oXS & % m (.].].].8X0X0X8X].D W F.].].XXF W F.XXXXXXS.~.9X5XoX8X:.A A.XX].OX<.* w h h ( |.:.}.6X6X6X XV / ~.3X5X}.Z / ~.oXoX XA.[.5XwX`.V I.{. X^ , f x /.,X,X-.a d s V.{.>X`.+X8X8X6XmX;.                                                                                                                                                                                                                                                                                                ",
"  < _.1.=.=.=.=.A :.].+X(., % % / {.].+XK & $ P ~.].+X].wXwX0X6X}.K Q F.]._.oXF W G.].+XoX:.`.3X5X X6X>.A :.].].OXS.* & : : A (.-.].6X5X6X}.A / /.].]. XG ( G.XXXX}.C.`.5XwX(.G (.].oX` , f h P.|.+X>.< d d Z.,XXX_.pXcXcXcXMX>.                                                                                                                                                                                                                                                                                                ",
"  & Q n , , , g h %.F.H.>.0 % 6 W S.H.H.N 3 5 B :.S.<.W.wX0X0X6X}.M E B.H.G.XXQ E A.`._..XB.`.5XoX}.6X>.b &.).`.].H.* * & $ b `.>.[.oX6XdX].n [ (.].]..XV / (.XX+XXX<.[.5X0X`.D G.].].` 0 a h P.].oX:.g d a A.].XX_.1.<.<.<.+XJ   .               . . .       . .     .   .   . . .   .   . .           .   .     .   .   . .   .         .   .   .                     .   . .                                                                                                                                                 ",
"  : q.' M P U E A / / ) ^ U ! P W ) ) ] ' ~ P U ( ` ) C.wX6X0X6X1XV N / Q ) 1XW c / _ ` |.A.`.5X1X X5X>.w F ` J H.S.$ 6 0 % m U.B.[.6X6X8X Xl E &.1.:.}.n Y -.:.1.].:.[.9XwX`.k :.<.<.F w d h Z.T.).O.d f s V.T._.1.< l < j S &                 * 3X4XA j x T ,X<.>.6X6XOXwX/ Z.tX3XXX7XwXwXOX6X*.k [ F.].jX*.e c t x /.G.{.wX8XxX_ * & $ Y wXoX_.T.N $ s s $ + r m c v : r : A &.&.x .                                                                                                                                         ",
"  N HXyX<X<X&X>XW.[.W.W.^.<X<X<X>XW.[.<X4XyX<X>X>X[.,X,X0X5X6X6X5X] y.<XD.[.bX) ' <XF.I.fXS.`.1XoX X5X;.x V.:.X.'.K.d ' q.' y.I.:.|.5X6XdX}.v Y ;.` -.}.n m | ^ O.|.A.`.9X9X|.V Q Q ^ U R U B ~ ) Q Q U P z Y Q Q D n N Z N ~ p                 * 3X4XT s c T 3XH.(.8XOXdXcX{ %.^.P.XXjXjXjX8X8X_ a T *.<.zX>.w t t x P.~.XXvXsXbXX.* & @ W vXjX].oXG $ c c $ + 6 P L b e e y m y.u.c .                                                                                                                                         ",
"  E IXkXtXrXrX9XrXrXrXsXqXwXtXtXrXfXfXrXfXrXrXfXfXrXfXrX0X8X8X9X5X_ Z.bX}.9XbX} y.fX9X0XnXS.`.5X5X X6X;.M [.6XG.dXH.P L.tXU.,X[.;.}.9X2X0X,XV N.9XG.}.}.Y %.1XI.].1X:.`.5X5X5X<X<X<X&X<X<XyX&XU.W.I.I.&X<X&XI.I.G.U.W.<X<X&XDX]                 * 4XqXF h A [ >X<.(.+X+XOXcX[ &.P.A.[.jXwXwX8XOX*.: m &.<.XX>.x R y.y.^.~.XXsXsXvX_ * $ * Z kXOX.XOXG $ t c # X % m L m c L L L [ %.c                                                                                                                                           ",
"  M KXvX6X0X5X5X5X6X6X6X X5X2X6X0X0X0X0X6X0XwX0X0XwXwX0X0X0XwX0X6X) ;.qXT.}.OXQ { 9X}. X8XS.W.9X1X X6X;.Z I.6XH.wXG.D Z.6XT. X'.:.[.6X5X6X XW B.wX`.5XoXW %.qX`.oX5X:.|.5X5X5X9X0XrXfXqX0XfXtXfXrXrX9X9X0XtXwXrX0X0X1X9X9X9XJXN.                * 4XlXG x Y [ {.1.<.cXOXdXsX_ y.>X~.XXjXjXwX8X6X_ x [ (.XXjX&.L &.:XlX7X(.,XxX8XxX_ * & # A jX+X@X.XV : c L $ + $ L c L c R R T R T c .                                                                                                                                         ",
"  M IXvX6X6X1X1X6X6X6X6XoX6X0XdXwXwXwX8X5X0X0X0X0XwX0X0XwXqX6X0X0X) ;.8X`. XOXF { 0X].].8XB.[.6X6X X0XN.M W.5XH.sXI.M S.5XH. XW.B.}.6X5X6X1XG V.wX`.5X}.G %.wX).oX5XA.{.5X5X5X5X5X5X0X0X2X5X0X0X0X0X9X5X1X5X5XwX0X1X5X5X1X1XJX-.  .             @ 3XrXQ f m ( 3X<.=.@X].].oX/ A.jX4X7XjXsXwX8X6X_ b [ A.{.jX>.m &./.lX7XG.{.wXcXnXO.* & * b jXjX@X_.V $ z c # + $ c c c L [ [ T [ y.c .                                                                                                                                         ",
"  U JXbX6X6X5X5X5XwX5X6X7X8X8XwX8XsXsX8XOX8X8X8XqXqX7XwX8X0XwX0X X) ;.8X`.}.6XF { 7X].XX8XB.[.9X5XoX0X;.D ~.oXG.sXG.D A.6XH. X[.C.}.8X6X8X XF N.wX`.5X1XE N.jX).5X6XA.|.5X3X5X7X7XqXqXqX5XwXwXqXwXwX9X9X5XqX6XwXqX5X5X5X7X7XmX;.  .             @ F.>XU.V.L.A.3XXX=.-.1.<.H.G y.4X7XoXxXsXxX8X6X*.x [ (.].cX:.m y./.jXwXG.|.sXsXvX} * % # l oXoX_._.C $ t c O = $ c c c y c c L y.y.c .                                                                                                                                         ",
"  Z PXcX8X8X6X].oX8X8X8X8XOX+XOX8X8XdX8XjXOX+X8X8X8XwX8X6X0X0XwX}.J ;.8X`.oX6XF { 7X_.XX8XA.[.5X6XoX5X:.D `. XH.8XH.D S.6XT.6X[.B.|.5X6X0X,XF ;.8X_.5X XD %.jX).oX6XS.|.qX9X5X5X7X8XqXqX5XdXsX0XwX8X5X0X6X5XwXwXwX6X5X9X7X5XJX;.                * ~./.<X*X^.~.[.wX}.<.<.T.I.G A / Q S.vXwXwX8X8X&.: b ( *.XX:.j T &.:.|.(.|.xXjXbX;.* % * j H.G.=.=., $ z c $ + e c c T : : 2 L 8.| c                                                                                                                                           ",
"  D LXzXzXzX+X@X+X+X6X8X+XzX+X+XOXOXoXOXdXcXzX+X+X+X7X7XwXwXwX6XXXG -.7XT._.7XF ( oX_._.wXC.[.9X1XoX6X>.S ).+X<.cX<.S H.6XT.+X_.:.}.5X7X0X XF B.xX].OXoXF :.vX].8X6XB.[.5X7X XOX8X8X7X+XOXdX8X6X8XcX+XoXoXoXOX8X6X X].5XOX6XmXO.            .   $ 7X>X,XI.D.B.G.1X X}.6X6X6XW.F.F.S.`.wXwX8X8X6X*.f ' ;._ 5XA.w [ &.*.|.G.|.jXdXsX:.& 0 $ j H.G.1.X.a $ c L t t y c c L L L T T T [ b .                                                                                                                                         ",
"  a XX<.<.<.<.1.*.1.1.1.=.1.1.*.=.,.=.=.=.<.=.*.>.1.>.T.sX0X6XwX].l b _ F J ].S , ` K J  XD.[.5X X5X0X-.: J ` J (.H., J 1.J <.'.1.].oX7X0XoXn ) ).1._.XXV / ].1.T.6XA.[.5XoX X6X8X8X8X8XcXzXcXcXcXjXOXcXcX8XcXxXcXdX6X8XjXjXMX>.                * qX>X[.D.D.&.=.}. XOX8X8X8XqXkXbXvXjXdXwXsX8X8X;.m ^.kX3XbX<.b /.jX}.wXG.`.8XcXsX1XI.F.P.Z.,X,X).W.n 3 z t c c c t c L T R R ! ! [ c                                                                                                                                           ",
"  * Q n , k n j a -.:.:.*.< < , G A.C.1.1 , > r &.S.>.T.wX6X6X0X Xk d ` _ -.].l : b M n ~.D.[.5X5X XOXO.* , k , _ G.& & k , F W.1.{.oX5X0X5Xk , F F O.}.a f J J J `.S.[.3X8X).K J _ ` ` 1.1.J *.*.*.*.<.<.*.=.=.=.=.T.).<.<.OX`   .             $ jX{.I.Z.F.>.>.1XdXOXcX6XwXwXkXkXkXfXjXxXjX8X8X>.N P.wX`.bX<.h /.lX].jXG.{.xXdXdX8XqXrXrXwXwX8X X].K % t L c c c t t m A T T T [ y.L                                                                                                                                           ",
"  7 q.U M U ~ N b [.XX}.1.l l : ) }.}.].S > * m P.3X}.}.0X0X6X6X].n ! G.].}.oXA m V.P.P.}.S.~. X6XXX6X-., h j s ) W.- s d f D }.A.{.5XoXdX1Xn W P.`.`.}.n E B._._.].:.`.3X8X'.a F :.S.K - , > l *.%.K < , > S *.>.J a k l K K -                 # qX{./.I./.~.~.0X6XdXxX6X8XwXvXjXvXjXxXxXxX8XwX:.b P.wX{.bX:.b P.jX].cXG.}.jXxXsX8XwX0X6X7X8X8X.X@XV % z c z t t m t : r L x j m ! c .                                                                                                                                         ",
"  M KXyX<X<X<XD.A ~.].].1.S l w / |.]._.S & $ c /.].].}.sX0X0XsX].V / (.].XX.XG T P.3XXX3XA.`.5X5X1X5X_ f v n j | I.w c N v ( [.A.{.5X6X8X5XZ ~ I.|. X].n ~ H.XX].oX:.[.7X7X[.M y.>X7X_ , h s [ L.3X;.h j , *./.XXF.n N b N ~ 0                 * qXXXA.:.A.A.{. X XOXsX8X8X8XxXxXcXwXxXjXxXjXdX:.b I.sX].bXC.b /.jX].xXG.{.wXxXwXwXsXsXsX6X8XdX@X.XG % c c c z t c t t r c A T [ &.m .                                                                                                                                         ",
"  E IXfXrXqXfX,XK (.].+X<.l k w / [._._.l > $ b (.].'.}.wXwX0X6X'.G ( (.].].XXD Y Z.{.].oXS.[.5X6XoX8X_ j [ A.;.~.G.d ' D.I.I.`.:.|.OX6X6X XZ / ~.].}.).n / H.].].XX:.[.3X7XW.n y.3X7XO., h r ! A.^.*.< j : Z %.<.F.~.>XU.*XDX|                 $ qX3XG l A / ^.(.<.OXcX8X8X8XxXxXjXwXxXjXxXdX8X:.N I.dX].bXS.b /.vX].xXW.}.xXfXxX8X8XdXwX8X8X0X].'.F $ c c c c c c c T Z L R R R ! z .                                                                                                                                         ",
"  V KXbX6XwX0X1Xn ;.<.H.=.a k : Z A.<.1.l & $ x %.<.>.`.jXqXwXwX.XS Y >.1.H.].D b &.<.H. XS.`.6X6X5X6XX.d | S.H.`.H.k ( S.G.`.`.C.|.6X6X8X XM ! A.S._.`.l ! S.).).].B.`.3X5XW.n &./.XX*.> j r ( :.(.*., j : A &.>.:.qXrXrXtXKXB.  .             & qX4XF v x T 3XH.K +XcX8X8X+XcXmXcXzXjXjX8X8XwX:.v /.jX(.bX<.b /.bX+XvX).].xXxXsXdXcXjXdXwXdXdXXX@XG % c z c z t c t L t c m T ! [ c                                                                                                                                           ",
"  D JXfX7X8XdX}.M ;.A.H.X., : : T A.:.S.< & $ t ;.A.<._.rXwX0X8X].n W N.<.H.].Z v *.>.1.|.S.`.6X5X1X8X} f / >.:.).G.a Y ;.1.<.|.B.|.6X6XdX5Xk A { =.<.'.k m _ =.=.|.:.`.3X5X`.k ( &.:.G : r : m / >.W j s % h G F =.9X7X5X6XJX;.                * qX4XW b m ! 3X(.K <._.(._.` J *.=.(.jX8XxXdX8X-.: ( :.=.+X>.: ( F.=.+X_.[.vXxXwX+XpXzXzX+X+XcX@X@XG $ z c : # : c c c $ $ : L y.u.c .                                                                                                                                         ",
"  D PXcXzXcXdX5XZ (.XXXXB.& % w { >XXX|.l % $ P /.oX].].wX0X0XdX].D / (.XXXX].D Z S.@X]. XS.`.1X5X5X6X_ b N.|.]. XH.N { `.]._.'.B.|.6X6XdXoXA ! F._.|.`.l ~ G.`.`.|.B.`.3X6X`.n %.*XlXF : r r T y.F.` a f & j W ` &.7XwX0X6XJX-.                * lXqXY c b T ,XH.K -.1.1.H.C * & * &.xXjXsX8X8X-.f A ` H.7X>.: j h j <.[.{.xXjXxX<.K J J *.).].3.H.l # z c # = $ L L T : e : L y.u.m .                                                                                                                                         ",
"  k bX_.<.<._.T.A L.XXoXS.& 7 w { >X}.].l % % Y ~.XX].].sXwXwX8X].G / (.].XX+XG F F.XX]. XB.|. X5XOX8XO.b B.].]..XT.b { {..X].).A.}.6XoX6X+XA / (.].].].G / (.+X].].:.[.3X5X`.M y.4XjX*., r r &.F._._ g f : b _ -.1.8XOX8X6XmX>.                * 4XjXZ c b ! qXG.K D.W.G.].F : x f y.bXsXsX8X8X-.h [ y.XXxX>.: t c j A.[.~.8X8XxXS.* * * , -.1.=.X.< $ z c # = $ L c L 5 y 4 L y.y.m .                                                                                                                                         ",
"  & _ V < j g d k F.{.XX:.p z f [ ^.XX{.v % 6 P (.].].}.sXwXsXwX}.D ) ~.XX}.}.D W G.oXXX XA.`. X5X5X8X_ n :.].XXoX<.l &.`.XX].).:.|.5XoXwXoXn ) (.XXXX].V / ).].].].C.[.9X6XW.Y y.3XwX_ : h s [ D.`.*.a d 7 b ) *.=._.]._.].mX_   .             * lX4XZ Y N.Z.3XG.Q 6X8X6XvX&.[ *XL./.kXjXdX7X8X&.c &.%.XXjX>.w t c r y.[.`.8X8XxXH.- & * a A.H.:.>.k & j c $ + $ L c L t L L R [ R c .                                                                                                                                         ",
"  & | V g a z z z / } } Q x M d Z &.;.*.B r 6 x *.>.=.W.sXwXwXdX}.n P } 1.S.1XV b } :.<.[.S.`.6X6X5X8XX.h { 1.<._.H.k / 1.H.H.W.B.|.oX5X8XoXn W <.<.G.}.S ( H._._.].C.[.9XwX[.M &.P.[.^ , h s [ :.H.` k d f Y | >.` K J F H =.<             .   @ lXjXW &.jXqX7XH.H.xXcX6XxX-.%.4X7X3XjXxX8X8X8X&.t &./.kXvX>.x R 8.L.{.~.`.8X8XcXH., & * j [.oXT.].G $ t c O X 5 L t L t T L R [ 7.c .                                                                                                                                         ",
"  M HXyX<XW.*X*XL.U.D.D.C.U.U.J.V.N.;.;.V.q.7.[ %.*._ G.rXqXwXwX,XV E 7.` :.fX~ v N._ %.,XZ.`.6X5X1X6X_ r ) _ ^ H.W.d ~ } ^ :.`.:.|.6XoXdX Xl M / G *.}.v v Q G ` [.A.|.9X6X[.v L Z W P B N z Y D D M P B 0 m E E M l l v n E %                 * qXqXT &.4XXXoXS.{.bXOXdXvX%.Y A.>.~.xXwXwX+XjX*.r R L.qXjX>.s ! &.L.{.T.`.sXsXvXT.: * $ j XXXX_.+XA : t c $ + $ L c L y y L L y.L.m                                                                                                                                           ",
"  E IXvX0XtXrX0XkXkXrXfXrXtXrXDXtXtXfXkXrXHXtXDXtXrXqXwXwXwXwXwX5X) U.fX,XwXbX} y.kX}.3XbXB.`.5X6X1X6X} b ~.}.D.fX1X' U.bXU.fX6X<.{.5X6XwX1XD V.kXG.3X5XE y.<XC.}.1X:.{.9X5XwX4X<X^.*X<X<X<XU.L.U.D.P.U.U.J.7.O.| | C.J.V.J.&XE                 * lXqX! [ 4X+XXXH._.mXOXdXvX-.( A.-.G.xXsXvXjXjX>.j [ /.7XjX:.j T &.F.].(.`.8X8XxX).> % * a [.oX_._.F : c L O + $ T c L c &.i &.y.u.Y .                                                                                                                                         ",
"  Z KXrX9X6X5XoX5XwX6X0X5X6X0X9X0X0X0XwX8X0XtXrXrXrXfXwX0XwXwXsX}.Q D.wX|. XvXO.;.kXXXXXsXC.[.5X5XXX6X>.Y {.6XT.sX|.Q ^.vX|.vX2XB.[.5X5X0X2XF A.wXW.9X5XQ V.qX`.6X0XC.|.9X6XwXbXHXbXHXbXvXwXkXbXfXvXkXfXrXtXtXtX0X9XyXfXtX9XKXV.  .             $ tXkXY Z *.>.}.1._.cXcXdXcX>.*.{.[.].jXjXxX8X8X&.A u.lXPXmX:.A &.y.lXjX).`.7XjXdXT., % % f XXoX_..XH $ z L $ + O m c L c &.i A &.i c .                                                                                                                                         ",
"  Y PXrX0XwX5X5X0XwX8X8X6X6X8XwXwX0XwX6X8X8X8XqX0XwXwXsXwX8X8XdX].F A.5XH.).wX} %.7X].].6XB.`.5X6XXX7X&.Y [.5XG.xX~.D F.6XH.6X}.B.|.0X5X6X1XD J.qXG.5XoXG B.5X(.oX1X>.{.qX6X8X6X5X0X9X5X5X6X0XtXwXwXqXwXrXqX0X0XwX9X9X0XqX7XKX;.                * qXrXQ s n Q 5XH.` _._._.oX_ -.jXXXXXjXxXwX8X6X-.m L.kXPXmX*.A [ y.7XzX(.`.wX8XxX).- & $ j XX+X@X+XJ % z c $ + $ L t m t R &.T &.&.m .                                                                                                                                         ",
"  E KXjX6X8X6XoX0XdXdXwX0X6X8XdXdXwXwXwX7X6X7X7XwXsX6X6XwXsXsXdX].F A.8XT.).6X^ %.wX}. XwXA.[.5X6X1X7X;.D }.5XW.sXW.Z ~.8X).6X].C.}.0X0XsX1X~ Z.vXW.5X6XG Z.jX(.6X5X:.{.8X5X6X6X0XqXwX6X6X6XqXsXsXwXjX8XsXwX0XwXwX0X9X0X7X7XJX:.                @ F.[.U.Z.Z.S.1X X1.=.<.S.H.F &.XX].].jXsXsXOX8X:.A /.bXJXcX>.A &.A.jX8XG.[.wXwXcX'.: & & , (._.<.@XG $ t z # + O L t L y y t c y.y.m .                                                                                                                                         ",
"  D PXwX5XwX6XXX6X7X6X6X6X6X+XcX6XwXwX8X6X7X7XjX8XsX0X6XwXwXwXwX}.F A.OX_.'.5XQ ;.8X'.oXwXS.`.7X5X5X9X>.D {.6X(.xXG.Z F.OXG.6X].:.3X6X6XsX XG A.wX_.qX9XG A.jX).6XwXA.}.6X6X5X6X6X0XwX9X6X0XwXwXwXwXwXcXsXwX0XwXwX0X0X0XwX7XJX;.            .   * ^.P.^./.*X/.,X5XoX<.S.H.~.F h Z A :.jXsXsX6X8X:.r ! (.XX+X>.w T W >.`.`.`.wXxXvX`.& * # : :.<.=.=.l # t L # + : c L L e : : L y.y.m .                                                                                                                                         ",
"  D PXcXcXjXcX+XOXcXzXcXzXzXzXzXdXcXzXjX+XdX+XzX+XcX8X7XwXwXwXsX}.F S.jX_.].+XF -.jX_.+XjX:.|.5X6X X0X-.G XX+X_.cXT.G (.+X).OX].C.3X6X6X8XoXG A.xX_.dXOXF N.jX_.8XdXC.}.7X6XoXOXOXOX+XXX6X8X8XwXdXwX8XOX8X7X6X8X0X5X6X6XwX0XLX;.                * 4XP.F.D.F.B.`. XoX|.6XoX9X,XI.D.A.~.wXsXsX8X8XC.r Y <.:.8X:.w L &.F ).[.~.wX8XxX|.B f r j ;.S.=.O.k $ L L z z t c L L i R T u R R A .                                                                                                                                         ",
"  n mX]._.@X+X_.<._._.<.<.@X@X<.<.).).).].+X].].].].`.XXwXwX0XsX|.S _ ).=.S.].G F (.1.H.8XS.{.9X6X6X0X-.l F._.1.+XH.l >._.>.XX].:.,X5XOX8X XS &. X<.].OXG >.jX<.OX6XA.{.5XoX+X+XzXzX+X+XpXOXOX+XOXOXOX+XzXOXOXjX8XOXOXcXdX8XmX>.  .             @ Z.;.%.B.A.) >.|.5X+X8X6XdXwXbXbXbXfXsXsXsX8XOX<.x %.jX].bXC.x y.jX}.xX`.[.wXsXwX1X[.[.^.P.[.{.H.T.D $ c L L L L c c T m &.&.&.&.&.L .                                                                                                                                         ",
"  & =.K l g j , > , < < , , , * > < < S < K < < S S l <.vX0XsXwX].< , S l K '.g & n k l ].D.[.9XdX1XdX_ * S K l <.H.> j K l _ `.B.,X5X5X8XoX, a F V ` oXj j *.A X.oXS.}.5X6X'.` *.*.*.*.<.<.*.=.>.1.1._._.<.H.<.<.<._.].]._.cX*.                * 3XP.P.P.V.%.B.}.5X8XcX8X8XwXsXwXwXwXsXxXxX8X8XC.b y.jXXXmX<.v y.jX].xXG.`.jXvXsX6X8XkXkXqX5XOX_.'.D % c L L P c c t c c &.&.&.6.&.T                                                                                                                                           ",
"  $ ^ N - 7 , & * A A A l & > * , h S Z , > * > n < : :.vXwXwX0X].k : b k A `.k > x h n `.S.|.5X5X X6X_ * j l h ;.F.> w b h Q `.B.}.7X6X8XoXl E A.G.G.5Xb t *.:.:.,XD.{.6X8X`.g F ) *.S < l < *.1.=.J K G j ` >.>._ G H J F =.<                 @ /.P.{.[.[.~.{.5X5XdXxX8X0XwXsXjXvXsXsXvXxX8X6X:.k N.vX}.bXS.x &.lX].jXG.`.vXfXxX8XOX8X8X8X5XOX].OX^ 6 z c L z c c t e : c L c T ! T .                                                                                                                                         ",
"  B yXZ.q.V.J.7.s m M A b 6 % $ s z d k w : * f h v s A.rX0XwXwX].l d Z M W `.v j Y Z ! [.D.|.9XdX1X0XX.% x A m y.G.: x Z A / /.C.3X7X7X8X Xn / /.XX+XoXZ R L.{.}.4XS.{.6X0X`.G `.3XoX` , k h P.,XoX:.l g < A.XX1XD.V M P N Q p                 @ ^.>XD.B.F.H.3X}.OXdXnXwX7X8XjXjXxXwXxXxXvXwX6X:.b %.kX}.mXS.j | kX].cXG.~.vXfXxX6X+XjXdX6X6XOXoXdX) & L P c c t L L c t c A &.[ [ P                                                                                                                                           ",
"  D IXrXtXtXrX4Xh b Z A b & % * f x x z : : % r x x s V.kXrXsXwX].j f m m W [.n r Z T Y [.Z.`.7X2X1X0X_ & h A b %.G.: z Y m / ~.A.}.5X7XwX XM / (.@X].oXA ! L.*X[.3XD.{.5XwX`.G (.].].Q , k b F.].+X1.n k s A.oXoX|.D.K.U.&X<X~   .             * tXqXW j n ( 3XG.H.xXcXwXjX7X8XwXsX8XxXxXxXwXOX>.b y.jX|.bXH.k &.rX].xXT.~.fXvXsXOXoXjXwX6X XOX.XOX_ * c c z P c L L T T L T &.T R P .                                                                                                                                         ",
"  E KX7X9X0XwX1Xa k b n h & & $ r h d h w % $ % c b j Z.fXsXdXwX}.k f m b Y [.v j A A Y {.Z.[.7X6XoXdX` : h b x ;.I.: s m v ( ~.:.}.8X5XwX}.b / G.].XX+XA ! /.3X}.XXS.>X5XwX`.G `.].].J , d k F.].].1.g h s A.XX].].qXrXfXHXKXV.                $ qXqXW j j D ,X:.>.dXbXcX8X8XmXmXbX8XwXxXwX8X6X:.h %.bXXXbX<.j %.mXoXcXG.~.rXxXsXOX+XcXdX+X+X6X].@X` & x c c c s c c L r y : c &.y.T                                                                                                                                           ",
"  D PXwXwX0XsX1Xa s v h d & % $ w s f d : % # % x h j N.fX0XsXsX]., w x s Z {.l w b b Z [.S.[.6X6X5X0X^ $ s v r &.G.& f x s T ~.S.,X6X5XdXoXj A { =.1.oXb L &.>.A.,XC.,X0XfXI.n ;.<.<.F g d d &.<.<.=.l j : &.H.<.T.wXrXrXbXJX;.            .   * 3XlXW M [ &.3X<.1.OX_._. X1.X.1.>.).kXfX8X7X6X;.: A -.( XXH.: A F.=.}.`.~.qXsXdXoX@XdXdXXXXX+XOXdX` & z t % O 5 L t T $ : 3 t y.u.'                                                                                                                                           ",
"  G PXdX8X8XdXoXh v M Z v & & $ z N m v 7 & $ w m Z b V.rX8XsXsX].g f c m E |.k w A A Z [.S.[.qX6X X6X` : x m z %.~.& s A c / [.B. X5X5X8XoXl Y B.G.H. XA L N.Z.S.,XC.{.0XsXI.M V.S.S.G , d h :.S.H.=.a h : &.F.H.H.6X8XvXbXJX>.                * 4XlX( [ 4X3X5XS.:.).1.S.H.F a l a &.bXwXvX6X6X-.% r b A ~.H.$ e w j >.W.^.rXsXxX_.K K K J 1.(.T._.F * t t # X O L c L e r y c y.u.! .                                                                                                                                         ",
"  A LXdXzXcXcX+Xl b P Z B & % $ z A Z M , % * 7 M Y N A.kX8X6XsX.Xk d Y A W ).b r A A T [.Z.[.8X6X5X6X_ : v Z c N.F.: x L m ( ^.:.}.oXoX8XoXA ) /.XXoX5XD [ *XqXXX3XS.[.6XwX(.W *X3X5X` f h b F.XX+X:.g h j A.XX X].8X8XcXbXJX1.  .             $ 4XqXF W /.`.5XH.>.].H.W.|.) k b r &.bXxXwX6X6X;.w c L A.qXS.f T R N.{.I.`.fXsXxX'., * & > _ >.=.X.l $ x c # + 2 L c T e y e c &.R T .                                                                                                                                         ",
"  j ].1.=.>.1.*.a M Y W k % 7 $ x Y Z M , 0 % r Y E M A.fX0XsXsX}.k z M m / `.k t Z Z W [.S.`.6XwX6X8X_ w x Z c :.F.: c A A / ~.:.}.6X5XdX XS [ (.].].oXD ! /.XXXX3XS.,XqX8X(.Z ^.XXXXQ f h b F.].+X:.k x j A.].@X_.].+X+XcXmX>.                * >XkXY Y F.(.}.H._ sXwX5XwX&.A [ ( N.jXwXwX5X6X:.j R R [.jXA.j R &.>XjXI.|.fXxXxX.X< & & , >.H.1.,.D $ z L # X O T c L r c u T 8.[ A                                                                                                                                           ",
"  * ` S , , , > 0 c m m d 7 6 $ s c m v 7 7 $ 7 m m z A.bXwXsXsX,Xg s m c ! `.b r m c T [.A.[.0X6X1X7X} w x m c y.F.: z m x ( ^.A.XX8X6XsX XA [ ~.XXXX7XD ! /.7XXX}.C.,XqXjX(.G ~.XX+X^ d x N F.].].:.d x z A.XX+XT.J =.X.1.<.S                 * qXlX( [ qX7X3XF.:.sXcX7XbX;.[ tXqX3XkXwX7XXX6X:.r [ &.3XvXS.j [ &.{.jX).`.wXsXsX]., & % f ~.7X].6X*.% c c O + $ L c m y L L T y.L.T                                                                                                                                           ",
"  w V.' P P P U N I P L B I P I L P P L P U T z I P N S.vX0XsXfX1XN z U N ' ,XN z P N ~ <XZ.[.5X5X1X6XO.% m N d Z.I.& c P f ! [.B.}.8X0XsX1Xd N Q ` } ,XM b [ -.B.|.D.,X9XwX(.b } >.>.E B z B ) } =.Q B z s ~ ;.1._ g k g l n *                 * 4XrX( { 7X7XXXH.(.bXcX8XxX-.A A.:.(.kXjXwX6X6XB.w T ! A.8XH.: Y T :.XX(.~.jXcXxX X, & % p ^.8XoX6X-.% z c $ + O L c L t R T T y.L.[                                                                                                                                           ",
"  M KX,X<X<X&X<X<XU.>X*X<X<XyXtX<X<X&X<XyXtXtXeXyXyX4X9XrXwXsXfXqX/ V.eXL.eXfX' y.<XJ.4XvXS.[.6X6X X6X-.x L.Z.y.9XI.v V.U.;.^.[.B.|.6X5XsXwXD ) I.` B.0XV Y &.Q :.}.S.}.5X6X[.) { | | O.V.J.7.V.N.B.C.U.K.V.J.B.B.B.V.| O.} V.N                 $ 3XqX( &.7X3X{.H.G.mXcX6XvX;./ *X(._.jXwXwX6XwXC.f T ( H.8XG.f T T %.{.(./.kXjXvX}., & $ s `.OX+X5X-.& z L $ X O L L T t [ R R 7.y.R                                                                                                                                           ",
"  P IXtXrXrXrXrXtXrXrXrXwXtXfXrXrXrXrXrXtXfXtXrXtXrXfXrXwXwXsXwX9X) U.HX}.bXvX_ U.HX<XrXxXS.{.6X6X5X8X>.E <X1X`.vXH.V *XtXG.0X}.B.}.0X8X8XwX) ^.JXXXbXbXQ V.kXI.9X1XC.}.9X5X6XtXtXtX9XtXrXHXHXfXrXvXfXHXHXbXkXfXtXfXfXtX9X9XKXw.                $ >XqXT Z ;.:.{.S.(.mXcXdXbX;.%.kXqX5XjXkXsX8X8XA.j [ &.3XvXH.h [ y./.lXW./.wXxXbX.X, & $ f `.8X.XOX+.% c P # + O c L L t R R T [ R T                                                                                                                                           ",
"  U PXtXwXqX9XqX0X6X9XwX0X0X0XwXrXwXwXwX0XrXrXqXwXwX0XwXwX8X8XsX0X) S.0XW.0XsX` B.9X`.oX8XS.{.0X0X1X5X;.W ,X2X`.sXS.E W.0XG.6X].:.,X6X8XwX5XQ V.rXW.oXwXQ ;.qXI.5X5XD.}.5X8X7X0XwX0XqX9X0XrXrXkXvXrXwX0XwXrXrXwXwXrXtXqX9X9XKX;.            .   * 4XqX/ s b G {.S.` ].@X.XsX&.| 4XOXoXsXvXfXwXwX:.x [ y.oXxXH.j [ &./.4XG.W.qXvXfX}., * * p {.8X+XdX=.& t L $ = O c c P c R ! T y.L.T                                                                                                                                           ",
"  E PXrXqX8XwX6XsXwXwXjXwX0X0X0XwXwXsXwXwXjX8X8XsXsXwXwXwX6XsXxX6X_ F.wX`.6X6X) A.5X).oX6XS.}.0X6X1X5X;.W ,XoX[.sXH.D ~.wXG.6X'.:.}.8X8X8X5XW B.wXG.XX6XQ ;.0XW.5X5XS.{.5X6XOX6X6X6X8X5X6XwX8XxXrXfX8XwXsXwX6XsXwX5X6X8X9X0XJX;.                @ Z.^.U.Z.Z.B.}.]._ X.1.<.T.F &.jXOXoXwXfXsX8X0XS.j [ &.XXjXH.k [ &.{.8X).G.wXxXfX X, & % p G. X_..X` * z c # X # u t m : r r t y.y.L .                                                                                                                                         ",
"  E PXxX8X8XwX5X8XwXsX8X0X0X6X0XwXkXfXrXwXdX8XjXwXwXwXwX6X8X8XsX}.Q H.8X`.5X1XQ A.wX).OX8XS.,X6X6X1X6X;.W 3XXX_.sXH.D I.wXH.wX}.A.,X7X7XwX0XG A.wX).5XwXF N.wX).OX6XS.}.5X6XoX7X0X6X8XqX8XwXsXwXrXxXwX8XwXwX0XsXrX8X5XwX0X0XJXN.  .             @ /.P.>X*XU.F.`.+X].=.>.<.H.S l _ =.<.xXsXsXsXsXA.: c Y *.XX).> L Y %.|._.~.wXsXsX}.a * $ % } <.=.>.n * t c 5 # : L t T t r r t [ y.T                                                                                                                                           ",
"  E PXjX8X8X6XOX6X8XcXOX8X+X6X6X+X8X8X8X8X8X+XOXwXwX6X6X0X0X0XsX XF S.jX_.OX XF B.wX_.+X5XS.}.0X6X X6X;.W XX+X_.xXH.D `.6XH.8X].C.,XwX6XsX5XG :.jX<.oX8XF ;.jX).OX6XA.}.5X5XOX7X6X8X6X5X6X8XwXxXsXfX8X8XwX8X8XwX8X6X5X5X5X5XJX;.                * 4X/.^.I.I.A.S.XX X|. X}.6XG.;.-.` S.wXfXsX8XwXS.d c N.*.3X).: r ( D G.'.~.wXwXdX}.d 6 % % } D.=.>.n & z L t c c c u ! T R R &.T R T .                                                                                                                                         ",
"  D PXjX8XcX+X+XOXcXOXcX8XdXcXOXjXcXcXcXcXcXzXzXdXcXxX8XwXsXwXsX1XF 1.jX_.oX].G :.8X).+X8XS.}.5XOX}.6X>.F }.@X_.cXH.G '.cX).jX_.<.3X8X9XdXoXF :.cX@X8X8XQ >.jX_.OX6XA.[.5X5XoXOXdXdX+X8X8XdXcXxXxXdX8X+X+X8XdXzXOXOXOX+X6X+XLX:.  .             * 4X^./.I.I.O.&.}.}.5XxXwXsXvXHXHXbXvXrXxXfXsX6XS.b R tXXXbXW.n T tX3XvX`.~.wXwXsX1XC.A.J.A.`.|.]. X^ & z c c c t c c T T R R &.| y.T                                                                                                                                           ",
"  j 8X_.<.<.3.1.=.=.1.1.1.<.3.=.1.=.1.=.<.<.<.=.1.1.=.`.rXrXsXsX].l k J K _ ].l l =.J =.oXS.{.7X6X X6XO., ` ` F _.H.> F =.J <.].:.5X6X6X8X6Xl S <.J >.8Xn A <.=.H.5XB.}.1X5X_.)._.(.<._.+X+X_.].]._._.+XzX<._._.]._.+X+X+X+XmX:.            .   $ tX^.I.I.F.;.;.}. X6XsX7X8XqXrXvXsXwXfXvXxXsX6XA.b T 4X}.bXT.v Y qX7XvX`.G.7XvXsX5X5XqX4X9X5XoXOXOX_ & z t c c c c t c j T T T T ! T .                                                                                                                                         ",
"  * O.G l k G g , n n n l K K , S G S l < S , , < < , H.vX0XwXwX Xa , a a n |.j & j j l [.F.{.7X6XoX6X_ & j l , A.H.> : l , W [.A.,X6X5X8X6X, & j , k ,Xh j } ` X.].A.|.5X8XH.< S S K K J J F =.:.1.` J *.< S S K K J *.=.=.H.K   .             * I.P.I.~.~.I.`.1X XwXxX8XwX8XjXvXvXsXxXvXfX0X0XC.b T 4X}.vX`.k m 3XoXkX~.~.wXvXwX5X5XoX1X3X XoXOXOXO.& t L z L L c t e e m A m T [ T                                                                                                                                           ",
"  : J.^ N N ~ n : P Y M n l l , A G S b > : > h b b h P.fXtXwXfX Xn x v x M }.l a b m Y [.D.}.9X5X X6X} f A M v P.H.> c A b ( ~.A.1X6X5XwX Xl h j j A 3XA ( |. X].}.A.}.5X0XH.< j : l < , < h &.|. X=.l < > f , , j l k k k S &                 * [.4XS.;.B.B.{.oX].8XxXsXwX7XxXvXvXwXsXvXsXwX0XS.k Y >X].bX`.k T 4X+XjX`./.rXxXjX8X6X6X6X5X1X5XOXdX>.& t c c c u c L t t r L R &.y.Z                                                                                                                                           ",
"  M HX<X*X&X<XJ.d P ~ E b b b : b Z Z M : > : x b x z P.rX0XwXwX Xn d x x P [.l f b b T {.D.}.0X6XoX5X=.s Z M x P.F.: c A j ( [.A.5X8X5XsXoXk d h j L 3XA W `.].XX].B.[.5XwXG.N ( &.-.A : < b ;.}.6X>.< j > j z r m { | | | K.N                 * qXkX_ n D ( {.'.<.8XcX8X8XOXjXsXfXwXsXvXsXwX0XS.v T 3X].xX).h L 3XXXcX`.~.wXrXwX8X6X6X6X1X6X0X6XdXO.& t L L c x L L T m L R &.L ! Y                                                                                                                                           ",
"  ! IXfXrXkXvX,XN P ' ~ Z n k : m A Z b : % % x x b t /.kX6X8XsX].n d k x A [.n : A x A {.D.|.0X5XoX6XO.j A A h A.H.% z m x ! ~.:.3X8X7XsX Xk x c j A }.D Z (.].].oXB.[.5X0XH.A y.{.3X( p d b %.{.7X>.< k % f r e A yX9X9X4XKXV.                * qXkX&.G Z ( {.T.J +XbXdXzX+XbXbXvX8X8XvXjXwX8X:.B Y qX}.vX_.h A 7X6XxXW.G.wXsXwX8X8X8X6X6X6XwX6XOX=.% t c c c r c L T t w : c [ y.!                                                                                                                                           ",
"  E PXwX7X7XwX Xn T T ~ Z n k & x b m v : & % r j t r /.kX6X6XsX'.k f d r m {.k w x r A [.D.{.0X6X5X6X} : A h j A.D.% z x s ! ~.B.3X8X7XsX Xa f s r m ,Xl b <.<.<.}.A.|.1XwXG.n &.F.(.F , s x &.S._.=.j d : c P c ! qX9X2X4XJXN.                $ ~.qX{ Z Z ! 3X(.G G._._.].>.*.:.<.H.wXvXvXwX6X:., r / ` |.`.: r B.S.5X'.G.wXwXwXoXoXcX8XwX+X8X8XdXX.& t c e $ e t t R e : 3 t y.u.!                                                                                                                                           ",
"  Y PXrX8X8XdX XN ~ ' ' E l v - b b b b : : % s c t j /.kX6X8XsX}.g f d j A }.k w k j m [.F.[.wX8XoX8X*.: x v s B.K.& c P L [ `.B.3X7X6XxX Xf z c x Y 3XS j &.1.:.].S.[.5X9XW.n [ A.(.K , j j [ :.(.` a d 7 P y.Z.Z.9X0X6X6XJXB.  .             $ /.tX{ A A T 3X(.G >.=.1.H.G k v j ) vXsXsX0X0X:.> r j a >.XX* % r , } [.H.0XwXsX}.J J ` ` H.XX].].Q $ r z $ $ : u t L e : y L u.u.T .                                                                                                                                         ",
"  D PXjXOXOXzX].U [ ] | E k v w m A N x : % $ T ! ! Z L.kX6X6XvX].n h x s Z {.b s x z Y *XD.}.wX8X6X7X*.r A m v B.G.z [ { ' y.[.A.5X7X6XdX}.a N P Y ! 3XA T (._.].|.S.{.5X5XI.Z %.^.5XF , r c &.~.7X=.g s r [ L.4X<X5X6X6X2XJXN.                * qXkX( x Z { 4X`.F H.H.S.`._ G W Y [ vXjXwX6X0X:., x x s Z.3X> t j w | ,XF.6XwXwX}.S S h j -.C.1.1.l * t c e $ 5 L m T e e 3 L &.R m .                                                                                                                                         ",
"  A mXoX_._._.T.U 7.[ 7.~ v N f N m m v w w $ P 7.7.[ /.rXwXwXsX Xn x c d Y [.b z c c T {.Z.}.0X0X5X6X} k ' ] ! I.D.N [ | [ y.I.:.oX5X6XdX Xa x N L Y ,XD W G.].].XXB.[.5X8XI.D N.}.6XF , f x y./.jX1.a f z [ /.3XXX7XzXOXjXJX:.                * ,XkX) ! L.>X7X`.` 7X8X6XxXB.Z T m [ kXxXwX0XwX:., c c z y.3X& z z y &./.H.7XjXsX.XD M m m A.G.S.<.V $ z c e $ 3 L u *.y y y L ' R L .                                                                                                                                         ",
"  & >.J S K F K B 7.[ | E N N r Y ' ' T r 6 $ Y y.7.| *XvXwX8XfX}.n Y ~ ' { }.Z P [ ' | {.F.,XwXdXoX6X_ N | y.{ U.D.k [ | | N.I.>.XX8X6X8X}.d N P P ' 5XA W G.].]. XD.[.5X8XG.D ;.[.oXF p z c &.~.+X>.g d s / /.XX_.<.<.<.<.+XJ                 * ~.tX[ &.*XkX7X~.H.xXjX8XbXA.Z T m ) vXvXkXwX6X:., c c j y.XX: c t e &.*XF.wXjXxX.XD m c A {.wX6XsX} % t c e $ $ c t L r r y c y.L.T                                                                                                                                           ",
"  * / n - f B d z R T ! Y M N s Y ' ! P z 8 5 z ' T P U.vXwXwXvX}.k P ' ' | ,XN L ' ' 7.[.H.,X0X6X1X6X} v ' / ! Z.C.f ' ' T 7.W.>.3XwX6XdX}.f z N L ' ,XS M :.C.S.}.F.}.6XwXI.n ) :.:.V f f z / &.A.` g d j [ A.H.:.l l < k K &   .             @ ~.3X[ [ *XkXXX(.(.mXjX8XxX:.m ! [ N.kXvXfXwX8X:.: L m A L.}.: t t t %.{.F.qXwXvX XA A h b XXrXOXmX:.% r c e r 3 c y L j R i L [ u.T .                                                                                                                                         ",
"  x yXK.J.J.J.V.q.y.V.y.J.L.K.J.y.y.q.7.J.J.J.7.V.q.y.4XbX9XwXwX Xn ~ V.{ D.9XU P y.' V.,XD.}.wX0X X0X;.v 7.| ~ >XI.s ' 7.! L.I.;.3X9X6XsX9Xv Y y.' q.tXE m N._ >.5XS.}.oX0XW.D Q / ( E ~ P B P Z F A M N r v b A b b N A Y ' p                 % 9XkX{ &./.>X3XG.(.bXdXdXxXA./ /.lX4XqXvXwXwXwXS.x [ [ y.4X>Xx T R &./.^.H.0XwXjXoXS Z ! W {.jXoXdX>.% t u t L y L j u y &.&.R [ [ T                                                                                                                                           ",
"  ~ IXHXHXbXrXrXbXrXUXkXrXrXbXHXtXrXrXrXDXkXHXHXHXbXHXHXbXsXsXsX9X_ *XKX<XHXbX} L.bX<XrXbXD.,XwXwX XwXS./ 9XtXW.HX{.W *XkXU.HX[.:.qXwXwXsXwX~ U.HX>XkXKX| y.fX}.0XbXG.|.5X5X,XU.[.W.U.[.<X<XU.%XU.U.&X<X<X*X&XU.W.*X>X&X&X*XUX|                 $ qXkXW h W { 3XG.S.mXcXdXxXA.[ >XHXjXjXfXwX8XwX:.b u.y.L.lX~.b &.u.L.lX`.S.wXjXwX XW u.qXqXXX6X XdX>.% t c t L j L c L c R &.R R R T .                                                                                                                                         ",
"  E IXvX9XqXqXrXwXwXqXrXrXqXrXwXrXrXfXwXwXwXrXfXfXfXrXrXsXwXwXfX}.W U.vX|.7X8XQ A.kX|.wXxXH.,XwX8X1X0X:./ 0XrX[.mX(.Q 3XrX(.bX`.B.bXbXvXsX9XW U.vX).qXbX) y.bX5XrXbXH.}.5X X1X0XqXqXrXwX9XtXrXrXfXrX9X9XtXtXrXrXrXrX0X0XtXtXKXV.                * tXtX&.b m Q <X`.` _.+X].7X;.) /.kXjXjXvXkX8XwX>.b &.y.F.kX].x &.y.A.qX[.A.wXwXwX].W L.kXxXXXOXOXcX1.& t L c T y c y c t R R R y.u.T .                                                                                                                                         ",
"  E IXxXwXwXwX0XwXwX0XwXqXwXwXwXwXsXsXwXwX7XwXwXwXwXwXsXwXwXwXsX|.G P.qX).5X+XF ;.wX'.oX6XS.XXqX6X5X5X>.Q ,X5XG.xXH.G ~.6XS.7XT.S.vXbXxXxX}.V Z.8X(.XXwXQ &.wX`. X0XS.}.6X5X5X5X5X5X5X5X5X5X5XwXwXwX6X5X5X5X5X5X5X1X1X5X5X5XJX;.  .         .   * 4X>X>XU.P.P.[.9XS.>.1.>.(.( *.(.7XXXjXfXsX8XwXA.h &.%.F.lX(.S &.u.L.qX|.A.qXwXcX].W L.kXkX_.{.'.OXX.$ t c t t y y t c : : e t &.L.m .                                                                                                                                         ",
"  E PXvXwXfXwX0X0XsXsXsXrXwXwXwXwXxXvXwXjXwXwXwXwXrXwXwXsXwXwXsX5XW P.wX`.5XOXQ V.wX].6X8XD.,XwX6X5X5X>.Q }.oX~.xXH.Z {.8XH.8X).S.8X8X8XdX}.D F.wX).6XwX! :.jX_. X6XS.{.5X5X6XaXwXqX0X6X5X5X7XwXjXwX6X6XwX9X0X0X0X0X0X0X5X5XLXN.                * 9X>X*XI.*XI.[.5X5XS.<.<.(.( b Y W *.jXwXsX0X8XS., L Z *.F.]., T R &.(.`.S.wXwXjX].( L.{.XX1.:.1.T.K $ t c t 6 : c c T t t : t R u.T                                                                                                                                           ",
"  D PXsX8X8XwX5XwXwX8XdX8X8X7XwXwXwXsXwX8X8X+XOX8X8X8XwXwX0XwXsX}.D F.vX).OX6XF ;.wX].6X8XH.,XwXdX6X6X:.W XXoX(.xXH.D [.6XT.wXG.:.7X8X6XsX}.K A.sX).OX8XQ ;.jX].OXwXS.}.qX5X6XdXwX8X8X0X0X8XwXsXwXwX6X6X7X8X7XqX0X7X9XwX9X5XPXN.                * [.L.D.A.I.A.A.}.5X|.6X1X6X|.^.~.H.I.wXvXfX6X0XH.j t / { `.}.d e b W :.{.F.7XwXsX].V A G G -.1.1.H.S O t L c c c c c L T &.i A T R R .                                                                                                                                         ",
"  E PXxXdX8X8X+X8XjX8XcXzXpXOXOXxXxXsXxXjXzX8XjXjXcXcXwXwXwXsXsX].G F.bX_.8XdXF A.xX].OX8XS.,XwX0X6X6X-.W XX+X).cXH.G }.wX_.jXT.S.9X8X6XsX}.G B.8X_.OX8XF %.xX].OX6XS.|.5X5X X6X8X8XOXOXOX+X6X8XwX8X XOX7XoXqX8X8X6XoX0X7XoXJX:.  .         .   * I.N.N.B.P.O.) }. X XsXwX6X5XbXHXbXvXjXfXvXsX8XH.A L L.,XfX}.V c y.>XqX].S.7XwX8X].B.:.,.:.G.|.[.XX( : c L c j j u t L T A T &.[ &.T                                                                                                                                           ",
"  n mX8XpX+X+X+X]. X].]._.+X@X_._.].]._.@X+X_._._.]._.XXfXqXsXsX].k ) (.=.<.oXK / (.1.G.8XH.}.wX0X6XdXO.S (._.1.jX<.k G._.<.oX).A.9X7X6XsX}.n B.8X<.].8XG &.7X).].5XS.{.,X5X+X+XOX+X8XOXzXzXzXzXzXcX8XdXcXzXjXzXcX+X+X8XpX+XmX:.  .             $ rX^.^./.G.:.&.5XsX6XvXwX7X5XrXfXwXwXjXxXvXwX6XG.M L L.3XvX].M m A.3XjX].D.qXxXwX6X5X9XwX7X3X9X].`.( > t L u c t c y : t T t L T [ T .                                                                                                                                         ",
"  : 1.J G K J F n _ ) ` J *.J l K K J =.J K K S J K _ {.vXwX0XwX_.a b -._ >.].b h { _ *.}.F.}.qXdX6X8X-.> S F l <.H.& G _ G <.|.D.5XwX9XsX}., b =.J =.+XS x >.` =.{.S.}.5X5X_.*.>.1.1.1.<.<.*.*.1.=.1.).<.=.=.1.=.1.<.<.<.<.+X`                 * F.S.{.3X3X[.~.9XsXdXxXwX5X}.rXrXkXwXxXfXjXwX6XH.M P L.}.xX Xn c u.XXjX].D.wXwXwX8X6X0XwX6X5X5X].+X&.: t c t c c c c y : j L A T R T                                                                                                                                           ",
"  * ) k - & d p b >X3X7X-.< l > l j n (.< , & b J l } XXvXsXfXsX`.n &.4XkXkXoXD [ *XkXjXjXA.,XwXwX6X6X>.- a l f ;.G., W :.:.G.|.S.7X5XwXsX|.a M >.S.S.oXA Z F.~.[.}.S.|.7X7X).l &.(.T.G < l < < < G S < < > , , < l p g , l F &                 * >X{.P.F./.L.3X5XoX8XmXdX5XXXwXkXxXwXwXxXrXwX5XG.n m L.oXxX|.Z c V.].8X|.S.0XfX8X6X6XwXqX8X3X5X+XdX;.% t c t c c c c c c t A &.! [ R .                                                                                                                                         ",
"  x eXK.V.7.7./ Y lXkXHX).S n f D l N _ l > % m Z b Z ^.vXwXsXsX`.M %.lXjXbXoXW y.eXkXbXjX(.3X7X8X6XdX-.f j v j N.G.a { (.(.{.`.H.5X9XqXfX|.k { I.}.XX].E { 4XbXvX3XA.|.5XqXW.G /.jXvX_ , l l h j ( A l j > , a j h d c x N ] 7                 * 4XrX_ l W ( >X`.H.8XcXdXwX5XwXwXfX7XwXwXsXwX8XG.V c Z.}.cX|.n x V.}.wX[.S.6XsXsX8X6XwXwX9X5X5X}.dX>.% c c c c t c t L L T L L T T L .                                                                                                                                         ",
"  ! IXHXUXkXHX,X/ lXkXmX(.< S s Z A N x , w % c A Y v I.bXrXsXsX`.Z y.jXjXcXzXW [ 4XkXkXjX(.XX7XwX6XdX-., z b r N.G.h { (.(.XX).Z.oX7X7XsX|.v / (.].].{.Z [ XXjXfX3XS.|.5XwXW.Q /.jXbX` , j l x r W A h j : w s w Y *XU.K.U.HX|   .             $ tXlX_ M A W 3XG.J 7XvXcXdXOXvXbXmXxX5XsXrX5X5XG.b c L.5XbX].Z m Z.1XwX{.S.5XsXwX6X8X8XwX0XoX5X].dX:.& t L t t y c t L : O 2 r [ u.T .                                                                                                                                         ",
"  E IXqXqXrXrX}./ 4XjXvXH.< j w Z m c N f 6 % A y.| | >XrXqX0XsX_.M y.XXjXjXXXF &.*XjXkXXXF.{.jX6X6X6X-.w z z r %.F.h { F.(.].).D.5X5X8XxX}.k / G.].].].Z &.{.jX8XoXA.{.9XwX`.W /.OXjXJ , , h x j A x h a : w j : ( rXrXrXtXIXV.                * I.5X&.! y.P.,XG.G H.T.'.oX<.=.S.G.~.7XfXsX8XOXG.a : Y } `.XXh r [ A.}.}.F.5XwXdXOXOXwXjXwX].+XoXdX1.$ c L : O $ c c c y 3 > y &.u.'                                                                                                                                           ",
"  Z PXvXwXwXxX1XT A.(.XX*., , % R [ | / f w $ R U.^./.>XwX0XwXsX].j ( A.<.(.].D ( %.(.].oXG.,XwXwX6X8X=.r A R T N.G.a T *.>.G.`.F.7X8X0XxX}.j T %.1.H.].A T F.(.].}.S.{.5X8X`.Z y.G.).G , j s L P E N g s % r r w W 3X7X3X5XJXN.  .             $ F.XX&.{ :XUX5X`.F -._ 1.G._ < b j W jXjXwX8X5XH., f f f _ }.: $ : r ` ~.<.7X8XdX X` ` } _ S.`.).].` * z L e # $ L c L e e e t [ u.R                                                                                                                                           ",
"  Z PXbXwXwXdX].( 4XjXkX1.- 7 e /.tXkXXXk : % { 4XwX8XXXwX6X8XsX].A y.4XjXcXoXG &.{.jXjX6XG.3XwX8X6XwX-.m u.*X4X4XH.j [ F.H.'.W.F.5XwX6X8X}.h ! F.(.W.}.Z ! /.3X3X}.B.[.5XwX'.Z A.}. XG , t A /.<XtX} a s : j j r ( 7X7X7X5XPX:.                * qXlX{ ! L.>X9X|.F :.:.S.W.} D A b / kXfXwX8X6XG.d c c z &.,Xf r c j ( ~.F.7X8XsX Xa N ' M *.>.X.X.l # t L e $ $ T c c r e e t y.&.T .                                                                                                                                         ",
"  W PXNXdXcXmXoX*.4XcXmXH.> % s /.kXvXjXl & 6 | kXkXxX7XwX7X8XsX_.T L.jXvXcXoXF &.4XcXmX6XS.,XwXwX7X8X-.Z /.kXkXkXH.x &./.]. X).D.5X6XwXxX].A &.XX7X3X}.! &.4XkXvX1XD.{.9XwX'.Q P.kXvXF , h ( 4XkXbX:.f a w z x r Q jXjX8X8XLX<.            .   * 4XlX{ ! L.4X3X|.F XXwX}.9XC.Z m c ( qXxXwXwX6XG.k c c z { ,Xa r c c ( `.S.5X8XsX Xv T 7.P &.S.-.-.A $ c T e $ : L u c e : y t &.6.T .                                                                                                                                         ",
"  l zX<.=.=.1.=.( 4XjXbXH.> 0 t /.kXxX+Xl , 7 7.jXvXjX7XjXwXsXvX].Z y.jXcXbX+XQ &.lXcXvX6XG.,XqXwX6XjX>.Z Z.7XjXjX<.S %.~.].XXG.F.9XwXwXsX|.b &.{.XXXXXXT &.4XbXxXoXS.,X9XwX`.Q A.jXxXQ , j T >X7XjX-.a a 6 s z s A _._._._.bX=.                * >XeX&.y.4XbX3X,X:.vXvX7XjXH.n m c [ jXwXrXwX6XS.d c c c [ ,Xf t z t ! ^.A.5X8XwX}.b c P c F.XXW.dX>.% t c e # O L x c 3 2 : t y.u.! .                                                                                                                                         ",
"  * { K < k l a m /.jXjXA.a z s P.jXjX_.g 7 7 [ 4XzX+X3XkX8XwXxX`.Z %.XXzXjXOXF &.XXjXzXOXH.,XwX8X6X8X>.A A.}.+XjXH.b &.`.|. X(.S.9XwX8XsX'.M &.{.+XXXXXW &.{.jXwXXXS.}.9XwX[.( A.oXzX{ g x W 7XjXjX=.a d f U T D Z G K S K X.,   .             $ Z.>X&.[ *XHX3X|.`.bXxX8XxXD.m [ &.y.jXsXrX8X6XH.d L L T y.}.f t u t T ~.A.5X8X8XXXb A L A ~.5XoXnXC.% t c r e e L t c t i R L y.u.[                                                                                                                                           ",
"  : y.~ U P E M L &.&.*.) U P c [ *.-.&.N P L E %.<.>.{.fXwXsXxX].k W *.*.:.oXn b *.&.<. XG.}.qXwX6X5X-.d { >.&.).H.s ! | ) H.W.S.wXqXwXsX[.B W &.>.S.3XE Y N.S.F.XXD.,X7XwX[.n ( _ ) ~ P z v %.>.>.Q n L z ' 7.%.' M N f x E &                 * lXkX&.{ /.qX3X|.~.bXdXOXwXS.! %XlX4XlXkXwX8X5XH.v R [ u.4X}.k T R &.L.[.B.,X8X7XXXA [ /./.~.5XoXcX,.% t L u L r L c u t &.&.R R [ R .                                                                                                                                         ",
"  L HX<X*X<X>X,X>X*X].~.>X4X<X<X^.I.I./.>X*X%XP./.F.(.{.rXsXsXvX1XW y.3X:.3XkX[ &.>X(.3XwXF.}.qX6XoXwXF.T U.~.:.wX[.m J.*XB.7XW.D.qXwX8XxX5XA [ U.O.~.kX' { >XN.`.rXH.{.7X8XqXK.Z.K.V.U.U.J.7.7.O.N.B.U.K.V.V.N.J.V.Z.J.w.J.yX~                 & lXkX[ Y &.;.{.`.G.nXxXOXsXD.[ :XlXkX0XsXsXwX5XH.N 7.u./.lXXXA &.u.L.4X`.B.,X8XOX]./ y.lXjX|.oX@XdX,.% c L t L y m c c 4 &.&.i R [ ! .                                                                                                                                         ",
"  E IXfXrXrXwXrXkXkXbXkXfXwXrXrXfXrXrXvXvXvXkXrXkXkXkXkXwXdXsXxX1XQ *XHX3XvXxX*.F.bX7XkXcXH.3XwX8X5XqXI.[ 9XvX}.KX}./ 4XbX}.mX'.S.5XwX8XvX0X) /.KX,XbXbX| U.HX,XvXbXG.{.5XwXvXfXHXbXfXHXbXtXfXrXfXfX0XtX9XrXqX9X9X9X0XqX9XtXKXV.                * qXkXy.s x Z [.)._ OXOXoX8XA.' /.kXjXwXsXwX8X5XH.n y.u.L.lXXXA &.u.L.4X^.:.}.6XjXXX/ L.lXjXoX6X XcX1.% c m t T y c j s e i &.L { u.R .                                                                                                                                         ",
"  E PXrXwXwXwXwXkXwXjXwX7X8X6X8XrXwXwXjXwXsXwXrXwXrXrXwXkXwXsXsX}.D P.0X`.5X6XQ :.wX`.oX8XG.,XwX8X6X8XB.Y {.6X`.xXG.W {.wXG.wX'.S.qX7X8XsX].D P.xXG.7XwXQ N.rX].9XfXH.}.5X8X6XwXwXwX8X6X6X7XqXwXrX0X9X5X5X9XqXwXwXwX9XqX5X9XJXA.  .             * qX4X>X/.U.P.^.6X=._ :.<.|._ [ *XlX7X7XsXsXwX6XG.A %.u.L.qX}.n &.y.y.XXXX<.XXjX8XoX/ Z.kXbX]._._.+XX.* t c t t 3 t t c : 2 5 r &.&.R .                                                                                                                                         ",
"  W IXwX0XqXwX7XwXjXfX8X7X8X8X8XfXvXxXwXwXwXsXsXfXxXxXwXsXsXsXvX XD P.wX).6XOXQ A.sX'.oX6XD.}.wX8X6XwX:.W |.6X`.xXG.D [.8XG.wXW.D.qX8X8XxX|.D Z.jX).oX6XF >.wX`.oX8XS.{.9XwX6X6X8X8X8X6X6X5XqXwXwXqX5X6X9XqX0XrXqXwX5XwX7XqXKX;.                * tX*X*X/./.U.^.0X5X>.-.:.W.Q x T W -.8XrXfX8X6X).v A T / H.3Xb T R &.F.(.%.XXlX8X}.G &.F.~.>.:.X._ n # r c e 5 : L c c t j y r R &.T .                                                                                                                                         ",
"  E PXwX0XwXqXwXwXjXjXjXwXwX8X6XwXfXwXxXwXwXwXwXvXsX8XjXfXxXfXvX XE F.dX).8X6X` A.sX`.5X8XH.,XwX0X6X6XC.F [.oXW.dXW.G [.wXG.8X`.D.qX6X7XdX|.A S.jX<.5X6XF ;.jX].oXwXD.{.5X0X0X6X8XwXwX8X5X5XqXwXwXwX8X5X6XdXwXrXwX8X7X8X5XqXJXV.  .             * *XP.Z.D./.P.D.}.5X].1X}.5XW.} %.&.;.wXsXwX8X8X).k r Y *.F.,Xk : c *.*.{.:.XXjX6X}.Q S l l *.H._ _ l % c L r c t m u m L R R &.R ! R .                                                                                                                                         ",
"  E PXwXdXwX6X5X8XjXdXdXwX6X6X8XsXsXwXwX8X8X6XwX8XsXjX8XwXfXsXvX XD F.sX_.dX6XF A.wX_.zX6XG.5X6X8X6X0X:.Z `.oXT.cX(.A ).8XH.7X`.D.qX6X8XxX}.A A.8XH.oX5XQ ;.jX_.OXwXS.{.9X0X5X6XwX8X8XOX6X5X8X8XwX8XOX6X6X6X0XsX7X6XOX6XqX0XPX:.                & ^.N.;.y.I.;.}  X].6XbXwXwXtXqXkXkXrXwXwXsXwX6XG.D m y.>XjX1XD c &.j.XX{.;.XXjX6X}.~.G.~.F.].3X'.]._ 6 z c c u t L t t t u &.&.| y.[ .                                                                                                                                         ",
"  D PXcXdXcXdXdXcXmXcXcXcXcXzXzXmXmXcXcXcXcXzXzXcXcXcXwXwXfXxXvXXXG G.cX_.8XOXJ A.bX].7X8XH.3X6X6X6X8X>.G {.XX<.cXH.S (.XX<.7XW.F.9X5X7XvX}.V A.+X<.7X5XF -.7X_.+XwXS.[.5X3XoX8XxXjXjX+XcX+XOXzXzXOXOX+X8X8XdXcXzX+X8XcXdXjXPX:.                * qX*X^.F.F.A.:.sX6XOXvXsX6X6XwX6X5XqXwXwXwX0X8X).D N J.4XwX5XE c Z.,X0X}.B.3XwXwXoX}.,X1X1X5X0XoXxX:.% t c c c L L t : e c m L R ! ' .                                                                                                                                         ",
"  b mX+X_.XX]._.<.).).H.<._.<.<.<.<.<.<._.]._.<.H.<.>.}.xXsXsXxX}.< F :.` :. Xn Z ;.` >.oXG.}.6X5X6X7X-.: J *.K H.H.> A *.G H.`.F.9X5X6XsX'., F =.J <.XXk A >.*.>.5XH.`.5X6X].<.<.<.1.).+X+X<._._.)._.+X].T.).(.(.(._.+X]._.mXX.                & P.Z.>X>X3X^.XXvX6X.XxX8X5X6X0XwX7XqXwXqXrXwX6XW.D L N.5XjX5XE c y.}.wX}.:.5XwXwXoXoX5X1X X1X6X5XdXC.% r z t L L c t e : t m L R | ! .                                                                                                                                         ",
"  & -.F S G K k a A Q F K < , > < l , < , j < < M D D `.vX8X8X8X]., : a a S `.k x { Z.I.,XG.}.wX6X6X7X-.> , l , =.H.& , b S *.`.S.9X5X0XsX|., & < a &.}.h x ( %.:.|.S.[.5X8X).l ` >.>.S 1 < < S S S K J K j G ` _ Q G J J K _ a             .   & 4X4XF.A.P./.>X6X XOXbXdX5X5XqXwX5XwXwXqXwXwX0XW.D m y.,XxX6XD m y.}.wX|.:.3XwX6X6XoX6X6X X6X6XdXxXS.& r c c u t L t c t t L R [ | R .                                                                                                                                         ",
"  & | V B v N p z %.^.3X>.> : > x j A A > : : Z y.>X,X3XwX8X6X8X].l d h h W `.Y [ *XHXHXwXD.,XwX6X5XwX*., b A j &.G.: j A Z &.`.S.6X6X0XsX|.l h h A P.>XZ [ L.rXjX5XD.[.5X8X).W /.jXbXJ > > f A k j j S , x %.^.9XS.k n k A W -   .             & 4XkX%.r A T {.`.H. XxXwX6X3X5X9X5X5XqXwXqXwX0XG.E c N.}.wX+XD c y.}.wX|.:.5XwX0X6XOX X5X5X1X6X5XxXS.- t c c c t m c t L L L T R T ! .                                                                                                                                         ",
"  x tXU.K.L.U.V.Y L.tXbXG.> : $ z z b m r w : ! /.lXkXjXwX8X6X6X].l d v x W ~.E | *XjXbXjXF.XXwX0X5X6X=.k V Z x ;.F.p v m b &.^.D.0X5X0XxX|.k x x A /.{.Z [ L.jXxX7XS.|.9X8X(.( /.jXvX_ : % s A x z v k , m L.lXcXjXJ.V.V.V.2X~                 & qXkXN.t m A {.(.` XXbXwXwX6XfXvXkXwX5X5XwXwX8XW.D c N.3XxX+XG N N.5XwX|.B.5XjX8X5X6X+X7X9XoX7X6XdX1.% t c z r 3 c t t 3 : t t [ y.[ .                                                                                                                                         ",
"  E IXbX9XwXfX,XW V.3XjXH.: & $ c c b b w : $ [ /.jX7XjX6X0X6X8X].n h v x T ^.E [ /.jXvXjXA.XXwXdX5X2X-.k Y m x N.F.p d m b &.[.H.0X6X0XjX].x x c m Z.}.G &.y.zXcX8XA.[.5X0X_.( ~.jXcX_ & e z Y m m N b r A L.jXjXjX0XrX0XtXIXV.  .             & ^.4XN.A j./.lX{.` T.XX}.oXH.:.D.H.~.7XqX9X5X6X(.k r W %.`. XN r / S.|.|.:.3X7XqXoXoX6X6X6XXX7X8XmX,.% t c e e 3 L t c y r y t [ u.7..                                                                                                                                         ",
"  D IXsX6X0XfX].Z y.F.).*.: : * z z z s : - 3 T A.~._.XXwX6X6XwX).l s x s T >XA ! %.(.XX5XF.3XwX0X5X6X>.h A L x N.G.7 d m x { {.D.6X0XwXvX{.j c c T y.}.c *.y./.].OXS.~.5XwXW.Z A.`. XF : % c &.y.L.~ v j c &.(.(.].7XqX9X9XLXV.                % /.4Xy.&.GXKXqX].` >.-.:.`._ l A A / 4XqX9X5X6XG.a r b A &.oXs 3 r h ` `.A.3X6X0X X` ` _ ) >.[.W._.` $ t c t r y T c c : t y c 6.[ [ .                                                                                                                                         ",
"  P PXfX6X0XsX].Z y.^.3X*.> : % R [ | W , 6 % T u.>X{.XXqX6X0XwX'.l s h s W {.A [ u.XXjX5XH.5XwXdXOX6XO.k / y.Z.[.S.d R u.U.{.~.H.6X8XqXjX~.x R u.L./.{.b *.%./. X XD.`.5X5XH.Z y.[.}.G : : L y./.4X} l j c &.(._._.qXwX0X9XPXV.  .             & tXtX7.L L.>X7X}.F >.:.<.`._ E E E %.9XwXwXwX8XG.h c Y T %.,Xs c T c y.[.B.1XwXwX1XS :.`.(.1.S.>.` l * t m t z : L c c r t c t R T T .                                                                                                                                         ",
"  E PXjX+X8XcX X( L.lXbXA.> : r u.4XbXjXj $ 2 y.>XkXkXjXjX7X5XwX'.V c x x ! >XW &.*XbXmX5XS.5X0X6X6X6X-.W Z.3XbXvX:.Y u.>XbXvX_.F.0X0XwXxX[.Y y.:XHXkX{.A &.u.lXvX5XS.`.5XwX(./ /.bXbX` > : ! /.qXbX-.a h A A.4XjX7X+XdX8XOXPX>.                & tXkXy.T *X3XXX{.Q {.8X X9XB.W T T 7.9X0XwX0XdXW.l m T T y.3Xb [ u.L.lX>XB.1XqX0X5XG P.3XXXG.`.,.>.G % t c t t y T u c : y y y 8.&.L .                                                                                                                                         ",
"  Z LXdX@X+X+X_.( L.jXbXS.: w r y.3XkXjXS : e [ /.kXjXjXjX7X8XjX).n P A x ( {.W y./.jXbX5XH. XwX0X5X6X;.W y.XXxXxX<.W y.{.vXzX(.F.5X6XwXfX`.Y &./.kXkXXX*.&.y.zXxXoXA.[.4XqX~./ /.jXvX` & % T /.jXbX>.a s Z L.jXcXzX+XzX+XdXPX>.  .             * /.qXN.R lXHXXX{._ XXbXwXrXD.W T P [ tXrXwXsX6XT.b m T T &.>XS [ u./.kX[.<.5XwX8X1XW D.3X|.{.qX X8XC.7 t P t e : L t c y y c u [ u.[ .                                                                                                                                         ",
"  , _.1.J ` J F Y F.7XjXS.z z j y.3XxX8Xl r e [ /.lXjXXXqX7X7XjX'.M ! ~ W &.^.F &.L.7XxX5XH.}.0X8X6X6X-.! A.].cXcX<.E N.XXjXjX(.S.6XwXwXvX`.Y y./.zXzX{.W &.(.lXjXoXS.|.7XwXT.( /.jXcX) % w T F.+XjX>.l d Z F.+XcX_.J =.X.=.<.K                 % Z.>Xy.! lXbX3X[.:.wXxXwXsXD.M m x / 4X0XqX8X8X(.l c c c &.>Xb R &.u.4X`.S.9XwXwXoXF P.5X{.XXwX5XbXH.& t c e 7 y L t c t &.y.L &.u.8..                                                                                                                                         ",
"  $ E l f f k g c &.%.:._ N x r [ *.:.1.a 6 7 T %.<.<.{.jX7XjXjX].g P E Y &.4Xm T &.-.S.3XG.|.0X5X6X0X-.Z { >.S._.S.n { &.:.(.(.S.9X0X0XxX'.b [ &.&.(.XXA T &.<.H.{.A.[.5X8XH.A &.>.S.D f 7 T &.:.(.J b z b *.S.(.=.g k k k D &             .   & ,XqXy.[ lXbXXX(.~.bXxX8XfXG.A m b ( 4X0X8X8X6XH.l x c L &.4Xb L R y.{.`.B.5X0X8X3XA %.S.:.`.qX5XdX,.w r c t t r T t c y R 6.R T ! ! .                                                                                                                                         ",
"  r U.O.| | q.N.7.%.;.;.N.V.V.] | ;.;.;.q.y.8.] { &.*.|.wX8XwXxX,XM | J.| *XtXW | P.;.H.wXG.{.0X6X5X6X:.x | %._ }.D.b { ;.} `.G.S.5X5XwXxX|.s T &.*.>.rXY Y N.) :.3XZ.~.5X6X`.) ! Q / ] N.' ! / ] _ ] | [ ! | ) ` ) | [ ' 7.J.B                 % qXtX} d [ &.I.H.G.mXbXdXsXG.W ! | V.9XqX8X8XOXG.n Y c m [ ,XA R u./.lX].S.3X7XoX].~ Z.~.D.).7XoXdX<.: t c t t r c c t c &.y.i R [ R .                                                                                                                                         ",
"  Y IXrXfXtXrXrXtX4X9XqX9XtX0XrXrXrXfXrXtXHXHXrXrXrXqXwXwXwXwXfX}.{ *XHX{.JXvX_ *XHXXXjXbXF.}.0X6X1XwXH.! <X9X`.HXI.! >XkX>XmXW.S.0X0X7XdX{.Z N.lXy.3XbX| Z.kX,XwXbXH.[.5X5X5XrXrXrXrXfXrXrXyX4X,X4X4X9XyXyX2X4X4X9XtXtX0XtXIXJ.  .             & 4XtXZ.h v v I.G._ 6XxX7X8XH.W ! [ %.3XwX0X6X6X(.A Y T T y.,Xm [ u./.kX_.B.3X5XOX].Q `.}.`.{.8XOXxX<.: t c r y y c r t r R R c [ u.[ .                                                                                                                                         ",
"  E IXfX0XtX9XqX4XqXjXqX9X9X0XwXwXwXqXwXrXrXrXwXkXwXwXwXsXwXwXfX'.Q `.wXG.bXvX*.A.wX`.7X8XH.}.qX6XoX6XB.( 3XwX{.nXG.( {.qX|.vX).S.5XwXwXxX{.W P.jX_.jXjX) B.bX}.6XxXD.{.5X5X5X9X0XwXsX9X0X0XqXrXfXfXwXqXrXrXfXfXrXwXrXwXqXwXKXN.                * >X*XI.L.U.L.~.oX=.=.H.H.W.:.Y Y c Y 3X9X6X6X6X`.n Y T T y.,Xn &.u./.lX`.:.3X5X6X XQ -.&.>.(.}._.oX*.& y t e : $ t y t $ 2 2 : R u.[ .                                                                                                                                         ",
"  E IXwX5XwX8X7X7X7XwX7X6X6X8X6XwXwXjXwXqXwXqXwXwXjXwXsXsXwXsXxXW.F ~.8XS.8XOX( A.sX].6XwXH.3XwXwX5X5X:.G [.oX(.sX<.F ^.5XT.wX(.F.5X8XwXvX|.D D.jX(.XXXXQ &.9X`. X6XS.|.5X X.X5X6X6X0X5X1X1X5X9X6X8X6X5XwX6X8XwXwX0X8X8X7X8XJXB.                * 3XI.U./.U.U.~.XX5X:.X.1.F.) M ! T &.XXwXqX6X6XT.k r c x [ ,Xk L R &.XX|.A.3X5X5X Xl , a k _ S.=.X.b > r c y : : t r t r : y u L [ T                                                                                                                                           ",
"  E PXrX5XwXwX6XwXqXwX8X5XwX6X8XwXfXwXqXwX8XwXkXwXjX8XwXwXwX8XsXW.G ~.8XH.dXoXF S.sX].wXwXF.3XwXwX5X5X:.F {.OX`.fXS.W {.6XG.wXG.Z.5XqXqXfX'.G G.sX).7X3X( -.9X). X5XS.}.5XXX].XX5X0X0X5X5X5X9XwXwXwX5X7X7X7XqXwXwXwX0XwX7X5XPXN.  .             * {.D.Z.Z.P.`.`.'.}.H.W.T.|.;.~ ' W ) {.qX8X5X6X`.k r Y / A.,Xv r c A >.W.S.XX5X X}.l & & * Q S.>.X.l % r L L t r c t t c T R R m c c .                                                                                                                                         ",
"  E PXwX8XwX6XoX6X5XwX8X6XwX5X5X8X8XwXwX8X6X7X8XwXwXsX8X8X8X8XxXG.G ~.dXH.wX}.F C.wX_.+XwXG.,XqX0X6X6XC.D [.5XI.vXD.E [.6XG.wX(.S.7X5XwXfX'.G S.sX).6X6XQ &.8X).oX8XS.,XqXXX{.XXoX5X5X1XXXXX5X7X5X7XqXwX6X6X7XwXwX6X0XwX9X9XJXN.            .   @ N.} | { %.{.S.'.}.].wX6X5X}.>X<X>X{.XX6X6X6X5X).D c y.{.qX|.D x Z.4XwX].:.}.oX X|.F.K.F.Z.~.,X'.W.F $ t L L t c L t t j L R &.T T T                                                                                                                                           ",
"  D PX8X8XdXOX+X7X8XcX8X8XzXOX8XcXcXjXcXOXzXdXzXcXcXxX8X8X8XOXdXT.G ~.cX).cXoXF S.bX].cXwXH.,XwX0X6X6XS.W {.OX(.cXS.F }.8X_.xXG.S.6X5XwXsX].G G.cX'.8X6XF >.8X_.+X7XS.{.5X3X].+XzX+X6X X+X+XzXzX+X8X6X8X8X+X8XdXdX+X8X8X6X7XLX:.  .             * I.P.P.B.P.I.F H.}.`.5X6X X1X0X0X0X5X6X0X8X6XoX).D c y.}.wXXXD m Z.qXvX}.:.}.5X X}.,X9XrX9X9X5X5X X! $ u L L c c c : r t c c T c Y c .                                                                                                                                         ",
"  D PXdXzX8X+XoX].oXoX.X].+X+X].+X+X+XoXpXcX+X].].].`.+XjX8X8XjX(.j _ H.*.).}.l Q (.-.H.OXS.,XwX6X6X0X:.S (._.<.dX<.S (.].<.8X`.F.5X0XwXvX`.n :.].1.`.XXK ( ).<.T. XA.{.1X5X`.].+X+X@X].zX].].@X].+X.XOX+X].+X+XOX].+XcXOXjXLX;.                $ I.Z.P.P.[.S.` T. X).}.0X5X X6X6X6XoX6X6X8X6X6X).E N N.{.wXOXF m u.7X8X].C.}.oX X}.}.3X5X5X3X,X X}.Q $ t t c c t u y 3 : c r c c P c                                                                                                                                           ",
"  , ).=.J ` _ J F *.&.>.=.J J K J J J J J J S K _ -.>.`.wX6XwXwX(., , S j Q }.k h ~ %.>.}.H.,X0X0X5X8X:.: V F F (.1.> S A S S.`.D.6X5XwXfX'., x ) ` :.}.l f S l ` [.S.}.6X6XG.l S K K K =.*.K K K K J =.*.S J J J J =.=.=.>.T.V                 * F.| &.B.~.S.S.[.].`.}.wX3XoX6X6X6XoX5X5X6X6X8X`.D m N.|.sX XE m N.3XxX{.:.XX X].'.}.oX5XoX3X1X5X|.~ # z L L t t c y : 3 c A &.&.&.R .                                                                                                                                         ",
"  * G k & , , & h &./.7X1., , > j l l j , , & W F.lXxX8XwXwX6X8X(.k h b h ( }.A / L.tXbX0XG.}.0X0X6X8XC.: f h D A.A.w t c b V.^.G.5X6XwXsX|.b [ Z.3X7X Xb f x b ! ,XF.}.5X8X`.g a < , , < , > < a a < l < * a a < , j l k l D &                 * [.L.F.[.B.%.B.}.'.W.}.0X5X X5X8X6X5X6X5X8X6X6X).D m y.}.8X6XF N D.oX8X_.:.XXXX].|.XX5XOX5X5X5X6X}.W * z L L t y c t t : r c L L R m .                                                                                                                                         ",
"  7 V.] ] [ | N A y.lXcX_., & & k A n k w , : / F.jXxXwXsXrXwXwX(.S c m b / >XZ &.L.kXkX0XG.3XwXsX6XsXS.x T { y.{.:.L R u.U.<X~.I.5XwXwXxX[.A y./.kXvX Xn d v N W [.F.}.6XwX|.A l x x f d j j v h h d k j % x z h P | ) 7.7.J.N                 * ^.P.^.4X{ W A.|.'.H.}.0X5X XoX5X6X6XOX5X6X6XoX(.D A y.5XxX XE | kXdXcX_.:.}.XX].].XX5X8XOX XXX6X,X~ $ z c L t u j : y y c c c L L T .                                                                                                                                         ",
"  Y PXtXtXDXUX<XW %.XXjX)., & & x m N d w w $ ! L.jXjX+XwXwXwX8X<.b m m c T {.Y &.L.qXxX8XF.}.qX0X6X6XC.Z y.*XkXkX%.T u.:XkXkX~.G.6X8X8XxX~.A &./.jXxXoXn d m c Z [.D.[.5X8X`.l h c c r d j r x x z h N j : s c z | kXrXtXDXKXN.  .             * >XZ.{.,X) A Z.I.|.).}.0X X X6XwXwX6XoX5X5X6XoX(.S r ! B.).).D y.3XT. X`.:.].].].].oXwX8X8X}.6X0X1XQ # t t t c j t y t u c c R [ &.L .                                                                                                                                         ",
"  E IXsXwXrXvX5XW :.{.jX<., e % c b c d p w % T A.XXoX7XsXwXwX8X(.j x c c ! {.Z [ u.(.XX+XF.}.rXwX6XwXS.Z &.L.XXjX>.m &.L.3X8XG.G.5XwX8XxX`.A [ A.{.XX+XS r c c Z ~.F.[.9X0X).b c z x r a f r b c c d k f 6 r t r [ rXqXqXvXPXV.  .             * /.y./.[./ A D.[.'.).{.wX6XT.>.S.:.B.XX5X5X6X1XW., % y x Z [.W T &.&.&.(.&.{.]._.'.T.].`.(.`.7X6X X) # t t c t t j y c u c L L ! &.T .                                                                                                                                         ",
"  Y PXxXwXfXxX XA [ A.~.>., : $ L T [ ' 0 p 3 A &.F.(.}.rXwX8X8XF.j L R [ N.|.k T &.F._.XX(.}.kXsX6X8XA.b [ y.~.7X:.c [ y.~.XX(.I.wX8XjXxX`.h W &.~.XX].l w c c Z ~.S.}.5X6XW.b ! | N.b , , x R y.y.U d f r T y.y.Z.qXqXwXsXJX:.                * F.{ A.P.! T /.}.|.T.W.wXwXS.a b h A XX6X6X X6X~.h L R R y.7X&.u.HXHXHX(.<.~.].].T.G G F A F.7X6X X( @ t z c t t t : u c c u &.R y.T                                                                                                                                           ",
"  E PXsX8XjXxX.XZ y./.7X,., w e [ *XeX,Xd p 6 ! u.jXqX6XxXwXwX8XF.A y.u.eXlX{.A [ y.lXjX7XG.,XwXfX5X8X<.A y./.jXjX<.T y./.lXjX(.I.wXwXwXvX_.A &.P.jXwXoXb r t z m /.D.[.5XwXG.Q L.tXbX( : : A L.tXHX_ : p b Z.4XkXwXwXwX8XdXPX>.            .   * /.Z.3XP.[ P Z.|. X`.W.0XsXG.d x x T 3X6X6X6X XP.b 8.u.L.lXjX{ /.KXIXJX(.<.{.{.].W.V x v k F.wX6X X( $ t t c t r j $ c c y u T u T L .                                                                                                                                         ",
"  E PXcXcXcXbX+X` u.qXbX)., w r y.>XjX7Xk % 6 [ A.jXjX8XwX6X8XsXF.m u.:XkXkX].A &.L.jXjX+XG.}.kXwX6XjX:.W y.{.jXjX%.T y.{.kXjXF.G.5XwXjXxX~.Z %./.jXcXoXE L R [ [ *XF.|.5XqXI.( P.jXvX( > : T L.qXbX_ & : m y.7XjX+X8XcX8XxXLX:.                * ^.P.4XD.! c F.'.].}.}.6XsXH.d L c T ,X5X6X5XoX(.b [ u.k.lXlX&.L.KXGXJX(.*.].].].W.M v c x F.qX6X X( # e e t t y t $ y L L L T m T m .                                                                                                                                         ",
"  n mX+X@XXX+X_.F N.3XjXG.< r r y.{.jXoXl w w [ F.jXjXXXjX8X8XsXH.G y./.lXjX].K &.Z.7XxX7XH.}.fXwX6X8X:.Y y.{.jXbX:.! y./.kXjX(.(.5XwXwXxX`.D %.(.jXjX+XW ' u.eXtX4XS.}.5XwXG.Q F.jXcXJ & 7 W Z.+XvX*.& w m B.XXcX_.1.<.<.).cX^   .             * ,XP.4XN.! L P.}.}.1X|.9XsXG.s m c Y XX7X5X5X6X`.v R u.u.lXjX&.j.KXKXJXH.>.`.'._.`.n x x c P.7X5X XQ # e 7 t t e e $ t c R L R R [ T .                                                                                                                                         ",
"  & >.J K G K l Z A./.+X1.N x z &.F.{.`.a w 7 ' y.(.].XXjX8X8XxXS.A &.y.(.{.].n [ N.(.{.oXH.>XwXsX6X8X:.A %.A.(.XXS.m &.A.~.XX(.G.9XwXwXxX`.M &.A.(.].XXQ [ N././.,XD.}.5X8XG.W A.(.`.G 0 7 Y &.1.H.G f 7 c y.A.(.X., , , l Q 0             .   & /.N.>X&./ m L.oX'. X|.9XsXH.f t z T {.7X3XoXoX`.A R u.u./.lX&.L.KXJXbXH.B.'.'.@X`.b z c c L.qXOX'.Q # e e t 7 e t e t L L L R [ y.! .                                                                                                                                         ",
"  & ) V v v n s x T ( ` Q M P z T { } _ k x z c *.W W (.sXsXwXsXT.j T ( W B.3Xv Z / Q _ {.F.}.qX0XOXwX;.h ' _ ` [.S.x [ [ / G.G.F.qXwXwXvX|.k Y { ) >.XXD M [ ( &.}.G.|.5X5XH.n W ( ) ~ ' P P ( ~ ) ~ ] P c ! E Z W W N k M 7.f                 * F.} ^.&.! c y.5X`.].|.5XdXD.d m x ( 3X5X5XoXoXXXA L R R &.:X&.&./.>XXXS.S.|._.'.`.b h c s Z.7X1X`.D # e 7 t 4 e r $ c t L u T R u.! .                                                                                                                                         ",
"  c tXU.K.L.U.K.J.L.Z.F.I.U.U.F.P./.W.U.U.U.U.L.L.F.(.XXwXwX8XsX}.Z u.^.;.7XwXW 7.4XS.`.rXI.,XqXdX6X8XD.W *X>XG.bX/.W /.,XG.kXW.P.wXwXwXfX XW N.{.Z.3XvX) | 4XU.{.bXI.}.5X5X,XS.Z.P.G.[.4X<X/.^.<X,X9XDXtXtXtXrXkXkXDX4X<X<XHX|                 * [.^.{.( ! s [ }.].|.W.1X6XH.x L L / XX5X5X6X5X3X*.c R u.y.4X&.u.kXbX0XB.F.|.).'.'.A c T A A.XX].T.v $ e 3 r 4 y r $ c c L c L L P L .                                                                                                                                         ",
"  E IXtXtXtXtXrXkXkXkXvXrXkXrXkXkXfXbXtXrXrXrXkXtXvXvXfXwXwX6XsX X{ <XHX{.mXwX/ P.HX5XwXbXG.{.wXwX5X0XD.) tXfX}.HXI.) 9XrX{.bX).H.9X6XwXsX}.{ >XbX3XbXkX_ D.bX5XvXbXG.}.qX6X6XwXwXrXqX7XrXqXqXrXfXrXrXrXkXvXbXbXbXbXfXfXrXfXPXA.  .             $ ,X<X^.( ' P &.[.`.8X|.].8XH.v Y Y { ,X1X XOX X5X;.b &.u.u.lX%./.KXJXlXC.~.].].'.`.G ~ [ &.F.].].G.h # e 3 e 4 y e O t r t t T R T c .                                                                                                                                         ",
"  Y PXsX0XdX0X9XwXqXwXwX7X5X9X0XwXrXrXrXwXwXrXwXrXwXrXwXsX0XsXvX}.( ^.wXH.wXoXD B.qX[.5XsXG.>X0X6X5X6X:.E >XoXG.xXA.F [.3XH.8XG.G.5XqX6XsX|.D I.jX_.6X5XQ >.wX}.5X8XG.}.5X5X5X5X9X7X7X5X5X5XwXwXwXwXwX0XqX5X8X8XwXwX0XwX0XsXKXB.                * <X4XD.W [ ! { {._.dX|.`.7X<.k P Z W }.5X5X6X X}.(.x R &.y.zX&.u.JXbX(.C.|.].|.].'.l h S A A.].].G.h $ 4 7 r 5 y : $ t t y t c [ y.R .                                                                                                                                         ",
"  E PXsX0XdX9X9XwXjXwXwX8X8X8XwXjXfXfXwX5X8X8XwXwXwXwXwXdXwXwXsX`.F ^.8XT.wX1XW A.kX_.XXsXG.,XqX6X6X6X:.W 3XXX).xXA.G [.7X(.8X(.G.7XqXwXfX}.F G.wX).6X5XW ;.wX|.5XwXH.{.5X5X6X6XwXwX8X6X6X6XwXsXsXwX6XwXwX6XwXsXfXsX6XqXqXvXPX;.  .             * A.I.;.S [ ' ;.}._.OX].`.7XT.D ! ! { }.1X6XOX XXXXX*.j &.&.u.&.u.XXXX(.G.}.].|.'.`.a @ * @ -.|.'.:.f $ 7 4 7 # e e e c t c t c R y.y..                                                                                                                                         ",
"  E IX0XwXwX5X9XwXwXrXqX7X7X6XwXfXsXsXwXwX5X8XwXwXxXwX8XwXsX8XsXG.G `.xXH.fX5XF V.jX_.5XxXH.}.wXsX2X6X:.W {. X).xXS.W [.6XT.sXG.H.qXwXwXxX|.F I.vX).6X1X( N.wX].6XwXS.|.5X5XOX6XqX8X6X6X6X6XwXsXsXsX0XwX0X6XsXwXwXwXqXwXjXjXJXA.                % ~.I.N./ y.Z.P.{.T.oX X[.6X].[.>XI.~.,X6X6X X6XXXXXy.r L i &.T &.%./.<.T. X}.'.|.'.-.( ~ W A.|._.O.% 5 4 e e 5 y : y t e y t t L y.y..                                                                                                                                         ",
"  Y PXwXwX8X6X5X7XjX8XcXoX+X6X8XsXxXsXdX7XoXoX8XwXjX8X8XwXwXwXsXG.G (.jX<.xXoXG A.wX_.6XwXH.|.qXwX6X6X-.F XXoX).vXS.F `.6X_.dX(.H.5XwXwXxX}.F H.xX_.+X6X( :.cX].+X8XH.}.9X5XoX8X8XdX+XOXcX8XdXcXcXcX6X8X8XOXcXjXjX8X+XjX8XxXLX:.                * ,XI.A.P.U.B.P.`.H.].'.|.6XoX5X9X5X,X5X X6X6X6X X X].} f x m j Y P.G.G.|. X].'.'._.`.~.~.~.[.`.).Q * 3 5 e e 3 r $ t t T T t t m ' [ .                                                                                                                                         ",
"  Y LXcX8XcX8XdXxXcXcXcX8XjXOXdXcXcXcX8XzXjXjXzX8XcXjX8XqX8XwXsXG.F G.8XH.wXoXK N.8X).oXsXH.}.wX0X6X0X=.S _._.H.cXS.S (.].<.jXW.H.6XwXwXxX}.G H.xX_.+X+XF >.cX_.jXOXS.}.5X X].OXzX+X+X+XcX+X+XOXzX+X+XzXcX+XzXzXzXdX+XOX+XdXLX>.  .             * [.&.N.^.Z.;.,X>.O.G.].).}. X}. X}.}.}. X1XoX5X].].|.[.*.v b A N.`.H.G.`.}.|.).`.).T.).G.(.W.).W.F # % # e 5 $ e O r c t T R L T y.| .                                                                                                                                         ",
"  Z mX+X]._.].'.H.).).<.T.+X_.<.(.)._.<.(._.<.1.<.<.S.{.wX0X8XsXH.< F 1.J <.+Xl A >.J >.5XG.}.qXsX6X6X_ > F J K ).<.> S J K H.).D.6X0XwXxX}.l Q <.*.<.XXS S =.*.=.XXG.[.3X8X).J *.*.J *.1.*.K *.J J J J K S K J ` =.<.<.1.<.].G                 % [.Z.4X>XP.,XbXH.>.].xXOXwXxXfXfXsXsXvXvXfXvXsXfXsXdX5X9X9X>X3XqX5X}.9X0XwX6X8X6X+X].].XXoXOXOX5XD # e y t $ y t 5 t L R T &.y.| L.V..                                                                                                                                         ",
"  : 1.H S S K g < < l l < K K , j A S l < S < , A _ >.XXwX0X6XsXG.> f a , ( }., : S S A [.I.}.wX6X5X8X` * > , , >.:.& f l a &.`.D.wX8XwXsX]., : l a F }., & a < n `.G.}.5XcX<.& , j < , S < > < j l < , , * , < < a l l k l A &                 o h v Y h h D Q a a S F V G D G D D F F G F F F Q D V V M D Q D V n n G E D V V V G n V n V n n b * X + + + X + + X + # : : e t s f w .                                                                                                                                         ",
"  $ Q n d p d p j l j S k n n , k b b b > : & > b W *.XXwX0X6XsXH.h b n d ~ }.k j A A A {.(.}.qX6X6X6X` : s d s B.S.: x m m ;.~.D.qX8XwXfX.Xj f v x / }.j f b v D [.H.{.5XxXS., s b m , j a : h b N k f w : s b n D ~ / ] / 7.N                                                                                                                                                                                                                                                                                                 ",
"  d &XV.q.V.K.} n Z h v v n n p c b m A f f % w c b S ~.vX5X8X8XH.a D W x ~ [.d t c c m >XP.,XrXsXOXOX_ f c v c Z.A.: x A b ;.~.H.5XwX8XdX}.k d v x / }.b j Y m A `.G.}.5XjXH.p z c M a j j w x b b d & % : s m v | tXqXyX4XKX}   .                         .   .     .   .         .   . .     .     .       . .         .       .   .   .                               .                                                                                                                                                     ",
"  T IX2XyXtXfX Xn G b b k n n f c m b L w w % c &.&.*.{.wX0X6XwX(.j A D h / ,Xd j b x c >XI.}.wX6XOX6X_ r b m b A.B.: x m b ;.`.H.5X8XwXvX Xa s b x / }.b r A x A [.F.{.5XsXS.f c c c w k s : x h b h % % % z b j _ kXkXvXkXJXB.  .                                                                                                                                                                                                                                                                                             ",
"  Y PXfX5XtXfX Xl Z b b h A h w m L m b : , $ Z %.>.-.|.fXwX8XsXH.a v b x E ,Xk t L m Y {.G.>XwXsX5X6X` w s x x A.:.: s x h } `.D.5XwX6XsX}.a r x h ! <Xh : r s A [.F.}.5XwXC.: r r j : h r : j s d d w % $ s x j { jXjXjXxXPXN.                                                                                                                                                                                                                                                                                                ",
"  E JXjX7XwXvX Xl n x v h M n % c b h h : w $ A A.<.<.{.wXwXsXsXF.v ~ V.L.F.}.l T y.Z.D.,XG.,XkX8X6XdX` p b m m D.C.% s x v &.I.F.5X8XwXdX'.f s x x ( }.h r s x m {.F.}.6XwXB.p x c x w v f 7 z x b f : % % c b b } jXcX8XjXPXN.                                                                                                                                                                                                                                                                                                ",
"  E PXzX7X8XcX].V Z m b b n N w x m b v : w % ! ~.`.(.XXwX8X8XsXH.Z y.,X5X0X].M [ /.7XoX6XD.,XwXwXoX6X_ p N Y Y D.:.p c N v %.~.S.3X6XwXxX}.d d b x ( }.b s c c Y >XG.,X6XdXB.f x c x w x f f x v b d 0 6 w x m b &.cXcXdXcXPXC.                                                                                                                                                                                                                                                                                                ",
"  W PXpX+XdXdX.XV A P M v n N p N P Y N - r % N *.&.&.].wX6X8XdXH.S &.`.].oX].Z [ `.XX+X+XH.}.rXsX X6XX.f m m m D.B.f x m M y.W.S.3X8XdXsX}.d x m b { }.b s c m T {.F.}.7XwXS.h ! R T f B f f x b n d 0 % w x N b ( (.).<._.cX`   .                                                                                                                                                                                                                                                                                             ",
"  k jX1.=.<.<.>.G &.V.A.( l b f { P.G.B.p w % f &.*.&.].8X6XwXxXH.S &.].+X7XoXK ) ~.+XoXOXD.,XrXwXOXoX` f c Y m P.B.f m Z m ;.~.F.XXqXwXvXW.d c P m { ,Xb m ' [ &.>XG.3X5XwXS.W L./.L.s z f s c c N s 7 7 w c x b k , < , l G -                                                                                                                                                                                                                                                                                                 ",
"  * ^ l < k k , b A.F.G.) B B p &.~.(.B.d 7 7 7 | ) { }.wX6X6XwXD.d Y &.>.H.6Xn T %.1.<.3XF.}.jXsXOX X` r c m m S.N.p z N c } I.S.5X8X0XnXW.a c Y P [ <Xm m ' ' | >XG.,X6X0X:.b [ | { N P N z N c z z z z 7 c c v N N N v P ] d                                                                                                                                                                                                                                                                                                 ",
"  & | V b N b x N [ [ ) ] 7.[ P P W G Q [ [ ' ' | | } }.6X6X6XwX[.x ' N.) D.fXM T :._ A.5XS.{.wX6X1X6X` s / ) ! |.S.N y.Z.7.<XW.D.9X7XwXsX}.Z V.U.L.<XrX' 7.4XZ.4XbXG.}.6X5X|.C.Z.A.Z.U.[.U.U.%X%X*X&X*X:XU.%XU.U.<X*X<X<X<XKX7.                                                                                                                                                                                                                                                                                                ",
"  P HX<X<XU.U.*XU.<X<X>X1XtXtX4X4X9X9X5XrXtXeX<X4X,X1X1XoX5X6XdX}./ >XHX3XbXbX_ L.vX[.wXvXF.}.0X6X1X1XO.! <X,X[.vXT.[ 4XrX<XHX`.F.5XwX6XvX}.| 4XHX4XHXbX} I.HX9XbXbXG. X8X6XwXkXtXrXfXrXqXqXtXtXvXkXrXrXfXrXbXkXvXvXrXrXrXkXPXB.                                                                                                                                                                                                                                                                                                ",
"  W IXrXtXtXrXtXtXfXfXfXsX0XwXrXrXwXkXxXwXjXwX9XvXrXwX5X5X5X8X8X|.( ^.rX).xXsX) y.vX].7XxXS.,XqX0X5X1X} W 4X}.`.vXS.W [.5X`.xX(.H.9XwXsXsX`.Q ^.jX[.mXxX{ Z.fX].0X6XH.1X8X6X6X8XqXqX6X6XoX5XwXrXwXwX0XwX0XqXwXwXrXwXwXrXqXqXJXB.  .                                                                                                                                                                                                                                                                                             ",
"  E PX0X}.5X5X1X6XwX8X8X6X6X6X8XwX8XwX0X8X6X6X5XwXwXwX6XOX5X6X8XW.G P.8X<.8X6XF %.jX_.XX8XS.3XrXwX5X1XO.( 3X}._.xXB.W ~.OX(.8XT.H.9XsXwXxX'.Q ^.wX`.bXxX*.A.wX`.8X8XH.}.6XOX6X7X8X8X8XOXXXoX0XwXwX8X5X0X8XwXxXkXsXwXwXwXwXjXPXV.                                                                                                                                                                                                                                                                                                ",
"  E PXsX6X6X6X X8XsXwXwX8XqX5X0XxXxXvXwXsX6XOX8XwXwXwX8X6XoXOX8X`.D D.wXH.8X6XF ;.xX).oX8XH.3XwXwX5X6X&.( 3X].`.xX:.W }.6X(.8X).I.0XfXsXvX).G [.xX'.vX8X_ A.jX].wX6XS.,X7XoXoXOXwX8XwX6XoX X6XwXwXwX5X8X8X8XvXxXcX8XwXsXwXjXPXV.  .                                                                                                                                                                                                                                                                                             ",
"  E PXwX6X0X5X5XwXjXxXxXwXwX6XwXbXbXvXjXsX+X6X6XsX0X8X6X5X5X6X8X`.F F.8X<.8X6XQ N.8X_.oX8XH.XXwXwXoX5X} F XX].(.bX<.Q |.OX_.8X_.G.0XsX8XxX'.F |.dX].xX+XQ B.fX_.8X6XD.5X9XoX].OX8XwX7XoXoX+X8XwX8X8XoX6X+XdXcXjXsX6X8XdX8XjXJXB.                                                                                                                                                                                                                                                                                                ",
"  W JX0X5X1X5X}.8XcXxXxXxXdX8X8XcXvXcXcX8XOXoX8XdX8X8X0X6X5X0X6XG.F ~.jX<.dX6XQ A.dX_.OX8XH.3XwX8X6XoXO.( +XXX_.cX,.W ].8X_.8XT.G.qXwXjXvX).F |.cX_.sX XW A.vX].dX8XH.5X5X XoX6X8XcXOX+XcXOXcXcXcXcXdXcXjXzXcXjXcX+XcXbXxXmXPXS.  .                                                                                                                                                                                                                                                                                             ",
"  E PXdX+X+X8X+XOX8XcX8X8XcXzXzXcXcXcXzXcXcXjX+X6X6XOX5XqX7X0XwX(.G B.+X1.].oXG -.oX1.(.6XH.}.sXwX6X6X` k :.<.*.+X:.j *.<.=._.W.G.qXwXxXvXW.l &.<.=.(.XXA W Z.*.S. XH.}.6X6X_.>.<.<.<.H._.<.=.1.1.=.1._.<.=.1.<.1.1.<.H.<.H.@XF                                                                                                                                                                                                                                                                                                 ",
"  n mX+X].].T.1.=.1.>.>.1.<.4.=.*.*.=.*.=.1.*.*.=.-.-.{.wX9X9X8XH., h F K _ XXl j ( S Q 5XH.5XwXsX5X6X) $ j h j H.:.> h n j *.W.F.qXwXwXcX)., a S j _ |.x Y A.B.S.}.D.}.5XsX1.< l l l K J l g g a , < S < < l n l l n n l l S &                                                                                                                                                                                                                                                                                                 ",
"  & =.G K l l , s Y *.F.` K S , W &.F.>.< , * l ;.>.>.].wX7X5X8XH.k T %.D./.XXA t c c Y ,XH.3XwX6X5X6X) L [ L.F.4X:.w A M h &.I.F.wXwXsXbX'.k a k j { {.Z y.4XkXvX5XI.,X5X0X:.a h h k n n a h v j h h k , j A A A A Z V D W / p                                                                                                                                                                                                                                                                                                 ",
"  & _ V k d a - L &.A.lX<.n k j [ y.3X_.a > $ [ >XXXXX7XwX5X6XwX(.h [ N.^.3XoXZ L 7.y.V.,XI.3XwXsX6X6X` R L.eXlXjX:.f b m h %.W.F.8XwXwXvX_.k z x j ( [.Y y.qXkXvXXXF.1X0XsX:.h x x x k n a h c x s j j s j A T c { >X&X>XyXHXq.                                                                                                                                                                                                                                                                                                ",
"  N HXU.%X*X*X{ c u.L.zX%.b h t [ y.>X/., : # [ ~.XX].7X7X6X5XdXH.b ! &.F./.XXZ y.:XlXkXqXH.3XxXwX6XXX*.( u.>XXX7X:.w x x x &._.H.8XwXwXxX`.k c m t ( ~.T y.lXkXvXXXH.3X7XwX:.d c c c v S f x x x s h j : r m A x %.kXjXqXkXIXB.                                                                                                                                                                                                                                                                                                ",
"  E IXtX9XrXvXS.c y.y.XX&.S S r ! &.y.<., r : [ {.].{.3X7X6X6X8XH.k ( %.N.F.oXZ &./.lXjX7XH.3XwXwX7XoX( ! A.lXlXwX:.: x x r %.~.G.6XwXwXxX).x P R T y.{.A &./.XXoXXXH.3XqXwXB.x T ! ! v k f h h s s j b , w m j x &.jXjX7XkXPXN.  .                                                                                                                                                                                                                                                                                             ",
"  W IX0X9X9XxXH.t [ &./.-.k v w Y T / F j w : T :.<.1.XXwX6X5X6XF.j R &.;.S.XXA R y.(.~.5XF.3XwXwX6XjXW m &.A.F.oX>.w r c j %./.I.6X0XsXvX`.b [ L./.*X{.A &././.|.}.S.3X5XsXB.E L.%XL.n b : x t r t j k j r x x j &.kXjX8XvXPXV.                                                                                                                                                                                                                                                                                                ",
"  E PXsXOX6XxXH.j R &.&.( S h r y.D./.:.: w # T F.F.H.oXwX6X6X0XS.m [ /.[.{.}.Z &.:XqXjX5XF.5XwX8X6XXX*.R /.jXjXwX>.s c c x %./.F.6XwXrXvX).E u.eXlXlX(.m u.lXkXbX5XD.,X6XsXB.{ tXtXwXK l s T T c m j j w c R [ ! N.jXjX8XxXPXC.                                                                                                                                                                                                                                                                                                ",
"  E PXdX+X+XcXH.x y.%.N.F A k r A.3X4X(.: : : [ XXXX].+XsX5X0XwXS.Z y.*X3XqX}.W u.:XkXbXjXF.3XjXwXoX X` [ /.kXvXjX>.h m b c y.~.F.5XwXwXbX_.W u.lXkXjX{.Z y.4XkXkX5XF.3X5XwX:.&.lXjX8XF k s [ *X4XeXW j f T /.^.XX`.oXOXoXzXmX>.  .           .     .         .   .           .   .   .   .     .             .     .       .   .                   .       .     .               .           .     .     .                     .             .         .                                                                       ",
"  n mX@X_._.+XS.T /.XX}.*.l b j A.XXXX).: e : [ {.XX].oXwXwXwXwXF.Z %.{.XX7XXXG y.4XjXjXjX(.3XwXwX6XoX) &./.jXvXcX>.v T T ! A.~.F.qXwXsXbX~.Z A.lXjXkX_.T y.lXkXbXXXF.3XwXwXA.*.jXvXdXQ N j %.lXjXkX` j z T 4XkXbXH.G J J ` =.k                                                                                                                                                               .                                               .                                                                                 ",
"  , <.J l l S j W {.OX5X-.n c h Z.XX+X(., e e &.{.XX].oXwXwXwXdXS.A &.^.XX7XXXW &.*XjXjXXXH.,XwX8XOX1X) { ~.8X+X8X>.h T ' T A.^.F.qXwXdXvX_.A [ L.(.XX~.m [ A.~.~.{.H.3X8XwX:.G F.(.H.n v w Y F.F.~.F f f b A.H.F.F , a v n F &           X N k k l n n k * : : k , @ & : * v a & n k k n l k a o o @ + % j * r * : b h a n n k l , * @ @ @ @ k * $ % % % p p a n l n n : o @ @ + : j o + @ + > d , k n k l v * @ X = + + X X = o + + X o = X + + X o = $ > $ O % $ .                                                           ",
"  * Q j : : p % j [ O.;./ M c s / -._ ( r w 5 m ( ) *.XXfXwXwXsXH.x T *./ ;.,XZ T &.&.%.3XG.3XkXwX6XoXW h ( _ _ +X>.s P P m Z.`.S.7XjXjXvX~.h ( %.{ H.>Xb [ N.) S.XXH.3X7X8XG.) -.-.*.-.N.~ ~ ( ( { ) { [ ! { *.{ %.O.N.K.J.<X~       .   & JXvXxXbXbXnXxX_ /.{.wX'.Z V.P.( fX X:.bXbXbXmXbXnX).j c b x y.7XG u.[ { 4X7X|.bXmXbXxX XF b Y A Z rX) R :Xu.[ [.`.5XmXbXmXmXS.k c L t A.7X: x L c y.tX`.vXbXmXbXHX( s e r x t e : r c t r r r t e m c z c t R [ &.&.[ u.@                                                           ",
"  d <XV.7.7.V.J.V.7.V.;.} V.J.| y.A.S.U.U.L.%XZ.L.S.S.5XbXvXvXbXW.P y.~.;.<X0XW y.,X:.[.vX[.rXbXbXxXwX_ T >XD.S.bXD.T U.^.Z.kXG.H.5XwXwXbX}.~ U.fX~.vXtX[ ^.bX}.bXbXG.XX8X6XqX9X9X9X9XwXtX9XtXrXvXrXtXrXtXtXtX7X5XrXrXkXkXHXIXV.      .   * 4X5X X XoX6X X_ F.XX,X:.k ! ) M I.T.*.5X5X5X5X5X8XH., r j t ) {., j h r ( ].S.5XwX6X].).n a x x c ^.F L j.y.T /.F.(.6X6X6XsXO., x j t &./.> t c j &.^.A.5X8XOX6X9XW w $ 3 r r 6 : y t r e e r y 3 c j T R c R R R R R ' @                                                           ",
"  W IXtX4X4X9XfXHXHXHXKXHXHXHXHXHXHXHXbXbXUXDXkXkXbXvXkXbXbXbXmX}.| <XHX}.HXbX{ /.KXXXbXbX`.wXbXbXwXwX&.y.HXwX9XJXA./ qXvX{.bXG.G.7XwXwXvX}./ I.bX|.vX XQ P.bX{.kXwXG.3XqX0XqXrXrXrXjX8X7X5XwXrXrXrXrXqXwXjXkXjXwX8X7XrXtXvXLXB.          % rX5X5X5X5XsXOX_ F.7X XG.~ ) ) ~ G.`.*.9X9X6X8X6XwXT., w r s [ XXa r r j ( XXF.9XqXwXOX'.V p x z c ^./ r R &.A y.F.(.0XwXdXxX-.: r t r %./.: t W &.A.{.H.7X8X8XwXwXW r $ $ r r e : r x t : y t t y c t T &.c L &.&.! ' [ +                                                           ",
"  E IXwX3X,X,X9X0XrXwXwX6X7XwXrXfXvXfXwXwXwXsXwX8XwXwXwXxXxXdXxX`./ [.wXH.sXsX) V.kX).7XxXG.5XvXwX5X7X_ { 7X].`.xX-.W XX5X(.8XG.G.7XwXwXvX].E I.8XT.qX`.G A.7X).8X5XH.3X7X9X5XwXwX7X7X7X7X3X7XwXvXvXwXqX7XwXwXwXsX8X8XwXqXvXPXV.          $ kX5X XoX5X6XOX) S.].[.6X1X9X9X9XfX).;.5X6X0X8X8X8X).j r x z [ 3Xv z b t [ {.I.5XsXwX5X).S x A c c {.*.t R R T A.F.(.8X8X8XxX>.f r j j y.{.t R L.{.7X[.F.7XcX8XdXwXQ r # $ r r e 3 t c r t T i T A c j T &.m T &.i R R 8.+                                                           ",
"  W PX6X}.5XoX1X0XwXwX7X}.oX5X8XwXwXwX8XdXjXdX8X8XwX9XwXwX8X8X8XH.F I.dXH.sXoXJ A.vX).8XsXS.XXkXwX5X5X_ / 8X].).dX>.W XX5X).wXH.(.wX8XsXfX'.Q G.xX).wX|.D A.wX`.wX0XS.5X7X6X7X7XwXjX8X7X6X5XwXkXvXxX5X7X5XwXjXxXsX8X+XxXsXvXPXV.  .       $ kX7X6X+X5X6X6XQ F ` C.sXsXrXsXfXbX'.F 6X0X6XwX8X7XT.l x c x ( }.l z c t ! {.G.9XsX6X X'.G x c x x ^./ c [ [ T A.H.(.8X7X6XdX>.a x c t %.{.j [ /.7XOX|.H.qXwXwXwXwXE s $ 3 e r 3 # % r r : c A c c c y c c c T R T R R [ +                                                           ",
"  W PX8X3X7XXX3XwXvXwXwXoX6X5XwXvXfXvXwXjXdX8XwXwXwX7X6X8X6X8XdXT.G I.wX<.jX].F Z.vXT.8XsXH.3XrXwX6X6X) ) 5X}.).xX:.W XX XT.wXH.G.8X8XwXxX`.W F.sX).sX}.F A.jX`.8X6XS.5X7X7X7X7X7X8X8XoX+XoX7XwXwXxX7X7X7XwXjXsX8X6XOX8XsXbXPXB.      .   $ rX6XoXoX5X6XwXI.B.<.T.8X8X8X8XxXxX6XT. X5X6X8XwX8X`.v M ~ ! %.}.k c T A [ {.F.qXxXwX X'.G m T E Y [.*.c 8.[ &.L.F.H.6X6XOXxX:.j c T A y.~.h &.F.zXjX].D.wXxXsXsXwXQ r r r e e e $ $ 3 r 3 3 $ 3 3 c t y r c L &.*.i [ [ +                                                           ",
"  E PX8X6X5XXX}.sXxXvXvX0XsX6X8XvXxXxXjXwXsX8XwXqXwX8X8X8X8X8X8XT.Q ~.sX(.jX].F A.cX).+XsXH.3XvXwX6X6X} / 5X]._.xX>.F XXOX_.dXD.G.wXwXjXvX[.F (.xX_.vX].F D.xX_.xX6XH.3X7XoXoXOX8XwX8X+XzXzXjXjXcXcXOXzX+X8XxXxXxX8XdXcXdXxXPX:.  .       % tXOX7X6X8XwXxXvXfXjX7X6XzXOX8XdXxXvXnX5X1X6X0X5X6X).k M ' { Z.}.n T R &.N.{.D.qXsX6X X].D P [ | [ }.{ c [ [ R A.A.F.6X6X7XwX:.h ' %.y././.j ( %.).XX`.D.qXwXwX8XsXQ f s s e e t r t t t j t t c c c L L L T i L L &.R 8.o                                                           ",
"  E PXjX8X8XoX].cXbXcXcXsXxX8XcXcXmXcXcXxXcX8X7XwX8X8X6X0XwXwXsXG.G ).8X<.jX].F H.cX_.OXwXD.5XrXsX6X6X` F +X_.(.jX=.K ].].<.6XS.(.wXwXjXxX_.G S.XX<.OX'.G >.oX(.6X5XS.1XqX3X].@X+X_._.].zX<.XXXXoXXX@X+X_._._._._._.+XzXOXzXmX>.          $ 4X5X6X7XwXxXwXwXwX8X6X6XOXdXcXdXcXcXxX XoX6X0XwXdX].v x ' ~ %.5Xb s R / y.,XH.qXjX8XOX].D x [ / ( }.*.r R [ T P.S.F.6X6X6XxXS.w m [ &./.(.: m ` ` (.{.S.wX8X8XwXwXQ r t r r e t t j c t c c c L L L T L T T A T L R R [ +                                                           ",
"  F PXdX+XzX+X].+XdXzXdX+XdX+X_.+XXX+X].+XzX].].].oX+X5X8X6X8XwXG.l _ <.*.<._.< F <. .1.8XH.4XjXwX5XoXH > G K S `.*., F K l <.H.I.7XwXwXxX`., b J l =.|., h F l _ }.H.3X7X7X<.K K K K G *.S S *.>.=.J *.F S =.>.=.J J J J *.1.l           % eX7X8X7XwXwXdX6XsXdX8X6XdXdX8X8XdXcXxX}. X5XwXfXxX1XE ~ 4XU.4XvX( ' lX/.qXjXG.kXbXwX X X) 7.tX[.>XKXS.[ 4X<X/.kXH.H.wX6X8XbX|.h y.tXA.kX>Xx y.lXA.bXwXS.5X8X8X8XsX) s s r r e t t r t j y c c c L L m L i T i T *.i R [ =                                                           ",
"  a ].=.=.*.` J K J K K K *.J S F F =.=.*.J K K G F F `.wX8X8XwXW., b G b ( XX> * : > l XXF.9XkXjXoXOXG o $ * * S.*.@ > , > =.G.G.wXwXwXvX`.j f h f ( [.a j A m N.3XS.XXqXxX>., k k a , k , A &.].XXG l j S A.].].*.a l v n E &           $ tX7X6X8X8XjXdXOXxXdXdX+X8XcXOXdXdXjXmX.X}.5XwXwXsX XW ! tX1X0XwX) [ HX5XvXsXG.wXvX0XOX_.( %.kXXX}.mXS.| rXrX>XbXH.H.8X7X7XvX].M P.HX}.JXwXZ P.JX3XPXfXS.9X0X8XwXsX( p r t r e r r t c t c c c c c i A i *.c i *.i T R [ +                                                           ",
"  * F l , : , , l ` K l l l l > S k ( J l , > a j h h [.wX6XsXsX(.A T &.A *.XXr w x j A ,X(.5XrXjXoXOXF @ > * * A.=.@ & > & } H.G.wXwX7XxX).k x b s ( {.j t L m N.3XD.XX7XjX:.l b m x , k a T %.XX8X` g r A F.XXXXA.N.N.V.J.&XP   .       $ tXXXoX5X8X8XdXOXxXcXcXdXOXOXzXdX+XcXcXoXoX5XwX6XOX].G Y ,X_.}.8XQ Y 3X).5X6XS.6XsXdX5X].W [ oX`.G.xX:.W }.oXH.xX<.H.8X7X8XsXH.x %.jXH.bX6Xn N.bX].mXfXI.0X5X8X6XwX/ p z r r r r t j c t t j c c A L A T T L T T *.L R [ o                                                           ",
"  0 V.~ V ' / D D } D M b M b , n m Z n , : % T [ L.L.7XwXwXsXsXH.A *.( A [ XXh x Y L ( 4XG.7XjX8X6XOXF o > & # Z.-.@ : : & ;.F.I.8X8XwXvXT.k s c t [ ~.j t L L y.3XZ.}.6XvX<.h c c h f n w Z y.XXOXJ a r A %.7X].3XfXUXkXHXIXV.  .       % 4XXXoX1X8X8XOX+XcXcX8X+X+X+XdXdXcXzXcX+X].oX6X6XoX'.G A ,X_. XsXQ Y 9X). X0XS.5XsX0XOX}.J W XX`.).cX:.F [.oXH.8XC.G.6X7X8XxXW.h ;.8X(.bX5Xk y.xX).mXwXG.5X8X8X0XdX( r t z 7 e e r t t j c c c c c c A A T T T R R R R [ +                                                           ",
"  P IX2X>XyXtXS.A _ E b n n b p A A b v w w 3 [ L.kXlXqXwXsX6XwXT.S ( *.A &.{.h c L b T 3XF.7XkXwX6X7XW + : % $ L.} @ & & & ;.D.F.5XwXwXxX'.k s c t ( |.b T [ [ Z.,XF.5X8XxXB.d c b x p h , T %.F._.F g j b &.F.<.].wXwXwXkXLXN.  .       % eX]. X+X XoX+X_.1.<.1._.<.=.1.1.>._.XX].OX3X6XdX2X].W N ,X]. XsXQ M 5X`. X8XS.3XsX0XoXoXQ W {.).(.vXB.F `.+X).8XS.F.8X8X8XdXG.a %.wX(.jX`.b %.wX(.dX}.H.6XwX0X0X0X/ p z r 7 e : $ $ 3 3 $ 3 : 3 : t y y j u T T R T R 8.+                                                           ",
"  W PXtX5X9XkXW.n ) Y m n n N : c m b v f 7 7 R y.~.(.5XwXqX8X8XH.n ! ! c [ {.j c c x Z 3XH.5XkX8X6X8XF @ & : $ Z.O.@ % p & &.G.G.8XwXjXxX(.r t L L &.^.k T [ A.~.,XF.5X8XvX:.f t j x w b , r &.S.(.G k a s &.:.S._.jX8XjXvXPX;.      .   % eXoX6X XoX5XdXG.S 1.1.).=.S F F A ).<.H.5XXX5X8X6X].F b }.].].sXW A 7X].5X8XS.3XsXwXoX X` W {._.(.cX:.F `.+X).jXS.S.6X8X8XxXG.j %.wXH.8XT.h &.7X(.cX].H.5X7X8XqX0XQ r r % 7 r 3 = + $ : + + + $ + j $ $ > y T R R R R 8.+                                                           ",
"  E PX6X,X5XxXT.l { } ;.Q b v 6 c x x d w w 7 T y./.P.5XwXsX8XdXH.A ! [ %.A._.j z L L W 3XH.7XwXwX6X6XF @ % $ > Z.=.@ & & & %.H.F.5X7XwXbX_.b R y./.3X[.m ' y.*X5X}.F.5X7XsXB.v [ [ { f l r T y.].oXF j f m y.>X3X3X8XjXjXbXPXN.          $ eXoX6XoXoX6XwX).*.cX+XXX=.K W ( D {.H.S.5X5X5X6X5X.XG j `._.).8XG b 5XG.].6XS.1XsXwXoX XQ G (.S.<.jX<.G (.].<.+X<.S.6X6X6XdXG.j %.jX(.xX_.j &.jX(.jX`.G.7X8XwX6X6X/ 6 6 # 7 r 6 + # r y 3 3 : y y c 3 y y y R R R R R [ =                                                           ",
"  D PXsX5X6XsXW.D V.,XwX=.l b r c c m x 7 w w ! /.4XqXqXwXwX8X8X<.Z [ L.4XqX~.b T [ { ;.,XG.7XvX6X6XdXF @ % % % L.*.@ : : * &.G.H.7X8XjXcX).Z &.L.qXjX~.Z [ Z.3X8XXXF.3X7XsX;.E L.4XXXb h : ! A.XX8XF a f m A.3XoXOXxXcXcXmXPX:.          % eX6X6X X1X6XdX_._ cX+X_.O.K ( W Z `.).:.5X5X6X6X X].K & S F G +XK : ( ( _ }.S.}.sXwX X+XF , S S l (.>., F _ K S.S.S.oX5XdXsXG.& x *.J (.|.: A *.( S.].H.5X8XwXwX6XQ % $ % 7 r % = O t y r t t j y c r r r c R R R R R &.=                                                           ",
"  W PXcXOXOXcXW.E B.5X8X1.l b s T [ 7./ , % 7 [ Z.7X7X7XwXwXwX8XH.Y &.A.4XwX`.Z [ y.4X4X5XH.5XfXsX5XdXF o % $ $ F.*.@ % : & -.G.S.5XwXwXxXG.m &.A.XX7X(.m [ Z.qX8XXXH.3X5XqX:.Q F.7XXXG A r T A.XX7X` h s Y N.XX+X<.<.<.<.<.@XF   .       $ eX5XoX XoX6XdX].` +X1.<.>.n T Y m ~.).:.5X X5X6X X].G : , j k ].G w A Z F |.S.,XwXwX5XoXJ o > > @ >.<.@ , j , _ S.<.oX6X6XxXG.f s j j { |.: w j j &.{.S.qXqXwX8XqX/ & 5 $ 7 z 6 + O r j y j t r j u : y r c R R R R ! 6.+   .                                                       ",
"  n cXT.<.<.H.-.F A.}.8X1.l h x &.*X4XF.f 7 r [ P.3X5X7XwXsXsXsXG.Z &.A.{.XX|.A [ A.oX7X3XH.5XvXwX6X6XH @ 6 & $ K.X.@ 7 & & } F.F.9XwXwXxXG.b [ N.(.|.`.M / y.(.{.XXD.3X5XwX;.D ;.S.<.A x s ! %.S.H.A a r h / } -.G < g l G F &       .   $ eXqX6X6X6X8XsX+X( 1.J S.>.A ! T A P.`.:.1X5X6X5X].].F v M N m {.F s z v Y ^.H.,XwXwX1X].F @ & % # %.<.* : j > &.%.<.zXlX5XxXG.d m b c &.{.w c c A &.{.S.5XqXwX8XwX~ 6 $ $ % r e + O r r : y y e e c r r r t R R R R R &.+                                                           ",
"  * _ S l < k a Z %.C.H.( a r r [ %.B.} p z z T &.1.A.,XwXwXwX8XH.b T / *.A.].k Z ( _ >.3XH.9XvXwXOX6XG = $ # # L.| # 7 7 6 q.F.H.5XqX8XvX`.s Y ( ( B.[.x m W Q *.{.H.3X5XqX:.k D F F n v s z Z G F D U M x Y Z n D Z M E ) q.d           $ lX3XsX0X6XoX6X+XG ) F B.%.&.:X4X>X4XT.-. X1XoX5X}. XK v M Y m [.F r c c Z ^.D.}.jXwXoX X` @ % % $ %.<.@ : r 3 &./.%.XXzXOXcXT.a m c t &.{.r c c t &.>XH.8XwX8X6XwX) w % $ % r 3 X O e t 2 : : y : c : t r t T ! R R R R o                                                           ",
"  * ) n j j k d N ! Q Q ~ Y P c Y Y ~ ~ E ] T Y D W W `.wX5X6X8X<.v ' [ W D.|.n ! | W B.XXH.9XxX0X1XsX_ c u.[ 7.tXN.N 7.7.[ <XG.S.5XwX6XvX1XE N.P.-.3X3XD { ^.B.5XkXH.{.5X5X{.Z.U.I.I.I.^.U.D.D.F.P.^.>X<X>X4X<X4X2X9XyX<XtXKX7.          % lXqX6XsX5X XoX XF _ { <.:.L.GXJXHXkX).-.,X}.5X5X}.].F k M m b ~.Q , c c T /.D.{.qXqX5XoX_ @ $ % + &.<.@ r j : &./.%.zX3X7XjXF.l m L j &.XX: c c c &.{.H.OX7XwX8X0X] % $ % e t 6 + + r t y y y t r c y e t c R R R R [ R +                                                           ",
"  m DXU.Z.L.L.K.L.I.I.U.W.<X*X*X*X>X[.>X<X4X*XD.F./.I.3X7X6X6X1XD./ <X9XI.bX}.{ *XHX3XbX5XF.9XjXsX1XsXN.u.HXkXtXKXH.y.rXfX,XKXW.G.qX8X6XbX X| 4XbX}.HXwX/ /.HX3XbXbXH.3X7X6XqXrXrXwX0X9X9X9XkXfXvXvXwXrXqXrXrXvXrX9XqXrXtXkXPXV.  .       $ SX3X6XsXwX XOXOXQ &.F.{.>.y.JXbXbXcX).>.,X}.XX5X]. XF j b m b W.Q 7 z t c ~.D.[.wX5X}.OXO.@ % $ $ &.<.$ e : : &.F.<.>XjX7XjX(.j c c t [ {.j t b c &.[.H.6X8XwX6XwX| w 7 3 6 r 6 + # r t : u j c t c y t u t T ! T R R u.+                                                           ",
"  ~ IXtX,X4XtXrX0XtXrX9XwXrX9X0XrXvXsXwXqXqXqX3X7XqXqXqXwXwX6X5XH._ ,XrX[.vX}.) ^.bX`.cX6XD.qXjXdX5X6X_ ) rXoX|.mX>.) 9X0XXXJXT.D.9XwX8XsXI.W ^.xX~.xX5XD A.qX).8X5XS.3X6X5X7X7X7X5X6X5X3XXX7XwXrXwX6X8X7X8XwXwX8XoXoX6X5XkXJX;.          $ SXqX6XdXxX5X+X5XQ } (.{.:.&.kXbXmXkX].=.|.XX5X5X.X].F k A Y A P.) p c c m ~.F.|.wXwX5XOX_ @ $ $ O &.F.$ e r : *.(.%. X5X7XdXH.j c c c &.{.r t c t &.~.H.XX5X8X6X6X) w % % 6 e 3 # e c y t &.R T T t t R R L T R R T R [ @                                                           ",
"  W IX0X{.,X1X,X9X0X9X5X7X7X5X0XwX0X6X6XOX6X8X5X3X5X5X6X0XwX6X6XH.W /.6XG.wX|.Q Z.8XT.jX6XD.5XwXwX5X5X) ( 9X].).sX-./ 3X1X|.bXG.H.0X8XwXsXG.D ~.8XT.wX}.Y D.wX`.wX5XD.3X7X5X6X7XwX0X5XXXXXXX7XwXwXsX6X6X6X8XsXsX8XoXoX5X7XbXPXN.      .   $ eX7X6XOXwXOX.X6XF D ( :.<.W (.(.<.XX].X.,XXXXX6XoX].J n Y Y A H./ s L L m P.F.[.wX0X3X+X} @ : > O &.<.@ : : 2 *.<.<.}.OX6X8X<.S T L t [ {.j c c c *./.:.3X7X8X6X0X) 6 6 % $ e $ $ c c : 2 &.R ( T r c &.&.R R R R R R ' +                                                           ",
"  E PX6X]. X}.5X5XrX0X5XqX5X5XqXwXwXwX5XoX6X6X5X7X5X5X0XwXwXwX8XF.W ^.6XG.wX}.Q Z.xX).8X6XH.9XxXsX6XoX_ ) 0X X`.fX;./ 3X+X(.bX(.G.6X8X6XsXG.D ~.wX).wX}.W Z.rX).wX5XS.3X7X5XoX7X8X0X5X X].].7XwX8XwX5XoX6X8XwXwXwX X6X9X8XbXPXN.  .       $ SX4X6X6X8XoX XoX-.` ( 1.(.*.*.*.*.<.bX<.|.}.oX6X X].F l ! W W H.( b ! ! W /.I.|.qX6XoXoX&.> O : O &.F.@ : r > *.&.%. X6X6X8XH.b ! R W A.{.x T T T y.P.A.7XwX8X8X0X) w 3 # $ w % $ 3 y r 2 3 : y r t e t u t L R R R R 8.+                                                           ",
"  E PXwX}.5X1X3X9XqXrXqXqXwX7X7XwXsXfX6XoX6X6X5X5X5X5X0XwXqX7XwXF.( ^.wX(.wXXXF Z.cXH.8X6XD.9XjXsX1XoX` ( 9X].W.vX;.( XX].).vXT.G.wX0XsXfXH.G `.cX_.8X|.G F.wX).8X}.S.3X5X}.oXOX6X6X6X].].'.+X8X8X8XoX5XXX8XjXwX5X].oX8XOXbXJX>.          % SX3X6XoX6XOX5XoX}.{.{.(.XX{.XXXX(.1.+XoX`.}.oX6X X].` N / [ { G.Q m [ &.%.^.G.[.wXwXXXXX*.+ $ 2 # / F.* : r 3 *.y.%.5X5XOX8XH.A y.y.Z.lX3Xm [ y.L.3XI.D.7X8X8X6XqX{ w $ % % 7 w e r j c : 3 e t t c c t c L T T R R R [ +                                                           ",
"  E PXOX}.3XXX|.7XwXqX8X5XwXXX+XwXfXsX5X X6XOX}.6X8X6X6X5XqX9X6XS.W `.6XH.jX].F F.cXH.+X6XS.5XwXwXoXOX` ) wX].`.xX-.( XXOX_.cXT.G.5X5X8XsXH.G `.zX_.8X].F H.cX].jX XS.}.3X}.oXdX8XjX+XOXzX+X8XzXdXzX+X8XoX+XjXjXdX].+X8X8XcXLX>.      .   $ SX4X6X6X8XOX5XoX X1XXX}.}.XX XoX6XJ J <.}.}. X6X}.'.` , c W G :.G : b A F /.(.[.wXwXoXoX} # $ 6 # ( D.$ 3 f 7 { S.:.oX6X5XdXT.h T [ { F.5Xb T [ [ F.~.H.XX8XwX6XwX{ w 3 r % % % w s t r : t c c L L L T T R R R R R R R +                                                           ",
"  W PXjXoX7X5XXXwXjXsX8X6X8X+XjXbXmXmX8XOXdXOX+X+X8X7XoX6XqX0X0XH.F G.oX<.3X].K ;.8X<.+X6XS.9XwX0X6X7XQ Z ].<.=.dXO.S A.S.-.5XG.G.5X6X5XsXS.j *.<.` (.`.j ( A.` <.}.S.}.3X5X<.=.1.=.=.1.<.1.*.1.1.=.1.H.X.J *.*.*.*.1.1.<.<._.V           % SX4X6X6X6XoX X6X1X X].oX XoX X XsX,.K 1.}.1X5X X].].` & z ;.:.<.G Q N.F.*.(.F.[.jXwX5X X;.N y.L.7.<X`.b [ N.) U.G.>.5XwX7X8X'., r &.%.F.`.D | P.N.F.}.G.6X8X8XwX0X) s s r % % % % w r : y t c c L T L T L R R T R R R y.+                                                           ",
"  D mX@X_.].]._._.XX_.(.).@X_.(.)._._.)._.].<.1.1.1.>.{.qX9X0XwXS.a G } K ;.}.< j ` l (  XG.5XjXsXOX7XG w F F A _._ w Y { ) (.S.F.5X5X5XwXC.> , l a ) `.j b ( &.S.}.S.3X5XwX` < b S F S S , > h j j l K , , l h k h k l l A F &   .       $ SXqX6X6X6XOXoX X X X.X]. X X X].vXXXK -.|.5X1XoX X}.-.: c L.`.H.=.`.{.7X(.~.F.{.7XwX5X X;./ yXHX4XKX}./ *XbX{.vX'.:.6XwX5X8X}.v m >XjXwXG.[.3XHX7X8X3X~.6X5X0X0XsX) s t w % $ & & % $ 3 j j c L L L L L L R R R [ [ T 8.+                                                           ",
"  & <.F l l S l A { %.F.J K K , l S S S S < , S A S Z 3XrX5X5XwXH.M / / A { {.h r Z b W 3XF.3XjX0X6X5XF m [ /.3XqX} A 7.^.3XoXS.F.5X8X6XsX:.f h x j [ >Xm ! V.4XvX}.S.3X5X8X*.d b A Z l S j t j j s b l f r m A c Y W ! ( %.V.x           $ SX3X5X6X6X6X5X X.X].XX]. XoX X+XdXmX_ ` }.5X6X6X5X].:., s B.).'.(.XX_.jX<.~.G.{.8XwX5X1X;.A ~.wXF.sX`.G (.6XG.5XG.:.5XwXOX6XXXn h /.oXdX].xX6XmX6X8X}.I.5X5X6X0XsX| s z r $ @ # # # $ r c y c c L A T L L T T R R R R [ @                                                           ",
"  * / B , p p % W y./.kX=., , : m Z W Z j : % Z Y P Z >XqX5X6XwXD.~ V.y.Y %.{.b c ! T &./.F.3XjXdX6X XF T y.*XqXjX&.c y.^.7X7X:.I.5X5X5X8XS.s c z t { ^.m [ y.3XwX}.D.3X3X8X-.h m c b h b w t L P Y b h w r m L c L.9X9X<XtXKX|           $ eX>XoX5XoXoXoXoXOX]..X]..XoXOX X8XLX6X>.|.5X5X6X5X'.H.d % Z -.>.=.1.1.<.H.].F.3XwX0X5XXX:.A F.8XG.8XG.Z F.oXH.oX<.C.5XwX6X6X5XD : ` S.<.<.<.<.T.(.OX`.`.5X8XwXwXfX) t z c r $ O O $ y j j t u c L L L T L T T R R R ! L.%                                                           ",
"  d yXV.| 7.N.! [ y./.jX&., r r Y ! T T j w w T T T ! 3XqX5X6XsXG.~ y.%.Y %.{.b c R i &.4XF.7XjXsX1X XQ T y.{.XXjX*.L &./.7XjX:.G.6XwX7XsXA.h L R [ A.~.A [ N.3XwX}.S.XX5X8X&.x c m c m b r c [ &.%.M j r r c c c D.rXfXrXHXPXN.  .       % SX>X5X}. X X X X X.X.X].].6X6X.XcXmXLXbX].}.1X6X X|.T.v % & G , K , F , 1.|.D.5XwXwX8XoX:.M /.wXG.8X`.D P.9X(.oXH.:.5XqX8X8X6XQ & & J l J l J S *.].S.|.8X8XwX0XrX) j j t x r e : y c c t t j c c L m L T L R R R [ L.UX&   .                                                       ",
"  E IX4X{.<X9XV.[ y.A.7X=.a w r Y Y T A : e 6 ! y.U.U.3XwX5X6XwXH.( y.%.W &.{.k c *.R &.3XF.XXjXsX X XF Y &.F._.7X*.A &.A.(.].<.~.bXbXvXsX:.b [ y.L.{._.b T &.F.{.].:.3X5XwX_ c [ &.&.A b w x Y ! / A j : t [ &.&./.8XwXwXvXPXN.  .   .   $ SX:X5X5X5X.X.X XOX].+X X].oX6X XOXLXmXmX+X5X5X1X5X}.).n $ * G a G , F * :.}.S.5XwXwX8X6X:.D (.6XH.8X`.A H.wXH.oX(.:.5X8X7X8XsXO.& * D a G j ` l *.].S.{.6X6X0XwXwX) x t t t j t j c j t t j t j j L L L m R T T R /.lXjX&                                                           ",
"  E PX8X].].6XC.W y.A.XX*., s r P Y Z A w w w R J./.I.5XqXwX5XwXC.D &.{ Z { [.h t T T &.3XF.3XjXdXOX XD c [ A.H.6X-.x [ y.F.{.:.[.mXbXxXxXC.h R %.L.XX|.h T &.F.].{.S.XX5XwX{ T y.>X*XA l w x ! | | A x r T L.:X3X{.8X8X8XbXJXB.          : SX/.5X5X5XoX X6XOX].].+X.XOXOX XOXmXLXmXoX5X9X5X X|.].` $ @ Z s G , Q > B.|.G.5XwXwX6X7X,.A ).cXH.+X'.S S.8X<.+X(.1.5XwX7X6XfXH.: $ Q a Q l ` l ;.{.S.XXrXwXwXwXqX) t t j c c r c t t j t t c t c L L L L L R [ L.tX7XvX&                                                           ",
"  E PX6X]..X6XS.Z | y.3X_ , j f Y Y M b r w e T y./.(.3XqXwX0XwXS.Y { [ Z | >Xk x T T [ 4XG.5XjX0XoX XQ T y./.3XjX&.T &.L.4X7X:.~.vXbXxXxX<.m { L.7X7X[.Z [ Z.3XwX,XS.3X6XwX%.! P.qX5XS k f c 7.J.A.n d r ( /.lX+XXX+X8XjXmXLX:.  .       $ SX/.>X+X7XoX+XoX]..X]. X X XOX.XdXmXLXmX XoX5X5XoX|. X>.* @ v : b & Z * N.[.T.wXwXwX8XoX>., K 1.F <._.j G :.*.>.(.:.6X8XwXOXxXW., @ n , V a G , ) 5XF.}.qXwXwXwXwX) z z t z z j t j t j r z c t L L L L T T y.*X4X7X6XbX,                                                           ",
"  E PX8X].].OXH./ y./.jX>.a d s Y P U m f 6 w [ L.jX3X3XwXfX0X8XS./ y.&.T | ,Xn x T m ! ,XG.3XjX0XoXOXQ [ y.{.jXjX-.T y./.kX7X:.G.8X8X8XxXS.Y &.L.qXjX[.A [ y.7XwX{.S.3X5XwX} ( /.wX7Xa a r L | B.C.V v r T /.jX+X(._._._.+XcX`           % SX:X[.8XoXoX].}. X]..X].].+XoXXX+XJXPXLX].6X5XoXoX]. XA.@ + $ + $ @ 7 + | {.~.7XrX6X6XoX:.@ o * o A XX: > l l ( F.:.5XwXwX6X8XI.: @ : $ : @ & @ N 0XF.}.6X6XwXwXwX) z z z z z t z t j t t t t z t m L A T T /.qXqXwX6XsX&                                                           ",
"  F PXOX+X_.XX<.( y.(.jX>.a s s Y M Z b f w r [ P.7XoX7XrXwX9X8XS.Q y.| W %.}.n b m A T 3XP.5XwX6X5XoXQ ( y.{.7XjX=.Z %./.jX7X>.H.oX6XwXxXS.Y y.L.XXjX`.A &.N.XXwX|.F.5X5X9X{ / Z.{.}.k j r c { O.;.n B j ! A.{._.J G F G J J ,           $ SX*X|.OX+XXX=.B.oX].]. XoXXX+X XOXmXLXmXT.6X5X]. X].}.F.M z B s f 7 r w | ^.`.8XwXwX7XOX1.* & w : Z {.: $ t x ( ~.:.oXwX8X8XOXT.k w z z c z x p Q }.H.}.5XoX5XwXdX( d z t z c t t x z z z t z c c L L L L T ^.qX7X8X6X8X*                                                           ",
"  d +X=.J J ` D ! y.A.].*.j d d Y Y Y m f r e [ L.3XXX3XwXqX9X5X<.Q &.| W %.[.Z T T Y [ 3XG.3XwXdX+X XQ T &.F.].7X>.Y &.A.(.].>.H.oX5XwXwX<.A { y.F.].|.m ! &.;.(.`.D.5X5XrX} Z ( _ ` a a r z P M Y v b t m Z W ` Z A n Z Q ~ 6   .       $ ;X/.[.).:.;.( ) |.`.]. X.X X]. X8XmXLXmX=. X6X].}.|.5X`.I.H.L.>XU.I.U.P.>XF.{.wXwXwX8X7XS.& w z c [ {.: e c z W ~.B.oXwXwX8X6X XI.P.P.P.<X>XD.D.~.S.S.,X5XoX6XdX XM z s z t t j t r t z r r t c c L A L T T ~.5XqX8XOXcX&                                                           ",
"  * Q l , , d w Z &.{ >.Q k k s P Y Y m s r e ' %.:.:.3XwXwXwXwX:.A / ] W N.{.n L T ! &.,XG.3XwX0X X XG m ! ( Q }.;.r T W ` ~.:.F.5X9XqXvXC.k [ %.*.|.,Xv ! } Q ~.5XF.,X9XbX{.%.N.%.| N.V.7.| y.y.V.L.U.U.Z.N.A.B.A.U.U.U.U.yX~   .       $ eX%.;._ F W / ( S._.'.].].].XX].+XmXLXmX*.<.7XXX).B.}.`.).G.W.`.].{.,X,X5XW.}.wXwXsX7X8XH.& r j t R ,X: w c c ( ~.<.5XwX7X+XOX X5XoX}.XXqX}.W.).|.S.G.5X5XoX6X8X).n j t r r r r r r t r r r c t t T L L T T /.7X7X8X6XOX&                                                           ",
"  % | E N P ' Y m Y Z ! ) ' ! P T ! E Y ~ [ m T ( W ` ,XwXqXwX9XS.h ! | ' U.,Xv W y./ y.}.G.}.wXwXoXOXQ ! %XA.A.bXS.T U.L.F.kXS.G.0X0XqXmX`.E *XrX(.bX9X( /.HX>XJXqXD.5X7XvXkXtXkXtX9XrXbXtXkXtXtXtXtXkXkXkXUXbXrXrXrXvXfXrXJXN.          : :XY b A W Y T T N.`.E.`.]._.].]..XmXLXcX*.<.3X(.:.W S.).).T.).`.'.W.}. X}. X}.wXwX0X8X8XH.& r x c ! XXa r m m T /.:.7XwX8X8X6X X}. X].'.`.).H.`.`.].[.}.6X6X8X+XS.k j r w r r r r t r s z t t c L L c T L T ~.8X6X8X].1.@                                                           ",
"  v tX^.*X4X<X>X>X3X4X<XyX9X,XI.U.U.^.*X<XyX<XU.{.I.`.,XqXwX8X5XD.! *XkXU.bX1XW J.tX^.jX6XD.3XwXwX5X6X_ y.kXqXwXKXC.N.vXrX5XbX:.(.5X8X8XbXW./ 4XbX}.bX X! ~.kX|.bX}.G.9X7X7X7X3XqX5X3X5X7X6X7X7XrXwXwXwXrXrXtXwXwX5XwXrXrXqXbXN.          % :Xr $ w v A T T D.`.).'.'.'.].+X+XmXLXdXK =.%.*.*.! N.|.`.).`. X}.}.}.1X1X9X6X8XwXdX8X8XA.: r x x ( }.p r b c ! /.:.6X8X8X8X6XoX5X+X X}.`._.T.).'.'.].oX6X6XOXOX<.k r r r r t r r t r t t t c t c L c T L T ^.qX8XwX1.< X                                                           ",
"  M HXqXqXwX9XtXqXqXqXqX5X1X,X{.}.}.,X9X5XqX3X5XqX,X4X5X5XwX7X8XH.W <XkX{.bX XW P.bX|.jX6XG.3XwX0XoX XQ %.8X}.{.vX;./ 5X X'.jX,.G.7XwXwXvXS.E >XwX).vX`.D P.5X).xX|.G.9X7XoX5X}.5X5XXX6X7X5XwXqXqXwXwXqXqXwX0XwXvXwXqXrXwX0XmX;.  .       % Z.# % b x c T ! P.G.T.T.).@X]._.].mXLX+XS A T T ! ! | [.|.).`.oX5XoX1X6X0X0XwXwX6XwX7X7X(.: : b S [ |.p : x j T (.<.5XwX8X7X8X8X6X6X6XoX].|.].'.].}.]. X5X+X8XH._ k r r r r x t j t j t x j t x L m L L T T ~.8X8XoXJ * .                                                           ",
"  M bXoX5X5X5X9X3X3X1XoX|.|.].|.'.|.}.oXoX5XoX}.5X|.5XqXqX8X6X6XH.D /.9X(.wX}.E Z.wXT.7X8XH.5XqX0XOX XQ &.7X].`.vX;./ 5X}.).wX:.I.8XqXwXvXS.D ^.wX).xX).D I.7X_.vX|.G.9X9X5XXX,XoX1X5X5X6X5X8XwXwXwXwXqXwXjXxXvXbXrXwXqXwXwXmX%.          @ b % c T m m ! ! Z.W.T.(._.].]._._.mXLX3., j b A T T { `.`.).[.1X5X5X5X0XwXsXwXwXwXsX8X8XG.& w x x W XX: w x z T ~.:.3XwXwX6X8X8X8X8X6X].].].}.]. X}.}. XoX8X].K F h : r r s z t r c t j t t x t c L c T T T ^.8XwX_.>.p .                                                           ",
"  n bXoX5X7X5X5X9X9X5X5XoX X}.|.|.|. X XoX5X5X5X0X,X4XqXqX8X8X6XG.Z U.rX`.wX}.E L.jX).8XqXD.4XwX0XoX}.Q &.7X}.|.xX;.{ 4X{.).wX:.G.8X8XwXxXS.E ^.6XG.xXW.Z P.5X`.xX`.F.5X5X5X1X}.}.5X1X9X9X9XrXwXqXqXkXwXwXxXbXvXvXxX8XwXjXwXmX|           X w 6 w c m P [ / B.}.oX_.].dX+XoX+XLXPX4.@ > j t L R y.`.`.W.W. XoXoX5XwXsXsXsXsXsXsXwXdX`., w v x ! wXj w A x ! XX:.3XwX0X6X8XwXwX8XOXoX'.).|.].}. X X XoX X=.* j f # e r r t z r t x t j t x t L L c L L Y [.wXvX]._ D X                                                           ",
"  n bX7X5X7X6X9X5X5X9X5X5X}. XoX].}.5X5X5X6X5X}.5X5X}.wXwXwX8X6XD.Y U.rX`.rX}.Z Z.7X).8XOXF.3XwXwX5X XF [ 7X|.|.xX&._ 5X{.).wX:.(.wX8XwXvXS.D [.8XG.xX`.A F.5X`.vX`.G.6X5X5X X}.}.5XoXqXqXqXwXwXqXqXrXjXjXjXjXxXsXwX8XjXwXwXbX|   .       = x % w r z v R [ ;.oX+X_.+XdX+X@X@XcXLXK @ r L t L T V.^.`.T.T.]. X XoX8XsXxXxXwXwX0X6XwX}., $ s r W wXf $ r w Z ,XS.5XsXwXwXwXxXwXwXsX6X].'.'. X5X1X6X6XsX}.=.* @ % = % r r t z r z t x t c c c L L L L R T {.wXbXxX` k X                                                           ",
"  A bXoX5X5X1X9X9X7X6X6X6X X X5X X].6X5XoX6X5XoX6X3X3X6X6XwX6X8XG.Z U.wX`.sX}.E Z.8X).8X5XH.4XwXwX6XoXQ { 5X].|.bXO.{ 5X].|.xXB.~.wXwXwXfXS.Z [.8XH.vX].A /.5X`.vX[.~.7X7XoX]. XoX7X7XwXwXwXjXvXwXjXwXxXxXjXjXrXwXwXjXwXwXqXHX;.          @ ~ w e z r x L T y.~.|.G.). X).@X=.J <.* : c T r b R y.}.}._.).}. XoX5XsXfXvXvXxXdX0X6X8X1Xk m | / V.0Xk L %.! y.{.B.qXvXsXxXxXvXvXsXxXsX.X'.].OXdXwXvXvXmX8X_ n @ @ # % r r s t t z t t c t L t L L L L I T [. X].}.O.N X                                                           ",
"  M bXoXqXwX0X0XsXwX6X6X6X6X5XOX X].8X6X5X8XOXXXoX3X3X5X5X8X6XwXG.Y I.qX|.wX}.E L.sX`.wX0XF.9XvX0X6XoX( { 7X].].vX;.{ 3X{.].jXB.~.8XwXwXvXS.Z ~.+X<.bX|.A ~.8X`.vX].I.5X7X5XXX}.}.5X5XwXwXqXwXwXwXwXjXwXlXjXqXqXqX3X9XqX9X5XHX;.      .   @ { t z z L R R [ L.<X[.[.W.W.(.<.J - > * e r c r c T ( F.]._.G.].oXoX6XsXvXvXxXsXwXwX8X8X1XE y.tX^.4X2XZ y.tX^.rX`.>.9XxXxXxXvXvXbXxXvXvXoX'.'.6XwXxXbXbXmXmX_ p 7 & % w r t t r t z t c t c i u L R R 8.&.u./.4X(./.A.N.@                                                           ",
"  Z HX0XwXrXqXsXxXwX5XwXwX5X6XwX}.3XwX6XOX8X6XoXoXXX5X7X6X6X6XwXF.Y U.qX|.xX].W F.8X`.8X6XH.5XwX0XOX XQ { 7X|.`.xX*.` oX]._.wXB.~.wX7XwXbXS.G ~.8X<.xX`.Z ~.8X_.vX`.G.7X8X8X8X XG.H.S.~.`.W.}.{.{.3X}.{.{.>X>X3X4X,X9X4X,X{.rX/           @ [ T L L c 8.7.u.:XkXHXwX|. X8X>., , : $ % r s 6 r P [ S.`._.G.|.].oX}.6XsXsXwX8X8XsX6X8X5XE y.rX|.qX5XZ y.qX~.7X).:.5XxXxXsXxXbXbXxXvXsX.X_.T.OXsXsXcXcXcXbXB.d 0 s % s c z x c t c c t t T T &.&.&.%X:X/.:XKXIXIXjX2XKX%                                                           ",
"  M bX5X4XqX5X,X3X3X[.[.4XW.[.,X[.I.[.).G.G.H.1.:.S.3X7X5X8X8X8XD.Z /.8X~.xX'.D /.jX_.8X5XS.9XjXwX X.XQ *.8X].].xX*.` XX]._.8X:.W.8X6XwXxX<.A (.+X<.jX_.S F.oX(.xX).S.5XwX8X8X}.G.`.3X}.[.|.7X7XqXjXqXbXJXJXkXqXrXqX7XjXqXqXbX{   .   .   @ &.R R R R 6.R u.u.V.V.A.;.;.-.d r ! P w r r e 6 w z ! &.:.S.B.`.].}.].6XwXsXwX8XwXsX8X8XdXQ | rX|.7X7XZ %.jX`.8X).S.6X8X8X6XsXvXvXdX8X5X].`.<.).}.].+XoXT.`.I.| | ' % & w c c z t t y : : e t L m T &.&.&.y.HXIXPXmXIXIX*                                                           ",
"  x 3X[.{.<X3X{.,X}.[.<X^.>XU.I.^.I.I.G.T.S.A.S.S.S.5X5X6X6X8X8XH.A ~.xX`.sX_.A A.OX(.+X5XS.5XwX6X+X].F A W.<.:.8X` A S.S.;.}.S.~.9XwXwXvX>.a *.>.F (.).: G *.G H.~.<.5X8XwX8X|.-.H.~.~.H.(.3XXX(.[.F.~.XX~.F.B.Z.F.A./.F.Z.<X!           @ 8.R 8.k.J.8.8.u.*Xu.Y V.{ M l w R [ T x r z r z c P ~ %.,.:.>.[.}. X}.8XwXwXvXwXxXwXdX6X6X( %.kX].7XwXZ %.7X`.7X`.:.}.8XOX6XwXvXxX8XOX5X X].>._ >.S.}.xXwX1X9XyX4XyX~ & % s e t y $ 2 O O O $ $ $ 2 e r t t *._.+X_.PXPX*                                                           "
};
