/* XPM */
static char *Material_001_baseColor[] = {
/* columns rows colors chars-per-pixel */
"512 512 256 2 ",
"   c #000000",
".  c #0A0A0A",
"X  c #191817",
"o  c #0E0F0F",
"O  c #2A1811",
"+  c #29231B",
"@  c #362719",
"#  c #17302D",
"$  c #292726",
"%  c #352C27",
"&  c #38342B",
"*  c #393837",
"=  c #293534",
"-  c #191F1F",
";  c #502C14",
":  c #453C37",
">  c #493729",
",  c #643113",
"<  c #31463A",
"1  c #1E4238",
"2  c #49443A",
"3  c #544A37",
"4  c #6D4E31",
"5  c #6F5A28",
"6  c #363A46",
"7  c #163D48",
"8  c #443D45",
"9  c #394747",
"0  c #385A56",
"q  c #314F4D",
"w  c #3A635A",
"e  c #34556D",
"r  c #3A6966",
"t  c #3A6F71",
"y  c #1B484B",
"u  c #494747",
"i  c #554C48",
"p  c #59544B",
"a  c #484B56",
"s  c #4A5658",
"d  c #595757",
"f  c #4D524F",
"g  c #65584B",
"h  c #655C56",
"j  c #6F574D",
"k  c #47665A",
"l  c #566B56",
"z  c #69645A",
"x  c #74685A",
"c  c #707152",
"v  c #4B5565",
"b  c #575966",
"n  c #515670",
"m  c #655C67",
"M  c #476A66",
"N  c #586767",
"B  c #49746A",
"V  c #56766A",
"C  c #596677",
"Z  c #497976",
"A  c #567B76",
"S  c #486977",
"D  c #696667",
"F  c #716A64",
"G  c #756C69",
"H  c #687669",
"J  c #7B746B",
"K  c #77746A",
"L  c #676A77",
"P  c #746D75",
"I  c #687777",
"U  c #7C7B7B",
"Y  c #787675",
"T  c #96632C",
"R  c #8C7153",
"E  c #85786A",
"W  c #837B73",
"Q  c #837C7B",
"!  c #887A76",
"~  c #90786C",
"^  c #A4754F",
"/  c #BB661D",
"(  c #58847B",
")  c #4E8279",
"_  c #66867A",
"`  c #798579",
"'  c #72896E",
"]  c #768558",
"[  c #7C813C",
"{  c #E29325",
"}  c #8C847B",
"|  c #888479",
" . c #968879",
".. c #938C71",
"X. c #A7957B",
"o. c #A98E74",
"O. c #A4945B",
"+. c #D9A45B",
"@. c #CFAF59",
"#. c #33698F",
"$. c #52748A",
"%. c #6A7689",
"&. c #787985",
"*. c #6B7490",
"=. c #5C749E",
"-. c #847D84",
";. c #867C8F",
":. c #4C8784",
">. c #598A86",
",. c #5B938B",
"<. c #5C9693",
"1. c #588896",
"2. c #668A86",
"3. c #798686",
"4. c #67958B",
"5. c #76968A",
"6. c #788698",
"7. c #6C9C93",
"8. c #669A95",
"9. c #769B95",
"0. c #688697",
"q. c #6BA299",
"w. c #76A39A",
"e. c #76A18E",
"r. c #5687AC",
"t. c #7390AC",
"y. c #78A8A4",
"u. c #71A6AA",
"i. c #5EA098",
"p. c #6B9ED5",
"a. c #639ED5",
"s. c #6A9ACC",
"d. c #6DA2D5",
"f. c #66A3D9",
"g. c #6BA5DA",
"h. c #6CAADD",
"j. c #65A3D7",
"k. c #72A5DA",
"l. c #74ACDC",
"z. c #79AEDD",
"x. c #72A4D6",
"c. c #7BB2DE",
"v. c #76B1DE",
"b. c #74A6C9",
"n. c #6EACE1",
"m. c #74AEE0",
"M. c #75B2E2",
"N. c #7CB4E2",
"B. c #7DB8E7",
"V. c #6EB1E5",
"C. c #619BD6",
"Z. c #848484",
"A. c #8B8583",
"S. c #8C8B8B",
"D. c #888887",
"F. c #938C83",
"G. c #938D8B",
"H. c #988A86",
"J. c #95938C",
"K. c #9B948B",
"L. c #9A9486",
"P. c #868A95",
"I. c #948C93",
"U. c #899697",
"Y. c #999796",
"T. c #8A948A",
"R. c #A59989",
"E. c #A39C93",
"W. c #A59C98",
"Q. c #B09889",
"!. c #8FA39A",
"~. c #B6A48A",
"^. c #A5A29C",
"/. c #ABA49B",
"(. c #AAA598",
"). c #B5A899",
"_. c #B0AB92",
"`. c #8A99A6",
"'. c #9597A6",
"]. c #8891AF",
"[. c #A49DA4",
"{. c #87A9A7",
"}. c #94A4B7",
"|. c #91AEB0",
" X c #A4A3A3",
".X c #ABA5A3",
"XX c #ACAAA4",
"oX c #A9A9A9",
"OX c #B3ACA4",
"+X c #B2ADAA",
"@X c #B8ABA5",
"#X c #B5B2AC",
"$X c #BBB4AB",
"%X c #B9B4A7",
"&X c #BAB5B2",
"*X c #BCBAB4",
"=X c #B8B8B7",
"-X c #ACB0B3",
";X c #C6B095",
":X c #C4B9AA",
">X c #C4BCB6",
",X c #CDB6A8",
"<X c #D4AE88",
"1X c #B9C3B7",
"2X c #9FC2B0",
"3X c #C8C4B9",
"4X c #D5C9BA",
"5X c #D1CAB1",
"6X c #E8D5A1",
"7X c #8CB3D2",
"8X c #B0B8C7",
"9X c #84BAE7",
"0X c #90BDEB",
"qX c #8A9EC6",
"wX c #C4BDC4",
"eX c #BAC7CD",
"rX c #96C6E8",
"tX c #8DC2E8",
"yX c #ABD3E9",
"uX c #B9DAEB",
"iX c #ADD4EC",
"pX c #ADD4E6",
"aX c #CAC7C6",
"sX c #D4CCC7",
"dX c #D9D5CA",
"fX c #C8CAD2",
"gX c #D9D7D6",
"hX c #CCD1D1",
"jX c #E3D9CA",
"kX c #E3DBD2",
"lX c #E5DCD9",
"zX c #ECD6CC",
"xX c #DBE3D3",
"cX c #EBE3DC",
"vX c #E9E6D8",
"bX c #F2EBDD",
"nX c #F3E7D9",
"mX c #EEEED8",
"MX c #CFDCE6",
"NX c #E3DDE3",
"BX c #C6E2EC",
"VX c #D9E8EA",
"CX c #CFE8F2",
"ZX c #EDE5E1",
"AX c #ECEAE4",
"SX c #E7E7E8",
"DX c #F3ECE3",
"FX c #F5ECE8",
"GX c #F4F3EC",
"HX c #FAF4EC",
"JX c #F8F6E7",
"KX c #F4F4F2",
"LX c #FCFBF3",
"PX c #FFFFFF",
"IX c #F8F7F5",
"UX c #ECF1F0",
/* pixels */
"i i p p i h @X,X<XT T T 5 ; 5 ) ] w k ] XXXXXX2X' ) ( ) ( B ) q.7.2.I I 2.^. XXX$X#XoX' l ' 5.' < o $ ' 5.` B _ !.2X{.{.!.!.X.o.O.+.^ o.^ O./ ^ ^ / T T 3 Y oXOX(.%X!.E.%X1X2X .3 R 6X+.6X<Xo.; : R./.p R 6X+.6X6X<X3 % Z.W..XOX.XK.L./.%XoXY.J | Y J | c x R ~ X. .!.|.!.|.{.U.w.w.4.7.4.( B ( I B >.>.4.4.9.5.U.!.^.!.^.!.5.2.8.4.8.>.( >.,._ ( k H T. XXXT.k # 1 = - o - o - P U + <  XoX!.^.F z z m z u                                                                                                                                                   Y.PXIXPXPXPXPXPXPXPXPXPXPXPXPXPXPXPXPXPXPXPXPXPXPXPXPXPXPXPXPXPXPXPXPXPXPXPXPXPXPXPXPXPXPXPXPXPXPXPXPXPXPXPXPXPXPXPXPXPXPXPXPXPXPXPXPXPXPXPXPXPXPXPXPXPXPXPXPXPXPXPXPXPXPXPXPXPXPXPXPXPXPXPXPXPXPXPXPXPXPXPXPXPXPXPXPXPXPXPXPXPXPXPXPXPXPXPXPXPXPXPXPXPXPXPXPXPXPXPXPXPXPXPXPXPXPXPXPXPXPXPXPXPXPXPXPXPXPXPXPXPXPXPXPXPXPXPXPXPXPXPXPXPXPXPXPXPXPXPXPXPXPXPXPXPXPXPXPXPXPXPXPXPXPXPXPXPXPXPXPXPXPXPXPXPXPXPXPXPXPXPXPXPXPXPXPXPXPXPXPXPXPXPXPXPXPXPXPXPXPXPXPXPXPXPXPXPXPXPXPXPXPXPXPXPXPXPXPXPXPX",
"g p 3 i g j @X;X<X^ T T 5 @ l ) w w k ] XXXXXXXX' ) ( ) ) ) ) q.8.2.( N _ Y.^.XX$X1X!.5._ ' _ e.' k ( ' _ _ _ 5.{.{.{.|.{.L.L.O.+.^ ^ +.^ O.O.+.+./ T T 3 Y  XoX^.OXL.T.%X_.XX..3 O.6X6X<X5XX.> : I..Xi R ,X<X<X<XX.> + U W././..XG.| E.%XOX(.J E J J R x x R ~ L.} !. X!.|.{.w.w.w.4.8.4.4.B k Z A >.4.4.4.5.9.U.!. XU.U.!.!.U.5.2.0.>.( ( ( ( V s _ Y./.XXY.I 9 < y = - o . X P &.$ : ^.oXW.Y.D l D D D i                                                                                                                                                   J.PXPXPXPXPXPXPXPXPXPXPXPXPXPXPXPXPXPXPXPXPXPXPXPXPXPXPXPXPXPXPXPXPXPXPXPXPXPXPXPXPXPXPXPXPXPXPXPXPXPXPXPXPXPXPXPXPXPXPXPXPXPXPXPXPXPXPXPXPXPXPXPXPXPXPXPXPXPXPXPXPXPXPXPXPXPXPXPXPXPXPXPXPXPXPXPXPXPXPXPXPXPXPXPXPXPXPXPXPXPXPXPXPXPXPXPXPXPXPXPXPXPXPXPXPXPXPXPXPXPXPXPXPXPXPXPXPXPXPXPXPXPXPXPXPXPXPXPXPXPXPXPXPXPXPXPXPXPXPXPXPXPXPXPXPXPXPXPXPXPXPXPXPXPXPXPXPXPXPXPXPXPXPXPXPXPXPXPXPXPXPXPXPXPXPXPXPXPXPXPXPXPXPXPXPXPXPXPXPXPXPXPXPXPXPXPXPXPXPXPXPXPXPXPXPXPXPXPXPXPXPXPXPXPXPXPXPXPXPXPX",
"i p p p g p /.:X,XR 5 T ; @ ] ] V k k l XXXX(.XX_ Z ( ) ) ) t ( 8.2.A V 3.Y.^.XX#X1X!.` e._ _ _ _ 5.` ' _ _ 5.e.{.|.{.|.{.!...o.^ +.+.^ ^ ^ O.^ ^ T T T 4 K !.(.(.XXF.| _.%XXXE.3 g ~ R R R g O & I.$Xp % 3 3 3 > 2 + % D./.XXXXXXY. .L._.R.X.......R ..^ ....o.X. .!.^.|.!.{.e.w.w.7.7.8.8.,.,.4.>.8.q.7.7.9.9.!.|.oX!. X{.U.5.5.2.7.2.>.>.2.( A I _  XXXXX!._ >.S q = - - o o H | $ * ^.oXY.^.D h D N D i                                                                                                                                               .   I.PXIXPXPXPXPXPXPXPXPXPXPXPXPXPXPXPXPXPXPXPXPXPXPXPXPXPXPXPXPXPXPXPXPXPXPXPXPXPXPXPXPXPXPXPXPXPXPXPXPXPXPXPXPXPXPXPXPXPXPXPXPXPXPXPXPXPXPXPXPXPXPXPXPXPXPXPXPXPXPXPXPXPXPXPXPXPXPXPXPXPXPXPXPXPXPXPXPXPXPXPXPXPXPXPXPXPXPXPXPXPXPXPXPXPXPXPXPXPXPXPXPXPXPXPXPXPXPXPXPXPXPXPXPXPXPXPXPXPXPXPXPXPXPXPXPXPXPXPXPXPXPXPXPXPXPXPXPXPXPXPXPXPXPXPXPXPXPXPXPXPXPXPXPXPXPXPXPXPXPXPXPXPXPXPXPXPXPXPXPXPXPXPXPXPXPXPXPXPXPXPXPXPXPXPXPXPXPXPXPXPXPXPXPXPXPXPXPXPXPXPXPXPXPXPXPXPXPXPXPXPXPXPXPXPXPXPXPXPXPX",
"g p g g p g /.:X5Xc 4 5 3 k B ) ) l k l !.oX^.!.H ) ( ) ,.) ) ) 4.( S _ U.J.Y.Y.XX#X!._ _ 5.e._ k l ) ( _ 5.9.w.{.|.|.|.!.L.X.o.o.^ +.^ ^ ^ / T / T T 4 g J Y.!.L.(.J.| _.%X%X_.z : & > % % % : p Y.&XY i : : i u < u D A.Y.+X.XXXJ.x Y ^. . .~.X.o...o.X.X.o.X.E.| !.|.|.{.{.!.9.w.7.7.4.4.4.<.>.>.4.7.7.7.5.9.e.!.2X-X|.!.5.7.2.2.4.$.>.( A B A A _ U.oX#XU._ ,.,.0 # # - # 7 P A.$ & ^.+XJ.Y.D d h d D f                                                                                                                                                   U.PXIXPXPXPXPXPXPXPXPXPXPXPXPXPXPXPXPXPXPXPXPXPXPXPXPXPXPXPXPXPXPXPXPXPXPXPXPXPXPXPXPXPXPXPXPXPXPXPXPXPXPXPXPXPXPXPXPXPXPXPXPXPXPXPXPXPXPXPXPXPXPXPXPXPXPXPXPXPXPXPXPXPXPXPXPXPXPXPXPXPXPXPXPXPXPXPXPXPXPXPXPXPXPXPXPXPXPXPXPXPXPXPXPXPXPXPXPXPXPXPXPXPXPXPXPXPXPXPXPXPXPXPXPXPXPXPXPXPXPXPXPXPXPXPXPXPXPXPXPXPXPXPXPXPXPXPXPXPXPXPXPXPXPXPXPXPXPXPXPXPXPXPXPXPXPXPXPXPXPXPXPXPXPXPXPXPXPXPXPXPXPXPXPXPXPXPXPXPXPXPXPXPXPXPXPXPXPXPXPXPXPXPXPXPXPXPXPXPXPXPXPXPXPXPXPXPXPXPXPXPXPXPXPXPXPXPXPXPXPX",
"g g g j g g W.>X3Xp + > l < 0 k f < < l ..2X X!.I ) ( ) ) :.:.) 8.>.A 3.T.T.Y.G.J.XX!.T.5.4.5.2.k B V ( 4.q.e.w.{.|.|.|.|.......^ +.O.^ ^ T T 5 T T T 5 g K T.}  .E.` K (.%X%X(.! F z G G.Q F Q Y A. XG.G U U Y.| G Y D S.W.XX.XoXK.z z } J J E.R.L.| X.Q.X.L.L.T.Y U.!.{.|.{.e.9.7.4.,.( ) ) ,.>.,.,.,.>.>.4.4.2.U.oX-XoXU.5.9.( Z Z t B B B r r V _ 5.!.!.2._ :.,.t 7 # - X $ D | + * Y.OXF.Y.D z d z m i                                                                                                                                               .   J.PXIXPXPXPXPXPXPXPXPXPXPXPXPXPXPXPXPXPXPXPXPXPXPXPXPXPXPXPXPXPXPXPXPXPXPXPXPXPXPXPXPXPXPXPXPXPXPXPXPXPXPXPXPXPXPXPXPXPXPXPXPXPXPXPXPXPXPXPXPXPXPXPXPXPXPXPXPXPXPXPXPXPXPXPXPXPXPXPXPXPXPXPXPXPXPXPXPXPXPXPXPXPXPXPXPXPXPXPXPXPXPXPXPXPXPXPXPXPXPXPXPXPXPXPXPXPXPXPXPXPXPXPXPXPXPXPXPXPXPXPXPXPXPXPXPXPXPXPXPXPXPXPXPXPXPXPXPXPXPXPXPXPXPXPXPXPXPXPXPXPXPXPXPXPXPXPXPXPXPXPXPXPXPXPXPXPXPXPXPXPXPXPXPXPXPXPXPXPXPXPXPXPXPXPXPXPXPXPXPXPXPXPXPXPXPXPXPXPXPXPXPXPXPXPXPXPXPXPXPXPXPXPXPXPXPXPXPXPXPX",
"p p i p p i I.:X3Xz o < < < < 9 < < 1 k X._.^.T.5.( >.>.,.,.:.) u.9.A 2.9.U.Y.J.J.XX^.U.e.4.4.w.2.4.2.2.e.y.e.{.{.|.|.!.!.!.L._.Q.Q.X.o.O.O.^ O.[ ^ R c g H P H x | x J ^.#XOX(.H.F F i Y d a Q Q .XOX/.D.-.s m f d Z.S.[.Y.W.^.Y..XOX>X>X$X3XT.K H ' ' ' J ' ` _ ` 9.{.|.{.{._ 2.7.7.,.,.) ) ,.8.<.q.q.,.( ,.5.9.5.!.U.9.5.9.9.8.7.7.2.,.8.8.>.,.2.2._ e.!.9.,.,.i.:.w # o - - d Y $ = T.+XD.U d D d b z u                                                                                                                                                   I.PXPXPXPXPXPXPXPXPXPXPXPXPXPXPXPXPXPXPXPXPXPXPXPXPXPXPXPXPXPXPXPXPXPXPXPXPXPXPXPXPXPXPXPXPXPXPXPXPXPXPXPXPXPXPXPXPXPXPXPXPXPXPXPXPXPXPXPXPXPXPXPXPXPXPXPXPXPXPXPXPXPXPXPXPXPXPXPXPXPXPXPXPXPXPXPXPXPXPXPXPXPXPXPXPXPXPXPXPXPXPXPXPXPXPXPXPXPXPXPXPXPXPXPXPXPXPXPXPXPXPXPXPXPXPXPXPXPXPXPXPXPXPXPXPXPXPXPXPXPXPXPXPXPXPXPXPXPXPXPXPXPXPXPXPXPXPXPXPXPXPXPXPXPXPXPXPXPXPXPXPXPXPXPXPXPXPXPXPXPXPXPXPXPXPXPXPXPXPXPXPXPXPXPXPXPXPXPXPXPXPXPXPXPXPXPXPXPXPXPXPXPXPXPXPXPXPXPXPXPXPXPXPXPXPXPXPXPXPXPX",
"g i i g g d R.:X3XF < < < < k l ) w w B !.%XXX!.3.>.>.,.,.,.) ) u.9.( _ T.!.Y.XX#X#X!.!.U.5.2.5.e.4.( 7.w.5.e.w.{.|.|.{.|...|  .~  . ...~ E ..R c 5 g g l U.=X-X*X3X3XXXXX%XOX(./.^.Y.h : u F +X@XR.:XL.%X+XZ.a f Z. XY.G.Y.-X+XW.+X.X&X>X*XoXT.!.!.T.!.|. X!.|.|.U.5.4.{.|.{.{.{.{.y.y.y.y.i.q.q.y.u.y.q.w.q.w.w.{.U.!.!.!.9.9.7.7.0.8.8.,.>.,.>.2.4.9.|.2X{.,.<.:.,.#.7 o - # f U % $ ` ^.J.Y.l d d h D f                                                                                                                                               .   J.PXIXPXPXPXPXPXPXPXPXPXPXPXPXPXPXPXPXPXPXPXPXPXPXPXPXPXPXPXPXPXPXPXPXPXPXPXPXPXPXPXPXPXPXPXPXPXPXPXPXPXPXPXPXPXPXPXPXPXPXPXPXPXPXPXPXPXPXPXPXPXPXPXPXPXPXPXPXPXPXPXPXPXPXPXPXPXPXPXPXPXPXPXPXPXPXPXPXPXPXPXPXPXPXPXPXPXPXPXPXPXPXPXPXPXPXPXPXPXPXPXPXPXPXPXPXPXPXPXPXPXPXPXPXPXPXPXPXPXPXPXPXPXPXPXPXPXPXPXPXPXPXPXPXPXPXPXPXPXPXPXPXPXPXPXPXPXPXPXPXPXPXPXPXPXPXPXPXPXPXPXPXPXPXPXPXPXPXPXPXPXPXPXPXPXPXPXPXPXPXPXPXPXPXPXPXPXPXPXPXPXPXPXPXPXPXPXPXPXPXPXPXPXPXPXPXPXPXPXPXPXPXPXPXPXPXPXPXPXPX",
"h p i i p g K.@X3X] $ < f l 5._ ' ' e.] ' 2X#X!._ ( ,.:.,.,.,.) 9.y.2.5.3.!.^.XX*X-X!.5.e.4._ B _ 4.,.4.4.,.2.2.5.5.!.{.{.e.` ` ! F.| 3.| ` ` ' ] | ' Y I 5.oX1X#X1X#X^.XX1X1XOXF.F W.OXG G $XE.h R _.4 4 L.3XA.Z.aXJ.h A.^.>X.XW..X X+X#X-X X!.{.!.5.!.|.!.!.|.9.!.w.!.{.|.{.{.{.y.y.y.q.q.q.u.q.q.q.u.q.q.q.w.e.{.|.eX2Xw.5.7.4.7.8.,.,.<.,.1.>.1._ 7.{.|.e.,.:.:.<.:.q 7 1 - d T.$ $ G.#XY.oXK d D h D i                                                                                                                                                   U.PXIXPXPXPXPXPXPXPXPXPXPXPXPXPXPXPXPXPXPXPXPXPXPXPXPXPXPXPXPXPXPXPXPXPXPXPXPXPXPXPXPXPXPXPXPXPXPXPXPXPXPXPXPXPXPXPXPXPXPXPXPXPXPXPXPXPXPXPXPXPXPXPXPXPXPXPXPXPXPXPXPXPXPXPXPXPXPXPXPXPXPXPXPXPXPXPXPXPXPXPXPXPXPXPXPXPXPXPXPXPXPXPXPXPXPXPXPXPXPXPXPXPXPXPXPXPXPXPXPXPXPXPXPXPXPXPXPXPXPXPXPXPXPXPXPXPXPXPXPXPXPXPXPXPXPXPXPXPXPXPXPXPXPXPXPXPXPXPXPXPXPXPXPXPXPXPXPXPXPXPXPXPXPXPXPXPXPXPXPXPXPXPXPXPXPXPXPXPXPXPXPXPXPXPXPXPXPXPXPXPXPXPXPXPXPXPXPXPXPXPXPXPXPXPXPXPXPXPXPXPXPXPXPXPXPXPXPXPXPX",
"g g g p g p G.$X>XY - 1 k 4.5.5.e._ ( w l  X=XT.N M S B Z t B t 9.u.6.2.2.U T.Y.XXXXT.' e.( _ _ V 2.e.8.e.i._ q.w.{.{.e.5.5.5.!.!.{.!.{.9.5.!.U.T.` 3.I _ ` P.oX[.+XXX[..X#X$X#XK.f | *X.XW.,Xx 4 R T T 5 c ~.%X%XY.H Y F..X>XY.Y.^.^.^.^. X X!.!.9.U.{.|.|.{.|.{.!.|.|.oX|.2Xw.y.2Xy.q.q.q.i.q.u.y.u.q.i.q.y.y.y.q.y.2X!.9.9.4.8.8.4.8.8.,.<.1.>.>.>.>.9.y.8.<.:.:.:.i.t y 1 # k  X+ $ T.XXE.oXY m z h D u                                                                                                                                                   Y.PXIXPXPXPXPXPXPXPXPXPXPXPXPXPXPXPXPXPXPXPXPXPXPXPXPXPXPXPXPXPXPXPXPXPXPXPXPXPXPXPXPXPXPXPXPXPXPXPXPXPXPXPXPXPXPXPXPXPXPXPXPXPXPXPXPXPXPXPXPXPXPXPXPXPXPXPXPXPXPXPXPXPXPXPXPXPXPXPXPXPXPXPXPXPXPXPXPXPXPXPXPXPXPXPXPXPXPXPXPXPXPXPXPXPXPXPXPXPXPXPXPXPXPXPXPXPXPXPXPXPXPXPXPXPXPXPXPXPXPXPXPXPXPXPXPXPXPXPXPXPXPXPXPXPXPXPXPXPXPXPXPXPXPXPXPXPXPXPXPXPXPXPXPXPXPXPXPXPXPXPXPXPXPXPXPXPXPXPXPXPXPXPXPXPXPXPXPXPXPXPXPXPXPXPXPXPXPXPXPXPXPXPXPXPXPXPXPXPXPXPXPXPXPXPXPXPXPXPXPXPXPXPXPXPXPXPXPXPXPX",
"h i h g g p H.$X>X` = q ( e.4.7.( i._ _ V ` U.5.2.2.A >.>.>.,.>.8.{.9.2.5.U.Y.Z.T.J.!.|.|.2X{.y.7.q.y.w.y.y.2Xy.2X2X2X{.w.5.6.{.{.!.`.{.6.9.w.6.5.5.5.I _ _ 5. XY.oXXXY.Y. X-X#X^.Y.h z &X+XR R 4 T 5 T 5 T R Q.#X% d S.-.>X+XI.#X/.K.Y.oXoX!.!.{.U.9.y.{.{.!.|.{.{.|.|.|.|.|.{.e.y.y.y.q.q.q.y.y.q.u.q.q.y.i.y.q.y.e.{.w.7.q.7.4.4.4.8.7.8.8.4.>.>.>.>.9.y.8.<.i.r.i.:.:.y 1 # l  X= $ T.-X^.oXU h D d D i                                                                                                                                                   J.PXPXPXPXPXPXPXPXPXPXPXPXPXPXPXPXPXPXPXPXPXPXPXPXPXPXPXPXPXPXPXPXPXPXPXPXPXPXPXPXPXPXPXPXPXPXPXPXPXPXPXPXPXPXPXPXPXPXPXPXPXPXPXPXPXPXPXPXPXPXPXPXPXPXPXPXPXPXPXPXPXPXPXPXPXPXPXPXPXPXPXPXPXPXPXPXPXPXPXPXPXPXPXPXPXPXPXPXPXPXPXPXPXPXPXPXPXPXPXPXPXPXPXPXPXPXPXPXPXPXPXPXPXPXPXPXPXPXPXPXPXPXPXPXPXPXPXPXPXPXPXPXPXPXPXPXPXPXPXPXPXPXPXPXPXPXPXPXPXPXPXPXPXPXPXPXPXPXPXPXPXPXPXPXPXPXPXPXPXPXPXPXPXPXPXPXPXPXPXPXPXPXPXPXPXPXPXPXPXPXPXPXPXPXPXPXPXPXPXPXPXPXPXPXPXPXPXPXPXPXPXPXPXPXPXPXPXPXPXPX",
"z i p p p i | #X$X` 1 k ,.q.e.4.i.i._ ,.5.Y.-X|.3.7.8.7.8.8.8.>.4.q.9.5.5.U.U.&X3X=X!.!.{.!.!.e.e.q.q.w.q.w.y.y.{.{.{.|.{.{.{.y.{.{.{.{.{.9.w.9.5.5.2.3._ ` ` ^. X+XoX^.OXoXoX+XY.Y.D & Y./.j ^ T T T / ^ O.R ..^.2 Y J.W.[.Q Y.>X#X^.(.1X#X!.J.Y.!.9.!.{.{.|.|.{.{.y.2X2X|.{.w.w.y.y.q.y.i.q.q.q.y.u.q.q.i.i.y.q.q.e.2Xw.y.w.q.q.4.8.4.8.8.8.,.,.:.$.>.8.8.<.<.:.:.:.i.:.r # # Y !.* - ` #X^. XU m h b h u                                                                                                                                               .   I.PXIXPXPXPXPXPXPXPXPXPXPXPXPXPXPXPXPXPXPXPXPXPXPXPXPXPXPXPXPXPXPXPXPXPXPXPXPXPXPXPXPXPXPXPXPXPXPXPXPXPXPXPXPXPXPXPXPXPXPXPXPXPXPXPXPXPXPXPXPXPXPXPXPXPXPXPXPXPXPXPXPXPXPXPXPXPXPXPXPXPXPXPXPXPXPXPXPXPXPXPXPXPXPXPXPXPXPXPXPXPXPXPXPXPXPXPXPXPXPXPXPXPXPXPXPXPXPXPXPXPXPXPXPXPXPXPXPXPXPXPXPXPXPXPXPXPXPXPXPXPXPXPXPXPXPXPXPXPXPXPXPXPXPXPXPXPXPXPXPXPXPXPXPXPXPXPXPXPXPXPXPXPXPXPXPXPXPXPXPXPXPXPXPXPXPXPXPXPXPXPXPXPXPXPXPXPXPXPXPXPXPXPXPXPXPXPXPXPXPXPXPXPXPXPXPXPXPXPXPXPXPXPXPXPXPXPXPXPXPX",
"z p g i g i W OXXX` q V e.,.i.i.q.i.,.( _ {.2X!.5.>.0.4.,.<.<.>.>.7.y.4.2.T.U.XX=X X!.!.{.{.{.y.7.e.q.q.q.w.w.y.{.2X|.!.{.}.u.`.{.!.U.y.9.6.9.U.5.6.3.2.I ` 3. X#X1X^.XXoXXX^.F.^.OXE.G Y %Xg T O.[ / T ^ T 4 L.F.Y J.+X$XY Q .X+X+XY.^.XXE.Y.T.U.U.P.U.{.U.{.U.e.w.y.{.{.w.{.e.e.y.y.q.y.q.i.q.y.q.u.q.q.i.q.y.y.i.q.i.4.y.w.q.8.q.8.8.8.<.8.,.,.>.( >.:.,.,.1.i.<.:.:.:.:.# 1 3.Y.= $ | oXU.^.U h D h D i                                                                                                                                                   U.PXIXPXPXPXPXPXPXPXPXPXPXPXPXPXPXPXPXPXPXPXPXPXPXPXPXPXPXPXPXPXPXPXPXPXPXPXPXPXPXPXPXPXPXPXPXPXPXPXPXPXPXPXPXPXPXPXPXPXPXPXPXPXPXPXPXPXPXPXPXPXPXPXPXPXPXPXPXPXPXPXPXPXPXPXPXPXPXPXPXPXPXPXPXPXPXPXPXPXPXPXPXPXPXPXPXPXPXPXPXPXPXPXPXPXPXPXPXPXPXPXPXPXPXPXPXPXPXPXPXPXPXPXPXPXPXPXPXPXPXPXPXPXPXPXPXPXPXPXPXPXPXPXPXPXPXPXPXPXPXPXPXPXPXPXPXPXPXPXPXPXPXPXPXPXPXPXPXPXPXPXPXPXPXPXPXPXPXPXPXPXPXPXPXPXPXPXPXPXPXPXPXPXPXPXPXPXPXPXPXPXPXPXPXPXPXPXPXPXPXPXPXPXPXPXPXPXPXPXPXPXPXPXPXPXPXPXPXPXPX",
"j i i i g i } $X=XT.k 8.8.<.7.7.q.i.) ( _ 5.|.!.0.4.4.<.,.,.i.,.,.q.{.0.2.U.U.U.!.U.!.!.{.!.e.e.4.e.w.q.q.w.q.y.{.|.|.y.|.|.{.{.{.`.w.y.9.6.9.6.6.9.5.` I ` Y D. XoXXX^.^.XXXX^.Y.(.OX^.K K.R.j T 5 ^ T T R E X.| F.#XXXQ A.+XXX[..X^.(. X!. X|.!.U.!.oX{.U.{.9._ q.y.w.w.y.q.e.q.y.q.q.y.q.q.q.u.q.u.q.i.i.u.q.q.q.i.4.q.q.q.q.8.4.q.8.4.<.4.<.,.>.:.:.>.:.:.,.:.:.:.:.:.>.y 0 5.Y.< % | oX^. XU h m h z u                                                                                                                                               .   J.PXIXPXPXPXPXPXPXPXPXPXPXPXPXPXPXPXPXPXPXPXPXPXPXPXPXPXPXPXPXPXPXPXPXPXPXPXPXPXPXPXPXPXPXPXPXPXPXPXPXPXPXPXPXPXPXPXPXPXPXPXPXPXPXPXPXPXPXPXPXPXPXPXPXPXPXPXPXPXPXPXPXPXPXPXPXPXPXPXPXPXPXPXPXPXPXPXPXPXPXPXPXPXPXPXPXPXPXPXPXPXPXPXPXPXPXPXPXPXPXPXPXPXPXPXPXPXPXPXPXPXPXPXPXPXPXPXPXPXPXPXPXPXPXPXPXPXPXPXPXPXPXPXPXPXPXPXPXPXPXPXPXPXPXPXPXPXPXPXPXPXPXPXPXPXPXPXPXPXPXPXPXPXPXPXPXPXPXPXPXPXPXPXPXPXPXPXPXPXPXPXPXPXPXPXPXPXPXPXPXPXPXPXPXPXPXPXPXPXPXPXPXPXPXPXPXPXPXPXPXPXPXPXPXPXPXPXPXPXPX",
"D g g p d p ` *X=X!.I 9.7.7.i.q.i.' i.( >.5.{.U.4.4.4.4.8.,.,.4.>.7.y.9.5.5.U.U.-X!.!.!.!.{.w.e.4.7.q.w.q.y.w.y.y.|.y.|.|.y.y.`.{.y.U.9.9.9.9.9.9.U.9._ ` U.U.^.^..X#X/.^.^.oX*X+XY.W.OXF.A.L.E 4 5 j T > 5 E ..J.oXE.Y G.&X+XI.S. X^./.(.E.^.-X-X2XeX|.9.w.w.9.e.q.e.w.e.y.e.q.e.q.q.w.q.q.q.q.u.q.q.q.q.q.i.y.q.i.,.( q.w.q.q.q.8.q.8.8.1.<.8.1.,.) Z Z $.t Z :.t :.t t A M M 3.U.9 X H XX^.^.U d D h m f                                                                                                                                                   I.PXPXPXPXPXPXPXPXPXPXPXPXPXPXPXPXPXPXPXPXPXPXPXPXPXPXPXPXPXPXPXPXPXPXPXPXPXPXPXPXPXPXPXPXPXPXPXPXPXPXPXPXPXPXPXPXPXPXPXPXPXPXPXPXPXPXPXPXPXPXPXPXPXPXPXPXPXPXPXPXPXPXPXPXPXPXPXPXPXPXPXPXPXPXPXPXPXPXPXPXPXPXPXPXPXPXPXPXPXPXPXPXPXPXPXPXPXPXPXPXPXPXPXPXPXPXPXPXPXPXPXPXPXPXPXPXPXPXPXPXPXPXPXPXPXPXPXPXPXPXPXPXPXPXPXPXPXPXPXPXPXPXPXPXPXPXPXPXPXPXPXPXPXPXPXPXPXPXPXPXPXPXPXPXPXPXPXPXPXPXPXPXPXPXPXPXPXPXPXPXPXPXPXPXPXPXPXPXPXPXPXPXPXPXPXPXPXPXPXPXPXPXPXPXPXPXPXPXPXPXPXPXPXPXPXPXPXPXPXPX",
"h i p p p i Y *X1X|.5.4.4.4.i.i.i.,.) ( 2.7.{.5.2.4.4.8.4.,.4.8.,.8.w.7.9.0.9.U.!.5.9.!.w.e.w.e.e.e.q.w.w.q.y.y.y.|.|.|.|.y.y.{.{.{.y.9.9.6.9.U.9.{.-X-X!.!.XXoXY.XX+XXX^.S. X X$X#X^.} ^.)._.R.| c j 3 c ~ K.XXXXT.K W.>XXXW.Y. XT.S.Y.^.Y.!.^.|.!.5.9.9.9.w.5.i._ w.q.q.w.q.e.q.w.w.y.q.q.q.q.i.q.q.q.q.q.q.q.q.i.( ,.y.q.q.q.8.q.7.8.4.8.8.<.4.>.:.) :.>.,.:.:.:.:.:.Z ) >.V _ U.f & Y oXY. XU h D m z u                                                                                                                                               .   J.PXIXPXPXPXPXPXPXPXPXPXPXPXPXPXPXPXPXPXPXPXPXPXPXPXPXPXPXPXPXPXPXPXPXPXPXPXPXPXPXPXPXPXPXPXPXPXPXPXPXPXPXPXPXPXPXPXPXPXPXPXPXPXPXPXPXPXPXPXPXPXPXPXPXPXPXPXPXPXPXPXPXPXPXPXPXPXPXPXPXPXPXPXPXPXPXPXPXPXPXPXPXPXPXPXPXPXPXPXPXPXPXPXPXPXPXPXPXPXPXPXPXPXPXPXPXPXPXPXPXPXPXPXPXPXPXPXPXPXPXPXPXPXPXPXPXPXPXPXPXPXPXPXPXPXPXPXPXPXPXPXPXPXPXPXPXPXPXPXPXPXPXPXPXPXPXPXPXPXPXPXPXPXPXPXPXPXPXPXPXPXPXPXPXPXPXPXPXPXPXPXPXPXPXPXPXPXPXPXPXPXPXPXPXPXPXPXPXPXPXPXPXPXPXPXPXPXPXPXPXPXPXPXPXPXPXPXPXPXPX",
"z p d d h p Y *XeX|.5.4.8.i.7.,.,.( ( i.4.4.4.4.2.2.2.4.4.8.8.4.4.8.9.9.5.4.2.5.5.5.7.9.w.e.e.e.7.q.q.w.y.q.q.y.y.|.y.|.|.y.{.y.y.y.`.9.`.9.9.6.9.U.|.|.oXoX X XJ. X^.D.Y.*X X^.oX*XXXK.L.^./.OX^. .E E  .)./.Y.} Y./.$XW.G.W.+XY.| T.K.Y.T.T.5.5.4.4.5.9.9.w.q.e.e.y.w.q.y.q.e.q.q.q.q.y.q.q.q.q.q.q.u.y.i.i.q.i.i.i.i.q.q.q.i.8.q.q.q.8.8.8.4.8.>.) :.>.,.,.>.) <.<.:.t >.2.B I Y.N u ` XXY. X} d D h D u                                                                                                                                                   U.PXIXPXPXPXPXPXPXPXPXPXPXPXPXPXPXPXPXPXPXPXPXPXPXPXPXPXPXPXPXPXPXPXPXPXPXPXPXPXPXPXPXPXPXPXPXPXPXPXPXPXPXPXPXPXPXPXPXPXPXPXPXPXPXPXPXPXPXPXPXPXPXPXPXPXPXPXPXPXPXPXPXPXPXPXPXPXPXPXPXPXPXPXPXPXPXPXPXPXPXPXPXPXPXPXPXPXPXPXPXPXPXPXPXPXPXPXPXPXPXPXPXPXPXPXPXPXPXPXPXPXPXPXPXPXPXPXPXPXPXPXPXPXPXPXPXPXPXPXPXPXPXPXPXPXPXPXPXPXPXPXPXPXPXPXPXPXPXPXPXPXPXPXPXPXPXPXPXPXPXPXPXPXPXPXPXPXPXPXPXPXPXPXPXPXPXPXPXPXPXPXPXPXPXPXPXPXPXPXPXPXPXPXPXPXPXPXPXPXPXPXPXPXPXPXPXPXPXPXPXPXPXPXPXPXPXPXPXPXPX",
"z i i i i u K *X1X-X3.4.4.<.8.<.) ) e.,.4.2.4.2.2.2.2.2.4.7.7.8.8.4.9.w.7.0.4.5.4.5.9.9.e.q.e.e.e.q.q.y.y.q.q.y.u.{.u.{.{.{.y.{.`.y.{.9.U.t.9.U.U.9.3._ 3.3.3.Y.S.Y.Y.T.Y !.=X-X^.J.^.$XXX(.^.!.J.J.L.E.F.T.} E.OX%X1XY.` ^.=X^.` ` ^.^.XX!.XXe.5.4.5.9.7.9.9.w.e.4.w.e.q.w.q.7.e.q.w.q.q.q.q.q.u.i.q.q.q.i.e.i.i.i.( q.q.q.i.i.,.q.y.q.8.0.4.>.>.( Z :.( :.>.A :.<.,.Z ) ,.>.B H U.D u Y oX^.^.Y.d h d D u                                                                                                                                                   J.PXIXPXPXPXPXPXPXPXPXPXPXPXPXPXPXPXPXPXPXPXPXPXPXPXPXPXPXPXPXPXPXPXPXPXPXPXPXPXPXPXPXPXPXPXPXPXPXPXPXPXPXPXPXPXPXPXPXPXPXPXPXPXPXPXPXPXPXPXPXPXPXPXPXPXPXPXPXPXPXPXPXPXPXPXPXPXPXPXPXPXPXPXPXPXPXPXPXPXPXPXPXPXPXPXPXPXPXPXPXPXPXPXPXPXPXPXPXPXPXPXPXPXPXPXPXPXPXPXPXPXPXPXPXPXPXPXPXPXPXPXPXPXPXPXPXPXPXPXPXPXPXPXPXPXPXPXPXPXPXPXPXPXPXPXPXPXPXPXPXPXPXPXPXPXPXPXPXPXPXPXPXPXPXPXPXPXPXPXPXPXPXPXPXPXPXPXPXPXPXPXPXPXPXPXPXPXPXPXPXPXPXPXPXPXPXPXPXPXPXPXPXPXPXPXPXPXPXPXPXPXPXPXPXPXPXPXPXPXPX",
"z f p d d p G *XeX-X2.2.4.,.( ) ) ,.e.,.4.4.4.>.A S M A 2.8.7.8.4.7.7.q.7.7.0.7.4.4.q.e.w.w.y.q.q.q.q.q.q.q.y.w.y.y.|.|.|.`.9.y.9.y.9.t.9.9.U.9.9.9.0.5.3.3.5. X-X#XoX XH H !.-X(.' ` %X1XXX(.^.E. .| K | ..%X(.#X1XY.h Y !.^.T.Y U.#XXX!.XX1X!.5.2.2.7.9.9.5.9.5.4.7.e.q.q.q.q.q.q.y.q.q.q.q.q.q.y.q.q.q.q.i.i.i.i.i.i.q.i.q.i.8.q.q.q.8.,.2.>.$.A :.A A >.( Z >.8.,.t ) :.( B V U.K u ` oXY.Y.XXY d d D i                                                                                                                                                   U.PXPXPXPXPXPXPXPXPXPXPXPXPXPXPXPXPXPXPXPXPXPXPXPXPXPXPXPXPXPXPXPXPXPXPXPXPXPXPXPXPXPXPXPXPXPXPXPXPXPXPXPXPXPXPXPXPXPXPXPXPXPXPXPXPXPXPXPXPXPXPXPXPXPXPXPXPXPXPXPXPXPXPXPXPXPXPXPXPXPXPXPXPXPXPXPXPXPXPXPXPXPXPXPXPXPXPXPXPXPXPXPXPXPXPXPXPXPXPXPXPXPXPXPXPXPXPXPXPXPXPXPXPXPXPXPXPXPXPXPXPXPXPXPXPXPXPXPXPXPXPXPXPXPXPXPXPXPXPXPXPXPXPXPXPXPXPXPXPXPXPXPXPXPXPXPXPXPXPXPXPXPXPXPXPXPXPXPXPXPXPXPXPXPXPXPXPXPXPXPXPXPXPXPXPXPXPXPXPXPXPXPXPXPXPXPXPXPXPXPXPXPXPXPXPXPXPXPXPXPXPXPXPXPXPXPXPXPXPXPX",
"F i p p p i K *X=X-X2._ >.( :.( ( ( ,.' 2.4.2.>.M q = y Z 4.4.0.<.8.7.q.9.9.8.7.q.4.4.e.e.w.w.w.q.q.q.y.u.q.q.q.u.y.y.{.u.y.t.w.`.y.9.9.0.7.9.6.0.3.3.2.2.` U.eX1XoX-X*X` N _ Y.|.!.H ' !.XXL.K./.%XOX(.OX%XR.L.XX^.H ' E.-X(.` ` Y.1X(./.$X1XU.T.3.2.5.5.e.e.5.4.e.7.e.e.q.q.7.q.q.q.w.q.q.e.q.q.y.y.q.q.i.i.e.i._ ( i.i.q.q.i.8.t.q.8.1.4.>.>.$.>.2.A >.2.( B >.4.>.t :.>.( k N T.Y f Z.oX!.^.Y.^.D f D u                                                                                                                                                   J.PXPXPXPXPXPXPXPXPXPXPXPXPXPXPXPXPXPXPXPXPXPXPXPXPXPXPXPXPXPXPXPXPXPXPXPXPXPXPXPXPXPXPXPXPXPXPXPXPXPXPXPXPXPXPXPXPXPXPXPXPXPXPXPXPXPXPXPXPXPXPXPXPXPXPXPXPXPXPXPXPXPXPXPXPXPXPXPXPXPXPXPXPXPXPXPXPXPXPXPXPXPXPXPXPXPXPXPXPXPXPXPXPXPXPXPXPXPXPXPXPXPXPXPXPXPXPXPXPXPXPXPXPXPXPXPXPXPXPXPXPXPXPXPXPXPXPXPXPXPXPXPXPXPXPXPXPXPXPXPXPXPXPXPXPXPXPXPXPXPXPXPXPXPXPXPXPXPXPXPXPXPXPXPXPXPXPXPXPXPXPXPXPXPXPXPXPXPXPXPXPXPXPXPXPXPXPXPXPXPXPXPXPXPXPXPXPXPXPXPXPXPXPXPXPXPXPXPXPXPXPXPXPXPXPXPXPXPXPXPX",
"d 2 2 u i 3 F #X1X2X9.5.4.<.>.4.i.i.( i.4.8.4.2.>.( >.A B 2.8.4.4.8.7.w.9.8.7.8.7.4.4.w.w.q.q.q.q.q.q.y.q.q.q.7.7.9.9.y.9.6.9.9.w.9.9.5.5.5.6.7.3.2.2.2.A I !.1X=X&X#X=XD.A I oXXX^.| l c OX1XXXoX#X#XOX/.(.Y.XX3X!.H | -X#X|.` ` !./.(.(.2XoXe.5.2.2.9.9.5.e.e._ 5.e.w.w.w.9.7.w.w.q.w.w.w.q.q.q.q.q.q.q.i.i.i.i.i.i.q.i.q.q.i.q.q.y.8.4.8.2.A 1.9.4.2.2.4.( A ,.,.Z Z ( ( B w k T.` d D.XX^.^.^.oXG.d l u                                                                                                                                               .   Y.PXIXPXPXPXPXPXPXPXPXPXPXPXPXPXPXPXPXPXPXPXPXPXPXPXPXPXPXPXPXPXPXPXPXPXPXPXPXPXPXPXPXPXPXPXPXPXPXPXPXPXPXPXPXPXPXPXPXPXPXPXPXPXPXPXPXPXPXPXPXPXPXPXPXPXPXPXPXPXPXPXPXPXPXPXPXPXPXPXPXPXPXPXPXPXPXPXPXPXPXPXPXPXPXPXPXPXPXPXPXPXPXPXPXPXPXPXPXPXPXPXPXPXPXPXPXPXPXPXPXPXPXPXPXPXPXPXPXPXPXPXPXPXPXPXPXPXPXPXPXPXPXPXPXPXPXPXPXPXPXPXPXPXPXPXPXPXPXPXPXPXPXPXPXPXPXPXPXPXPXPXPXPXPXPXPXPXPXPXPXPXPXPXPXPXPXPXPXPXPXPXPXPXPXPXPXPXPXPXPXPXPXPXPXPXPXPXPXPXPXPXPXPXPXPXPXPXPXPXPXPXPXPXPXPXPXPXPXPXPX",
"Y z G F F F | #X8X-X9.9.4.>.>.>._ i.4.,.4.4.4.2.7.w.w.q.8.,.4.8.8.8.8.w.q.7.7.4.7.4.4.w.w.w.q.q.q.q.y.y.q.u.q.q.7.7.9.9.9.9.6.9.5.5.5.5.2.4.0.5.5.2.%._ _ I U.=X#X-X#X#X3.I I  XOX^.' p H OX*X+X#X$XXX^.OX^./.#X1XT.c ' !.2X(.| 3.Y.(.K.^.oX XT.5.5.5.9.e.e.e.!.5.e.e.e.e.w.e.q.w.q.y.w.y.e.q.w.y.q.y.q.i.i.q.i.( ) i.i.q.y.i.i.8.7.7.8.4.2.A A 2.2.A A V ( B r r t 0 0 r M M 0 N T.U z 3. X^.^. X X XZ.d *                                                                                                                                                   I.PXPXPXPXPXPXPXPXPXPXPXPXPXPXPXPXPXPXPXPXPXPXPXPXPXPXPXPXPXPXPXPXPXPXPXPXPXPXPXPXPXPXPXPXPXPXPXPXPXPXPXPXPXPXPXPXPXPXPXPXPXPXPXPXPXPXPXPXPXPXPXPXPXPXPXPXPXPXPXPXPXPXPXPXPXPXPXPXPXPXPXPXPXPXPXPXPXPXPXPXPXPXPXPXPXPXPXPXPXPXPXPXPXPXPXPXPXPXPXPXPXPXPXPXPXPXPXPXPXPXPXPXPXPXPXPXPXPXPXPXPXPXPXPXPXPXPXPXPXPXPXPXPXPXPXPXPXPXPXPXPXPXPXPXPXPXPXPXPXPXPXPXPXPXPXPXPXPXPXPXPXPXPXPXPXPXPXPXPXPXPXPXPXPXPXPXPXPXPXPXPXPXPXPXPXPXPXPXPXPXPXPXPXPXPXPXPXPXPXPXPXPXPXPXPXPXPXPXPXPXPXPXPXPXPXPXPXPXPXPX",
"F.K Y Y Y F A.*X*X=X5.5.5.>.( >.i._ ,.,.2.4.5.2.4.9.7.e.9.4.2.8.8.4.8.q.w.7.4.e.5.4.5.9.w.q.q.y.q.w.y.q.y.q.q.q.7.7.9.9.9.5.7.5.9.7.7.7.4.3.6.5.5.3._ _ 2._ 5.oXoX+X-X^.3.I ` J./.L.l c T.OX$X#X#X+XY.Y./.Y.%X^._.X.l l | -X!.J.J.T.!.!.#X2X{.!.U.3.5.w.U.!.w.!.U.e.!.w.!.{.w.7.w.w.q.y.y.y.e.q.i.q.i.i.) i.i.i.i.i.i.q.i.) :.) ) ) B w M M k 2.V B A A V ) w 0 t Z t B >.>.V k V T.Z.Y Z.oXY.Y.^.Y.Y. XD u                                                                                                                                               .   I.PXIXPXPXPXPXPXPXPXPXPXPXPXPXPXPXPXPXPXPXPXPXPXPXPXPXPXPXPXPXPXPXPXPXPXPXPXPXPXPXPXPXPXPXPXPXPXPXPXPXPXPXPXPXPXPXPXPXPXPXPXPXPXPXPXPXPXPXPXPXPXPXPXPXPXPXPXPXPXPXPXPXPXPXPXPXPXPXPXPXPXPXPXPXPXPXPXPXPXPXPXPXPXPXPXPXPXPXPXPXPXPXPXPXPXPXPXPXPXPXPXPXPXPXPXPXPXPXPXPXPXPXPXPXPXPXPXPXPXPXPXPXPXPXPXPXPXPXPXPXPXPXPXPXPXPXPXPXPXPXPXPXPXPXPXPXPXPXPXPXPXPXPXPXPXPXPXPXPXPXPXPXPXPXPXPXPXPXPXPXPXPXPXPXPXPXPXPXPXPXPXPXPXPXPXPXPXPXPXPXPXPXPXPXPXPXPXPXPXPXPXPXPXPXPXPXPXPXPXPXPXPXPXPXPXPXPXPXPXPX",
"E.Y F K K F Y.*X=X=X3._ 2.2.I >._ _ ,._ 2.2.4.2._ q.{.w.q.4.8.8.q.8.q.q.y.w.7.,.4.7.5.9.w.w.w.q.q.y.y.y.q.w.q.w.9.7.9.9.9.9.5.9.9.U.U.w.9.5.5.9.9.6.4.3.3.3.P.^.-X#XoXT.3.` T.| Y.' l z T.F.T.oX/.^.Y.^.J.K.#X| ' T.l z d P Y.J.F.T.Y.^.#X1X!.` 5.` U.U.T.5.e.5._ 2.4._ >.4.>.A ( _ ( _ _ ( ) ( ) i.( i.) i.) ) i.i.q.q.i.) i.) <.q.2.2.5.l < 9 < q N ( 2.4.A 2.8.,.>.>.2.A M s H S.Z.` F. X^.!. X X^. XY.D                                                                                                                                                   J.PXIXPXPXPXPXPXPXPXPXPXPXPXPXPXPXPXPXPXPXPXPXPXPXPXPXPXPXPXPXPXPXPXPXPXPXPXPXPXPXPXPXPXPXPXPXPXPXPXPXPXPXPXPXPXPXPXPXPXPXPXPXPXPXPXPXPXPXPXPXPXPXPXPXPXPXPXPXPXPXPXPXPXPXPXPXPXPXPXPXPXPXPXPXPXPXPXPXPXPXPXPXPXPXPXPXPXPXPXPXPXPXPXPXPXPXPXPXPXPXPXPXPXPXPXPXPXPXPXPXPXPXPXPXPXPXPXPXPXPXPXPXPXPXPXPXPXPXPXPXPXPXPXPXPXPXPXPXPXPXPXPXPXPXPXPXPXPXPXPXPXPXPXPXPXPXPXPXPXPXPXPXPXPXPXPXPXPXPXPXPXPXPXPXPXPXPXPXPXPXPXPXPXPXPXPXPXPXPXPXPXPXPXPXPXPXPXPXPXPXPXPXPXPXPXPXPXPXPXPXPXPXPXPXPXPXPXPXPXPX",
"#X} K K F Y #X1X=X-X3._ 2.2.2.2.e.i.,.,.,.4.5.7._ 4.y.{.{.7.4.8.4.i.7.q.y.y.7.7.7.7.4.7.w.w.8.w.q.q.y.y.y.q.y.w.9.9.9.9.w.w.!.U.{.{.`.9.P.6.5.U.9.5.3.2.5.5.3.Y.#X#X/.} J.| Z. XT.P T.T.Y.F.G W.XXOX^.E.J.%X/.z | Y.J.XX.X.X+XF.Y | T.L.!./.E.Y H D Y I D l H H _ 5.5.5.9.w.9.>.,.q.y.q.q.q.e.q.y.y.q.y.q.q.i.i.i.i.i.y.i.i.i.i.q.4.5.5.Y > + o o - 9 k V B A >.>.) A >.>.A M M _ Z.Z.` D.^.Y.Y.^.^. XY..XY                                                                                                                                               .   I.PXPXPXPXPXPXPXPXPXPXPXPXPXPXPXPXPXPXPXPXPXPXPXPXPXPXPXPXPXPXPXPXPXPXPXPXPXPXPXPXPXPXPXPXPXPXPXPXPXPXPXPXPXPXPXPXPXPXPXPXPXPXPXPXPXPXPXPXPXPXPXPXPXPXPXPXPXPXPXPXPXPXPXPXPXPXPXPXPXPXPXPXPXPXPXPXPXPXPXPXPXPXPXPXPXPXPXPXPXPXPXPXPXPXPXPXPXPXPXPXPXPXPXPXPXPXPXPXPXPXPXPXPXPXPXPXPXPXPXPXPXPXPXPXPXPXPXPXPXPXPXPXPXPXPXPXPXPXPXPXPXPXPXPXPXPXPXPXPXPXPXPXPXPXPXPXPXPXPXPXPXPXPXPXPXPXPXPXPXPXPXPXPXPXPXPXPXPXPXPXPXPXPXPXPXPXPXPXPXPXPXPXPXPXPXPXPXPXPXPXPXPXPXPXPXPXPXPXPXPXPXPXPXPXPXPXPXPXPXPX",
"*X^.J K F J.*X=X*X=X` V _ 2._ _ _ 5.8.4.4.0.9.9.5.4.e.w.w.w.q.7.q.q.8.8.q.w.7.q.e.e.q.' y.e.q.i.e.q.q.y.q.q.,.e.5.2.2.5.4.2.2.2.5.5.3.3.' ..' _ _ _ I V V I Y J.oXY.R.J } } ^.eX1X1XhXhX$X^.} J.XX#X(.W.J.%XL.J ..2X5X(.L.Q.X.5X(.Y.F.| .._...p > > > > & & + l 5.U.w.{.w.{.y.7.u.q.7.w.q.q.y.q.i.i.i.i.i.i.i.( i.i.q.u.i.i.i.i.q.4._ ' H J 4 o O $ q B B A >.>.( A :.>.A C k N l Y Y Y | Y.^.Y.^.^.^.^.oX|                                                                                                                                               .   U.PXIXPXPXPXPXPXPXPXPXPXPXPXPXPXPXPXPXPXPXPXPXPXPXPXPXPXPXPXPXPXPXPXPXPXPXPXPXPXPXPXPXPXPXPXPXPXPXPXPXPXPXPXPXPXPXPXPXPXPXPXPXPXPXPXPXPXPXPXPXPXPXPXPXPXPXPXPXPXPXPXPXPXPXPXPXPXPXPXPXPXPXPXPXPXPXPXPXPXPXPXPXPXPXPXPXPXPXPXPXPXPXPXPXPXPXPXPXPXPXPXPXPXPXPXPXPXPXPXPXPXPXPXPXPXPXPXPXPXPXPXPXPXPXPXPXPXPXPXPXPXPXPXPXPXPXPXPXPXPXPXPXPXPXPXPXPXPXPXPXPXPXPXPXPXPXPXPXPXPXPXPXPXPXPXPXPXPXPXPXPXPXPXPXPXPXPXPXPXPXPXPXPXPXPXPXPXPXPXPXPXPXPXPXPXPXPXPXPXPXPXPXPXPXPXPXPXPXPXPXPXPXPXPXPXPXPXPXPXPX",
"$X1XY.z K #X1X$X=X*XI k V V M I _ A A Z 2.2.I A V B B ( ( ) ) >.) ) :.) w.q.e.4.( ( i.) e.( i.i.) ( ( i._ i.( ) ( ,.4.7.5.3._ I d f p u < 1 < 3 < k I 2.' < l S.L.L...K (.OX-XU.U.` z G %X:XR.} Y.$X(.Y.Y.%X| | ;X<XO.5 5 4 R @.).*X^.| E._...O...O.@.@.O.l X l 3.2.9.7.w.y.7.8.7.q.q.u.q.q.q.q.i.q.q.q.i.i.i.i.i.i.y.i.i.i.i.i.<.4._ H F R g O o + 9 k B A ( >.>.4.w.!.9.5.3.D.Z.D.F H Y !.| Y U I Y Y Y d                                                                                                                                                   J.PXIXPXPXPXPXPXPXPXPXPXPXPXPXPXPXPXPXPXPXPXPXPXPXPXPXPXPXPXPXPXPXPXPXPXPXPXPXPXPXPXPXPXPXPXPXPXPXPXPXPXPXPXPXPXPXPXPXPXPXPXPXPXPXPXPXPXPXPXPXPXPXPXPXPXPXPXPXPXPXPXPXPXPXPXPXPXPXPXPXPXPXPXPXPXPXPXPXPXPXPXPXPXPXPXPXPXPXPXPXPXPXPXPXPXPXPXPXPXPXPXPXPXPXPXPXPXPXPXPXPXPXPXPXPXPXPXPXPXPXPXPXPXPXPXPXPXPXPXPXPXPXPXPXPXPXPXPXPXPXPXPXPXPXPXPXPXPXPXPXPXPXPXPXPXPXPXPXPXPXPXPXPXPXPXPXPXPXPXPXPXPXPXPXPXPXPXPXPXPXPXPXPXPXPXPXPXPXPXPXPXPXPXPXPXPXPXPXPXPXPXPXPXPXPXPXPXPXPXPXPXPXPXPXPXPXPXPXPXPX",
"$X&X$XY } 1X$X$X1X*XT.` 5.5.3.I N s f f u f i Y U._ ( 2.4.4.>.>.>.,.,.,.q.w.7.i.q.( e.( y.y.y.y.y.q.y.y.y.y.q.q.w.y.w.y.{.U.!.D + 3 3 3 > 5 5 5 X = I T.I - l  . ._._. .%X_.XXl l V % & ~.;X).E.| *X^.| J.%X| XXO.6X6X@.@.6X6X6X..z S.W.5X%X@.6X6X@.6X@.6X] O p 3.5.5.9.w.y.9.8.7.y.u.q.q.8.8.q.q.q.q.q.i.i.( i.) i.i.i.i.) i.i.8.4.H l R R 4 O o # 9 k M A >.>.) A 7.9.2.T.|.oX X&XOXXXXX^.Z.D.S.D.D.Z.G.H                                                                                                                                                   I.PXPXPXPXPXPXPXPXPXPXPXPXPXPXPXPXPXPXPXPXPXPXPXPXPXPXPXPXPXPXPXPXPXPXPXPXPXPXPXPXPXPXPXPXPXPXPXPXPXPXPXPXPXPXPXPXPXPXPXPXPXPXPXPXPXPXPXPXPXPXPXPXPXPXPXPXPXPXPXPXPXPXPXPXPXPXPXPXPXPXPXPXPXPXPXPXPXPXPXPXPXPXPXPXPXPXPXPXPXPXPXPXPXPXPXPXPXPXPXPXPXPXPXPXPXPXPXPXPXPXPXPXPXPXPXPXPXPXPXPXPXPXPXPXPXPXPXPXPXPXPXPXPXPXPXPXPXPXPXPXPXPXPXPXPXPXPXPXPXPXPXPXPXPXPXPXPXPXPXPXPXPXPXPXPXPXPXPXPXPXPXPXPXPXPXPXPXPXPXPXPXPXPXPXPXPXPXPXPXPXPXPXPXPXPXPXPXPXPXPXPXPXPXPXPXPXPXPXPXPXPXPXPXPXPXPXPXPXPXPX",
"%X$X#X^./.*X$X$X$X$X!.` 3.2._ N = X o + > > , j | 5.5.5.7.e.9.7.7.i.i.,.q.q.q.e.e.i.i.( 2Xy.q.y.q.y.q.q.q.q.q.q.9.q.9.9.9.5.U.l & ;X6X6X6X6X6X@.+ $ H _ H % /.,X .,X5X~.5XE ' f I ' & g 6X<X<XQ.~ /.} G W Y.| (.[ 6X@.{ { +.@.6X3 % Q #X3X;X6X@.+.6X@.6X6X[ + 3 | 5.6.5.w.w.w.7.q.7.q.q.q.8.8.q.q.q.y.i.i.i.i.) i.u.q.i.,.i.i.i.q.( V c c c 4 O o + < w M A >.>.Z Z >.B M k N D < T.E.T.Y.XXY.^.XX^.^. XoXZ.                                                                                                                                              .   I.PXIXPXPXPXPXPXPXPXPXPXPXPXPXPXPXPXPXPXPXPXPXPXPXPXPXPXPXPXPXPXPXPXPXPXPXPXPXPXPXPXPXPXPXPXPXPXPXPXPXPXPXPXPXPXPXPXPXPXPXPXPXPXPXPXPXPXPXPXPXPXPXPXPXPXPXPXPXPXPXPXPXPXPXPXPXPXPXPXPXPXPXPXPXPXPXPXPXPXPXPXPXPXPXPXPXPXPXPXPXPXPXPXPXPXPXPXPXPXPXPXPXPXPXPXPXPXPXPXPXPXPXPXPXPXPXPXPXPXPXPXPXPXPXPXPXPXPXPXPXPXPXPXPXPXPXPXPXPXPXPXPXPXPXPXPXPXPXPXPXPXPXPXPXPXPXPXPXPXPXPXPXPXPXPXPXPXPXPXPXPXPXPXPXPXPXPXPXPXPXPXPXPXPXPXPXPXPXPXPXPXPXPXPXPXPXPXPXPXPXPXPXPXPXPXPXPXPXPXPXPXPXPXPXPXPXPXPXPXPX",
"#XOX#X*X*X$X$X*X#X$XY._ _ I I N < o X j Q.o.+.o...| 4.5.7.4.8.8.8.<.q.8.q.y.q.7.q.7._ i.e.y.q.y.i.y.q.q.q.q.q.q.7.9.9.9.5.5.` l + 6X6X@.@.6X6X6X@ $ H 3.Y $ _.jXQ.;X;X;XjXc O l ` _ & 3 ,X6X+.Q.Q./.W.p J.W.W.K.3 6X@.@.{ { @.6X> @ K (.X.O.;X6X@.6X6X@.+.^ O 3 ` 3.5.9.y.`.9.8.u.q.q.q.q.8.q.q.q.u.q.q.i.i.( i.i.q.i.i.,.i.i.7.,.( l l ] R 3 O o O < 0 M A >.$.t :.,.S M s A f X Z.T.Y |  XJ.J.^.Y.Y.Y.W.Y                                                                                                                                                   J.PXIXPXPXPXPXPXPXPXPXPXPXPXPXPXPXPXPXPXPXPXPXPXPXPXPXPXPXPXPXPXPXPXPXPXPXPXPXPXPXPXPXPXPXPXPXPXPXPXPXPXPXPXPXPXPXPXPXPXPXPXPXPXPXPXPXPXPXPXPXPXPXPXPXPXPXPXPXPXPXPXPXPXPXPXPXPXPXPXPXPXPXPXPXPXPXPXPXPXPXPXPXPXPXPXPXPXPXPXPXPXPXPXPXPXPXPXPXPXPXPXPXPXPXPXPXPXPXPXPXPXPXPXPXPXPXPXPXPXPXPXPXPXPXPXPXPXPXPXPXPXPXPXPXPXPXPXPXPXPXPXPXPXPXPXPXPXPXPXPXPXPXPXPXPXPXPXPXPXPXPXPXPXPXPXPXPXPXPXPXPXPXPXPXPXPXPXPXPXPXPXPXPXPXPXPXPXPXPXPXPXPXPXPXPXPXPXPXPXPXPXPXPXPXPXPXPXPXPXPXPXPXPXPXPXPXPXPXPXPX",
"OX*X*X*X$X*X$X$X:X$XE.T.T.5.T.T.f - + 5 +.O.^ ^ O.' _ 4.5.8.q.4.<.8.,.8.q.w.q.7.e.q.q._ q.y.y.q.q.q.y.q.q.q.q.q.7.7.7.9.4.2.T.H + 6X6X6X6X@.6X@.@ $ V 5.` % R.jXX.X.O.;X6Xc O f ` H 2 3 6X+.O.X.R.H.@X} ^.S./.F.] 6X@.+.@.@.6X<X3 @ ' E...O.<X6X@.@.@.6X6XO.@ 3 _ 3.3.9.9.9.q.7.7.9.q.t.y.q.8.q.q.q.q.q.i.( i.) i.y.q.i.,.,.7.i.>.B k l ] c 4 O o X = s M $.:.:.) 1.<.S B 0 3.N o Z.Y.Y Y W.Y.S.^.(.oX^.oX|                                                                                                                                                   U.PXPXPXPXPXPXPXPXPXPXPXPXPXPXPXPXPXPXPXPXPXPXPXPXPXPXPXPXPXPXPXPXPXPXPXPXPXPXPXPXPXPXPXPXPXPXPXPXPXPXPXPXPXPXPXPXPXPXPXPXPXPXPXPXPXPXPXPXPXPXPXPXPXPXPXPXPXPXPXPXPXPXPXPXPXPXPXPXPXPXPXPXPXPXPXPXPXPXPXPXPXPXPXPXPXPXPXPXPXPXPXPXPXPXPXPXPXPXPXPXPXPXPXPXPXPXPXPXPXPXPXPXPXPXPXPXPXPXPXPXPXPXPXPXPXPXPXPXPXPXPXPXPXPXPXPXPXPXPXPXPXPXPXPXPXPXPXPXPXPXPXPXPXPXPXPXPXPXPXPXPXPXPXPXPXPXPXPXPXPXPXPXPXPXPXPXPXPXPXPXPXPXPXPXPXPXPXPXPXPXPXPXPXPXPXPXPXPXPXPXPXPXPXPXPXPXPXPXPXPXPXPXPXPXPXPXPXPXPXPX",
"Y.^.^.Y.Y.Y.F. .L.@X%X#X#X1X2X=X-XD.> 5 +.{ { { [ ' _ 5.4.7.4.i.q.<.8.8.e.q.q.7.7.i.q._ e.y.y.q.i.q.q.q.q.q.q.q.7.7.9.5.4._ 5.c @ 6X6X6X@.@.6X6X> + l ` ' @ R.4X@.X.o.;X6Xc @ p H ` 2 4 <XO.O.~._.R./.Y.Y.^.XXOX@.@.6X@.@.@.6X6X3 & J R.X.X.{ 6X6X@.6X@.6X^ @ 2 Y ` 3.5.U.9.7.8.y.8.q.y.y.u.8.q.q.q.q.y.i.i.i.) i.y.i.i.i._ i.,.( B 0 c ] R 4 + o X = 0 M A :.$.$.<.:.Z M 0 6.N - -.Y.S.` Y.^.Y.^.Y.Y.oX*XJ.                                                                                                                                                  J.PXPXPXPXPXPXPXPXPXPXPXPXPXPXPXPXPXPXPXPXPXPXPXPXPXPXPXPXPXPXPXPXPXPXPXPXPXPXPXPXPXPXPXPXPXPXPXPXPXPXPXPXPXPXPXPXPXPXPXPXPXPXPXPXPXPXPXPXPXPXPXPXPXPXPXPXPXPXPXPXPXPXPXPXPXPXPXPXPXPXPXPXPXPXPXPXPXPXPXPXPXPXPXPXPXPXPXPXPXPXPXPXPXPXPXPXPXPXPXPXPXPXPXPXPXPXPXPXPXPXPXPXPXPXPXPXPXPXPXPXPXPXPXPXPXPXPXPXPXPXPXPXPXPXPXPXPXPXPXPXPXPXPXPXPXPXPXPXPXPXPXPXPXPXPXPXPXPXPXPXPXPXPXPXPXPXPXPXPXPXPXPXPXPXPXPXPXPXPXPXPXPXPXPXPXPXPXPXPXPXPXPXPXPXPXPXPXPXPXPXPXPXPXPXPXPXPXPXPXPXPXPXPXPXPXPXPXPXPXPX",
"Y.^./.^.^./.XXXX(.%X1XXX{.!.U.3.I u $ 5 o.{ +.^ O.' ' _ _ 4.7.4.<.<.8.7.q.q.w.q.7.e.q.q.i.q.y.y.q.q.q.q.q.q.q.q.7.7.7.7.4._ ` H @ ;X6X@.@.6X6X6X3 + c ' ` & X.6X,XX.<X6XjX..@ f Y H : 3 <X@.<X;X%X@XOXJ.^.$XXXF.@.@.@.{ { 6X6X6Xg + p  .%XO.[ 6X6X@.+.+.+.O.O < H 2.` 5.9.7.7.8.7.w.u.y.u.q.8.q.q.8.q.y.q.q.i.) q.i.i.i.,.i.4.,.( r 0 l c c 3 + o O * q M Z :.Z ) ,.Z Z q N eXI 9 3.^.Y.Y.Y. XXX^.^.F.D D b                                                                                                                                               .   Y.PXIXPXPXPXPXPXPXPXPXPXPXPXPXPXPXPXPXPXPXPXPXPXPXPXPXPXPXPXPXPXPXPXPXPXPXPXPXPXPXPXPXPXPXPXPXPXPXPXPXPXPXPXPXPXPXPXPXPXPXPXPXPXPXPXPXPXPXPXPXPXPXPXPXPXPXPXPXPXPXPXPXPXPXPXPXPXPXPXPXPXPXPXPXPXPXPXPXPXPXPXPXPXPXPXPXPXPXPXPXPXPXPXPXPXPXPXPXPXPXPXPXPXPXPXPXPXPXPXPXPXPXPXPXPXPXPXPXPXPXPXPXPXPXPXPXPXPXPXPXPXPXPXPXPXPXPXPXPXPXPXPXPXPXPXPXPXPXPXPXPXPXPXPXPXPXPXPXPXPXPXPXPXPXPXPXPXPXPXPXPXPXPXPXPXPXPXPXPXPXPXPXPXPXPXPXPXPXPXPXPXPXPXPXPXPXPXPXPXPXPXPXPXPXPXPXPXPXPXPXPXPXPXPXPXPXPXPXPXPX",
"=X*X3X=X>X3X1X1X#X=X X5._ V A b < X o 3 @.{ { @.O.] ' _ _ 7.i.4.i.4.i.4.8.q.w.w.8.8.w.q.4.w.q.q.q.q.q.q.u.q.q.q.7.7.7.5._ _ T.z > <X6X6X6X+.6X6X3 + l ' | < O.zX6X<X:X6XxX..+ 3 c K & 3 <X<X6XzX:X(./.^.XXoXJ.p & @.6XO.{ <X6XmXx + i } K. .R <X6X<X<X+.6X~ ; * l 3.` 5.e.q.7.4.7.u.y.w.q.,.7.q.q.q.q.y.u.9.:.<.u.q.i.<.,.,.,.( ) k k c l 2 @ X o X < < w ) ) B :.:.B B 0 5.MXs - Y Y.D.Z.Y. X^.^.^.T.l 6 u                                                                                                                                               .   U.PXPXPXPXPXPXPXPXPXPXPXPXPXPXPXPXPXPXPXPXPXPXPXPXPXPXPXPXPXPXPXPXPXPXPXPXPXPXPXPXPXPXPXPXPXPXPXPXPXPXPXPXPXPXPXPXPXPXPXPXPXPXPXPXPXPXPXPXPXPXPXPXPXPXPXPXPXPXPXPXPXPXPXPXPXPXPXPXPXPXPXPXPXPXPXPXPXPXPXPXPXPXPXPXPXPXPXPXPXPXPXPXPXPXPXPXPXPXPXPXPXPXPXPXPXPXPXPXPXPXPXPXPXPXPXPXPXPXPXPXPXPXPXPXPXPXPXPXPXPXPXPXPXPXPXPXPXPXPXPXPXPXPXPXPXPXPXPXPXPXPXPXPXPXPXPXPXPXPXPXPXPXPXPXPXPXPXPXPXPXPXPXPXPXPXPXPXPXPXPXPXPXPXPXPXPXPXPXPXPXPXPXPXPXPXPXPXPXPXPXPXPXPXPXPXPXPXPXPXPXPXPXPXPXPXPXPXPXPXPX",
"#X$X#X#X#X+X=X#X-X1X X2.( B A N q $ X 5 @.@.@.@.O.O.' ( _ ,.,.4.,.i.4.i.<.4.y.w.7.7.w.w.4.4.w.y.q.q.w.y.y.y.q.q.7.4.7.4.( ( ` H & @.6X6X6X6X6X6X3 + p ' ' &  .zX_.X.X.6XmX..+ 3 H K 2 2 ;X6X6XmXsX).^.^.=X*XY.l 2 ~.6X+.@.6X6XdXK @ x J.(.E.L.;X<X<X<Xo.<XR + % l _ 2._ 5.4.8.4.7.q.q.7.q.i.i.q.w.q.7.u.q.8.:.8.q.q.<.i.,.i.i.( B ) ( V l 3 3 O o X = < w ) ) B >.) B w q |.gXa < F Y G F | F.F.T.| Y h 2 u                                                                                                                                                   I.PXIXPXPXPXPXPXPXPXPXPXPXPXPXPXPXPXPXPXPXPXPXPXPXPXPXPXPXPXPXPXPXPXPXPXPXPXPXPXPXPXPXPXPXPXPXPXPXPXPXPXPXPXPXPXPXPXPXPXPXPXPXPXPXPXPXPXPXPXPXPXPXPXPXPXPXPXPXPXPXPXPXPXPXPXPXPXPXPXPXPXPXPXPXPXPXPXPXPXPXPXPXPXPXPXPXPXPXPXPXPXPXPXPXPXPXPXPXPXPXPXPXPXPXPXPXPXPXPXPXPXPXPXPXPXPXPXPXPXPXPXPXPXPXPXPXPXPXPXPXPXPXPXPXPXPXPXPXPXPXPXPXPXPXPXPXPXPXPXPXPXPXPXPXPXPXPXPXPXPXPXPXPXPXPXPXPXPXPXPXPXPXPXPXPXPXPXPXPXPXPXPXPXPXPXPXPXPXPXPXPXPXPXPXPXPXPXPXPXPXPXPXPXPXPXPXPXPXPXPXPXPXPXPXPXPXPXPXPXPX",
"+X:X=X*X*XaX1X$X-X-X|.I ( B B B q - . 3 X.<X6X@.O.E H V _ ,.4.4.8.,.<.4.8.8.y.y.7.7.9.w.4.4.q.w.w.q.w.q.q.w.q.4.4.8.7.2.( V ` H & _.zX6X6X6X6X4Xg + l Y H & W 4X;X;X_.,X5X..+ < H H i > ..~.;X,X$X^.J..X-X=XJ.h & z O.] T O.....3 + 2 ' $XJ > j R R R R j j @ $ l _ _ ' _ 4.4.4.7.q.7.8.7.4.7.q.q.8.q.q.8.,.) 8.q.<.i.,.,.,.,.) w ( ' l c ..R & . o 1 < q B w B ( t B w k hXgXf a R.E.K.F.T.Y.K.W.Y.G.F.h :                                                                                                                                                   J.PXIXPXPXPXPXPXPXPXPXPXPXPXPXPXPXPXPXPXPXPXPXPXPXPXPXPXPXPXPXPXPXPXPXPXPXPXPXPXPXPXPXPXPXPXPXPXPXPXPXPXPXPXPXPXPXPXPXPXPXPXPXPXPXPXPXPXPXPXPXPXPXPXPXPXPXPXPXPXPXPXPXPXPXPXPXPXPXPXPXPXPXPXPXPXPXPXPXPXPXPXPXPXPXPXPXPXPXPXPXPXPXPXPXPXPXPXPXPXPXPXPXPXPXPXPXPXPXPXPXPXPXPXPXPXPXPXPXPXPXPXPXPXPXPXPXPXPXPXPXPXPXPXPXPXPXPXPXPXPXPXPXPXPXPXPXPXPXPXPXPXPXPXPXPXPXPXPXPXPXPXPXPXPXPXPXPXPXPXPXPXPXPXPXPXPXPXPXPXPXPXPXPXPXPXPXPXPXPXPXPXPXPXPXPXPXPXPXPXPXPXPXPXPXPXPXPXPXPXPXPXPXPXPXPXPXPXPXPXPX",
"aXaXaXaX*X$X$X*X*X1X|._ ( A V M < - o 2 ~.<X6X6XX.' I V ( _ ,.,.,.<.,.<.4.i.y.y.q.q.q.w.4.,.q.q.q.q.y.y.w.w.q.8.8.9.7.2.( ( _ z & [ X.O.O.@.O...2 + f _ K < 3 ....~.X.....3 + 1 l Y p @ 4 4 R .. .F.T. XXX^.S.l & c ~.@.X.~.;X5X] + 2 K +XE : ~.Q.o.o.<X~._.< + l ( ' ( _ 5.4.4.5.9.q.q.7.4.i.q.w.y.y.q.7.<.>.8.q.i.q.,.,.<.,.t k ( V V c K c < . . + 1 q ) w ) ) B M w 2.BX1X< $ Q .X^.^.#X=X%X+X+X^. XG <                                                                                                                                               .   I.PXPXPXPXPXPXPXPXPXPXPXPXPXPXPXPXPXPXPXPXPXPXPXPXPXPXPXPXPXPXPXPXPXPXPXPXPXPXPXPXPXPXPXPXPXPXPXPXPXPXPXPXPXPXPXPXPXPXPXPXPXPXPXPXPXPXPXPXPXPXPXPXPXPXPXPXPXPXPXPXPXPXPXPXPXPXPXPXPXPXPXPXPXPXPXPXPXPXPXPXPXPXPXPXPXPXPXPXPXPXPXPXPXPXPXPXPXPXPXPXPXPXPXPXPXPXPXPXPXPXPXPXPXPXPXPXPXPXPXPXPXPXPXPXPXPXPXPXPXPXPXPXPXPXPXPXPXPXPXPXPXPXPXPXPXPXPXPXPXPXPXPXPXPXPXPXPXPXPXPXPXPXPXPXPXPXPXPXPXPXPXPXPXPXPXPXPXPXPXPXPXPXPXPXPXPXPXPXPXPXPXPXPXPXPXPXPXPXPXPXPXPXPXPXPXPXPXPXPXPXPXPXPXPXPXPXPXPXPXPX",
"I.H.} Q A.XX$X1X=X1X|.I 2.A V M < - o - i 4 [ [ c ` _ V ( ( ,.,.,.,.,.,.8.,.y.y.q.7.9.q.7.2.7.w.q.q.{.|.y.y.e.q.4.7.8.( A A ' l & c O.X.@.@.O.@.c + 0 ] H < 3 _.<XX.<X;X6X!.< < N H 2 @ O.@.6X6XR.x Y | ` ` | z > _.6X6X6X6XmXmXR.+ 2 c !.z 3 ,X;X;X<X;X;X).2 - l ] ( ] _ _ _ _ 4.5.e.q.i._ i.7.w.y.q.q.8.>.>.y.y.i.i.,.( ,.) r B ) l l ] H c & . o @ < < ) k ( ) t k ) V _ oX9 * Y  X^.Y. X+X#XoXXX^.Y.3.*                                                                                                                                               .   I.PXIXPXPXPXPXPXPXPXPXPXPXPXPXPXPXPXPXPXPXPXPXPXPXPXPXPXPXPXPXPXPXPXPXPXPXPXPXPXPXPXPXPXPXPXPXPXPXPXPXPXPXPXPXPXPXPXPXPXPXPXPXPXPXPXPXPXPXPXPXPXPXPXPXPXPXPXPXPXPXPXPXPXPXPXPXPXPXPXPXPXPXPXPXPXPXPXPXPXPXPXPXPXPXPXPXPXPXPXPXPXPXPXPXPXPXPXPXPXPXPXPXPXPXPXPXPXPXPXPXPXPXPXPXPXPXPXPXPXPXPXPXPXPXPXPXPXPXPXPXPXPXPXPXPXPXPXPXPXPXPXPXPXPXPXPXPXPXPXPXPXPXPXPXPXPXPXPXPXPXPXPXPXPXPXPXPXPXPXPXPXPXPXPXPXPXPXPXPXPXPXPXPXPXPXPXPXPXPXPXPXPXPXPXPXPXPXPXPXPXPXPXPXPXPXPXPXPXPXPXPXPXPXPXPXPXPXPXPXPX",
"J J | J K.OX@X$X*X=XoX_ A B B s < X o f c c O.O...] ' ( ( 2._ 4.,.,.i.,.,.,.q.y.y.8.8.w.7.4.8.y.9.q.y.{.{.w.q.q.4.4.4.( A ( ' l @ O.6X6X6X6X6X6X..O q ' ] < c 6X6X<X6X6X6X_.& & l H 2 > @.6X6X6XX.R.^..X-X#XXXH < X.6X6X6X6X6X6XX.+ & l ' u 2 ;X<X<X<X<X<X;X3 X 0 l ' ) ' _ _ ( 7.e.q.4.e.i._ i.w.y.q.8.<.:.<.|.y.i.,.4.i.( ) r r ) ] l l ] c & . . - * < l w w r r 0 ( 0 < M f 9 &.I.Y. X^. X-X-X.X^.| Y.d                         .                                                                                   .                                 .   J.PXIXPXPXPXPXPXPXPXPXPXPXPXPXPXPXPXPXPXPXPXPXPXPXPXPXPXPXPXLXPXPXPXPXPXPXLXPXPXPXIXPXPXPXPXPXPXPXPXPXPXLXPXPXPXPXPXPXPXPXPXPXIXPXIXPXPXPXPXPXPXPXPXPXPXPXPXLXPXPXPXPXPXPXPXPXPXLXPXPXPXPXPXPXPXLXPXPXPXPXPXPXPXIXPXPXPXPXPXPXPXPXPXPXPXPXPXPXIXPXIXPXPXPXPXPXPXPXPXPXPXPXPXPXPXPXPXPXPXPXPXPXPXLXPXPXPXPXPXPXIXPXIXPXPXPXPXPXPXPXPXLXPXPXPXPXPXLXPXPXPXPXPXPXPXPXPXPXIXPXPXPXPXPXPXPXPXPXPXIXPXPXPXPXIXPXPXPXPXPXPXPXPXPXPXPXPXPXPXPXPXPXPXPXPXPXPXPXPXPXPXPXPXIXPXPXPXPXPXPXPXPXPXPXPXPXPXPXPXPX",
"Y F.W p } K.R.W.^. X!.2.V B k w < X . j ~.@.@.6XO.] _ 2.2.( ,.,.,.,.<.,.4.,.8.y.y.8.7.q.q.>.8.7.q.q.q.w.y.q.q.e.8.4.2.Z V ) ' l < O.6X6X6X@.6X6XO.+ 2 ' ] # 3 6X6X6X6X6X6X;X< $ l H 3 > O.@.@.6X6X;X%X>X3XoX| l & O.6X@.@.6X6XmXX.@ < l V 2 3 _.;X<X@.<X6X5X3 X < [ ] ) ( ' ' ( e.q.w.q.4.,.,.q.u.y.q.,.,.,.q.y.i.,.,.( ) ) r r k ( B l l l c 9 . . + # < < 1 < w k 0 ( q 1 q N 0 U U D. X'.Y. XXXoXJ.f J.Z.                                                                                                .                                                 J.PXIXPXPXPXPXPXPXPXPXPXPXPXPXPXPXPXPXPXPXPXPXPXPXPXPXPXPXPXPXPXPXPXPXPXPXPXPXPXPXPXPXPXPXPXPXPXPXPXPXPXPXPXPXPXPXPXPXPXPXPXPXPXPXPXPXPXPXPXPXPXPXPXPXPXPXPXPXPXPXPXPXPXPXPXPXPXPXPXPXPXPXPXPXPXPXPXPXPXPXPXPXPXPXPXPXPXPXPXPXPXPXPXPXPXPXPXPXPXPXPXPXPXPXPXPXPXPXPXPXPXPXPXPXPXPXPXPXPXPXPXPXPXPXPXPXPXPXPXPXPXPXPXPXPXPXPXPXPXPXPXPXPXPXPXPXPXPXPXPXPXPXPXIXPXLXPXPXPXPXPXPXPXPXPXPXPXPXPXPXPXPXPXPXPXPXPXPXPXPXPXPXPXPXPXPXPXPXPXPXPXPXPXPXPXPXPXPXPXPXPXPXPXPXPXPXPXPXPXPXPXPXPXPXPXPXPXPXPXPX",
"H.-.z Y XX/.%X:X%X-X2X9.A B k 0 < - . R o.O.@.6X@.' ' 4.2.( ( 4.,.4.,.<.<.8.4.y.y.8.8.w.w.4.4.7.e.q.y.y.w.q.w.q.4.8.>.A ) ( _ p & O.6X6X6X@.6X6X..@ < l ] 1 5 6X6X6X@.6X6X<X> + f l 3 @ @.6X@.6X6X6X_.OX=XU.f p & @.6X6X@.6X6X6X_.+ < < l < 2 _.,X<X<X<X6X6X3 X < k w ] ) ( ) V _ ( ( ( ) ) ) ( >.>.,.:.>.) q.u.) ) ) Z Z ) r B ) B V ) l f ( ] o . - $ # w < < w w k ) 0 < 0 k f I P.hX=X XZ.` &XXXT.f F Y.            o < * * * * * * $ $ $ * * $ + $ $ $ % % % * $ $ * 2 = + - * * $ X % & % % % % * % + % @ % % % % & + + $ $ % $ + & % X * * * - + = * X D.KXSXvXlXlXgXGXIXGXIXPXKXZXAXLXPXPXUXZXSXAXSXAXSXSXAXSXSXAXSXAXAXAXSXAXSXSXAXSXAXSXAXAXSXAXSXAXSXSXSXSXZXAXSXAXAXAXSXAXSXSXAXSXAXSXAXAXSXAXSXAXSXAXSXAXSXAXSXAXAXAXSXAXSXAXSXAXSXAXSXAXSXSXAXAXAXAXSXAXSXAXSXAXSXAXSXAXSXAXSXAXSXAXSXAXSXSXAXSXAXSXAXAXSXAXSXAXSXAXSXAXSXSXAXSXAXSXAXSXAXSXZXSXSXSXAXSXAXSXAXSXAXSXAXAXSXAXSXAXSXSXAXSXAXSXSXAXAXAXSXSXIXUXSXSXVXhXNXNXVXSXUXKXSXgXhXNXVXNXSXKXUXNXgXVXSXSXSXUXPXPXLXPXIXSXSXIXKXSXZXgXMXNXSXNXVXKXIXSXSXfXNXMXNXNXUXPXIXPXLXKXlXSXIXIXIXIXIXPXIX",
"A.J K Y.+X$X>X3X3XeX-X( A B k 0 < X o 5 O.^ O.@.X.] ' ( _ ( ( ( ,.,.<.<.q.8.,.q.w.q.7.w.q.7.8.4.e.e.e.y.2Xq.y.q.,.i.) ) ) B [ w + O.6X6X6X@.6X6XO.# < l l & l 6X@.6X6X@.6X@.5 + 2 l 2 @ O.+.6X6X6X6XX.:X*X| < p & ..6X6X6X6X6XmX_.O + < l f < ~.6X<X<X<X;X5X3 X + k ] ) ) ] B B ' ( i.( i.( _ i.q.q.q.,.,.,.q.q.q.4.,.8.4.( ) ) B ) ) l l q l l # o # # # # 1 1 q 0 B V k q < 0 k Y &.Y.3.L u '.xXY.Z.D u Z.            8 PXGXLXLXLXLXGX^.D.-XAXFXW.H.).;X).;X,X4XbX>X%XIXPX3X| J.gXIX X` @X6X5X,XzX6XzX,X;.,X,X<X5X,X5XxXX.X.5X5X5X5X;XnXwX .jXPXVXT.5.3XPX*XW ~ R.Q.~.Q.~.5XkX3XvXPXaXW OXbXJXJX4X$X*X:X3X:X3X:X:X3X$X,X:X*X3X3X:X:X:X3X:X>X:X*X:X:X3X:X:X*X3X:X>X:X:X3X$X3X:X3X:X>X:X3X:X:X:X*X:X:X1X:X:X3X3X$X3X%X3X:X3X:X3X$X*X:X:X1X3X:X:X:X>X*X3X3X%X:X:X$X*X:X:X1X3X:X:X:X:X>X:X1X:X:X:X%X3X3X:X:X:X3X:X*X:X:X>X*X3X3X%X:X3X:X:X:X*X:X:X1X:X3X:X:X:X>X:X3X:X:X3X3X:X:X,X*X:X:X>X*X3X3X%X:X:X$X:X3X%X3X:X&XD.-.UXgXY D.3.9 C =.].;.=XaXI.b v %.6.%.3.hX=X| a *.}.].9.fXPXUXUXLXgXJ.S.NXaXD.F.3.v $.;.;.*.fXNX'.;.q $.*.=.%.fXLXbXHXLXwXW Y.jXvXvXnXSXSXgX",
"W Y T.#X+X@X&X1X1X1XV M B w k 9 1 X o 5 T / / R o.] _ _ ( ( ( ) ( >.,.<.q.q.>.q.q.q.7.q.7.q.7.,.i.i.i.q._ q.q.( ) ) ) r w ) r w # [ 6X6X@.6X@.6XO.O $ 3 l < 3 6X6X@.@.6X6X@.< + < l p 2 o.@.+.+.@.<X~._.OXY.z K f ..mX6X6X6X6XmX_.X + l ' c > %X4X+.+.o.o.;X3 X # l ) ] ) ) V ] i.( e.e.q._ i.q.q.8.<.,.,.,.q.q.q.8.8.2.,.) Z ) B ) ) l l l l ) H - - - - - + 1 < w B k w q < 0 l I I d a X a fXVX-XH ` u b             * PXAXAXDXDXJXvXT.K ^.gXlXY.! E./.R.E.Q.).jX>XOXGXGX$XU T.3XAX XH R.;X~.~.<X;X4X,XQ.@XQ. .Q.Q.3X5XX.~.,X~.~.<X,XzXsXW.gXLXaX` Y #XKXOX| _.,X).;X,X,X4XvXsXAXPXaX| OXGXJXvX4X4X4X4XdX4X4X4XdX4X4XdXsX4X4X4X4XdXdX4XdX4X4X4XsX4XdXdX4X4X4X4XdXdX4XdX4X4XsX4XdX4X4X4X4XdXsX4XdX4X4XdX4X4X4X4XdX4X5X4XsXsX4XdX4XdX4X4X4X4XsX4XdX4X4X4X4XdXsXdX4XdX4X4X4X4XdX4XjX4XdXdX4XdX4X4X4X4XsXsXdX4X4X4XdX4XjX4X4X4X4X4XdX4XdXdX4XdX4X4XsX4X4XdXsX4X4X4XdX4X4X4X4XdXsX4XdX4XjX4X4X4X4XjX4XdX4X4XdX4XdXgX&.S.KXhX&.U.S.s %.].qX].8XfXY.D b %.U.%.P.gX1XD.d 6.}.}.`.eXPXGXUXLXVXI.Y.NXsXJ.J.D.b =.].qX;.fXNX[.;.v %.*.*.3.hXLXDXHXHXwX-.Y.vXmXvXnXFXNXNX",
"W U ^.oXoX=X-X1XeXU.0 M w k < < 1 X o > T T T [ c H _ _ _ ) r B Z Z ) Z ) ) ) >.y.q.i.,.( ( >.A ) ) ) ,.i.i._ ) B ) B w ) r ) ] < c 6X6X6X@.6X6X..o 1 3 ] l 3 ;X6X6X@.@.6XX.@ + < c l 2 R <X@.<X<X+.o.R.L.} F z 3 g nXnXnXmXJXmX] o - < k l + ..,X6X6X6X6X..+ o - < ] ) ] ] ) ) _ _ ' i.i.i.i.e.q.i.,.,.,.i.q.q.8.4.,.8.4.) B ) ) ) ) ) V k l _ V < o o o X # < w w B w q 1 < k k D U.&.9 6 L SXSXoXb D.d u             * PXSXGXHXGXIXlXY.|  XZXgXY.G.R.H.G.H.! H.jX4X:XLXIX&XY T.aXvX!.! H.W.R.;.;.;.,X,X-.Q.[.W..XK.%X5X..Q.).).).Q.Q.sXhX@XvXPXaX` ' =XGXOXU R.;XQ.Q.Q.~.5XvXsXAXPXdXD.oXGXDXzXdXdX4X4XsX4XsX4X4XdX4XsX4X4XsX4XsXsX4X4X4XsXsX4XdX4X4X4X4X4XdX4X4XsX4X4X4X4X4X4X4X4XdXsX4XsX4XsX4XdX4X4XsXsX4X4XdX4XdXsX4X4XsX4X4X4XdXdX4XdX4XdX4X4XdX4XdX4X4X4X4X4XdXdX4X4XsXsX4XsX4X4X4XdXdXdX4XdX4X4X4X4XsX4X4X4X4XdX4X4XdXsX4X4XsX4X4X4X4X4XdX4XdX4XsXsXsX4X4XdX4X4XsXsX4X4X4X4X4XdX4X4XdX4XdX4XdX4X4XsXKXNX&.S.KXhXQ T.D.s L ].*.P.&XsXY.L b *.`.%.P.hX*XD.d 6.qX}.`.hXPXGXGXPXgXI.I.NXfXJ.K.Z.b *.].].;.fXNX[.&.v %.0.*.6.hXLXbXHXLXwXQ W.xXvXvXNXFXSXNX",
"Y Q -X5.3.1X-XeX2X2.B B B k < < + X o @ 5 j c ..l l _ _ _ ( ( 4.7.7.<.,.,.<.<.q.|.u.,.e.w.q.8.8.i.e.e.e.y.q.q.q.) ) ) ) ) ) ) ] & 3 6X6X6X6X@.6XO.O + < l p @ O.6X6X6X6X6XO.+ - < < c & g jXnX6X,X~ ..E  ...K H J 2 R.5X4XdX5XL.& - + $ H ' + + j  .R.H.g @ o X X < ) ' ) ) ) ) ,.i.i.i._ e._ i.i.i.,.,.( i.q.q.8.<.4.4.( r ) B k ) B k M q M ( ) 1 1 # # 1 < # < ) l w 0 1 # f f s oX-X$ = U.SXUX'.f Y P *         .   < PXAXGXDXGXLXSXY.`  XxXgXY.I.G i h m m F.vXvX3XKXHX&XW F.3XAX^.A.! m m ;.~ ;.wX>X;.! L &.;._ ^.4X_.~ -.;.H.;.H.sXlX>XZXPXaXW | _.JX#X| H. .-.Q.I. .5XkXaXZXPXgXZ.oXGXAXjXjXvXjXkXkXzXkXvXvXjXkXkXzXkXzXjXkXjXjXkXvXzXkXvXjXjXkXkXvXjXjXvXjXzXkXjXvXvXkXjXvXkXjXjXvXzXlXjXjXvXzXjXvXzXkXzXkXjXjXzXkXkXlXjXvXkXzXkXjXvXjXzXjXkXzXvXjXjXvXjXvXkXzXkXjXvXjXjXkXzXlXjXkXjXzXvXjXjXkXjXvXvXzXkXvXkXkXkXjXvXjXjXvXjXzXjXvXvXkXjXzXjXzXvXjXzXlXkXvXjXjXkXkXkXkXkXvXkXkXkXjXvXjXkXjXkXkXjXmXAXPXNX&.A.KXhX3.P.3.s $.].t.P.8XhXI.D b %.6.%.T.gX*XD.d 6.}.{.{.eXPXIXUXLXSXU.Y.NXsXJ.J.3.C *.].].].fXSX X;.v *.*.*.0.hXLXDXHXLXaX} Y.vXvXnXZXFXNXgX",
"J Z.-XN C |.eX1X5.A Z r M q # % + X . O 3 c c ' ' V ( _ _ ,.( ,.,.,.4.8.i.<.q.,.y.w.4.q.w.q.8.8.,.e.i.i.i.i.i.) ) ) ) ) ) w ) ) < + ] ;X6X@.;X] @ X + 1 ' ( X > .._.;XX.[ @ o X # l ] < $ F :X4X:X).R.L.K.(.XX(.1Xz + > 3 u < O o + $ < V ' f $ X o o . . X X + 1 l ] ( ] ) B ) e.' i.i._ i.( i.i.,.i.) :.i.q.q.<.,.4.,.) r ) ) B ) ) B B y k ( k 1 9 < < q < 1 < A M q 0 < < < < # N N - 6 eXUX6.d s D Y *             * PXAXKXHXKXLXZX XZ. XxXsXY.Y.P i P L m A.ZXvX3XIXGX+XP F.sXZX[.G.U 8 n n n -.&X>X;.n a n n m [.gX.XW a b L b Y gXlXsXFXPXaXQ ` %XHX&X;.;.j j P P ! :XNXaXcXPXhX| ^.HXcXdXkXzXlXkXkXzXkXkXjXkXlXzXkXlXlXvXkXkXkXzXkXkXzXkXlXzXzXkXzXvXjXzXlXkXlXlXzXkXkXkXkXjXzXzXlXzXkXvXkXkXzXkXkXkXzXkXvXkXzXlXkXlXzXzXkXzXzXjXzXkXzXzXkXlXlXkXlXkXkXzXkXkXzXjXjXkXkXzXkXkXzXlXzXzXzXkXkXkXzXkXkXkXlXzXlXkXzXjXkXzXkXzXkXzXkXkXlXzXkXvXkXkXzXzXzXlXzXjXkXkXzXzXlXkXzXlXzXlXzXjXkXzXkXzXkXlXzXmXUXAXPXMX-.D.KXhX-.I.T.a *.].s.P.=XfXY.D b *.6.%.P.gX=XA.d 6.}.}.`.hXPXUXUXLXgXY.I.NXfXJ.J.D.n *.].].*.fXNX[.P.v *.*.*.&.hXLXmXHXLXwXQ W.lXnXnXFXFXNXNX",
"Y G.oX0 M 9.5.7.A ( A B B < # + + X . o + 3 H ` _ ( _ _ _ _ ( ( 4.>.4.,.i.,.,.>.u.y.8.q.q.q.4.,.,.,.i.e.i.i.i.,.) ) ) r ) w ) ,.w # O & 5 5 < + o X + k _ ' 3 + O + @ O o X + # < ) ] l < & F | ! [.#X#XXX#XT.T.T.p < & + + + < + < < < V ' < < < # & 1 < < < l 1 5 ( ' ) ) ] ) ,.e.,.e.i.i.i.i.i.,.:.,.i.i.q.i.1.4.>.>.Z r ) ) B ) B B M < 0 k q 1 = # # # # # # 1 1 < < 1 = # = = * * # V BXUXeXoXD G J.u             * PXFXHXHXHXIXZXoXS. XVXdXY.Y.D a m &.m U.GXxXaXIXKX$XE } 4XvXW.G.Y a n *.a -.wXwX;.v v $.n n [.sX+X&.8 v n v P gXNXaXZXPXfX| ` :XKX@X[.;.8 a $.n m *XZXaXvXPXgXD. XKXcXdXkXlXlXlXnXlXlXlXcXkXlXnXlXzXlXvXzXlXnXlXlXcXlXlXlXlXlXcXlXlXvXlXlXzXcXlXlXlXlXvXlXcXcXlXlXlXlXnXlXlXlXlXcXlXlXzXlXlXkXnXlXzXlXlXlXNXlXvXlXcXvXlXlXzXlXcXzXlXlXlXcXlXlXvXnXnXlXlXlXcXlXlXcXNXlXzXcXvXvXlXlXzXlXlXlXlXlXnXlXlXvXlXlXlXcXnXlXlXlXlXvXzXvXlXNXlXlXvXlXvXvXlXlXlXcXlXlXlXlXnXlXvXvXkXcXkXgXUXUXmXPXMX-.;.KXhX3.P.D.a =.;.;.`.8XaXY.L v %.`.%.P.gX1XF.b 6.qX'.`.eXPXGXUXLXVXI.Y.NXsXK.J.Z.N *.t.].6.fXNX[.&.v *.=.*.6.fXLXAXHXLXwX-.W.kXnXZXZXFXNXNX",
"H  XU.q r :.) r t ) ) B k < - X o o o . o < ' ` V l ' ( ( 4._ ( >.>.>.4.,.,.,.,.q.y.4.q.q.7.,.,.,.,.,.i.i.,.i.) :.) t r ) w ) ) ] = < X X # + + - < < < V ' < < 2 $ < @ < < l < + [ ' 3 & l < p 2 z oX1XeX_ 2 ' l - l c l l l l l ] f < ] ) < f c l ] k B ] H l k w l ) B ) ] B e.,.e.i.q._ _ i.q.,.) ,.,.q.i.,.>.8.>.>.B r B B r ) t B w q < < = # # = 1 1 < = 7 = q N V 0 1 < 9 9 D N s 3.VXVXVXVX3.Y 8Xd         .   * PXZXFXHXFXKXSXoXZ. XxXhXY.U.D b L %.%.'.UXxXaXIXKX#XY } 4XkXW.;.! a $.$.n ;.sXaX-.a a C n n -XgXW.P a n C n &.gXNXaXDXPXsXZ.` $XGX+X;.;.a a n n l =XSX3XlXPXxXJ. XKXZXsXgXkXzXzXkXkXkXkXkXzXkXkXzXkXkXkXkXkXkXkXkXkXzXzXlXlXkXkXkXkXkXzXkXzXkXkXzXzXkXzXzXkXkXlXzXlXzXjXzXkXkXzXzXzXzXlXkXkXkXjXkXkXkXlXkXzXkXkXkXkXkXzXkXgXkXkXkXzXkXkXkXzXgXlXzXzXkXlXkXkXzXzXkXzXlXkXkXkXkXzXkXkXzXlXkXzXkXgXkXkXzXzXgXzXgXjXzXzXlXkXzXlXkXzXlXlXzXkXkXkXkXzXzXkXkXkXkXlXzXkXkXzXkXkXjX{.eXIXUXAXIXMX;.S.KXsXZ.T.P.s %.].t.P.=XhXI.D b *.U.%.T.hX=XD.d 6.qX}.`.hXPXKXGXIXSXI.I.NXaXY.J.Z.n *.].].;.fXNX'.;.v *.=.*.3.hXLXbXHXHXwX-.Y.kXZXzXNXFXNXNX",
"Y oXI 0 0 Z <.r r Z B ) k 1 < < < # & & < < V ' l k ' ( _ 4._ ) ( >.>.,.,.:.,.,.i.u.8.8.7.q.,.<.,.,.e.i.e.,.i.i.) ) ) r w w B ,.k # l w ] ] k ] H V s < l V < u l l l l l l l l < w l < < 2 l 3 u f U.^.XXl < k k f 2 k u 9 f 2 < < f < q 3 k f < 0 q < < < < < < w < w B ] B ) e.e.,.e.i._ i.q.i.,.,.) i.i.i.( 8.8.,.>.t r t t r w r 0 < y q s A _ >.I V _ 2.2.( 2.U.9.N 9 < f N I 9 = 6 U.VXCXVXVX^.&.gXU             * PXnXFXHXKXLXSX XZ.oXvXaXY.I.L u m b m J.ZXkXhXLXUX-X` ..4XzXW.;.&.8 n %.n -.aX>XF.b a %.$.L [.sX[.P v m %.m &.lXlXaXSXPXsX3.' %XLX+X;.;.d v C n L 1XAXaXgXPXSXY. XUXFXjXzXjXgXkXdXgXzXzXkXgXjXjXgXdXkXdXjXkXjXzXdXgXgXjXkXzXsXgXjXkXzXdXgXgXkXgXzXjXgXgXgXkXjXsXzXgXzXjXgXgXzXkXgXgXgXjXkXgXzXkXjXdXkXgXzXgXkXdXjXgXzXdXgXzXzXgXzXgXzXgXzXgXzXgXdXjXgXzXsXgXgXzXgXsXzXdXjXgXzXzXgXgXgXzXjXdXgXzXkXjXkXgXzXgXzXgXgXdXjXgXgXjXkXsXzXgXzXdXjXgXzXgXkXdXgXzXjXdXkXkXsXjXlXaX`.6.eXIXUXAXIXNX&.Z.KXhX3.P.D.s L ].t.P.8XsXY.D b 0.6.%.S.gX*XD.d *.}.{.{.eXPXIXUXLXgXY.I.NXhXJ.J.D.N *.].t.;.fXNX[.;.a *.*.%.*.hXLXJXHXKXaX-.W.kXZXZXZXNXNXNX",
"Y.oXk 0 q r <.r r t B r q < 9 9 f 9 < u < < l H l k _ ] ) _ _ ) A >.>.>.,.,.<.,._ y.i.i.i._ i.i.i.( i.i.,.,.,.,.) ) t r w w w [ k k k k l w w < [ 1 < w l < [ < f < < < < < < 9 k < < 3 < < 2 < < u Y. XoX` < 9 < f 0 f 2 < 9 9 < 0 f < 2 f 9 < k 3 0 f 0 < < w q w 0 0 0 k M ) 5.7.7.7.4.,.i.q.i.) ,.:.i.q.,.,.q.q.,.) r r r B B r q 1 q 0 A u.|.y.u.7.8.q.8.<.w.w.B 9 # 9 d I 3.U.= X a eXVXVXVXVXT.H gXY.            * PXDXFXHXHXPXNX'.3.oXxXfX^.D.z 2 3 3 3  .cXlXhXPXKXoXY T.4XgX[.P.D * u a 6 z 3X1X| d a a i a J.dX^.D 8 a m f G dXxX5XUXPXaX` | 1XJXXXG.D.f s C C z #XmXaXdXPXAXY.Y.GXAXzXZXZXNXZXZXZXZXZXZXZXNXZXZXZXZXZXZXZXZXZXZXZXZXZXZXNXZXZXZXZXZXZXZXZXZXZXZXNXZXZXZXZXZXZXZXZXFXZXZXZXNXZXZXZXZXZXZXZXZXZXZXZXlXcXcXZXZXZXZXZXZXZXZXZXNXZXZXZXZXZXZXZXZXZXzXNXZXZXZXZXZXZXZXZXZXZXZXZXZXZXZXZXZXZXZXnXZXZXZXZXZXZXZXZXZXZXZXZXZXZXZXZXZXZXZXNXZXZXZXZXZXZXZXZXZXZXZXZXnXlXZXZXwX;.;.].aXIXGXAXPXMX-.;.KXhX-.T.D.s L ].t.P.8XfXI.D b &.t.&.P.hX*XD.d 6.}.}.`.hXIXUXGXIXVXU.Y.NXsXJ.J.Z.C *.].].].fXNX[.3.v %.0.*.6.fXLXDXHXHXwX! W.lXvXmXcXSXFXNX",
"!. X0 0 w q >.t 0 B A q = 1 < # = < # = < < < k B l ( ( ) _ _ ( A ( >.,.,.,.<.<.i.q.y.i.i.i.( i.i.) ) i.e.,.i.) t ) t w w w 1 w < < < 1 1 1 < < 1 1 w 1 1 < < < < < < < 0 k u 0 < k w w q 0 w k f s !.^.!.Y.d f l k l k l k k k l k l k k k k l l k l B k l w ] ( ( ) l ) _ ( Z 4.e.e.7.q.,.,.i.i.:.:.Z <.q.>.>.i.i.( B B B t r r w 1 w r 4.y.|.u.8.i.u.q.<.8.u.1.q # q s I 9 u P.D.* - V VXCXVXCXVX|.` VX=X            * HXzXFXHXFXIXNX'.Z. XVXaXG.Y |  . .H.E.:XGXdXsXLXKXoXU F.aXxX[.-.G c K F x L.dX*XY m h h j i R.gX^.D i 8 i 3 F 5XjX3XAXPXaX` T.1XbX.XA.| 2 * 9 < 2 _.vXsXxXLXZXY.Y.ZXZXNXZXFXFXZXFXZXFXFXZXFXFXZXFXFXFXFXFXZXZXFXZXZXFXZXZXFXZXZXFXZXZXFXZXZXFXFXZXFXFXZXFXFXZXFXZXZXZXZXFXZXZXZXFXZXFXFXZXZXZXZXFXFXFXFXFXFXFXFXZXZXFXFXZXFXFXZXFXFXZXFXFXFXFXFXFXFXFXZXFXFXZXFXZXFXFXFXFXFXZXFXZXFXZXFXZXFXFXFXZXZXZXZXZXZXZXZXFXFXZXFXZXZXFXFXZXFXFXZXFXFXZXZXFXFXZXFXFXFXFXFXFX[.L ].].P.8XIXUXVXIXNX&.D.KXgX&.U.3.s $.qX;.P.=XhXY.D b *.6.%.T.gX1XD.d 6.qX}.`.uXIXGXUXPXxXI.I.lXfXJ.J.D.b *.].].;.fXSX[.;.v %.=.*.3.fXLXbXHXIXaX-.^.gXvXvXnXFXNXgX",
"^.3.0 0 w y Z $.0 q 0 q q 6 y 9 < = 9 9 < 9 9 0 B B l ) ( _ _ ( ) ) ( >.,.,.,.,.i.i.y._ _ i._ i.i.,.,.i.i.i.,.) ) t w w w w w w w k l k B w r ) ) w B w ] l ] ) I _ V V l ( ' _ _ ' ] B ( _ 4.q.` 5. X5.D.!.T.5._ ` U.!.!.!.5.3.9.!.!.!.w.e.w.{.{.|.{.y.y.y.2X{.2Xy.{.y.2X2Xu.Z e.q.q.q.7.,.,.8.,.) ,.) i.i.:.8.q.( ) B r r r w w y w ) u.u.u.u.<.u.u.i.i.u.q.1.q = s _ k T.9 6 I.b 6 $ U.VXVXCXCXCXeX{.VXeX            * KXzXFXHXFXLXgXU.U -XVXaXA.! Q.(.).).~.%XzXjXdXIXKXoXY I.hXNX[.&.| L.R.X.o._.dX%X! ! Q.X.~.~.sXgXF.Y E.E.E.R.R.jXjX3XSXPXhXQ | *XHXoXQ J E  . .} | 5XvXaXdXPXSXY.J.lXlXsXlXNXzXZXzXlXlXlXlXzXNXlXZXlXlXNXzXZXlXNXNXlXlXZXlXlXNXNXNXNXzXNXlXlXlXlXNXlXNXzXNXlXlXlXNXlXlXNXzXNXlXZXlXlXlXlXlXlXNXlXZXlXlXlXlXzXlXNXlXlXlXlXlXNXNXzXNXlXlXlXZXcXlXNXNXNXNXzXNXlXlXlXlXlXlXlXNXlXNXNXNXlXlXlXlXlXlXlXNXzXNXNXNXNXNXNXNXNXNXlXlXlXlXlXlXNXNXZXNXNXlXNXNXlXlXlXlXlXlXlXW.d &.'.].P.fXIXmXmXPXNX&.;.KXhX&.I.Z.a *.t.;.P.8XsXI.D v *.`.%.P.hX=XD.d 6.qX{.'.hXIXKXGXIXxXY.I.NXsXY.J.A.n $.;.].*.fXNX[.Z.v %.*.*.6.hXLXAXHXLXaXQ W.kXvXmXNXFXSXNX",
"^.I q w w y r ( A $.I $.M N C 3.2.M 0 A A A A 2._ ( B w k ' _ ) ) A ( >.,.<.<.i.i.i.q.q.i.i.i.( i.i.,.i.,.,.i.,.) t w w ,.i.i.i.' {.{.e.2Xq.i.i.2X2X2X2Xy.y.e.2XeX1X|.|.!.-X|.2X|.{.w.!.{.2X2Xy.!.{.2X|.-XoX|.{.|.2X|.2X|.|.|.|.|.eX|.|.{.y.|.7X2X|.|.y.2Xu.2X{.2Xy.y.7X{.2X:.) q.q.e.q.8.8.8.8.,.,.,.,.q.,.,.q.q.,.) ) r w 0 y w t i.i.u.u.i.u.u.u.i.i.i.<.) S 0 N A I eX=X9 s P.a 6 6 2XUXCXCXVXVXVXeXVX1X  .     .   * LXcXJXHXFXIXaX3.&.oXNXwX;.H.).%X,X,X;X,XmXjX4XIXFXoXP I.fXNX'.&.K.R.X.~.X.~.5X%X~ Q.~.X.o.o.,XdXL.L./._._.~._.jXkX3XFXPXaX-.| 3XKX+XY ! o.X.Q.~.~.5XmXsXhXLXAXY.S.SXAXsXsXlXsXgXlXgXdXgXzXlXsXgXzXdXgXzXgXgXzXzXsXgXgXzXgXzXgXsXgXzXlXkXsXgXgXzXgXzXsXgXgXgXzXlXsXgXgXzXlXzXgXgXzXdXgXgXzXlXsXgXzXgXjXsXgXgXlXkXdXgXkXzXgXzXsXgXgXgXzXsXgXkXsXzXsXzXsXgXgXgXzXgXlXsXgXzXgXsXzXzXgXgXzXgXgXdXgXzXgXgXgXzXzXsXgXsXzXsXzXgXgXzXgXzXgXzXsXzXsXzXgXzXgXgXzXgXgXzXgXwX;.m *.].;.P.fXIXGXVXPXMX-.S.UXhXQ P.T.a =.;.s.P.8XgXY.L b *.P.%.U.gX=XF.s 6.}.'.`.hXPXKXKXIXNXI.I.NXaXK.J.;.n =.].].].fXNX[.&.v %.*.0.2.hXLXbXHXLXwX-.Y.vXvXmXZXFXNXMX",
"!.k q w w y 0 ,.$.8.|.|.|.y.|.7X7X2Xy.{.|.{.|.|.7Xu.i.) w ] ' ) ( ) ) 4.i.i.,.,.i.i.q.i.i._ i.) ,.i.,.i.i.i.,.) ) t w t u.2XB.2Xy.2X2Xu.2Xu.u.2Xu.2X2Xy.y.2Xy.2X2X2Xy.2X|.|.|.2X|.{.y.2Xu.|.y.2X{.|.2X8X-X|.|.|.2X7X2X|.|.|.|.2X-X2X7X|.|.y.u.2X2X7X2Xb.|.2Xu.2X2Xu.|.u.|.|.>.Z w.9.u.9.8.8.8.<.,.,.:.i.q.,.,.8.4.( B r w q y w ) i.u.u.q.u.u.u.8.u.u.q.<.) Z S 0 a s ` SXVXs D -.* - a fXCXVXCXCXVXCXVXUX2X            * LXbXbXJXJXLXaXZ.U +XSX,X;.Q.,X@X).@X;X4XFXdXsXIXKX[.-.S.hXlXY.-.Q.;XQ.Q.;X,XjX).X.;X;X<X,XQ.,XdXE.).>X5X5X>X4XcXlXaXZXPXaX` | 1XHX-XY ~ ;X;XQ.X.~.,XAXaXdXPXcXD.S.SXDXzXlXlXsXkXkXgXgXlXgXlXzXkXgXkXdXgXgXgXgXzXkXkXkXjXkXgXkXzXgXgXzXkXkXkXkXkXgXdXkXzXgXzXgXkXzXgXzXgXlXzXgXgXjXgXgXlXgXzXgXkXkXdXgXzXlXkXkXgXjXkXgXkXjXgXkXzXgXlXsXkXkXgXgXkXkXkXkXzXgXzXgXkXzXgXjXkXgXkXgXzXgXzXgXkXkXdXkXjXgXkXdXjXkXgXgXzXgXsXlXkXjXgXgXjXkXkXkXgXgXkXkXsXsXlXlXjXkXaXgX>X;.m %.].P.P.fXUXUXUXIXNX&.S.KXhX3.S.T.s %.].=.].wXfXY.L b &.t.%.P.gX1XD.d 6.qX}.{.uXIXUXGXPXgXY.J.lXhXJ.J.D.N *.].].;.fXNX'.;.a *.*.*.&.hXLXDXJXLXwX! W.lXnXnXZXFXNXNX",
"T.< q y q q y :.,.t :.u.u.u.|.u.y.7X2X7X7X|.|.7X2Xy.{.q.( ) ) ) ) ) ) ( <.i.i.,.) i.q.i.( i.i.i.i.i.,.,.i.,.i.i.) ) w :.tX2Xu.u.u.u.u.2X2Xu.u.2X2X7X2X2X2Xy.2X2X7X2X|.y.|.2Xb.y.|.{.|.y.b.2X7X|.{.|.7X|.|.7X|.|.|.|.|.|.7X|.|.|.2X7X2X|.y.2X2X7Xu.2Xu.u.u.7Xu.b.b.|.y.2X2X{.>.>.9.y.y.7.9.8.8.4.,.,.) i.q.>.4.8.,.) 0 q < y w ,.y.q.<.i.u.i.i.i.u.u.u.>.) Z Z 0 - 6 b G gXgXp G &.% - L VXCXCXVXCXCXVXVXUXeX  .         * LXbXJXDXbXLXsXZ.U -XvX,X;.;.Q.Q.;.Q.Q.;XzXsXzXIXFX[.Q J.dXgXU.! Q.;.~ X.X._.4X~...)./.Q.Q.Q.4XdXY.(.).).).,X>XlXlXaXUXPXsX-.Z.1XGX-XY Q.,X,X~.Q.;X5XAXfXdXPXlXT.D.vXFXsXsXzXlXkXkXjXjXzXsXgXgXkXkXkXjXgXzXkXkXjXgXjXkXgXgXzXkXlXzXzXgXdXkXdXkXjXjXkXkXgXzXgXlXdXgXkXkXlXsXzXgXkXkXjXzXzXgXzXsXkXkXkXkXgXzXgXzXsXkXkXkXgXgXzXgXzXgXgXzXjXkXkXjXjXdXkXkXgXzXgXlXdXgXkXkXjXzXgXkXsXlXzXgXkXkXkXkXjXkXkXkXgXgXzXzXNXzXgXzXkXkXjXjXdXkXgXkXzXzXgXkXzXlXsXzXnX8X[.hX>X;.m &.'.].6.eXIXUXmXIXMX-.D.KXhX` P.P.s L ].t.`.8XsXK.D b *.P.I P.hX*XD.d 6.}.`.U.hXIXGXUXIXSXU.I.NXhXJ.J.D.b =.].].*.fXNX[.;.v *.=.*.6.fXLXbXHXLXaXQ W.kXnXZXZXFXNXNX",
"_ = 1 # 1 q y B 7.$.t Z u.u.|.u.u.|.7X2X2X7Xy.y.2X7X|.b.e.( ) B ) l r ( i.,.i.,.i.i.y.q.i.i.i.( ,.e.i.i.i.i.i.,.) ) t i.2Xu.u.2X2Xu.2XB.v.2Xu.u.7X2X7Xy.u.2X7X2X2Xy.y.2X2X|.7X2X|.y.2X2X2Xu.2X2Xy.2X2X{.y.|.|.y.|.|.2X|.|.y.y.2X7X|.2X|.|.7X2X2X2Xv.2Xu.u.2X2Xu.y.y.y.7X7Xu.( 4.8.y.w.y.8.8.8.1.,.,.,.i.8.,.7.7.4.t 1 1 q Z 9.w.q.q.q.u.i.<.i.u.q.>.Z t Z S 9.v # = d z hXdX: Y Y * $ `.UXVXCXCXCXVXVXCXUX-X            * LXbXJXJXJXLXaX| Q &XZX,X;.;.-.~ ;.;.-.[.cXsXkXIXFX[.Q J.dXlXI.-.;.-.;.I.A.K.3X).} K.W.;.[.H.&X3XK.E.E.H.W.W.[.fXNXaXZXPXaX` F.:XFX[.P o.).Q.Q.Q.Q.:XcXaXdXPXSXS.Z.vXDXsXkXlXzXkXkXlXzXlXzXzXlXkXkXkXkXzXzXlXzXkXkXkXkXzXkXzXkXlXlXgXzXkXlXkXlXkXkXkXlXlXzXlXzXlXzXkXkXzXlXzXgXkXkXlXzXkXlXNXzXkXkXkXkXlXzXlXkXlXkXkXzXzXkXzXlXzXlXlXzXlXkXkXkXkXkXlXkXlXzXlXzXlXzXlXkXkXkXlXzXlXzXzXgXkXkXkXlXkXkXlXkXzXkXzXlXlXzXlXgXkXlXkXlXkXkXkXkXkXkXzXlXlXlXNXlX8XP. XgX=XS.m %.].P.P.eXIXAXVXPXMX&.S.UXhX-.T.D.s L ].].P.=XhXI.D n *.P.%.P.gX*XD.d 6.}.}.`.hXPXKXUXIXgXI.I.SXsXY.J.6.b *.;.].].fXNX[.&.v %.*.%.6.hXLXbXHXLXwX-.Y.kXZXzXNXFXNXNX",
"5.M w y # 1 # y <.1.,.:.1.u.u.u.u.|.|.y.7X2Xb.|.u.b.2X2X|.y.) r w ) ) ) i.i.i.i.( i.q.w.i.i.4.i.,.i.e.,.i.e.i.i.,.) t i.2Xu.u.2Xu.tX2Xu.u.y.2X2X2Xu.2X|.|.2X7X2X7X2X2Xy.7X|.2X|.|.y.|.b.u.2Xu.u.|.7X|.|.2X2Xy.|.7X|.|.7X|.u.2Xb.|.2X7X{.|.y.y.|.y.2Xu.u.2Xb.u.2Xu.u.2X2X2Xq.4.9.w.t.9.8.8.8.<.2.,.( i.i.8.>.4.4.4.w 1 q A y.y.q.q.u.u.i.i.u.u.<.$.r M A B V eXV $ $ d D eXaX6 U P $ 6 8XUXCXUXCXVXCXCXCXCXeX            * PXbXJXmXJXLXaXU Q *XZX,X;.;.m j ! &.P .XZXsXgXIXFX[.P J.kXkXW.;.~ n m %.m Z.sX:X! m C *.&.&.XXxX^.Z.U P &.P Q sXvX3XmXPXaX` | $XKX[.-.;.~ -.;.S.! /.NXwXdXPXSXJ.| xXKXzXNXZXNXZXZXZXZXZXZXZXNXZXZXZXZXNXFXNXZXZXZXZXZXZXZXZXZXZXZXZXNXZXZXnXZXZXZXbXZXNXZXZXZXZXZXZXZXZXZXZXZXZXZXZXZXZXZXZXZXDXcXZXbXNXZXZXZXZXZXZXZXZXZXZXZXZXZXFXNXcXZXZXZXZXZXcXZXNXZXZXZXZXZXZXZXZXZXZXZXZXZXZXZXZXZXcXZXZXZXZXZXZXZXZXZXZXZXZXZXcXDXcXZXZXZXcXZXZXZXZXZXlXFXzX].].`.[.gX=XS.m &.].].9.eXIXUXAXIXNX&.D.KXdX-.P.D.s $.].*.P.8XfXY.D b 2.6.%.U.gX*XS.d *.}.}.`.eXIXUXGXLXVXY.I.lXfXJ.J.D.b *.].].*.fXSX[.Z.v %.=.0.%.hXLXDXHXLXaXQ W.kXZXZXZXNXNXNX",
"I A _ B q 7 # # ) <.:.1.1.>.<.u.u.y.7Xy.u.7X|.7X|.y.|.7Xy.2Xu.i.) 0 w ) 8.<.q.i.,.,.q.y.q.4.i.,.,.e.i.i.e.i.i.i._ ) ) y.2Xu.2Xv.u.v.2X7X|.y.|.|.2Xu.2Xu.2X7X2X2X2X|.|.|.|.2X7X|.u.|.|.y.y.|.|.y.y.|.|.2X7Xy.|.7X|.|.b.y.y.|.|.2X|.|.{.y.|.|.y.2X2Xu.|.|.y.|.u.y.u.{.|.2X7X( Z >.2.1.4.0.4.2.:.) ) ) <.q.) t ) ) w y 0 4.y.y.q.q.u.<.<.u.i.<.<.8.4.>.2.A M 4.UX'.6 X d L +XwXf -.m - s MXUXCXUXCXVXVXUXCXCXeX            * PXbXJXJXJXIXaX! Q >XSX>X[.;.m a P L b [.AXhXdXPXFXoXQ H.gXgXY.-.m a n %.n &.wX1X| N a n $.n ;.dXXX` 9 a L b P 3XvX3XmXLXdX3.Z.%XIX-XP.A.i a L m m #XUXwXdXPXSXJ.| xXDXgXlXFXFXZXDXDXDXDXDXDXDXDXDXDXDXDXDXDXDXDXDXDXDXDXDXDXDXDXDXDXDXDXDXDXDXFXZXDXDXDXDXDXDXZXDXDXDXFXZXDXDXZXDXDXDXDXDXDXDXDXZXFXDXDXDXDXDXDXDXDXDXZXDXDXDXDXDXDXFXFXDXDXDXDXDXDXDXFXZXFXZXZXFXFXZXZXFXZXDXFXDXDXDXZXDXDXDXDXDXDXDXDXDXFXZXDXDXDXDXZXDXDXDXFXDXDXDXZXDXDXDXHXsXm *.}.'.[.gXwXD.m %.'.P.P.fXIXUXAXPXBX&.S.KXhX-.I.3.a *.].s.P.=XfXI.D n &.t.&.P.hX*XD.d 6.qX}.`.hXPXIXUXPXgXI.I.NXsXJ.J.D.N *.].].;.fXNX'.;.v *.*.*.3.hXLXJXHXLXaXQ Y.lXvXnXnXSXFXgX",
"V B Z >.>.Z y # w 8.>.>.,.1.:.1.u.7X7X|.|.u.u.u.2Xb.u.u.7Xu.y.2Xe.) < w ,.i.i.q.<.,.q.q.q.i.7.( ) i.i.e.i.q.e.q.q.) ) 2Xy.2Xu.u.2X2Xu.u.u.y.|.|.u.2X2Xy.|.2X2X7X|.{.|.7X|.|.2X|.|.|.|.|.|.|.u.{.|.|.|.y.y.|.u.2X2X2X2Xy.y.y.|.2X|.2Xy.y.y.|.{.{.y.i.y.y.y.y.y.u.9.{.|.|.{.4.( >.7.9.w.y.y.7.,.>.,.) q.8.:.>.4.4.Z Z 7.w.7.4.<.8.,.:.u.u.1.<.8.8.>.>.2.>.s -XIXhXa $ 8 m oXwXd -.b - 3.VXUXUXCXUXUXCXVXCXCXeX  .         * LXbXGXGXAXLXhX-.Q &XSX=XI.I.d a m C b -XAX3XdXIXKX-X-.G.lXgXY.;.P 8 n n n &.aX#X5.s 0 $.n n -XdXoXI a v b v L aXVX3XAXLXdXD.Z.$XIX&XP.S.6 8 %.n b +XSXwXsXPXAXY.Z.vXDXdXlXnXZXnXlXZXcXcXZXcXcXcXcXcXnXcXcXcXZXcXcXcXcXZXlXcXZXcXcXcXlXnXcXcXcXnXcXcXcXnXcXcXcXcXcXcXcXZXZXZXnXcXcXcXcXZXnXlXZXcXcXcXcXcXlXZXnXcXcXnXcXcXcXcXcXcXcXcXcXcXcXcXcXnXcXcXcXnXcXnXZXnXcXcXnXlXZXcXnXcXcXnXcXcXcXcXcXcXcXnXcXlXZXnXcXcXcXcXcXnXcXcXcXcXcXnXcXnXlXZXDXwXP 8 *.qX'.[.gX=XA.D %.].;.P.8XUXUXAXIXgX3.S.KXhX-.P.T.a *.;.;.P.8XsXY.D v *.6.%.T.gX1XD.d 6.}.'.{.eXIXGXKXIXlXY.I.NXfXJ.J.3.n *.t.].6.fXNX[.;.v *.=.*.*.hXLXbXHXHXwXA.Y.lXvXvXcXFXNXNX",
"k S B Z Z ) ( r 0 2.0.>.:.t t Z :.q.y.2X2Xu.u.u.y.tX2Xu.7X2X7X|.rXy.) w ) <.i.i.<.:.,.q.y.7.i.( ] i.i.e.( i.( ( _ ( ( 2X2Xy.y.y.u.u.y.2Xy.|.{.{.2X2Xy.2X2X7X|.|.{.{.{.{.u.2Xu.y.u.|.{.|.u.|.y.y.u.y.|.|.{.y.y.y.2Xy.y.y.u.y.y.y.u.y.y.w.y.y.y.w.y.q.y.w.q.y.y.y.7.w.{.w.y.y.w.w.{.y.{.y.{.y.4.>.,.:.q.q.<.8.7.8.:.4.q.0.4.,.4.1.:.<.i.1.1.<.8.<.( :.A A A BXUXVX&.- 6 D '.8Xm &.u = -XUXCXUXUXCXCXUXUXVXUXeX        .   * PXbXGXGXDXLXhX-.-.8XFX=XI.I.n b %.I L 2XAXaXhXPXUX+XW T.cXNXI.;.&.a n %.b D.hX#X` v v *.n n -XdX^.P a v n n P hXZXaXAXPXgXP.-.+XIX-X;.D.a a C n b .XUXaXhXPXKX X` gXFXkXcXZXnXDXcXnXZXcXnXbXcXcXcXbXbXcXcXcXnXcXcXcXZXcXcXcXnXcXcXZXcXcXZXbXcXZXcXDXcXZXcXcXcXnXZXcXDXcXnXZXnXbXcXZXnXcXbXcXbXcXcXbXcXZXcXcXbXZXcXcXcXcXcXcXZXZXcXcXcXcXcXnXcXcXcXbXcXcXcXZXnXZXcXnXZXZXnXZXcXcXcXcXcXbXcXcXZXbXcXcXcXbXcXcXZXcXDXcXZXZXcXZXcXcXcXcXcXcXDXnX=XI.P n *.}.'.[.gX>X;.m %.].P.P.fXIXUXVXIXMX-.Z.KXsX3.U.3.s $.].t.P.8XsXY.L v &.`.%.P.gX=XD.d 6.qX}.`.hXPXGXUXLXVXU.I.NXsXJ.J.D.b =.].].;.fXNX[.P.v *.=.*.6.hXLXDXHXLXwX! ^.xXmXmXNXFXSXNX",
"s B B Z t r B ) Z >.8.>.1.:.:.1.<.<.i.b.7X|.7Xu.u.u.2Xb.u.y.y.|.2X2Xy.t ) :.,.:.) ) ) q.y.i.7.( ) ,.) i.( i.i.) i.i.q.y.y.2Xy.y.y.y.y.y.y.y.{.{.7X{.|.{.{.|.2Xy.{.y.w.y.y.y.y.q.q.u.y.y.y.u.q.7.y.y.y.y.y.q.y.y.y.y.y.e.q.y.y.q.y.y.q.q.q.y.w.w.q.q.q.e.y.w.w.q.7.9.{.w.e.y.{.w.9.y.u.{.{.y.>.>.>.( q.q.,.<.8.,.) 7.7.8.4.8.0.,.1.<.i.<.>.u.7.>.( ( 2.N 9.UXVXUX'.= = m I.oXb U 8 9 uXUXCXUXCXUXUXCXUXVXUX1X  .         * PXbXGXGXUXPXsX-.-.&XSX-XI.;.a i b N d (.AXdXxXLXKXoXY S.lXgX'.;.P a P L b 3.aX-XU b v m m *.[.dX^.P v m %.m P fXcX1XvXLXxXU.3.XXHX-X;.P.f v C C m XXGXaXgXPXUXY.U gXGXkXlXZXZXcXcXZXZXcXDXZXZXZXZXZXZXZXDXZXbXZXDXZXDXZXDXDXcXDXbXZXDXbXZXZXZXZXcXcXDXDXZXDXZXcXDXcXDXZXZXZXZXZXZXZXZXcXDXZXZXDXZXZXZXDXZXZXbXZXZXDXZXZXDXDXnXZXDXnXZXZXDXZXDXZXZXZXDXDXZXZXnXZXZXZXZXDXcXDXZXDXcXDXZXZXZXbXZXZXcXDXDXZXZXbXZXcXDXZXZXDXbXZXZXDXcXDXcXZXFX+XZ.I.P a ;.].'.oXhX>X;.m &.].].P.eXIXUXmXPXgX&.P.KXhXZ.U.D.s L t.].U.8XfXY.D b 0.6.I P.gX=XF.d 6.}.}.U.hXPXUXGXPXgXY.I.NXsXJ.Y.D.N *.].].6.fXSX[.&.a *.*.%.3.fXLXDXHXIXaX-.^.gXvXnXZXFXNXMX",
"V M B Z t t r B Z >.8.>.:.<.8.8.i.8.<.t.u.u.{.u.q.q.8.t.u.8.q.t.u.y.u.q.q.u.q.u.u.q.,.u.y.q.7.8.i.i.q.q.e.i.e.q.q.y.y.y.y.y.y.y.y.y.q.y.w.w.!.y.!.{.{.{.{.|.!.{.w.9.9.e.w.w.w.q.q.w.q.w.w.w.9.7.w.y.w.w.e.w.e.q.y.{.e.y.q.w.w.w.y.y.q.q.w.y.y.w.7.5.7.9.e.w.e.7.5.9.{.{.9.{.y.9.{.y.y.{.|.q.>.>.:.>.7.,.<.8.q.:.>.8.0.2.8.7.8.>.1.1.8.1.1.w.q.>.>.A >.M -XUXVXUXfXu = b G.'.b Y 6 P VXUXCXUXCXCXCXUXUXCXUXeX        .   * LXbXKXFXFXPXsX-.Q 8XFX8X;.Q i 3 i p f ^.mX4XgXPXGX+XQ J.vXgX'.G.m * 6 8 6 V 3X2XK d 8 8 8 8 Q.gXW.D 8 8 i 8 m 5XvX3XAXPXgXU.Z.+XGX&XI.} 2 9 N N 3 (.JXsXgXLXFX X| gXDXdXcXbXZXbXcXZXbXZXnXZXbXcXbXZXnXcXbXcXcXZXbXcXnXcXbXcXZXcXnXZXcXbXcXZXbXbXcXcXZXcXZXcXcXnXZXbXcXbXZXcXbXcXbXcXZXcXZXcXbXZXnXcXbXcXcXcXDXcXZXcXbXcXbXcXcXcXbXcXbXcXDXcXcXbXcXcXDXcXcXbXcXZXnXZXZXcXcXZXcXcXDXnXZXcXbXnXZXcXnXnXZXcXcXnXnXZXZXnXnXcXcXcXZXbXcXcXDXDXgX XS.U.Y a *.}.].[.gX8XG.m %.'.;.P.eXIXUXmXPXNX&.P.KXhX-.T.D.s L t.].P.8XdXY.D b *.P.%.P.hX1XD.d 6.qX}.`.eXPXKXUXIXVXY.I.VXfXJ.J.D.b *.;.].*.fXNX[.;.v *.0.*.0.fXLXDXHXLXwXQ W.lXnXnXZXFXNXNX",
"9.q S t Z t t t Z Z 1.<.:.,.:.1.8.i.<.<.8.i.u.u.u.i.8.q.u.u.u.t.u.u.t.i.i.q.u.u.q.i.,.q.y.q.4.,.) i.i.e.i.i.i.e.q.q.e.y.e.e.e.y.y.q.y.e.w.9.9.{.w.{.!.!.{.{.{.{.!.w.q.w.y.q.w.4.e.q.w.y.w.e.w.9.w.w.w.w.w.q.e.w.y.y.y.e.e.e.q.q.q.q.e.q.w.y.y.w.7.5.7.9.e.w.9.4.5.5.{.|.{.y.y.9.7.9.7.8.7.,.,.>.A <.8.,.8.q.<.) >.9.4.1.2.0.2.>.>.4.<.>.1.q.8.1.A >.A V MXVXUXUXVXI - a Z.U d P 6 `.UXCXUXVXUXUXCXUXVXUXUX2X  .         * LXnXHXJXDXLX3XQ &.wXKX@X-.! H. .L.Y.W.dXJX3XgXPXKXoXY I.xXgXY.Q G F K x c X.jX$XJ h m m m j @XzXI.G h d i 3 x 5XjX1XmXPXNXS.3.#XGX=XI.| 2 2 u & < R.AXaXsXPXIX-XZ.xXGXsXlXcXcXcXcXcXcXcXcXcXcXcXcXcXcXcXcXcXcXcXcXcXcXcXcXcXcXcXcXcXcXcXcXcXcXcXcXcXcXvXnXcXcXcXcXcXcXnXcXcXcXcXcXcXcXnXcXcXcXcXcXcXcXnXcXcXcXcXcXcXcXcXcXcXcXcXcXcXcXcXZXvXcXcXcXcXcXcXcXcXcXnXnXlXnXcXcXcXnXnXcXcXlXlXcXlXlXvXcXlXlXcXvXvXlXlXvXcXlXvXcXlXlXcXcXDX3X=XSX XS.I.Y v *.}.'.[.gXwXD.m %.].].P.eXPXGXVXIXNX&.;.KXhXU P.D.s %.qX*.P.8XfXJ.D v 6.t.%.T.gX*XD.d *.qX{.{.hXPXKXGXLXxXI.I.lXsXJ.J.D.n *.].].].fXNX[.&.v *.*.*.&.hXLXbXHXLXwX-.Y.zXcXZXZXFXNXNX",
"eXk S M B t r r t t <.<.<.1.:.:.<.8.<.i.i.8.u.y.q.<.8.t.|.u.u.q.i.i.u.i.i.i.u.q.q.q.,.i.u.q.q.,.,.,.e.i.e.i.e.i.q.q.y.q.q.q.e.w.e.e.y.e.9.{.{.w.U.{.w.w.!.{.{.!.w.e.q.w.w.w.w.e.e.w.w.{.w.{.w.9.w.!.w.w.w.9.q.w.y.w.y.w.q.e.w.y.w.q.q.q.w.w.w.w.9.7.7.5.9.U.9.5.5.7.U.{.{.9.4.7.7.7.7.7.8.,.,.>.:.8.8.1.8.7.,.:.8.8.2.2.2.0.2.>.1.8.1.:.,.8.0.>.>.>.M 5.UXUXCXUXUX`.* a P P P N b =XUXCXCXUXUXCXUXUXCXVXUX1X            * LXnXHXDXFXLX3XY Q wXKX[.! P Q.Q.L.E.R.5XmX4XvXPXUX[.P Y.SXgXU.K E X.~.X...%XjX(.Y  .R.;.;.<XsXaX} E  .R.~.Q.Q.jXxX1XvXPXNXP.Y XXGX&XA.K c X.L. ...:XbXaXsXLXIX#X| gXGXjXcXnXcXZXcXcXcXZXcXnXcXcXDXcXcXZXnXbXZXZXnXcXZXZXnXnXcXcXbXDXcXnXZXZXbXcXZXnXZXZXnXbXZXbXZXcXZXZXcXnXZXcXcXbXcXDXcXZXnXDXcXcXcXcXcXcXcXnXcXcXZXZXnXZXZXnXbXcXZXcXnXZXZXcXnXnXZXcXZXnXZXZXZXZXZXbXcXZXbXcXcXcXFXHXHXHXHXHXHXHXHXHXHXHXHXHXHXHXHXHXHXHXHXHXDX>XI -XvX XP.Y.I a ;.}.;.+XgX=XD.m &.].].;.eXIXUXAXPXMX&.D.KXhX-.I.3.a %.].=.P.8XhXY.L v 3.P.%.U.hX1XF.d *.qX}.`.eXPXKXUXLXVXY.I.lXhXJ.Y.-.b *.].].*.fXNX[.3.v %.=.*.0.hXLXDXHXLXaXQ W.lXnXzXNXNXNXNX",
"VXC M B t t t t t t :.i.<.:.:.>.1.i.t.i.8.r.q.u.u.q.8.q.u.u.t.8.q.q.i.u.q.i.r.u.u.q.<.<.y.q.i.,.,.,.i.e.q.i.( i.e.q.e.q.e.q.e.y.y.2Xy.y.w.w.w.w.!.w.!.w.w.!.{.{.w.w.e.e.y.q.w.w.e.e.{.w.w.{.U.9.{.w.!.{.w.e.w.w.y.w.e.q.w.q.w.w.y.e.q.q.e.w.w.w.9.7.7.9.9.w.e.5.5.9.9.9.9.9.7.4.8.8.8.7.i.,.,.( :.q.<.>.9.7.>.>.7.9.0.2.0.5.2.>.2.7.>.( 1.,.,.>.A A B rXUXCXCXUXUXfXN u Z.I.J.I Y BXUXCXUXVXCXUXCXVXUXCXUXrX        .   * PXnXHXDXJXLX*XY U wXKX+X! ;.,X:X).,X).5XmX5XdXPXFXW.P J.cXgXS.! R.Q.X.X.X.X.jX).~ H.Q.<XQ.^ ,X>X! A.R. .o.X.R.4XxX3XSXPXgXP.U XXSX+XP ~ ..X.o.Q.Q.,XFXaXgXLXKX/.Y gXHXlXlXFXZXZXZXZXDXZXZXDXZXZXZXZXFXZXZXZXZXZXZXZXZXZXDXZXZXFXZXZXZXZXZXZXZXZXZXZXZXDXZXZXZXZXZXZXZXZXZXZXZXZXFXZXZXZXZXZXZXZXZXZXZXFXZXZXDXFXZXZXZXZXDXZXZXDXZXZXZXZXZXZXZXZXDXZXZXZXZXZXDXZXZXZXZXZXZXZXZXZXZXHXsXE.E.W.W.W.W.W.W.W.W.W.W.W.E.W.W.W.W.W.R./.cX^.G -XSX XS.Y.P a *.qX'.[.gX>XP.D %.'.;.P.fXUXUXAXIXNX&.S.KXhX-.P.T.a *.].].P.=XhXI.D b %.6.%.P.gX=XG.d 6.}.{.'.hXIXKXKXIXlXU.I.lXhXJ.J.-.n *.].].].fXNXoX&.a %.*.*.3.hXLXbXHXHXwXZ.W.gXNXZXFXFXNXNX",
"UX{.0 S B t t t t t $.i.q.:.:.1.1.<.<.u.u.<.8.y.q.0.4.0.u.8.8.8.8.8.u.i.t.i.i.u.i.q.<.<.w.y.8.8.>.,.8.q.q.8.8.4.q.w.q.q.w.w.9.9.y.{.!.w.w.w.{.w.w.w.w.9.w.!.y.w.w.q.9.e.w.q.w.y.!.w.!.{.{.!.w.e.!.{.!.{.w.w.!.q.w.w.y.y.e.w.w.y.w.e.q.e.7.e.w.w.9.7.9.9.9.w.w.5.5.9.9.!.w.q.7.8.8.8.8.7.<.,.,.) :.q.,.>.u.8.>.0.9.8.0.0.3.5.2._ 2.8.>.) >.8.>.>.( A ( BXUXCXUXCXUXVX%.u S..X XP 3.VXSXVXVXVXVXVXUXCXUXCXCXeX  .     .   * LXbXGXGXGXIX#XP ` aXKXQ.j ;.,XQ.[.,XQ.6XbX5XjXPXSXY.Y J.SXNXZ.! ;X,X<XX.~.;XjX).o.;XQ.;X@X~.zXsX-.W.;XQ.Q.~.).dXjX3XAXPXgX;.&. XUX[.P H.;X;X;X,X~.:XZXaXsXPXGX^.Y gXIXgXlXZXZXZXZXZXZXZXZXZXZXZXFXNXZXZXZXFXNXZXZXZXZXZXZXZXZXZXZXZXZXZXZXZXZXZXNXNXFXZXZXZXNXZXZXZXFXNXZXZXZXZXZXZXZXZXZXZXZXZXZXZXNXZXZXZXZXNXZXZXZXZXZXZXZXZXZXZXZXZXZXZXZXZXZXZXNXZXZXZXZXZXZXZXZXZXZXZXZXZXFXZXK.p h h h h h h h h h h h h h h h h h h p F VXXXH -XSX XS.;.P n *.}.`. XgX>X-.m %.].P.P.eXIXAXVXPXNX-.D.UXsX3.I.3.s C ].t.P.8XhXY.D b 6.6.%.T.gX=XF.d 0.qX|. XhXPXUXGXIXVXI.I.VXfXK.J.D.n %.].].P.fXNX'.;.v *.*.*.0.hXLXDXHXLXwX-.W.vXmXzXcXFXSXNX",
"UXeXM M B r B t t t t :.8.,.:.>.:.1.<.u.t.<.<.q.u.<.<.2.4.0.2.0.0.8.8.q.<.i.i.i.u.q.q.,.q.q.8.8.8.,.8.7.q.q.,.4.7.w.w.w.y.9.9.w.!.y.{.w.q.!.!.9.!.9.w.9.e.{.{.w.e.9.7.w.w.w.w.U.w.{.{.!.{.!.!.!.!.!.{.{.{.w.w.w.w.y.y.y.e.w.y.y.w.y.q.q.q.w.w.w.w.9.9.9.{.U.{.U.9.9.U.w.{.w.9.8.8.q.7.<.4.,.,.) q.q.) 0.{.4.$.4.9.0.3.2.%.A A 2.4.2.) >.4.,.$.) >.B {.VXVXUXUXUXUXVXP.u Z.#XoXY 3.VXUXVXVXVXVXUXVXVXVXVXUX1X            * HXbXGXGXJXIX#XK U aXGX;.~ ;.Q.Q.Q.Q.Q.5XnX3XjXPXZXI.Y Y.SXgXZ.! Q.Q.~.~._.).dX).;.Q.H.;.~ Q.>XsXH.R.R.Q.o.Q.).4XcXaXSXIXgXP.&.oXSX-XP H.;XQ.R.,X,X;XFXsX4XLXGX/.Y gXLXgXNXZXZXZXZXZXZXZXZXZXNXZXZXZXNXZXZXZXNXZXZXZXZXZXZXNXZXZXZXZXZXZXZXZXZXZXZXZXZXZXZXZXZXZXZXZXZXZXZXZXZXNXZXZXZXZXZXZXZXZXZXZXZXZXZXZXZXZXZXZXZXZXZXZXZXZXZXZXZXNXZXZXZXNXZXZXZXZXZXZXZXZXZXZXZXZXZXNXZXNXFXlXG.F G F G G F G F G G G F G F G F G G G D W mXoXP -XSX XI.I.! a *.}.]. XhX>X;.m &.].].P.eXIXUXmXIXMX&.S.KXhX` U.T.s %.].t.P.=XsXY.D v *.P.%.T.gX=XD.d *.qX}.`.eXPXUXUXLXxXY.Y.lXsXY.J.D.b *.t.].*.fXNX[.;.v %.=.*.3.hXLXbXHXLXwXQ W.kXvXvXcXKXNXgX",
"CXCX2.w r r t t t B S ) 0.:.Z ,.,.,.<.<.<.<.1.8.8.8.<.1.0.8.0.8.4.<.8.8.i.i.i.u.i.q.q.,.q.u.7.8.7.4.7.7.q.7.,.8.7.9.e.9.{.9.!.w.{.{.{.!.w.{.{.w.9.9.w.9.w.w.w.w.q.7.9.q.w.w.w.w.w.{.9.U.U.U.5.U.5.5.5.5.!.w.9.w.w.w.w.q.7.w.w.y.y.y.q.q.q.w.y.U.!.9.9.5.w.5.e.5.3.5.e.w.w.w.7.8.e.q.q.i.<.,.,.>.q.q.:.y.y.2.>.7.9.0.0.A V M A 2.2.:.:.2.8.>.( >.A M 8XUXUXCXCXUXUXCXY.9 &.#XoXY U.VXVXCXVXUXVXVXVXVXVXVXUXeX            * LXmXGXGXGXKX#XH Z.aXDX,X;.;.R P ;.;.;.:XFX3XjXPXZXI.Y Y.SXgXI.H.~ ! ;.[.G.Y.4XQ.! -.-.;.Q.-.,XsXH. .Q.Q.Q.I.L.3XxX3XvXPXgX-._ oXUX=XP ;.Q.K.H.W.Q.).ZXsX>XLXIX XK gXLXzXlXZXZXNXZXZXNXZXNXZXNXzXNXZXZXNXZXNXzXZXNXNXZXZXZXNXZXNXZXZXNXNXZXNXZXZXNXNXZXZXlXNXZXNXZXNXNXNXZXNXZXNXZXZXZXNXZXzXZXZXNXNXZXZXZXZXNXNXZXZXNXZXNXNXNXZXNXZXzXZXNXZXZXZXNXZXNXZXNXlXZXNXNXZXNXcXNXZXDXcXHXNXK.h G F F D F F F F D F F F F F F F F F z Y vX^.H #XSX XP.[.P a ;.}.'. XgX8XS.m %.'.P.P.eXIXUXAXPXMX-.P.KXgX&.P.D.a $.].*.P.8XfXY.L b *.P.%.U.hX1XD.d 6.qX{.'.hXPXKXUXLXVXI.I.NXfXJ.J.D.n =.].].P.fXNX[.P.v *.=.*.6.hXLXDXHXLXaX-.Y.vXvXmXNXSXSXNX",
"CXUX-Xv M r r t r w B Z >.>.Z >.>.:.<.<.<.<.1.4.8.0.4.1.4.7.9.8.7.0.8.t.q.i.u.i.u.i.q.<.8.q.q.7.7.,.4.7.q.q.>.4.7.q.w.9.w.9.9.9.e.{.e.e.w.!.w.w.w.q.9.7.w.y.w.q.e.7.7.q.w.w.w.!.U.!.!._ H V z H N N N 3.{.9.9.e.e.q.w.q.7.q.w.y.y.q.q.e.w.w.w.w.9.9.5.2.I _ I I 5.9.!.U.U.y.7.7.q.q.i.4.,.,.>.:.8.<.>.y.y.1.>.9.9.6.I = 9 s _ 2.5.>.>.4.4.>.Z ( B A BXVXCXUXCXCXVXVX Xu U -XoXP T.VXVXUXCXVXUXCXVXVXCXCXUX2X            * LXmXGXGXUXGX-XP Z.aXAX,X;.;.8 j ;.P m >XHX3XjXPXNXG.Y Y.SXgXI.S.F a L *.m U sX%X! m m m ! m .XdXW.-.L P &.Y Y 3XvX3XvXPXgX&.` XXUXeX;.-.! I.I.I.} (.DXsXwXLXHX^.D gXIXsXlXZXZXZXNXlXZXZXzXZXZXZXZXNXNXZXZXZXZXzXZXNXZXlXZXZXlXZXNXzXZXZXNXZXzXzXZXNXNXZXlXZXZXZXZXZXzXZXNXZXNXZXZXNXzXZXNXZXNXzXNXZXNXlXZXNXZXZXNXZXzXNXZXNXZXZXZXNXZXNXZXzXZXNXZXNXZXlXZXZXlXZXZXlXZXlXFXgX).bXHXZXJ.D F D F F F F F F F F F F D F F F F F z Y AX XG #XVX[.S.Y.P v *.].'. XgX>XD.m &.].].9.eXIXUXmXIXNX&.D.UXdX-.P.D.a *.].].P.8XsXY.m n &.t.%.P.gX=XD.d 6.}.}.`.fXIXKXKXIXlXI.I.lXhXJ.J.Z.N *.].].;.fXSX[.&.a *.*.%.3.hXLXbXHXHXwX-.^.kXvXvXFXFXNXNX",
"CXCXBX( 0 r e r 0 y t t ( ,.:.) >.:.<.<.<.1.,.,.<.0.8.<.>.2.2.2.2.4.8.7.u.q.i.i.i.q.u.,.,.y.q.8.w.4.,.7.q.q.4.>.7.e.w.w.9.5.9.5.e.5.e.4.5.{.w.w.w.w.4.e.w.w.w.w.e.7.7.e.e.w.e.!.w.2.3.f < 3 5 j g 2 + s 3.3.e.e.q.q.q.q.q.w.y.y.y.e.e.i.e.q.w.w.w.U.H < < 2 & 1 _ U.e.w.9.9.8.8.q.i.8.8.>.) ) $.q.,.<.y.<.>.2.9.6.2.s o = s Y 2.2.>.>.2.,.A Z ) B {.CXUXCXCXUXCXVXUX8Xf P #XoXP S.SXVXVXVXUXUXVXCXVXVXUXUXeX  .         * LXmXGXJXGXUX1XY Z.aXUX@XI.;.8 a L n n >XLX3XdXLXZXY.U Y.SXsXI.D.d 8 n *.n *.wX+XY s 6 n n n [.gX X%.a v m v D eXvX3XSXIXgX;.3.+XKXsX[.I.j a L %.d L.GXsX3XLXLX^.z hXLXgXlXlXlXZXlXNXZXNXZXZXNXZXzXzXZXzXZXNXZXZXNXZXNXZXlXNXZXcXZXlXZXzXZXNXZXZXZXNXNXlXZXlXlXlXcXcXNXzXZXZXNXZXNXNXZXzXZXNXZXZXZXNXNXlXZXNXzXZXNXZXNXZXzXNXZXNXZXNXNXZXNXzXZXNXZXNXZXcXcXNXZXNXZXNXlXFXwXE R.bXGXvXJ.h F D F F F m F F D F F F F F D F D F z Y AX^.K -XVX^.S.Y.P a ;.qX].[.gXwXD.m %.'.].;.fXIXGXUXIXMX&.S.KXsX-.P.D.a %.t.;.].8XhXI.D b *.P.%.P.gX*XD.d 6.qX}.{.uXIXGXGXLXxXY.I.NXsXJ.J.D.n *.].t.;.fXNX'.Z.v %.=.0.*.hXLXDXJXLXwX! W.lXnXZXZXFXNXNX",
"UXUXUX9.0 r 0 r w 0 r M B 8.>.) ,.,.,.<.<.<.1.<.8.8.0.<.A S M N C 5.0.8.q.u.i.u.u.u.q.<.>.u.y.8.7.8.2.7.q.e.4.2.7.e.w.!.y.9.P.s u 3 3 2 4.!.!.U.9.q.e.q.w.q.y.w.w.q.7.q.w.q.w.w.9.9.T.d R.6X+.6X6XX.+ l 5.5.U.e.e.w.e.e.7.q.w.q.e.q.7.q.q.q.q.9.9.!.H l ~...< + _ U.5.9.9.8.4.8.,.4.,.8.,.:.:.1.u.>.0.t.$.) 0.8.2.%.9 o < d _ 2.2.$.2.4.2.Z B Z M pXUXCXUXCXCXUXVXUXhXs D -X.XD Y.UXUXVXUXCXVXVXVXVXVXVXCXeX            * LXbXJXGXGXUX1X3.S.aXAX[.;.;.a 8 *.n m fXLX1XmXPXAXY.&.[.SXhXP.D.l u n n a &.gX+X-.a a n n n [.gX X&.a v n v L aXSX=XSXPXNXP.` oXFXfX;.I.d 6 n n 8 J.KXwXaXLXLX-XF hXGXsXlXNXZXNXZXlXlXZXNXNXZXZXNXZXNXNXZXNXzXNXZXZXzXZXNXZXlXlXZXNXNXZXNXZXZXNXZXzXZXZXZXZXNXlXNXcXZXZXNXNXzXzXZXNXZXZXNXZXZXNXZXzXZXNXZXZXZXZXZXlXZXNXZXzXZXZXNXZXzXzXZXNXZXZXzXZXNXZXlXcXNXcXlXZXGX>XF K E.bXHXlXJ.z F F F F F x F F F F F F F F F F F G z Y mXoXH #XSXoXS.Y.P a *.[.'.[.gX=XS.D %.].;.P.eXUXUXVXIXgX-.;.KXhX3.I.5.s L qX].P.8XsXI.D b 0.P.I P.hX*XD.d 6.}.`.U.hXIXGXUXIXSXI.I.lXfXJ.Y.D.b *.].].;.fXNX[.;.v %.*.*.0.fXLXbXHXLXaXQ W.kXnXzXZXFXNXNX",
"UXCXUX2Xk 0 0 q w 0 w r M >.:.) >.,.<.,.<.:.1.,.8.8.1.2.>.M 1 - $ _ 5.2.q.q.i.u.u.u.u.<.,.8.u.8.7.4.4.7.7.7.4.4.e.e.w.{.U.U.5.2 c ] 2 # ` !.w.9.9.U.e.e.w.w.w.w.w.5.7.e.w.w.w.w.9.9.T.l Q.6X+.<X6XX.@ l U.9.9.5.e.e.7.7.7.e.w.e.y.q.w.e.e.e.q.5.5.!.] ' 6X_.3 + ' 5.2.4.6.5.4.4.i.7.q.8.,.) Z 8.8.$.8.8.>.:.w.8.A V = . = s I _ 2.>.4.7.>.V Z M ( hXCXUXCXUXUXCXMXaXoXa d A.J.P I oX-XeXBXUXVXVXVXCXVXVXUX2X            * HXbXDXAXGXKXeXZ.Z.wXUX[.I.;.d m *.$.L fXLX:XxXPXAXI.&.[.KXhXS.T.d a n L n ;.gX@X-.n 8 n n n &XgXoX&.a v n n P hXVXaXSXPXNX`.3.+XFXfX;.I.d a n $.a Y.IX&X3XLXLX=XG sXIXlXlXZXNXZXlXlXZXzXNXZXNXZXZXNXNXZXNXNXZXNXzXNXZXZXlXZXlXlXZXlXZXNXZXzXNXNXzXNXZXZXNXZXlXZXNXZXlXNXNXZXZXNXNXNXZXNXZXzXNXNXzXZXNXZXlXlXZXlXZXZXlXZXzXNXZXzXNXZXZXNXZXZXNXzXZXzXNXcXNXZXlXlXZXvXXXD G J R.cXHXZXK.h F F F F F F F F F F F F D F F F F F z Y AX^.I #XVX XS.I.P a ;.}.'.[.gX>X;.m %.].].P.eXIXUXAXPXMX;.S.KXhX-.T.P.s C ].*.P.8XaXY.L v &.t.%.P.gX1XD.d 6.}.}.`.hXPXUXGXIXgXU.I.NXsXJ.J.;.b *.].].*.fXNX[.;.v %.*.*.6.hXLXbXHXLXwX-.Y.kXnXZXNXFXNXNX",
"UXUXCXCX( q q q w 0 0 r w Z ,.) ) :.<.1.,.,.>.<.1.4.1.2.4.B = o - 3.3.8.q.8.<.q.y.u.u.q.<.8.u.9.8.4.>.8.e.q.7._ 8.e.{.{.9.5.` z 5XjXg - 2.U.w.w.e.!.w.e.e.w.w.w.9.7.7.7.9.q.w.w.9.9.U.g o.6X6X6X6X@.@ d !.U.e.T.e.e.e.e.4.q.w.w.e.q.q.i.7.q.7.5.5.D.l ] 5X;Xg X H ` _ 3.5.7.4.4.7.4.8.q.,.) Z q.8.1.7.2.:.2.7.A M V < o # f V _ V A $.A Z B A v {.VXVXUXVXCXVX|.b D d 8 d f &.G b I I 3.eXVXCXVXVXVXVXVXUX=X  .         * HXmXbXvXAXKX*X&.P.wXSXoX;.;.8 8 m m d 4XLX%XvXPXZXI.! [.FXfXS.D.d a L %.v ;.gX[.;.a a *.m n @XgX XP a n %.n P aXNXwXSXPXNX'.Z.oXFXwXI.I.n a $.n a '.HX*X>XLXLX#XH sXPXgXzXZXZXlXZXcXNXNXZXZXzXNXzXZXZXzXZXZXNXZXZXNXZXlXZXlXZXZXNXlXcXzXNXZXNXZXZXNXZXlXZXlXZXlXZXNXNXZXzXNXZXZXZXZXzXzXNXZXNXZXZXNXZXlXZXNXlXZXlXlXZXNXZXZXNXNXZXNXZXNXZXNXZXNXNXZXZXZXlXZXNXlXFXaXF.G J ] R.bXHXcXH.D D F F F D F F F D F F F F D F D F G h Y vXXXG -XSX XS.'.P a *.qX]. XgX>X-.m &.].P.P.eXIXGXAXIXgX&.S.UXdX3.P.3.s %.t.].].=XfXY.D b %.9.%.P.gX=XS.d *.}.}.`.eXIXKXUXLXVXY.Y.NXfXJ.J.&.n *.].].].fXNX X3.a *.=.*.3.fXLXbXHXLXaXQ Y.lXZXZXZXNXNXNX",
"CXUXCXUX|.q q 1 q q 0 w r r ,.) ) ) <.<.<.:.,.<.1.,.4.>.2.C = o - ` 2.2.4.8.8.8.t.y.u.u.8.,.u.q.4.>.>.4.5.7.4.( 7.e.{.{.' 5.Y l %X6Xc + _ T.9.e.w.!.e.5.e.w.w.9.e.7.4.9.9.9.w.{.7.w.T.p @.6X6X+.6X@.& f U.9.U.U.e.e.!.q.4.e.w.w.w.w.4.7.q.e.5.0.I 3.l h >X).g X H I _ _ _ 5.( 2.4.8.4.>.A :.>.u.8.:.$.B t ) B B w V 9 . $ f V N M M A Z A Z B M eXUXUXCXVXCXCXhX8XeXfXG u oX Xd !.VXxXBXVXVXVXVXVXVXVXVXVX2X  .         * LXvXbXvXAXGX=XU S.fXSX'.A.U u 2 8 u g sXHX:XvXLXAXY.Y [.FXfXS.Z.f * 6 6 % H dX$XP u 6 a 8 8 Y.hX^.L 8 8 a a h 1XvX1XcXPXVXU.U ^.GXwX;.D.a 9 C V f T.DXaX:XLXLX=XD aXLXgXzXNXlXZXlXNXcXcXNXcXZXZXlXlXZXNXNXZXzXlXcXcXcXNXcXlXlXcXcXcXZXZXNXZXzXlXZXlXcXNXcXlXZXZXZXlXcXZXlXcXcXNXcXZXlXZXNXlXlXZXlXZXlXcXcXNXcXNXcXZXlXcXlXZXlXZXlXlXNXzXZXNXZXcXNXlXNXcXNXlXZXjXJXdX} G G J E.mXHXvXJ.z F F F F F F F F F F F F F F F F F D z Y AXoXH #XSX XP.Y.P a *.qX'..XgXwXA.m %.'.;.P.eXIXGXAXPXNX-.D.UXfX;.T.D.a $.qX;.P.=XsXY.L v %.P.%.P.hX1XD.d 6.}.}.`.hXPXUXGXLXVXY.I.NXsXJ.J.T.b *.*.].*.MXNX[.;.v %.*.*.6.hXLXbXHXLXaXQ W.vXnXvXcXFXSXNX",
"CXCXCXUXBXM < y q y q q w y ( ) t :.:.,.,.,.,.:.,.>.1.A A B = . o I I V >.7.u.8.8.u.q.8.8.:.8.q.8.>.>.4.q.7.e._ _ w.!.e._ ` ' z :XzXc X H U.5.U.e.!.5.e.e.7.7.e.9.9.9.4.9.e.w.w.4.5.5.3 O.6X+.<X6X@.@ u P.9.5._ ` 4.4._ ( 4.4.,.( ( ) ) ) ( ( V V ` z < E x 2 O l ' l V _ _ A V ( >.>.:.>.Z <.|.<.>.>.Z Z ( ( A k N q . # 9 N ( A :.4.>.A Z M I CXCXUXVXCXUXCXUXUXUXUX5.6 =X-XP -XVXVXVXCXVXUXVXVXVXVXVXUXeX            * LXmXDXDXKXAX-XI G.aXgXY.A.| G.$XW.} _.cXHX).dXPXAXI.Y Y.KXsXA.Y K ` | G m _.xXXXY m b m z z #XgXY.D d m h i h 3XvX3XgXPXSXY.Y W.GXfXP.Z.s * 9 9 $ | DXaX3XLXPX$Xl aXLXgXkXZXNXcXZXcXlXcXNXcXZXcXNXZXNXZXZXZXNXZXNXNXcXNXcXNXZXlXZXNXNXNXZXNXZXNXZXZXcXcXNXcXNXlXZXcXcXNXZXNXZXlXZXlXZXNXZXZXNXNXZXlXZXNXcXcXNXlXcXlXNXcXNXZXNXNXZXZXZXZXNXZXNXcXZXZXcXlXZXFX>X%XJXsXD.F K ] (.bXHXZXK.m F F F F F F D D F F F D F F F F F G h Y vX(.P #XVX XS.U.Y d *.].'.[.gX8XD.m &.].].P.eXIXUXVXIXMX&.S.KXdX&.P.T.a *.t.t.P.8XfXY.D b &.t.%.U.gX*XA.d 6.qX{.`.eXIXIXKXLXgXI.I.NXsXJ.Y.3.N *.].].;.fXNX[.;.v %.*.*.3.hXLXbXHXHXwX-.W.gXvXvXcXKXNXgX",
"UXCXCXUXVX2.1 q y q q q q y ) ( Z ) ) :.>.,.:.:.>.>.>.Z S N = . o f ' V ( 9.y.t.q.y.u.8.8.>.8.y.8.4.>.4.e.e.4.4._ ' e.' _ _ ` 2 x ..3 O N 5._ 2.2.` _ _ ( ( 2._ _ ( ( ( ( ( _ ( _ 5.U.f ..6X6X6X6X<X< & 5.5.' e.5.e.e.4.( 4.7.e.4.q.>.( ,.4.>.2.A ` d g %X5Xc o z ' V ' 2.5.4.4.8.7.7.,.>.S 4.u.<.8.8.( ( ,.( B 0 k = . # 9 M V V >.>.>.Z Z M {.UXUXVXUXCXUXVXVXUXVXUX!.u -X=XI -XUXVXUXVXVXUXCXUXVXVXVXCX=X            * LXbXJXAXGXAX^.P J.hXgXY.Y K.:X&X^.OX%XjXJX:XxXPXSXZ.U W.ZXsX| ' E.3X%XW.%X5XvXW.J .XwXXXK._.dXxXA.W .X%XK.X.%XjXvX3XlXPXSXU.U ^.SXaXP.` Y L.!.D. .1XmXsX>XLXPX$Xb aXPXkXkXlXlXNXNXlXlXlXlXlXlXlXlXlXlXNXNXNXlXlXlXNXlXNXlXcXlXlXlXlXlXlXNXNXlXZXlXlXlXNXlXlXlXNXlXlXlXlXcXlXlXlXcXlXlXZXNXlXlXNXlXlXNXlXlXlXlXlXNXlXlXlXcXlXlXlXlXlXlXNXNXzXNXlXlXlXkXlXZX@XG _.JXsX} G G J R.cXHXlXJ.z F F F F F F F F D x F F F F D F F F D Y SX^.H -XSX XS.I.P a *.}.'.[.gX>XS.m *.'.].;.fXIXmXmXPXMX-.;.UXhX&.I.Z.a L t.].P.8XhXI.D b *.P.%.P.hX*XS.d 6.qX}.`.hXPXGXUXLXNXI.I.lXfXJ.Y.Z.n *.].].].fXNX[.P.v %.0.*.*.hXLXDXHXLXaX! ^.dXmXvXNXFXSXNX",
"CXUXUXCXVXeX9 1 1 y q q 0 y q ( ) t t t t Z :.t t t S M B N = o X * H V M A 8.>.>.1.>.>.>.t >.u.8.2.Z B ( ( ) ) k ( _ ( k ' H 2 ..X.c + d 5.H _ _ U._ ( 5.w.!.w.e._ 4.5.9.5.5.5._ 2.P.i g R O.T ^ j @ < e.w.' e.!.!.{.{.e.w.w.e.w.w.q.7.7.,.4.2.N _ l g 6X6XO.o l H V H 5.U.4.4.7.7.,.:.) ) <.<.>.4.:.) ( ( A w 0 k q o X < s M A >.>.( ) B B !.VXVXUXCXUXVXVXUXVXCXUX1Xu &.Z.D 1XVXVXVXCXVXCXVXCXCXCXUXUXeX        .   * LXbXbXvXHXvXY.K Y.hXvXJ.! W.>XjX4X%X%XzXmX:XvXPXxX-.P [.GX3X' ..).5X%X%X~.5XjX(.F.@X>X%X_._.5XsXF.L.:X:X;X_.~.jXjX3XcXPXlX;.U XXKXfX&.' E.3X1X_.1X5XJXsX>XLXLX#Xh aXIXgXsXkXkXjXdXzXgXgXzXsXgXzXgXkXkXsXzXgXzXkXkXsXjXzXdXgXzXgXdXkXkXsXgXzXzXsXjXgXkXzXdXgXzXsXkXkXdXzXdXsXgXzXgXgXjXzXsXzXgXsXzXgXzXkXdXkXgXkXzXgXdXjXgXkXdXgXzXgXzXzXsXzXzXdXgXdXkXkXK.m E %XJXsXD.G K J R.bXGXZXJ.h F D F D F F F F F D F F F F F F D F z W vX XK #XSX XT.'.P v ;.}.]. XhX>XS.m %.].;.P.eXIXGXVXPXNX&.S.KXhX-.P.T.a %.].].P.8XsXI.D n &.t.%.U.gX=XA.d 6.}.'.`.hXPXKXGXIXSXI.U.NXhXJ.J.D.N *.].].*.fXSX[.&.v %.=.*.0.hXLXDXHXLXwXA.Y.vXmXvXNXFXNXNX",
"CXUXCXUXUXhXq # = y q y q y y A ) ) t :.<.<.<.,.$.) <.) B N = . % H H V _ 2.9.$.>.8.0.8.8.Z $.y.8.>.>.4.4.q.4.,.( 4.7.( A _ ' 3 ).jXX.+ l 5.' _ ' w.!.w.!.!.w.{.!.e.w.e.e.e._ _ A _ 5.f 5 O.R ^ O.R < < ' ' _ e.9.w.{.7._ 7.7.q.7.q.,.,.8.,.>.B w c g 3 5X6XO.. l l l V 5.{._ w.7.8.>.>.) :.w.8.4.>.:.) ,.( B 0 9 s = o - # 1 0 A $.( ( Z V B q {.VXVXUXCXVXVXUXUXVXUXeX6 = = f eXVXVXVXCXVXCXCXUXVXCXVXUX2X.           * LXnXmXvXHXmXY.G J.hXvXW.Y F.W.dX5XL.~.nXJX%XvXPXgXZ.P W.IXaXJ J .._.kX,XX.,XnX(. ./.3X4X)._.4XkXQ.H.Q.4XdX;X,XnXzX>XcXLXlXS.W .XGXfXY ` (.3X4X:X%X5XmX3X%XJXLX=Xh aXPXsXsXsXsXsXsXdXsXsXsXsXdXsXsXdXsXsXsXsXsXdXsXsXsXsXsXsXsXsXsXsXsXsXsXsXsXsXsXsXsXsXsXsXsXsXdXsXsXsXsXsXdXsXsXsXsXsXsXsXsXsXsXsXsXsXsXsXsXsXsXsXdXsXsXsXdXsXsXdXsXsXsXsXsXsXsXkXsXA.F K J OXJXsXD.G K K R.bXGXcXG.z G G F F F F F F F F F D F F F F F F h Y AX XH -XSX[.S.Y.P a *.}.'.[.gX>X-.m %.].P.P.fXUXUXUXIXMX-.-.KXdX&.U.3.a %.t.t.P.8XsXY.D b 0.P.I P.gX1XF.d 6.}.}.U.eXIXUXGXIXVXY.I.VXfXJ.J.3.b *.].].;.fXNXoX;.v *.*.*.&.hXLXAXHXLXwXQ W.lXnXZXFXFXNXNX",
"CXVXCXVX|.9 # # # y q q q 7 q B >.t Z :.:.:.1.<.,.$.$.Z M M =   % F l H _ _ 5.q.w.w.y.y.u.u.,.8.4.( 4.( 4.e.e.4.( 2._ V N H H 3 ~.6XO.O f ' V V e.e.' _ e.e.e.e.e.e.e.4.4.,.e._ ( ( 4.f O.6X6X6X6X6X5 @ ' e._ _ e.U.{.7.( e.7.e.7.q.i.,.4.>.A M < l < 3 4XzX..o 2 < 0 l 3.5.( 4.8.,.,.>.) >.q.8.4.1.) ( ( w 1 1 1 = 9 6 # # = q M B A ( Z B B 0 M BXUXVXUXCXCXCXCXVXUXMXu $ $ a aXUXCXVXUXCXUXVXCXCXUXVXUXeX            * LXbXbXnXHXvX^.K D.aXlXE.W L.OX3X3XL.).zXmX3XvXPXgXU G [.LXsX' |  .).4XR. .>XlXW.H.R.:X4XE.R.jXzXH.~ Q.5X,X;.Q.FXlX>XvXLXkX} U XXUXaXQ J H.,X4X_.X.5XbX3X5XLXLX=Xd aXPXsXsXkXdXjXgXjXjXgXdXgXzXdXjXkXsXgXzXgXzXgXjXjXjXzXgXkXjXdXkXdXjXzXlXkXjXgXzXjXjXjXgXdXkXjXjXjXkXgXdXgXzXkXjXkXdXkXdXjXkXzXgXgXzXkXjXjXjXkXsXkXjXdXdXkXkXdXjXkXsXdXgXgXjXkXzX>XJ G Y K J _.JXdXA.G J ] _.bXHXcXK.h F F F D F F F F D F F F F F F F F F D K vXoXG -XSX XI.Y.P d *.}.].[.gX>X;.m &.'.].6.eXIXUXmXIXNX&.D.KXgXZ.T.P.s I ].;.U.=XhXY.D b %.t.%.P.hX*XD.d 0.qX}.!.uXPXGXUXPXxXI.Y.lXsXJ.J.D.n *.].].t.fXNX[.&.v %.=.*.6.fXLXmXHXLXwX-.W.kXnXzXZXFXNXNX",
"UXCXCXBXv = # # # = q q = 1 y q >.$.t :.Z >.>.,.>.Z S B M s = . + l l ' l V ( ( ,.7.8.8.8.8.1.8.8.,.>.( ,.7.4.,.) ( B M 0 l l 2 _.6XX.@ < ] w ] ( e.e._ e.!.e.T.e._ e._ 4.4.,.( ) ) 4.u [ 6X6X@.6X@.5 1 ` e.' _ e.{.{.e._ e.q.i.i.7.,.,.,.,.w 1 # 0 k < ] ] 3 o < k q < V 2.A >.4.,.>.:.:.>.7.<.<.,.:.) ) q # 1 # = y N q - # 0 M 0 Z A B B ( ( _ VXUXCXVXCXUXVXVXVXUXMXa $ = u eXUXUXVXVXVXVXVXVXVXVXVXUX=X        .   * LXbXbXbXJXvXY.K J.gXdXL.! K.H.E.).F.H.4XbX3XvXPXgXU G ^.GXaXK ..R.Q.:X).R.@XzXQ.I.).:X,XQ.Q.,XsXR.;.<X,X,XW.@XcXlX3XvXLXgX| ' XXUXaXY ! Q.,X4X_.X.1XmXdX1XJXLX=XD eXLXgXkXcXlXlXlXvXlXzXlXkXlXlXvXlXvXzXlXlXlXlXlXlXvXlXlXcXlXlXlXlXvXlXlXlXlXlXlXvXlXlXlXcXlXlXcXlXlXlXnXlXlXlXlXlXvXlXcXnXkXnXlXlXlXlXlXcXlXlXlXcXlXzXcXlXlXlXvXlXvXlXlXlXlXZX:Xg G ` K G J %XJXdXD.G F J R.cXHXcXG.m F F F z F F F F F F F F F m x F F F z Y AXoXK #XSXoXP.I.P a *.].'. XgXwXZ.b &.].P.P.eXIXAXVXPXMX-.S.KXhX&.T.D.a $.].t.P.8XfXY.L v %.P.%.P.gX*XD.d 6.}.{.'.hXPXUXKXIXcXI.I.NXsXJ.K.D.N *.].].;.fXNX'.;.v *.=.*.3.hXLXDXHXHXaX-.Y.kXnXZXNXFXNXNX",
"UXCXUXeX0 M M r M q y y 1 # 7 # Z ,.) t $.:.:.1.,.Z t e q q = o - u < V k k B ( ,.8.<.<.t.i.<.8.9.4.4.( ,.4.4.4.) ( M y = s < 1 ..%X] - # k q w ) e.e.' e.` e.e.e.e.4.4.e.,.( ) ) ( 5.k [ 6X6X6X6X6Xc @ ' ` _ ' 5.!.{.e.,.7.7.4.e.q.i.( ,.( 1 q 1 w T.q o o o X k 4.< < A 2.>.4.,.,.>.>.>.8.8.<.,.>.( >.,.) ) >.>.2.A V A = 1 B B M ) A B M ( B _ VXUXCXUXVXCXUXUXVXVXVX=X9 < !.VXVXUXVXVXVXUXVXVXVXVXVXCX8X  .         * JXnXnXnXFXlXK.K J.dXgXY.} G 2 K XXj i >XDX$XvXPXgX&.G E.GXsX`  .F h @XI.i -.NX[.! m E @XA.i Q.sXW.;.-.I.:X;.-.wXnXsXvXLXvX} Y ^.AXaXY ! H. .;X_..._.mX5X:XJXLX=Xm wXPXkXkXcXlXnXlXlXcXcXcXlXcXcXlXcXlXcXcXlXcXlXnXvXlXlXlXlXcXcXvXnXlXlXlXcXcXlXcXlXvXlXlXnXlXlXlXcXvXlXlXcXlXvXlXnXlXvXlXlXlXlXcXlXcXvXlXvXcXlXnXlXcXlXlXlXcXcXlXvXlXcXlXcXnXZXH.p Y U Y G K _.JXdX} G K J E.bXGXZXJ.h F F F F F F F m F F D F F F F F D F z Y mX XH #XVX[.I.I.P v ;.}.`. XgXwXD.m &.].].9.eXIXUXAXIXNX&.S.KXhX` P.P.a $.].].P.8XaXY.D b 6.6.I P.gX1XD.b *.}.}.`.eXPXGXUXIXNXI.I.NXfXJ.J.D.n *.t.].&.fXNX[.;.a *.*.%.*.hXLXJXJXIXwX-.W.kXZXZXZXNXNXNX",
"CXCXUXCXM M S M 0 # 1 y < = 7 7 r <.t t :.:.1.,.:.Z r t 0 = # . - l s < # # y t ( i.8.t.q.i.<.0.u.7.>.,.( 7.,.,.) ( y 1 1 w ' < # - - . q !.< 1 ) ` e._ e.!.!.e.' e.e.q._ ,.( ( B :.,.k [ 6X6X6X6X6X[ @ ] ) B ] ' e.q.e.( q.e._ i.i._ i.i.,.] i.) w e.' B 1 # k _ 2.k V 2.9.4.,.<.8.>.Z >.7.q.4.>.>.>.,.,.>.>.>.>.2.2.Z B N M V M A A A B Z ( B 4.VXUXCXUXVXUXCXUXVXVXUXUXI f hXUXCXVXVXUXVXVXUXUXUXVXVXUXeX            * JXmXzXvXDXvXY.Y Y.gXgXJ.Q D & P [.u 8 >XDX>XcXPXgXA.J W.HXaX`  .8 @ >X;.% ! NX[.! > i -XD $ I.zX[.m % -.8Xf u #XSX3XvXPXxXD.K  XKXaX} W i > -.~ % z kXsX:XGXLX=Xm =XPXlXkXkXkXkXkXkXkXkXlXkXkXkXkXkXkXkXkXkXkXlXkXkXkXkXkXkXkXkXkXkXkXkXkXkXkXkXkXkXkXkXkXkXkXlXkXkXkXkXkXkXkXkXkXkXkXkXkXkXkXkXgXkXkXkXkXkXkXkXkXkXkXkXkXkXkXkXkXkXkXkXcXdX@XZXR.p Y Y K K J %XJXsXA.G F J E.mXFXcXK.z D F F F F F F F m x F F F F F F m F h Y mX XG -XVX^.S.Y.P a ;.qX'.[.gX8XA.m %.'.].;.fXIXUXmXIXBX&.S.KXhX-.I.3.v L ].t.;.8XfXY.D n %.U.%.P.gX=XS.d 6.qX}.U.hXPXKXUXIXgXY.I.NXhXJ.J.Z.C *.].].;.fXNX[.3.v %.*.*.6.fXLXAXHXLXwXQ W.vXvXvXnXKXSXgX",
"CXUXCXCXn M A q # 7 y w A A Z Z t ,.:.t t :.:.>.$.t y t B # o o k _ < 0 M M B B 4.q.i.i.i.u.<.<.y.8.,.>.( 4._ ,.) ( ) 4.) w y._ < # - f ` e.B ( 4.e.e.7.e.e.e.e.e.e._ e.i._ ( ) B ) ) q ] 6X6X6X6X5X[ + B [ B ) _ e.y.e._ _ q.i.e.,.i.i.,.,.i.) i.,.) ,._ ) w ] ' ( ( 4.4.5.2.2.8.7.2.:.1.8.7.8.2.:.) 8.7.>.) A ( >.>.( B N M w B 2.A Z Z ) ) V 5.VXVXUXCXUXCXUXUXUXVXVXVX!.d MXUXVXVXVXUXVXVXVXVXVXUXVXUX-X            * LXbXDXmXLXZXY.Y Y.gXgXU.A.h * ! [.a 8 aXZX>XDXPXlXY.| .XGXaXU F.u $ =X;.X P NX[.G % d &Xm $ G.zX[.m % G -Xu : =XcX1XVXPXxXT.Y  XFXsXA.W : @ H.E o h gX3X@XGXLX&Xb =XPXlXdXlXkXkXkXlXkXkXkXkXkXkXkXkXkXkXlXkXkXkXkXkXkXkXkXkXkXkXkXkXkXkXkXkXkXkXkXkXkXkXkXkXkXkXkXkXkXkXkXkXlXkXkXlXkXkXkXkXkXkXlXkXkXkXkXkXkXkXkXkXlXkXlXkXkXkXlXkXkXlXdXG.H.DXR.p J U K K J _.JXsXD.G K J E.bXHXcXI.z F F F F D F F F F F F D F F F F F G z J SXoXH #XSX XS.Y.P a *.}.'.[.gXwXS.m *.].P.P.eXIXGXAXPXMXZ.D.KXsX3.T.D.a %.].t.].8XgXI.L b &.t.%.S.hX*XD.d 0.}.}.`.eXPXGXUXLXVXI.Y.NXsXK.J.D.b *.].].].fXSX[.;.v *.*.0.3.fXLXbXHXLXwX-.W.kXvXmXnXFXNXgX",
"CXCXUXCXN M r 1 y q 1 t >.Z $.Z t :.:.t :.Z :.:.:.$.t S A M = 0 _ ( B q.{.y.w.u.q.8.<.i.i.u.t.<.y.7.( ,.( ,.4.7.) ,.7.,._ ) ( e._ k k 5.e._ _ 4.9.w.w.5.e.e.!.e.e.e.( _ _ ( ) ) r r w < c mX6X6X6X6X[ # w < w ] e.e.q.e._ i.q.q.i.,.e.i.i.,.,.,.,.,.) ,._ ' _ ( A A 2.9.5.6.4.2.7.7.>.) >.9.4.<.>.>.>.,.4.,.) :.>.:.>.>.B q q k A 2.A A Z A A M U.VXUXVXUXUXCXVXCXUXCXVXVXhXoXBXUXVXVXVXVXVXUXAXUXVXVXVXUXeX            & LXJXJXAXHXVXY.` Y.VXhX'.A.d * Q '.8 u $XFXsXnXIXNXI.J ^.GXaXA.;.% $ wX;.X -.fXI.m % d +Xd - I.sX;.m % L [.8 6 oXSXsXSXPXSXJ.Y ^.AXwX} ~ 8 O -.! O j sX3X>XGXPX=Xm 8XPXkXsXkXkXkXkXkXkXkXkXkXkXkXkXkXkXkXkXlXkXkXkXkXkXkXkXkXkXkXkXkXkXkXgXkXkXkXkXkXkXgXkXkXkXjXkXkXkXkXkXjXkXkXkXkXkXkXkXkXkXkXkXkXkXkXkXkXkXkXjXkXkXkXkXkXkXkXjXkXvX4XG.! W.bXR.p J U Y K K %XJXdXD.F K ] (.bXGXcXI.z F F F F F F m F F F F F F F D F F G h J AX XK -XAX XS.Y.P v ;.].'.[.gX>XA.m &.].;.P.eXIXUXAXIXMX;.S.KXhX-.T.3.a %.t.;.P.8XsXI.D b *.P.%.S.hX1XD.d 6.qX}.`.hXPXKXGXLXVXU.I.NXsXJ.J.Z.n *.*.].*.fXNX[.Z.v %.*.=.6.hXLXbXHXHXaXQ Y.vXvXvXNXFXSXNX",
"UXVXVXCX( v 0 # y # # S >.) $.) t t :.t $.:.:.<.:.:.Z Z Z ( V ( A k ,.q.7.8.0.q.u.q.q.i.i.i.<.<.q.w.,.>.( ,.,.q.( ,.4.,.i.i.) _ 4.e.5.5.4.( 4.e.9.w.w.9.e.e.e.e.e._ ( i._ ( ) B r r B q p X.X.@.O.' < # ] ] B ] ' e.q._ ( e.e.q.e.e.q.i.i.i.,.,.,.,.,.) r w w q A 2.9.9.9.9.y.9.4.>.>.>.8.8.8.4.>.>.,.>.4.,.Z :.>.4.4.>.( r w M 0.I A Z ( A A M {.CXCXUXUXCXUXUXUXVXUXUXUXUXUXVXVXAXUXVXVXAXVXVXVXVXSXVXUX1X        .   * LXJXFXAXIXvXY.Y Y.gXaXI.P u $ b &.6 = G.3X:XFXIXNXI.Y Y.xX3XU W : $ I.P X m +XI.G $ i [.d % ;.wX;.n $ L I.6 *  XxXaXNXPXSXI.Y  XAXsXG.! 3 % ! P O i zXjX$XGXLX=Xm =XPXlXdXdXjXgXkXjXdXdXkXkXdXkXkXdXkXkXdXdXkXkXdXkXdXgXjXgXkXjXgXkXdXkXkXkXkXjXgXkXdXkXkXkXjXjXgXdXkXdXkXkXkXgXjXjXgXkXdXkXjXjXkXdXkXkXdXkXdXkXgXkXdXdXkXdXkXdXkXvX@XA.G.A.R.ZXR.p J Y K c | _.JXsX} G K J R.bXHXcXJ.D F F D F F F x F F D F F F F F F F G z Y AX^.P -XVX XI.'.P a *.}.'.[.gX>X;.m %.].].P.eXIXUXVXIXgX&.Z.KXhXZ.U.P.s L ].t.P.8XsXI.D b %.t.%.T.gX=XD.d 6.}.{.{.eXPXKXGXIXgXY.J.gXhXY.J.-.n *.qXqX;.fXNX X&.v %.*.%.2.hXLXDXHXLXwX-.^.kXvXvXNXFXNXNX",
"CXVXCXVXe.B q # # # # t >.:.>.Z t t :.t t :.:.:.>.:.>.Z B r B B B ( 8.8.8.q.t.q.u.u.i.<.u.i.8.1.q.q.,.,.( ,.<.8.( i.q.,.,.,._ ( k l l 0 ( 2.e.e.e.w.w.7.e.e.e.e.e._ _ q._ ( ) w 1 y e.V # + # - 1 - # # l ' ) k ( ' i.e.,.q.q.q.i.e.i.i.e.i.,.i.,.,.,.,.( B k ) _ 9.9.{.y.y.w.8.1.>.:.>.7.9.8.2.>.>.8.7.7.>.:.Z ) >.>.>.>.A r Z 9.2.( B ( M N s `.VXUXUXCXUXUXSXVXUXVXSXUXSXUXSXVXUXVXVXVXVXVXUXVXUXSXVXUX1X  .     .   * LXbXJXDXHXvXJ.Y Y.lXSX[.P d * 8 C * & H.:X@XNXIXlXI.G Y wXgXP d : X m b o 8 [.P h $ & &.8 o m I.! i $ 8 P * % -.&X+XNXPXSXI.P A.wX>X! G : + m m O 8 [.$X@XGXPX=XL =XIXcXdXjXkXgXjXkXjXkXkXjXjXkXjXkXdXjXkXjXgXjXkXjXkXkXjXjXkXjXkXjXkXjXdXkXkXjXkXjXkXkXdXkXkXkXdXkXkXkXkXkXjXkXkXjXjXjXkXkXjXkXdXkXkXkXkXjXkXdXjXkXkXkXkXkXjXkXjXF.P I.J.A.E.bXR.p J ` G K K _.JXdXD.G K ' R.mXJXlXJ.h x F F F F F F F F D F F F F F F F G h W ZXXXH #XSX XP.Y.P a *.}.`.[.gX8XS.m %.].].;.fXIXUXVXIXNX&.S.KXhX-.T.D.a *.s.].P.8XfXK.D n %.P.%.S.hX3XF.d 6.}.}.`.hXPXGXUXLXcXI.I.NXsXJ.J.D.N *.].].].fXNX'.;.v %.*.=.&.hXLXDXJXLXwX! W.kXnXnXZXFXNXNX",
"VXVXVXCX!.k q 1 y 1 y t :.1.:.$.) t :.:.t :.t :.>.$.:.t t w 0 y r q.q.q.q.t.7.t.u.u.t.i.<.<.i.<.8.q.<.,.( ,.,.4.,.q.q.4.,.( q._ ) B 0 ( _ 7.w.7.w.w.9.e.e.e.e.5.e.e.e._ i.( B q q k ) l < l < w l l 5 1 < ) l B i.e.q._ _ q.i.' q.i.e.i.,.i.i.,.,.( ( ,.4.( ( ( 2.w.w.w.9.9.9.4.8.,.) :.9.7.0.2.( >.8.8.4.>.>.A :.>.>.>.>.( w $.2.2.A B B k B V 8XUXUXCXUXVXUXSXUXUXUXUXVXUXUXUXUXAXUXSXUXUXSXVXUXVXVXAXUX1X            * PXDXJXDXJXgX} G A.aXgXA.d d d m L d s E.3XW..XwX[.;.-.Y &XlX-.m d : m m % i [.G b 8 : G 8 X G I.G m 8 8 P 8 % ! >X[.wXSXgXS.&.P +XdXA.h 8 $ d m X > ;.H.+XZXIXaXP ;.gXDXkXlXkXkXkXkXjXkXjXkXkXkXkXkXjXkXkXkXkXkXkXkXjXkXkXkXkXkXkXkXkXkXkXkXkXkXkXjXkXkXkXkXkXkXkXkXkXkXkXkXkXkXkXjXkXkXkXkXkXkXkXkXkXkXkXkXkXkXkXkXkXkXjXkXlXdXY p Q I.G.! E.bXR.p G W Y K K %XJXdX| F K K _.bXHXZXJ.D m F F D F F F F F F F F F F D F D G h Y SX XH #XVX XS.Y.I v ;.}.`. XhX3XD.m &.].P.P.eXIXGXmXPXNX&.;.UXgX&.P.D.a *.;.;.`.=XsXY.D v 3.t.%.P.gX8XA.b 6.qX'.`.eXPXUXGXIXVXY.I.NXfXJ.J.Z.n *.qX;.*.fXNX[.;.v %.*.*.6.fXLXbXHXLXaXQ Y.zXcXZXZXFXNXNX",
"CXVXCXUX|.0 # 0 Z t r t :.:.:.t :.t :.:.:.:.:.:.) :.:.) Z r r w 8.w.q.q.8.8.7.u.u.u.q.<.<.8.<.<.i.q.,.>.,.,.4.4.4.7.q.4.,.( ,.i.( ( _ ,.4.9.7.w.w.w.w.9.9.w.!.e.i._ _ q.i.( ) B ( _ ' ' l < w [ [ k 1 1 k ] e._ e.e.e.i._ i.i.e.e.q.i.q.i.i.i.,.,.,.( ( 4.,.( ( 7.{.{.t.9.7.4.,.>.>.) >.8.7.4.>.>.>.4.0.4.1.) B S Z B Z A Z S 2.2.%.B Z B k U.hXCXVXUXVXUXUXKXUXUXUXUXUXVXUXVXUXUXUXVXUXSXVXVXUXAXSXVXVXIX=X            * PXvX:XjXLXdXW d 2 W J.d : u f a d a u g g i i P ;.-.m d A.Y.i u i u i d i d h u a d a i h i m ! d i i i m d 8 J -.m -.[.I.&.-.Y W.sX! i i 8 m m 8 i [.[.! oX=X'.&.L +XcXlXlXlXvXvXvXlXlXvXlXlXvXlXlXvXvXlXvXlXlXlXvXlXvXkXvXlXlXlXvXvXlXkXlXvXlXvXlXlXvXlXlXvXkXvXvXvXlXlXvXlXkXlXvXlXkXlXkXvXvXlXvXlXlXvXvXlXlXcXkXvXlXlXcXsX-.d h ! H.I.A.E.bXR.p Y Y K F J %XJXsXF.F G J R.bXFXvXK.z F F F F F F D F F F F m x F F F F F D J SX(.K #XAX XS.Y.P a *.}.'. XgX8XD.m %.'.P.9.eXUXUXmXIXMX-.D.KXhXU P.3.s %.t.t.P.8XfXY.L b %.`.%.T.hX=XD.d 6.qX}.`.hXPXKXUXIXNXI.I.NXsXJ.J.D.n *.*.qX;.fXSX[.&.v %.*.0.6.hXLXDXHXLXwX-.W.lXZXzXNXNXNXNX",
"UXCXVXVXgX-X0 0 B t t t :.t :.Z t t t :.:.t :.:.:.:.:.$.) Z t ) 7.8.7.8.8.,.i.u.q.u.t.i.i.7.r.i.<.q.<.,.4.,.4.4.4.e.q.8.7.4.) ) _ ( ( 2.4.w.w.9.w.!.w.9.w.e.w.e.e.e.i._ i._ ( ( w.e.q.' w < B ] w l l w k ) ) ( _ e.q.' ,.e.7.4.i._ _ q.e.( ,.e.,.,.,.( Z ( 4._ 4.9.w.9.5.8.4.,.>.) Z >.8.0.8.>.>.1.7.4.2.8.>.Z Z A Z Z Z $.>.>.:.B B B M B |.UXUXUXUXUXUXUXSXSXUXUXVXAXUXSXUXAXVXAXUXAXAXUXAXSXUXSXUXAXUXeX            & LX).z %XLXsXY F p Y ` p < : * : u u i d u 8 8 a m m i i J Q 8 8 8 8 8 u : 8 u * : : * 8 8 : : 8 : 8 8 8 8 i i g 8 : 8 b D L m i m H.d > 8 8 a a 8 8 ! g : p D Y Q P .XlXsXsXsXsXsXsXsXsXsXsXsXsXsXsXsXsXsXsXsXsXsXsXsXsXsXsXsX4XsXsXsXsXsXsXsXsXsXsXsXsXsX4XsXsXsXsXsXsX4XsXsXsXsXsXsXsXsXsXsXsXsXsXsXsX4XsXsXsXsXsXsXsXsXdX XP D h Q I.K.-.R.bXR.p K U Y K J _.JXhX} G K J R.bXHXcXG.h F D F F F F F F D F F F F F F F F F h Y vXoXH -XSX XT.I.P a *.}.]. XgX>X-.m &.].].P.eXIXGXVXPXMX-.S.KXhX-.I.T.s C ].].P.=XfXY.D b *.6.%.T.gX>XD.d *.}.{.{.eXPXIXUXLXlXU.Y.NXhXJ.Y.Z.N *.].].*.fXSX[.Z.v *.=.*.%.hXLXbXHXLXaXQ ^.gXZXZXFXFXNXNX",
"VXVXCXUXVXIX( < ) r t ) ) t t t t t y :.:.t :.:.:.:.:.>.Z :.t >.7.7.8.8.8.8.r.8.i.t.u.8.t.u.i.q.8.q.q.<.<.>.4.4.7.w.w.q.i.,.( ) ) ( i.i.e.w.w.w.e.w.w.w.e.e.q.9.i.q._ i.4.,.,.( 4.w.4.4.) ] ) l w w B ) ] B B ' q.7.w.8.4.q.q.q.i.i.,.i.e.i.i.e.i.i.q.q.( ( q.e.4.4.w.9.w.7.<.,.>.:.Z >.8.8.4.>.>.2.4.2.8.4.<.2.>.4.8.A Z >.( B %.B B B M N -XVXUXUXUXUXSXKXSXKXSXUXSXUXUXSXUXUXSXVXGXAXSXAXUXSXSXUXAXAXIX=X  .         * JX(.g %XLX4XF.^.E...H 2 2 & 2 u d D G F u 8 a b m m Y Q K D u : : u u 2 p d 2 * * * : 2 2 3 p : : : : 8 i d d x p u < 8 m m m u F W i : * 2 * : u i u 8 6 = u m P Y >XlXG.E Q W W Y W W W W Y W W Y W E W W W W W W Y W W W W W W Y W W W W W W W W U W W W W W W J W W W W Y W W Y W W W W W W W W W W Y W W W W U W J /.vX}.L D h ! G.I.-.E.DXR.p J U K K J _.LXsXD.x K ' R.bXHXcXI.F F F F F F F F F F F F F F F F F D F z Y AX XH -XSX XS.I.P n *.'.].[.gXwXA.m &.].].P.8XPXGXmXPXMX-.S.UXhX3.P.3.s C ].t.U.8XsXI.L b *.P.%.T.hX1XF.d 6.}.{.`.hXPXUXGXIXVXI.Y.NXsXJ.J.Z.b %.].].*.fXNX[.;.n *.*.*.3.hXLXJXHXIXaXQ W.gXvXnXcXKXSXgX",
"VXCXVXVXVXUX_ y B t t t t t t t t t t t :.:.t :.1.>.:.:.>.>.>.,.1.1.>.>.:.8.q.q.i.<.8.<.<.u.u.u.<.8.u.8.>.>.>.4.7.w.w.q.e.,.,.4.( ( e.e.w.e.w.w.w.w.w.9.e.w.e.9._ e._ q.7.7.4.,._ 7.e.( ) ) B w w 1 w ] B ) ( q.e.e.e.7.4.7.q.e.e.e.e.e._ q._ i.i._ _ i.i._ i.) 4.7.4.7.7.4.>.:.) ) Z 2.6.2.A S A A $.Z B A Z t r A Z S M Z >.%.>.B A B M V eXVXUXUXUXVXSXKXKXSXUXAXUXSXAXUXUXSXSXUXUXUXUXAXAXUXAXAXUXSXIX*X            * JXR.c ).bX4X .%XvXE.g 2 < & 2 i d Z.K.F i i a m b F OX>XW 2 u * * 2 i 2 ..} 2 * 2 & 2 2 p | K 8 * : : 8 j z | H 2 < u a n m ! ! ! F i 9 * 2 2 i p z m u 8 u f b F Y wXgXJ g h h h h z g z h z h z h z h h h z h h h z h z h h h h z z h h h z h h z h h z h h h h h z h h z z h h z z h h h z h h h h h z z h h h h z | %XvX XP D h W G.K.! E.bXR.g G U P F J _.JXdXA.G K J (.bXGXcXK.h F F F D F F F F F F m F F F F F F F z K SX(.G -XSX XS.I.P a ;.}.'.[.gX8X;.m &.].;.P.fXIXGXVXIXgX&.P.KXhX| U.T.s %.qX*.P.=XhXY.D b *.6.%.P.hX*XD.d 6.qX}.'.hXPXUXUXPXxXI.I.gXhXJ.J.6.N *.].].P.fXNX[.&.v *.=.*.*.hXLXbXHXLXwXQ Y.vXmXvXnXFXNXNX",
"CXVXUXCXVXUX!.q t t t ) t t t t t y y t :.:.:.:.>.1.:.:.1.,.>.8.4.1.,.>.1.7.i.i.i.q.i.u.8.1.u.u.8.8.q.8.4.>.>.4.5.q.w.q.q.,.i.q.q.e.q.e.w.q.w.y.w.{.!.9.e.e.e._ _ ' e._ 4.4.,.( ( ) q.4.) ] ) 1 1 1 ) ) ) ( i.e.4.4.i.( ( ( ( ( ) ( ) ) ) ) ) ) ) ) ) ) B ) ( ) B ) ) ( Z Z Z ) Z ) S 8.7.>.Z Z S >.4.Z Z 2.2.$.$.4.7.2.>.4.7.7.2.A Z B k V eXIXSXUXUXUXKXSXKXSXKXSXUXAXUXAXUXUXUXAXUXAXAXUXUXAXUXAXUXSXIX1X            & mXE.| :XjX,XH.3XJX(.l p 2 & 2 p E 3XOXD d d b d m Q sXvXL.i p < 2 p i z 1X..2 2 & < 2 < c OXK i : & 2 i i E /.J i i i d d x Q.4XW.d 8 * & : i 3 G | z 8 9 u a m d P aXsXE z F F x F x F F x F x x x F F F F x F c x F F F F x x F x x x F x x x x x F x F F x x F x F x F x F x F x F F F F x K z F x x F F F x x F U L.%XvX[.P D h ! I.I.} R.DXR.p G ` K K J %XJXdXA.G K K R.bXGXcXG.m F F F F F F D D F F F F F F F F F F D Y AXoXK =XSX XS.[.P a *.qX[.}.gXwXA.m *.'.P.6.fXIXUXAXPXNX&.D.KXhX-.P.D.a %.].t.P.8XsXY.D b 6.P.%.T.gX=XT.d *.qX{.`.uXIXGXKXIXcXI.Y.NXfXJ.J.D.n *.].].*.fXNX XZ.a $.*.*.6.hXLXDXHXHXwXQ ^.dXmXvXNXFXSXNX",
"CXUXCXCXUXCX|.0 ) t t t r r t r t t y y t :.t :.$.Z Z $.Z :.,.:.>.Z :.:.>.$.,.:.<.8.1.8.1.>.1.q.q.1.q.7.4.>.Z 2._ 4.7.4.,._ 4.( ( i._ ( _ ,._ ( 5.7._ ( _ _ _ _ _ ( ) ) ) _ ( ) ) t ,.,.,.) ,.] 1 w ' ) ) _ _ i.q.q.e.4._ ,.q.q.i.e.i.i.q.y.q.i.i.( ( i.5.4.e.( 2.7.7.7.8.4.<.4.:.) Z 8.7.2.2.2.8.9.4.>.>.4.>.,.4.>.2.>.>.>.$.( B B S M k B eXUXSXUXUXUXSXKXSXUXFXUXUXUXUXAXUXUXUXUXUXUXAXUXAXAXUXAXAXAXIX=X  .         $ dXE...:XsX,X .3XJXXXH l 2 2 3 F >XbX/.K D m s d m U 4XmXR.z z i 2 2 p _.dX' 3 p % > 2 g ).4XG d u * 2 i x $X5X| p d f i d m ).nX>Xz i : * : 2 g /.(.d i f a a m G I.gX3X| W ~ W W W W W W W W W W W E W E W W W W W W E W W W W W W Y W W W W Y W W W W W W E W W W W W W E W W W E W W E W W W W W W W W E E W K F | ..%XZX XL z h Q G.K.A.E.DXR.p J Y K K J _.JXdXD.G F J R.bXGXcXK.z F F F F F F F F F F F F F m F F D F z Y mX XH -XxX[.I.I.P n *.[.;.-XgX>X-.m %.].].P.fXUXUXAXIXNX&.S.UXdX-.U.D.a $.qX;.P.8XfXI.D b %.t.%.P.gX1XA.d 6.qX}.U.hXIXUXUXPXgXI.Y.NXsXK.J.D.N *.].].].fXSX[.&.v *.*.*.0.fXLXDXHXLXaX-.E.vXvXvXZXFXNXMX",
"CXCXVXUXVXVX2Xw t t ) t t r t t r r r t t :.t S t t :.$.B Z $.$.$.Z Z $.:.>.>.$.,.1.1.1.:.>.<.1.<.>.<.8.4.,.M B A 4.2.>.4.( ,.4.i.e.e.' ( i.e.e.7.7.4.2.5.e.5.e.e._ ' w.w.w.e.7.,.( ) ) i.) ,.,.e.e.( ) ( q.y.y.y.y.y.q.w.y.y.q.e.q.i.e.e.q.i.q.i.7.i.7.4.4._ ( 4.4.,.>.>.2.>.>.:.) :.4.>.>.>.A >.5.2.>.,.>.>.>.>.>.>.>.>.,.>.A S M M k 0 N eXGXUXUXUXUXUXUXUXUXUXUXUXUXUXSXGXUXUXUXUXUXVXGXAXUXSXSXAXSXIX1X            & xX_...:XsX,X-.dXLX1X| ' l g ..:XjXjXE.K D d s d m J 5XmX_.K Y F z K _.5X4XX.K F g u g  .zXsX-.J m i i K _.vX5XJ p z d a d z ).mX3XY z p 2 < g R.vX$XF d d a d b P [.sX>XF.W } | | | | | ! | } | | | | } | ..| } | ~ | | | } ! | | | } | } ..| | | | } } | | | } | } | | | ! | | | | | } | } | | ! | | } } } | A.F D | L.%XmX XP D h Q I.K.-.R.DXR.i J U K G J %XJXsXZ.G K J R.mXHXlXI.h F F F D F F F F F F F D F F F F F G z Y AX^.G =XSX XD.Y.P a ;.}.`. XhX=XS.m %.].P.P.8XUXUXAXPXMX&.S.KXsXZ.P.D.a %.].;.].8XaXY.L b 6.6.%.P.hX=XF.d 6.}.}.`.hXPXGXUXLXNXI.I.NXaXJ.Y.D.b *.].].;.fXNX'.;.v %.*.=.3.fXLXDXHXLXwX-.W.lXnXnXZXFXNXNX",
"VXCXCXCXVXVXuXr r t t t t t t r e r y t t :.$.t :.,.,.<.1.1.8.<.<.<.<.<.t.q.i.u.u.u.u.i.8.i.u.q.q.8.,.8.>.,.( 4.4.7.q.q.q.q.q.e.e.e.y.q.w.w.w.y.w.w.w.!.w.w.e.{.e.y.w.y.w.w.e.q.e.i.i.) i.i.) ,.i.,.) ) _ q.y.e.e.e.e.e.e.q.e.e.q.e.i.i.i.q.i._ e.,._ 7.4.4.4.,.>.,.>.4.4.>.>.>.>.A >.2.>.2.2.>.0.8.>.>.>.,.>.>.>.2.$.>.2.2.$.A B M B B s _ BXUXUXUXUXUXUXSXSXUXUXSXSXSXUXSXVXAXVXSXAXAXAXVXAXVXSXSXSXVXUX8X            $ dX(.Y.:XwX>XR.jXJX1X` !.| c (.3X:X5XR.c d d b b G W 3XbX)...L. . .1X5X_.%X(.Y.! E H.;X3X4X:XI.G.A.G | %X3X4X1X` p d d a m G ;XbXdX .K F z c R.4XjX/.K d b s a d m I.sX>XF.! } ..} |  ...| ..}  .| } } } } | | } } } } } } | ....} } } } | } | ..}  .} | ..} } } | ..| ..|  .}  .| } } } | ..| ..} } } } | E L.K.x D | ..1XvX XL z h W G.I.! E.bXR.p K U K G J _.JXsXF.G K J E.bXHXcXJ.h D F F F F F F z D F F F F F D F D G h J AXoXH -XSX XS.I.P a *.}.`.oXgXwXD.m &.].P.P.fXIXUXmXIXNX&.;.UXhX3.I.3.a L qX*.P.8XhXI.D v *.P.%.T.gX*XD.d 6.qX}.`.eXPXKXGXPXgXU.Y.NXhXJ.J.D.b *.*.].].fXNX[.;.v %.0.*.&.hXLXAXHXLXaX! W.kXnXZXZXFXNXNX",
"BXBXCXCXxXBX2X) w t t t t t r r r r e r r Z :.t Z :.>.>.:.1.<.<.,.:.>.1.1.<.<.<.<.i.t.i.<.r.1.i.<.i.<.8.,.>.( 4.2.4.7.8.8.4.4.7.e.q.e.q.e.e.q.e.w.w.w.9.w.w.e.9.e.e.e.e.e.w.e.q.i.i.( ( ) ,.,.) ) ) ) i.i.i.q.y.e.{.y.w.e.w.q.q.i.e.e.i.q.e.q.q._ i._ ,._ 4.7.( >.4.4.,.,.>.>.>.:.Z >.2.2.>.>.4.7.4.A ,.,.>.>.>.4.>.A >.4.2.2.B B -XBXhXeXMXVXVXVXVXSXVXVXVXVXSXVXVXVXVXVXVXVXVXVXVXVXVXVXVXvXVXVXVXVXVXUX1X  .         $ 3XT.` R.).@XR.dXJXXX' _.!.F.^.E.R.:X(.D d d f d c K 3XbX(.| /.T..._.~.R.5XE.F.@X} R.4X/.Q.wXH.J./.H ..3XL.(.3XA.h d d b L W ).bXsXT.L.| E _.:X%X%X.XH d d s b m P [.sXsXR.}  . .F. .F. . . .F.F. . .F. . . .F.} F. . .F. .F. . .F. . . . .F.}  . .}  .} F.F. . . .} F.F.}  . .F. . . . . . .F. . . . .| R.} | E.x D | ..%XvX|.P D h ! I.K.} E.DXR.p J U K K ] _.LXsXZ.F K ] E.bXHXcXK.F F F F F F m x F F F F F F F F F F F z J AX.XH #XVX XT.'.P v ;.qX'. XhX>XA.b &.'.P.9.eXIXUXAXPXNX-.S.KXhX-.I.5.s C t.].P.8XhXY.L v *.t.%.P.gX*XF.d 6.}.}.`.hXPXUXGXIXVXJ.I.SXsXJ.J.3.n *.].].*.fXNX X-.a *.0.*.6.hXLXJXHXHXwX-.Y.kXZXzXNXFXNXNX",
"BXBXBXBXBXBXpX) w t t t w r t w 0 w r r r t >.Z t ) $.:.:.:.<.<.1.,.1.:.1.i.i.<.1.1.i.i.i.i.i.u.<.<.8.8.8.8.( ,.( 4.q.7.q.7.7.5.q.e.e._ i._ e.y.{.e.e.w.!.{.e.9.w.w.y.e.w.w.w.e.7._ i.( ,.,.i.,.) ) ) e.e.e.y.e.y.y.w.w.w.w.e.e.e.q.( e.q.e.w.w.q._ 4.4.,.4.4.,.>.>.4.,.2.>.:.>.B B 4.>.>.>.>.4.4.2.>.,.4.>.>.>.2.:.>.2.0.>.A M C BXVXVXUXCXVXVXVXCXCXVXCXVXVXCXCXVXVXVXCXVXVXVXVXVXVXVXVXVXVXVXVXxXVXVXVX=X            * vX(.K A.Q.W.K.sXGXXXK T.T._.E.J F.$XY.D d d z F c | 3XbX%X..E.L.L.X... .,X(.E (.L.W.;XH.R.sXH.L.%X..R._.| (.3XJ.z d s d D G Q.mXdX .J._.R.R._. .).$XY b d a d D m -.+X5XL.} } } } } } } } | } |  .} | |  .|  .|  .|  ...} } } } ! } }  .}  .|  .} } }  .| |  .} }  .|  . .| | |  .} } } } |  .| } } | E.ZXW.` E.F D | T.%XvX[.L D h ! I.G.-.R.bXR.p P U J G K %XJXdXZ.F K E R.cXHXZXI.h F F D F F F F F F F D F F F F F D G z Y AX XK -XSX XS.I.P a *.'.'.[.gXwX;.m %.].].P.eXIXUXSXIXMX&.S.KXdX3.P.D.s %.].t.].-XsXY.D b &.P.%.T.hX1XZ.d 0.qX`.`.hXLXGXUXPXxXI.I.gXhXJ.J.;.n *.].].P.fXSX[.&.v *.*.*.%.hXLXmXHXKXaX-.W.kXZXZXZXNXNXNX",
"uXuXBXBXBXuXCX4.q q 0 y 0 q 0 0 0 0 y r r r t :.) :.) :.>.:.1.:.1.:.,.:.:.<.r.<.<.1.<.<.<.i.<.u.i.<.8.8.4.,.A >.,.5.q.7.q.4.7.q.q.w.e.5.4.9.9.w.w.q.9.e.e.w.{.9.e.e.w.y.w.w.q.e.i.e.e.i.i.( ) i.) B e.e.q.e.q.y.y.w.e.e.w.w.w.w.9.5.4.7.4.4.w.{.5.,.2.4.>.>.4.,.( i._ i.( ( ) ) t ) ,.,.2.>.>.2.4.>.2.4.1.>.2.8.8.%.) 4.6.>.( M 6.CXCXVXCXVXVXVXVXVXVXVXVXVXVXVXVXCXVXVXVXVXVXVXVXVXVXCXVXVXVXVXVXxXBXgXVX=X            2 LXW.W I.(.! H.dXbX(.| F./.%XK.L.T.XXY.m p P +X.XW.dXdXjX$XL.L.R.$XL.....(.(.} E  .>XL.E  .:XH.} X.R._...' K.3XT.p d Y &.P F.:XlXdXF.} L._.~. .| (.+XP d b f f D U G.OX>X(.L.H.L.K.L.H.K.L.L.L.L.H.K.L.L.L.K.L.K.L.L.L.L.L.L.R.H.R.H.R.K.K.L.L.L.L.K.H.L.K.L.L.L.H.K.L.R.L.L.H.R.K.L.R.H.R.L.L.R.L. .@XbXHXK.Q E.x z | F.%XvX XP D h W K.I.} R.ZXR.p J U P K K %XJX4XD.K K ] (.mXGXlXK.z F F F F F F F F F F F F F F F F F G h W AX XG #XVX XS.Y.P a *.}.'.[.gXwXD.m &.].P.P.eXIXGXAXPXMX&.;.KXhX-.P.Z.a $.;.s.P.=XsXY.D b 6.6.%.P.gX1XF.d 6.}.}.`.eXPXIXGXIXSXI.I.NXsXY.J.Z.n *.].t.P.fXNX'.;.v *.=.*.6.fXIXbXHXLXwXQ W.vXvXvXnXKXNXNX",
"uXuXuXuXuXuXCX2Xq.q.u.u.u.u.A e e w e r r w t :.Z :.:.) >.1.:.<.<.,.<.1.<.<.8.i.<.<.r.q.8.r.1.<.q.i.8.<.8.1.) 2.4.7.7.q.q.7.q.5.e.w.e.5.5.9.w.9.9.!.9.e.{.!.{.9.7.e.2X{.{.{.w.q._ q.q.q.i._ ) ( ,.) y.y.y.y.q.2X{.w.w.q.e.w.w.{.9.w.4.5.7.9.9.5.5.2.4.5.4.2.4.( ( ,.i.( ,.( ) ) r ( 4._ 2.( >.2.2.>.>.,.,.>.4.,.>.>.>.7._ $.$.v 8XUXSXCXVXSXCXVXCXVXVXVXVXVXVXVXVXxXVXVXVXVXxXMXxXBXxXxXVXxXVXxXVXMXVXgXVX=X            * LX[.! W.).E  .jXJX%XF F.*X*XXX%X XaX=XD 6 P sXaX3XAXdXdX%XK.$X3X4X%X).R.3X@X .).$X4X).@X/.>X).(.(.%XOXL._.1X4XE.d Y 3XaX=XkXkXjX3XF. .(.%X).L. .E. X-.&.I U ` D Q >XsXkX%XE.).(.).(.).).(.(.).(.)./.(.(.).(.(.).(.(.).W.).(.W.)./.(.(.(.(.(./.(.).(.).).(.).(.(.).(.(.W.).(.(.(.(.(.(.(.(.(.(.E.(.sXFXnXFXY.Q (.z F ` ..%XVX XL D h W G.I.A.E.ZXR.p J Q K K K _.JXdXF.F G K (.bXHXZXG.z F F F F D F F D F F F F F m F F F G m Y vXXXH -XAX XT.U.Y v ;.qX[.[.gX>XA.m %.].].P.eXIXUXVXPXNX-.S.KXhX&.U.D.a *.qX;.`.8XfXI.D b *.6.%.P.hX=XA.b 6.qX{.{.hXIXGXUXLXgXY.I.NXhXJ.J.Z.C %.].].;.fXNX[.;.v *.*.*.3.hXPXmXHXLXwX-.W.kXvXmXnXFXNXgX",
"uXuXuXuXuXuXuXBXBXBXCXBXCXBX}.0 w e w r r w t :.) ) Z Z :.<.:.,.<.1.<.:.1.,.<.i.<.1.8.u.u.<.<.<.u.i.q.<.4.,.>.4.2.4.q.q.7.7.9.q.e.q.9.9.7.5.w.w.!.w.9.U.{.e.w.9.e.e.{.{.{.w.e.e.q.y.e.y.q.e.i.e.e.e.y.q.e.y.y.y.y.w.w.w.w.w.w.9.w.U.9.9.9.U.w.U.9.5.5.9.4.4.2._ ,.,._ i.( ( ) B r >.,.,.>.>.2.4.,.$.4.4.,.A >.>.A A 4.2.A M v w MXVXVXUXSXVXCXVXUXVXVXVXVXVXVXVXVXSXVXVXVXVXVXVXVXVXVXVXVXVXVXVXVXVXVXVXUX=X            : ZX[.W.%X_.E x 3XDX#XP H U &X.XU G +XfX-.* m &X>XsXmXvXvX/.} &XvX3X).W. .dXOXz R.>XsX:XW.R.mXR...R.5X5XXX_.%XdX/.d z aXvXxXLXkXsXsXY.E.sX4X5X:X~.&XaXoX=X-X1X-XF J.kXjXsX(. .L.H.L.H.H.H.L.L.L.L.L.L.H.R.H.H.H.H.R.H.L.L.R.L.H.H.L.H.H.L.R.L.L.R.H.H.H.L.L.H.L.L.L.L.R.R.H.K.H.H.L.R.L.H.L.H.L.R.sXHXnXcXFXI.! E.x D Q L.%XmX XP h h Q H.I.-.R.DXR.p J U K G J %XJXsX} G K K R.bXHXcXG.m F F F F F F F F F F m D F F F F F F h Y AX XH -XSX XS.Y.P a *.}.'.[.gX8XS.m &.'.P.;.eXUXAXmXIXMX&.Z.KXhX-.U.D.a L ].t.P.=XsXY.L v %.`.%.T.gX=XD.d 6.qX}.`.hXIXUXGXIXNXI.I.NXsXJ.K.T.b *.].].*.fXNX XZ.a %.=.*.0.hXLXbXHXLXaXQ Y.vXvXvXNXFXSXNX",
"uXuXuXuXuXuXuXiXuXuXuXuXuXBXBXV y w 0 r r w r t :.t t ) >.1.,.:.:.:.,.,.:.>.<.i.<.,.1.q.u.q.8.8.i.u.i.8.8.<.( ( 4.4.7.q.7.7.7.9.e.9.w.w.9.9.U.{.!.{.9.9.w.!.!.e.e.w.2X{.w.{.w.q.e.e.y.q.y.y.e.q.e.y.e.2Xy.y.y.e.w.{.w.w.w.w.w.w.9.9.9.U.w.!.U.5.5.4.5.7.7.4.,.>.( _ ,.( ( ,.) B B ( 4.>.:.>.4.7.2.>.4.4.>.>.1.2.>.>.2.$.A >.B 3.CXVXCXUXVXUXUXVXSXUXUXVXUXUXUXVXUXSXSXSXSXSXSXUXSXSXSXSXAXVXVXmXSXSXAXSXUX1X  .         * >XI.@XOXR.K K dXLX>XJ a h '.S.u * D.=XY 6 m I.Y.aXJXDXgX#X} Y.lX:X} G K 4X%XF ! 4XcX! x ~ 4XR.c } dXdX .K  .dX$X` | aXUXDXLXSXlXdXK.K.jXjX%X_. .W.>X-XgX3X1X^.J @XDXjX,X:X@X@X@X@X;X@X@X).@X@X).@X:X).).@X@X,X@X).@X@X).%X).@X).@X:X@X).@X@X).).@X@X,X).@X@X@X).@X@X).).@X@X@X@X@X).@X@X).@X:XzXDXFXnXnXHXY.! E.z D | T.%XvX XI D h ! K.I.} E.bXR.p G Y K K J _.LXsXD.G K J R.bXGXcXK.h F F F F F F D F F F F F F F F F F F h J AX XK -XSX XS.Y.P a *.}.]. XfX&X;.m %.].;.P.fXIXUXAXPXNX&.S.KXsXZ.I.3.a %.].t.P.8XfXI.D b %.U.%.P.gX1XD.d *.}.{.'.uXIXKXUXIXSXU.I.lXfXJ.J.3.b *.].].].fXSX[.&.v *.*.*.3.hXLXDXHXHXwX-.^.kXvXvXFXFXNXMX",
"uXuXuXuXuXuXuXuXuXuXuXuXuXuXCXy.q 0 w w w w r t ) t t t ) :.,.:.:.,.>.:.,.:.<.<.<.<.1.i.u.8.r.<.<.q.8.,.<.,.) ( 4.4.4.4.4.q.7.9.7.9.w.w.9.9.U.9.w.{.5.!.!.w.w.9.7.e.{.{.w.{.e.e.q.w.y.w.y.w.e.e.2Xy.2Xy.y.y.y.y.w.w.w.q.q.w.w.9.w.{.9.5.I I K _ A 3.5.7.4.4.2._ ( 4.( ,.( ) ) B ) ,.>.( ( >.4.8.,.>.4.4.( ( 4.4.>.2.2.( A A k 2XIXUXCXUXUXSXCXUXUXUXUXCXCXUXVXUXVXUXVXUXVXVXSXVXVXSXSXVXxXVXVXVXVXVXVXSXUXeX            $ Y.Y #X%XY.z H vXKXoXb 8 m &.&.v : D &.8 8 L Y S.sXGXvX3X^.S./.gXOXQ W K.>X:X:X:X4XDX .J ).4X%X).).jXzXT.../.dXaX$X*XvXLXHXIXIXhX>XW.I.dXdX_.R.x x ).dXUX3X.XG.G ).DX4XR.>XsXsXsX4XsXzXsXsXsXdXsXsX4XsXsXsXsXsXsXsXsXsXsXsXdXsXsXsXzX4XsXsXdXsXsXsXsXsXsXdXsXsXsXsXsX4XsXsXsXsX4XsXsXsXsXjX:X>XDXnXDXbXvXGXI.! E.z F Q ..%XSX XP N h ! G.J.A.E.ZXR.p P U Y K K OXJXsXD.G K K (.bXHXcXG.z G F D F F F F F F F D z F D F F F F D Y AX^.H -XSX XS.I.P a ;.}.'.[.gX8XS.m &.].P.P.eXIXUXAXIXgX;.D.UXdX&.P.3.s C ].t.P.8XhXY.D b *.U.%.T.hX=XF.d 6.}.'.`.hXIXKXUXIXVXY.U.lXfXJ.J.D.b *.].].;.fXNX'.;.v *.*.=.*.hXLXDXJXLXwX! W.lXnXnXZXFXNXNX",
"iXiXiXiXuXiXuXiXuXuXuXuXhXuXBXeXr y w q w e y w ) B ) Z Z :.) :.:.>.:.,.:.:.1.,.<.<.1.8.8.<.8.<.<.8.8.1.,.,.) ( ,.,.4.7.7.4.7.7.9.w.e.U.9.4.5.5.` 2.` 9.`.y.9.e.9.7.{.w.y.e.y.e.e.q.y.q.y.q.q.q.i.q.q.y.e.e.e.y.w.w.e.7.e.w.!.w.w.w.9.I < & < # 9 0.w.9.4._ ,.( ( i._ ( ( ) ) w ) 4.,.,.) >.8.4.>.>.,.4.A ,.7.1.( 4.0.I I N A BXCXUXUXCXUXCXSXVXCXVXUXCXCXCXVXCXCXVXVXCXVXxXCXVXVXBXBXVXBXxXBXBXVXMXVXBXCX8X            $ J.| #X(.` z Y 3XSXU.D m %.*.*.b 9 u u 6 6 P &.T.hXIXgXY.U A. XjXOXW Q [./.).>X>X>XFXH.~ >X:X).5X@XsXdX .J.$X%X%X%X$XdXJXHXIXIXaXW.W.W.xXaXE.R.x p Q.kXdX*XXXJ.G ).HX4X! ).wX>X>X,X>X,X>X>X,X,X>X>X>X,X>X,X,X>X,X>X,X>X>X,X,X>X>X,X>X>X>X:X,X>X>X,X>X,X>X>X,X,X>X>X,X>X>X,X,X>X,X>X>X:X:XE.J >XnXnXFXbXnXFXY.Q E.F D Q T.%XSX XP D h Q I.J.-.Q.bXR.g J Y K K J %XJXdXA.F J ] R.cXHXcXJ.h F F F F F D F F F F F F F F F F D F z Y cX XK #XSX XS.'.&.a *.].'.[.gX>XD.m %.'.].P.eXIXUXUXIXMX;.S.KXhXZ.T.T.s L ].].U.=XsXY.L v *.6.%.P.hX*XD.d 6.qX}.`.hXPXUXGXIXvXY.I.NXsXJ.Y.D.n *.*.].t.fXNX[.;.a %.0.*.3.hXLXbXHXLXaXQ W.kXnXZXZXFXNXNX",
"uXuXiXuXuXiXuXuXpXuXuXpXuXuXpXVX0.q q q y r w w r ( Z Z Z ) :.) :.:.:.1.:.<.<.1.1.<.<.i.8.1.8.<.<.8.9.<.<.<.>.A ( 4.4.i.4.4.4.4.9.w.!.9.U.s < < < = k U.{.9.e.e.5.e.w.w.y.w.q.e.e.q.w.y.y.e.q.q.e.q.q.q.e.y.e.y.q.9.q.9.q.w.w.e.9.9.U.L F _.T.+ $ 0.9.9.e.,._ ( ( _ _ ( ( ) r ) ,.,.,.( ( >.4.2.( 2.4.>.B 2.4.>.>.0.2.$.A M y.CXCXCXCXCXCXCXCXCXCXMXBXBXBXCXBXBXBXMXBXBXBXBXBXMXuXMXBXuXxXpXpXpXuXuXuXuXBX|.            $ Y.F.XX| ` Y.XXhXgXP.D %.L ;.].n u 6 6 * 6 P &.S.hXIXcXJ.Y F.[.sX.X! Q .XW..X$X:X>XFX! ! :X;X).3X(.sXdX` K.>X#X1X3X:XgXHXHXLXIX>X-.-.W.gX3X(.R.j 3 Q.vXdX&X^.A.z } vXaXF P I.H.H.;.H.;.;.H.H.;.;.-.H.I.;.H.H.;.;.H.-.H.G.;.H.-.;.H.;.H.H.;.H.;.;.H.H.;.H.;.;.;.I.H.I.;.H.I.;.;.I.H.A.I.wXA.G 3XZXnXFXnXvXFXY.! E.F F ` ..%XvX[.P h h ! G.G.-.R.DXR.p J ` G K J _.JXdXD.G G J R.bXGXcXG.D F F F F F F F m F F F F F F F F F F z Y mXoXH -XSX[.S.I.P v *.qX'.oXgX8XS.m &.].P.6.fXIXGXVXIXMX&.S.KXhX-.T.P.a $.t.t.P.8XfXY.D b 6.6.%.T.gX=XD.d *.qX{.`.eXPXGXUXLXxXI.I.NXsXJ.J.A.b *.s.].;.fXNX X-.v *.0.*.6.hXLXDXHXLXwX-.Y.kXZXzXNXFXNXNX",
"BXuXuXCXuXBXuXBXBXuXBXBXBXBXBXVX|.9 q < 0 w w y w >.A Z Z ( >.:.:.:.:.<.<.:.:.<.<.<.<.i.u.8.8.0.0.u.u.<.<.<.<.) ) _ 4.4.7.4.4.4.9.w.U.U.Y.k F /.] - s {.w.U.e.e.e.e.w.{.y.q.e.q.i.e.y.e.y.q.e.q.q.y.2Xq.q.q.q.e.w.9.w.9.e.e.e.e.9.9.5.H ..4X5X& % 3.e.7._ _ _ _ _ ,.,.( ( ) ) ) ( 7.,.( >.2.,.>.( ,.4.( ) 4.( A >.2.A A A A 2XBXuXuXuXBXuXuXuXuXuXuXuXuXuXuXuXiXuXuXiXpXuXyXpXyXpXuXyXyXpXpXpXpXpXpXiXiXiX}.            $ -XaXaXD.Z.*XaXgXVXU.L L L *.P.b 9 u a 6 = L -.P.sXPXSXS.Y S. XdX.XP W W.@XQ.).:X,XFX! ! 3X$X$X3X(.sXzX| R.>X:X>X>X:XsXLXHXIXIX>X;.H.W.xX5XL.R.J j ).FXIXaX3.` U A.sXaXh G -.! -.-.! -.-.! -.-.~ -.-.! -.-.! ! -.-.-.Q -.Q ! -.-.! ! -.-.Q ! -.! -.-.! -.! ! -.! ! -.! -.! ~ -.-.! -.gXZXF.Y 3XZXcXDXbXnXGXI.! R.z F | ..1XZXoXL m h Q I.G.} E.cXR.p J Q K G J _.JXdX} G K K E.bXHXZXJ.h F F F x m F F F F F F F F F F D F F z Y AX XG -XSX[.I.Y.P a ;.[.].[.gX>XS.m %.].P.9.eXIXUXmXIXNX&.D.KXsX3.P.D.a *.qX;.P.8XsXJ.L v 0.P.%.P.gX1XF.b 6.}.}.{.hXPXKXUXPXNXI.I.NXfXJ.J.-.n *.].].;.fXSX[.&.v %.*.*.*.hXLXbXHXLXaXQ W.kXZXZXZXNXNXNX",
"BXBXBXBXBXCXBXBXBXBXBXBXCXBXBXBXBXs 9 1 y q w w y ) >.A $.,.,.:.:.>.:.1.8.,.1.:.<.,.<.8.u.t.8.8.8.y.u.0.<.<.<.$.( ,.4.4.7.4.2.5.9.9.{.5.U.D !.mX%X& k !.e.w.e.5._ e.e.w.w.w.w.e.e.q.q.y.w.q.q.q.q.q.q.q.e.q.q.w.e.q.w.e.e.5.e.5.5.2.5.l ] 5X;X& $ I _ _ 2._ _ ( ( _ _ ( ( ) t ) ,.2.>.( >.8.2.>.A >.2.A ( 2.( ( ( 2.A A S $.pXuXuXpXiXiXiXiXiXiXiXyXiXyXyXyXiXyXyXyXpXpXyXpXrXpXpXrXpXtXrXpXpXtX0XrXrXrXrXu..       .   = KXIXgXS.-.+XaXgXVXY.D L L *.&.n a a a 6 $ *.*.;.sXIXxXD.P Z.oXsX/.A.-.-.-.W.A.W &XZX-.-.I.'.+XW.-.>XsX;.R.W.W.@X[./.gXIXIXIXIXwX-.;.W.dXdXL.X.' g X.cXPXaXD.Y.hXhXNXaXP -.I.S.S.I.I.S.H.I.I.P.;.I.G.I.S.I.G.I.S.I.I.S.I.I.I.;.I.S.S.I.I.;.S.I.I.S.I.G.H.I.;.I.I.I.;.I.I.S.I.I.-.[.AXPXNXA.E 3XnXnXFXnXvXHXY.Q E.x D | ..1XvX XI N h W I.G.A.R.DXR.p J Y K K J %XJXsXD.G G J E.bXGXlXI.z D F F F F m F F F F D F F F F F F F z Y AX^.G #XVX XS.Y.P a *.}.`. XgX>X-.m &.].;.].fXIXUXmXIXBX&.S.KXhXU P.3.a L ].].*.8XgXI.D b *.t.&.T.gX=XZ.d *.qX}.'.hXIXUXGXIXVXI.I.NXsXJ.J.D.N *.;.t.].fXNX'.;.s *.*.*.6.hXLXbXHXIXaX-.Y.lXvXvXcXKXSXgX",
"CXCXBXBXVXVXCXVXVXBXCXVXCXCXVXVXVXU.< q y q 0 0 y r >.Z ( 7.7.:.( :.:.>.:.<.:.:.1.1.1.<.q.8.8.t.q.u.u.8.q.<.<.>.( 4.4.4.7.4.( 7.U.9.9.3.T.z X.jX;X& 2 T.U.5.5.e.e.5.e.!.w.w.w.q.e.w.w.w.q.e.e.q.q.2Xq.2Xi.e.e.w.w.e.w.e.e.5._ e.5.2.` p H 6X;X& + H ' _ _ _ _ ( ( _ 4._ _ ) ) ( 4.>.>.) 2.7.>.A ) >.A Z A ( ) V A V B $.Z 8.pXyXyXyXyXyXyXrXyXiXyXyXrXyXyXtXrXyXrXrXrXrXrXtXrXrXrXrXtX2XtXtXtXtX7XrXrX7XtXu.            * PXDXsXD.Z.=XhXSXgXP.D L L P *.m b 8 a 6 $ n ;.;.gXPXcXY.Y -.oXdXXXF.P 6 d [.L % W.ZX[.m 8 *.[.i i ,XgXK.G p ;.I.h P aXIXIXIXIX>X-.! W.xXdX^.R...c H.cXLXdXP.U.sXhXNXgX-.m P P P L P P P P P P P P P P P P L P P P P P L P P P P P P P P P P P P P P L P P P P P P P P P J P m [.KXGXIXgXA.J >XDXnXDXDXnXFXI.W E.z D Q ..%XAX'.P D h ! G.K.} E.ZXR.p J U K K J _.JXsXZ.G K ] R.bXHXcXK.z F F F F F F F F F F F F F D F F F G z Y vX/.I -XAX XT.U.Y v ;.}.`. XgX>X;.m %.].P.P.fXUXUXUXIXMXZ.S.GXgXZ.I.T.s %.].t.].8XsXI.D b *.P.%.P.hX*XD.d 6.}.}.{.hXPXGXGXPXxXY.I.NXhXY.J.Z.n *.].].;.fXNX[.;.v *.*.=.3.hXLXbXHXLX>XQ Y.lXvXnXnXFXNXNX",
"CXUXCXCXVXCXVXVXVXVXVXCXCXVXCXCXVXMX9 9 < y q y q q >.S Z 2.2.>.:.) :.1.1.1.:.:.:.,.1.,.8.q.9.8.0.8.8.8.8.<.<.>.Z 2.4.5.9.4.4.7.e.5.5.` ' l ..xX;X< u S.5.5.5.5._ _ e.e.e.w.w.5.q.q.e.y.w.w.q.q.e.e.q.2Xe.q.e.y.{.w.w.e.5._ 5.2.2.C 5.d c 5X;X> - l ' V ] ) ) ) B ) ) ) t B B ( >.Z B r M M t r M r r w M ( B w M B C B B |.pXyXyXyXyXrXiXtXtXrXrXrXrXrXtXrXrXrXrXrXrXrXtXtXtXtXtXtXtXtXtXtXtXtXtXtXtX7XtXb.            * PXHXaXZ.Z. X-XhXgXA.d h L &.*.b b 6 a 6 $ L ;.;.gXLXNXP.U S.+XdXXXT.I = b '.P = [.SX Xn 6 &.[.8 : &XlXW.d & -.G.: b aXIXIXIXIX>X-.-.W.xX4X!._. .x R.bXLXdXS.Y.gXgXSXgX;.d b m m b b m m m b m m m b m b m b m b m b m m d b m b b b m b m b m b b m m m m b b m m b m N b k _.HXLXAXIXSXA.J >XnXnXDXnXvXHXI.| E.x D Q L.%XvX XP z h Q I.I.-.R.bXR.p J ` K K K %XJXsXF.F K J E.bXGXcXI.h F F F F F F F F m F F F D D x F F F m J SXoXH -XSX XS.Y.P a *.qX'. XhX8XS.m *.].P.P.8XIXUXVXPXMX-.D.KXsX&.U.3.s %.t.;.P.=XsXY.L v *.P.%.P.hX1XD.d 0.}.}.`.eXPXKXUXIXVXU.I.SXsXJ.J.Z.N *.].].;.fXNX[.&.v %.*.%.*.hXLXDXHXLXaXQ ^.kXmXvXNXFXSXNX",
"CXCXVXVXCXCXCXCXCXVXCXCXCXCXCXCXMXVXD.# = < 0 0 y 1 A A S Z A :.>.:.:.:.<.<.<.,.1.<.<.<.<.t.u.q.8.q.q.0.<.8.8.>.A >.4.5.4.5.4.5.7.5.3.A ' ) ..6X:X< * 5.3.' ' 5._ e.e.e.5.5.4.2.e._ i._ i._ _ ( ,.i.,.,.) _ ( _ _ _ _ ( V ( A A V M I l c ,X5X3 X H I B w k k w B B ( ) ) ) B ( ,.( A Z >.>.2.>.>.4.( Z 2.7.2._ 4.I ( S ) rXyXrXrXrXrXyXrXiXtXiXyXrXrXrXrXrXrXrXrXtXrXtXrXrXtXtXtXtXtX2XtXtXtXtXtXtX7XtXtXt.  .     .   * PXKX=XU Q P Z.dXgXT.d a P ;.&.m v 6 u 6 $ %.&.I.sXLXNXP.P S.=XdX^.I.P 6 v '.m % oXSXY.m % *.[.a 8 &XgX[.d 6 ;.I.8 b aXIXIXIXIX>X! ;.W.xXdXR.R. .j ..kXLXhXD.D.aXhXgXgX&.a d d a d d d d a d a a a d a d a d d d a d a a d d d a d d d d a d a d d a d d a d d s a d a a d | 5XHXHXUXIXlXA.E >XDXZXDXDXvXFXJ.| E.z D | ..1XmX XP m h Q H.K.-.E.DXR.p G U K c | _.JXsXD.F K E E.bXHXcXK.D F D F F D F F F x F F F F F F F F F h Y AX^.K -XSX XS.Y.P a *.'.'. XgX>XS.m &.].].P.fXIXUXmXIXNX&.S.UXhX3.I.Z.s C ].t.P.8XfXY.D b 0.6.%.T.gX*XF.d 6.qX}.{.eXPXKXGXLXcXJ.I.gXhXY.J.D.n =.].].].fXNX[.P.v %.=.0.0.hXLXDXHXIXwX-.W.xXvXvXNXFXNXNX",
"BXBXBXBXBXBXBXBXBXBXBXBXBXuXBXBXMXVXeX< # = y w q y S A Z A t r r w r r t t t t t t Z t Z :.$.Z $.>.:.Z $.,.8.>.Z A A I ( A V A A V M k ` h ..jX5X> 1 3.( l ) ( ' ( _ _ ( _ ( ( ) _ e.q.i._ ( _ i.e.i.e.) ,._ y.w.{.e.5.>.4.7.5.%.M _ l l _.5X3 o l ) ] ) w ) ) _ 7.4._ A Z B ,.4.>.>.,.7.4.>.4.4.>.A >.2.2.A 2.3.A A M t.pXyXrXrXtXiXrXrXtXrXrXrXrXrXrXrXrXrXrXtXrXtXtX2XtXtXtXtXtXtXtXtXtXtXtX9X7X7XtXtXi.        .   * PXFX=XW.I.D Z.ZXgXJ.b a L &.&.C b 8 6 = $ *.&.S.dXLXgXI.&.S.&XgX XT.%.6 n '.D = [.SX Xb $ %.;.8 8 8XfX;.b * ;.Y.u d aXIXIXIXIX>X-.;.Q.dXhXE._...g  .cXLXaX| G Q S.aXdXY u a a f a u a a a a f a a u a a a a a a u a f a a f a a a f a a a a a a u a a a a a f a a i u l .._.1XLXHXFXIXgXD.K 3XnXnXFXnXcXFXY.! E.c D | ..%XSX'.P D h U K.I.} R.cXR.p J U P G J _.JXdXD.K K ] E.bXHXlXJ.h G F F F F F F F F F D F F F F F D F D Y mX XH #XSX XS.I.P n *.qX'.[.gX*XS.m %.'.;.6.fXIXUXmXPXMX-.S.KXsX&.P.T.a %.qX=.P.=XfXI.D n %.U.%.P.gX1XD.d 6.qX{.'.hXPXKXUXIXgXY.I.NXhXJ.J.Z.n %.].].*.fXNX[.;.v *.*.*.&.hXLXAXHXLXwX-.W.lXnXZXZXFXNXNX",
"uXuXuXuXuXpXuXuXuXuXuXuXuXuXuXBXMXeX3.# # # # q y # 0 $.Z >.>.:.>.) :.<.<.:.:.1.<.<.,.:.$.<.<.<.:.$.<.8.<.,.8.0.Z ( 9.9.4.2.( 2._ I N N _ d ] jX:X2 + ' ' ' ] ' _ _ 5.e.w.{.w.e.e.y.q.y.y.y.y.y.y.e.2Xy.e.2Xy.2X{.w.{.e.7.4.4.( B M H d l 5X5Xp o w ] l l ] ] ) ( _ ( ( Z B Z 4.4.( >.>.1.2.>.2.>.>.A >.4.2.A _ >.A A S $.|.yXyXyXiXrXrXrXiXiXrXrXrXrXrXrXtXrXtXrXtXrXrXtXtXtXtXtXtXtXtXtX7XtX7XtXtXtXtXtXu.            * PXKX*X[.[.D A.NXgXG.d i L &.&.C v 6 * $ - *.&.D.gXLXSXY.&.D.+XgX!.U.I 6 N  XL 6 +XAX^.m % -.oX8 8 wXfXI.m 8 A.'.u b aXIXIXPXIXwX;.H.W.dXdXX.!.| 3 ~ bXPX4XJ.| F } SXhX-.a s s a d s a f d a s s d s f d s f a a d a s a s d a a s a s f s a f d a f s a d s a s f a D X.!.R.5XLXIXSXIXSXA.K 3XZXnXFXnXnXHXY.Q E.F D | J.%XvX XL D h W G.I.A.E.bXR.g K U K K J %XJXdX} G F K (.bXHXZXJ.z F D F F F F D F F F F F D F D F F F z J AX^.P -XSX XD.I.P a ;.[.].[.gXwXD.b &.].].P.fXIXJXVXIXNX&.;.UXgXZ.I.5.a %.].].].=XhXY.D b &.t.%.P.gX=XA.d 6.}.}.U.eXPXGXUXLXVXI.I.NXsXJ.J.Z.C *.].].;.fXNXoX&.v %.=.*.6.fXLXmXHXLXaX! W.kXnXzXFXFXNXNX",
"uXpXuXuXiXuXuXuXuXuXuXuXuXuXuXuXMXI # # - - o 7 y = y Z Z Z A ) ) :.:.:.:.:.:.:.:.<.<.1.<.<.u.i.8.8.u.u.<.<.i.<.Z >.7.9.9.9.7.4.4._ k k ` f ] mX5X< = H _ l ] ( _ e.e.7.e.w.e.q.e.q.q.q.e.q.q.q.q.q.y.e.i.i.e.y.{.w.w.7.4.,.,.) k 0 k < l 5X5Xl o < < l < l ) ) ) _ ( ( A B A 4.>.>.>.2.>.>.>.2.2.$.( >.0.( A >.A V A A q S rXyXrXiXiXtXiXtXrXrXrXrXrXrXrXrXrXrXrXtXrXtXtXrXrXrXtXrXtXtXtX2XtXtXtXtX7X7XrXu.            * PXGX+XW.W.m H.ZXgXG.d d L &.&.n 6 6 * = 6 L &.D.dXPXSX XZ.Z.=XMX^.S.I 6 b Y.l : XXxX^.m $ m [.a 8 &XgXU.d * U Y.u d wXIXIXIXIXsXI.I.W.dXhXL.(.~ 3 ~ cXPXdX^.K.G Y.UXgXD.d a d a s s a a s a s s a a s s a f d s d a s s a a s s d s a f d d s d s s d f a f s a a D (._.X.L.5XJXJXAXIXlXA.J >XDXnXFXnXcXHXI.! R.z H | L.%XvX XP h h ! G.J.A.R.DXR.p K Y K K K %XJXsXD.G K J R.bXHXvXJ.z F F F F F F F F D F F F F F D F F F z Y SXoXH -XSX.XS.'.P a *.'.].[.gX=XS.m &.'.].P.eXIXUXAXPXMX;.D.UXfX3.P.D.a L ].t.P.=XhXY.D n *.9.%.T.hX*XD.d 6.qX}.{.hXPXIXGXPXgXI.I.NXaXJ.L.T.b *.].].P.fXNX'.;.v *.*.*.6.hXLXDXHXHXaX-.Y.kXnXZXNXFXNXNX",
"pXpXpXpXiXiXiXiXpXuXyXiXiXpXpXBXeXq y y 9 q y = # # = 0 ) M Z :.:.t :.:.:.:.:.:.1.<.:.1.:.:.<.1.<.,.<.8.<.i.1.8.Z ( 4.7.7.4.2.2.>.V k q N < ] jX5X2 # k k k ) ' _ _ e.5.7.e.9.7.q.e.e.e.y.q.e.y.y.q.e.q.e.e.y.2X{.w.w.7.4._ ) k 1 # q 9 1 f f & X 1 w < 1 k ) k ( _ ( ) Z M 2.4.( >.4.,.4.1.4.>.>.>.( >.4.Z A 2.A S M $.A $.7XiXyXrXrXiXrXiXrXiXrXpXrXrXrXrXrXrXrXrXtXrXrXtXtXrXtXrXrXtXtXtXtXtX7XtXtXtXrXu.  .         < PXKX&XY.I.h S.ZXkXG.h a D ;.&.v a 8 6 * 6 %.` 3.dXPXSX X&.;.=XgX XD.D f Y Y.z p $XAXT.m 8 -.[.d d &XsXG.p u A.J.u h 3XHXIXIXIXgXQ.;.W.dXdXE...E j  .vXLXdX/.J.J G.AXgXP.a f a d a a a d a d a a d a a s a a a a a d a a d a a a a a a a a a a a a a a s a a a a h ! (._.X.X.5XLXHXGXIXgXF.J 3XnXnXFXbXnXFXI.Q ^.z F ` ..%XSX[.P D h Q G.I.Q E.cXR.p Y U K K J _.JXsX} F K J R.mXHXlXJ.h G F F D F F F F F F F F F F F F F F z J mXoXG -XSX[.I.Y.P d *.}.'.}.gXwX-.m %.].;.;.eXUXUXAXIXgX&.S.KXhX-.I.D.a $.].t.P.8XsXI.L b &.6.%.P.gX*XS.d *.}.}.{.eXIXUXGXLXSXI.U.lXhXJ.Y.3.b %.t.].*.fXNX[.;.a *.=.%.0.aXLXJXJXIXwX-.W.kXZXZXZXNXNXNX",
"iXiXyXyXiXiXyXyXiXpXpXpXpXpXpXuXpXe 0 0 r r y 1 1 # # 7 ) B t ) ) ) :.:.:.:.:.:.:.:.r.:.:.<.1.<.<.<.,.<.8.i.<.8.Z A 4.4.8.,.,._ ( q # # s 0 * l 2 - - 0 0 < w ( e._ e._ q.q.e.i.e.e.q.q.q.e.q.q.y.y.w.w.7.w.w.!.w.w.e.4.4.( ) 1 1 1 q _ < . X - o q ( < 1 ) ) l ] ) ) ) l B ,.4.( :.4.,.4.,.4.>.>.>.>.>.2.A >.( A S V :.A $.7XyXrXrXyXyXiXyXrXiXrXrXrXrXrXrXrXyXrXrXrXrXrXrXrXrX2XtXrXtXrX7XtXtXrX7XrX7XrXu.        .   * PXZX+XY.I.h I.ZXgXA.f u D &.%.v a a = 6 6 %.&.-.hXIXAX X3.P.=XgX!.3.Y | XX1XE.E.dXkXQ W G.>X+XT.J.dXdXA.Y T.OXXX| L.dXLXJXLXLXgXW.H.Y.sXgXK...E j  .bXLXdX^.!.J  .ZXcXS.s a a a a a a a a v a a a v a a a v a a a s a a a a a a a a a a s a a a a a s a s a b Q h ! Q.W.R.X.5XKXJXUXIXNXA.K >XbXnXFXnXvXFXY.W E.z D Q X.2XmX XL D h W G.I.A.R.DXR.p G U K K J _.LXdXD.F K ] R.bXHXZXJ.h F F F F F F F F F D F F F F D F F G h W ZX XK -XAX XS.Y.I a *.qX'.[.gX=XS.m &.].P.P.eXIXUXVXIXMX-.S.KXhXZ.T.D.d C ].t.P.=XhXI.L b 6.6.%.U.hX=XD.d 6.}.}.`.hXPXUXUXLXVXU.I.ZXsXJ.J.Z.C *.].].;.fXSXoX&.v %.=.*.3.fXLXDXHXIXwXQ W.kXnXmXlXKXSXgX",
"iXrXiXyXiXiXyXyXyXpXpXpXpXpXpXuXpXM 0 M r r y q r y q 0 Z Z t ) t ) :.:.:.:.:.:.:.:.i.:.<.:.<.i.8.8.<.1.r.i.<.8.t B 8.4.4.,.( 4.A q w # V U.= . - - - A 2.< q ] e._ e.e.e.e.q.e.e.q.e.y.y.y.q.w.w.w.w.w.e.{.w.9.w.e.q.7.e.,._ ) 4.) w 5._ < # - 0 ) ' 0 l ( ' ) ) ) ) B B ) _ 4.( ( 1.4.2.>.0.,.$.Z 2.4.>.A 2.>.B r A A B >.pXyXyXyXrXyXrXyXiXrXrXiXyXrXiXrXrXrXrXrXrXrXrXrXrXrXtXrXrXrXrXtX2XtX7XrX7XrXrXt.            * LXdXXX[.-.i -.SXgXZ.d b L %.%.a 6 6 = 6 6 m L Z.dXIXAX X3.S.=XhX^.Y Y (.%X%X%X%X3XkX! -.:X&XXX3X#XdXdXJ F.%X%X%X%X%XdXJXJXHXPXgXY.G.G.aXdXY.H.E 3 ~ vXLXhX XJ.K } SXZXI.a a v v a a a a v a a a a a v a a a a a a a a a v a v a a v a a a a a a a a a a u N lXW.p ! /._.X.X.1XJXKXUXIXlXS.J 3XZXnXFXnXbXFXY.Q R.F D | ..%XvX XP D h Q G.G.Q E.DXR.g J U P F J _.JXsXA.G K W E.bXHXNXJ.m F F F F F F F F F F F F F F F F F G D Y vX XH -XAX XT.Y.P a ;.}.[.[.gXwXD.m %.].].P.fXIXGXmXPXgX&.P.UXhX3.P.3.s L t.].U.8XhXY.m b *.P.%.T.gX>XD.d 6.qX{.`.eXIXUXUXPXxXI.I.NXfXY.J.D.b *.].].].fXNX[.Z.v %.0.*.&.hXLXbXHXLXwX-.W.vXvXvXnXFXNXNX",
"yXrXyXiXiXyXpXpXyXyXpXpXpXpXpXpXBXA y t w y y r ) B Z B B ) B B Z ) t :.:.:.:.:.:.1.:.:.:.1.,.i.i.q.8.:.8.8.1.8.Z ) 4.,.>.,.,.( ( 2.e.M M 7._ s # 1 _ 5._ B _ _ ( _ _ q.e.e.e.q.e.q.e.q.y.q.q.q.w.y.y.{.7.w.w.w.e.w.e.4.i._ 4.4.4.4.( A ' ( k w ' _ B B ( ( ( ( ) ) ) ) r ) ( i.A >.4.8.4.1.8.2.( A 4.4.A :.2.( B M A $.S 0.yXyXpXyXyXyXyXyXyXiXiXiXrXiXrXrXyXyXrXyXpXrXpXrXpXrXrXrXrXrXrXrX2XrXrXpXrX7XrXb.            9 PXSX-X-.&.m ;.NXaX3.D C C *.%.e 6 6 6 6 6 L m ` hXLXSX[.Z.3.=XgXY.P P (.(._.:X%X1XlXE ! :X@X/.3X_.aXdXK  .%X%X%X3X_.4XJXDXGXLXgX'.G.K.3XdX!.K.E 3 | jXJXaX^.J.K P xXUXP.9 9 9 a 9 9 a 9 9 a q a a 6 6 9 9 e 6 e a a a a 6 9 9 a a 6 a a a 6 a 8 e a 9 q b ).DXW.j ! Q.~.R.L.5XLXJXDXIXxXD.J >XZXnXFXbXvXFXY.! E.z D Q T.%XZX[.I z h Q I.I.} E.DXR.p G ` K K J %XJX4XT.G K J R.mXFXlXJ.h G F F D z F F F x F F m x F F F F F h Y vXXXH -XSX XS.Y.Y a *.'.].[.gX>X;.b &.'.P.P.eXUXUXmXIXNX&.D.KXhX-.I.T.a %.].t.P.8XdXI.D b *.6.%.P.hX=XF.d 6.7X}.'.hXPXKXGXIXlXY.I.NXsXJ.J.Z.n *.*.].*.fXNX X-.a *.0.*.0.hXLXDXHXLXaX-.W.gXmXvXNXFXSXNX",
"iXiXiXiXiXiXpXpXuXiXuXpXuXuXuXuXBX0.q r r r 0 t Z t t r r Z ) t ) :.:.:.:.:.<.:.:.:.:.:.<.:.1.r.8.8.8.1.i.i.<.0.>.Z ( ,.4.,.( ,.,.2.4.4.( 4.4._ l _ e.( ( ( 7.e.e._ e.e.q.q.q.e.q.e.q.e.e.e.q.w.y.y.w.{.9.w.9.w.q.e.i.e.q.7.7.7.4._ ( _ ( ) ' ' ) B V ( ' ' ' ) ) ] ) k B ) _ _ A >.>.4.>.>.4.8.>.:.0.>.A ( 2.B r B A Z S 7.uXuXpXuXiXyXuXiXiXiXiXiXiXiXiXiXiXiXyXyXyXpXpXrXrXpXpXyX2XpXrXyXrXrXrXrXrX0XiXu.            * PXKX-XP P.=XwXSXeX&.C N %.*.*.a 9 u 6 = 6 %.&.Z.xXLXSX'.&.&.=XgX'.G W /./._.1X_.%XgXE -.+X@XXXsX(.4XjXJ L.%XOX%X%XXX3XJXFXHXPXgXW.I.K.5XdX^.E.~ g ..mXLXhXY.Y h D =XSXI.a v a 9 a a e v 9 a a a 0 a v v a a a a 9 v 9 0 a v a 0 a v 9 a 0 a e a a 9 v G X.).cXR.i ! W.R.X.R.5XLXJXAXIXlXA.J 3XbXnXFXnXnXGXI.! E.x D |  .%XSX XP D h W G.G.A.R.ZXR.p J Y K K J %XJXdX} F G J E.bXHXcXK.h G F F F F m F F m F F F F F F F D F h Y AXoXG -XSX XS.U.P a *.}.'.}.gX>X;.m %.].].9.eXIXUXVXPXNX&.S.UXdX-.P.D.a $.qX;.P.=XfXI.D n *.U.%.P.gX1XS.d &.}.}.U.fXPXKXUXIXNXI.I.NXaXK.J.-.n *.qX].;.fXNX[.&.v *.*.*.3.hXLXbXHXLX>XQ Y.vXvXmXZXFXNXgX",
"uXuXuXuXpXuXuXuXuXuXuXBXuXBXuXBXCX}.q M r r y t ) t t t r t ) t ) ) ) ) :.:.:.:.:.:.:.1.i.:.i.i.<.8.8.<.<.8.<.8.>.Z >.4.,.,.4.4.4.>.,.4.,.( ( _ 5._ ( _ _ e.e.4.e._ e.4.e.w.e.e.e.i.e.q.q.q.q.w.y.y.y.y.9.9.w.w.w.q.9.7.7.4.8.7.q.( ( 4.( 0 < k < ) ( _ ( ( _ ) ) ) B ) B ( 4.( Z >.2.>.>.>.>.>.( >.2.>.Z >.( B M Z Z V B 9.uXuXuXuXuXuXuXuXuXuXuXuXuXpXuXuXiXuXpXuXpXuXpXpXpXpXpXpXpXpXpXpXpXpXpXrXeXrXiXu.  .         6 PXKX8XL '.fXfXUX8X&.C C %.*.%.a e 8 6 = = $.&.T.xXPXcXY.3.D.8XgX[.P P .XW.).OX[.,XlXE -.[.&X@X>XW.sXdXJ A.@X@X%X:X%XdXFXHXIXLXgXY.G.Y.3XgXY.R.-.j ~ kXPXgXT.I Y.-XaXNX3.s N v n v v v v v v v v v v v v v v v v v v v v v v v v v v v v v v v n v v Y X...).bXW.i ! Q._...X.1XLXJXUXLXSXA.J 3XnXnXFXnXcXFXI.Q E.F F ` ..%XvX XL D h Q I.K.-.R.DXR.p G U K G J _.JXaXF.G K K R.bXHXcXJ.z F F F D F F F F F F F F F F D D F F z Y AX^.H -XSX^.S.I.P n *.}.'.}.gX>X;.m &.].P.;.eXIXUXVXPXMX&.S.KXhX&.S.5.a %.].;.].8XhXY.D b &.t.%.S.gX=XD.d 6.qX}.{.uXIXUXGXPXgXY.J.lXhXJ.J.D.N *.].].].fXNX'.;.s *.*.*.*.hXLXJXHXLXwXQ W.kXnXnXZXFXNXNX",
"uXBXuXuXBXBXhXBXBXBXBXBXBXBXBXBXVXeXq M 0 r 0 r ) t t t r r ) t t t ) :.:.:.:.:.:.:.:.:.:.i.:.<.r.8.i.<.<.<.<.i.>.Z >.,.4.,.>.4.4.4.,.( ,.4.) q B 0 B 4._ e.e.4.4.5.e.e.e.q.e.7.q.e.q.q.q.e.q.w.y.w.{.y.9.5.e.w.w.e.e.7.7.4.4.7.4.4.( ( _ B k 0 ) ( ( _ _ _ ' ) ) ] ) k B >.4.) A 4.,.>.>.>.4.>.A >.2.A A >.( B M ( S A S 9.BXCXBXBXBXBXCXCXBXBXuXBXuXBXBXuXuXBXuXuXBXpXuXuXpXpXpXpXpXpXpXpXpXpXpXpXpXpXuX|.            * PXUX8XL `.fXfXUXeXI D C n *.%.n a 9 6 6 = m *.D.xXLXVXU.&.&.=XgX'.&.P m U [.U m &XgX;.m ! ;.[.Q F aXgX| W A.W.OXF.F.3XHXHXLXLXhXY.D.K.sXvXW.W.H.R E jXLXxXY.3.aXSXgXNXP.v v v n v v v v v v N b v b v v b v v v v v v v v N v N v v v v v v v v v J .... .).cXW.p ! )._.X._.5XJXJXAXIXlXA.K >XDXnXFXbXvXHXK.| R.x D | X.%XvX|.P h h Q H.K.-.E.bXR.p J U K G J %XJXsXD.G K J E.cXHXcXG.z G F D F F F F F F F D m F F F F F F D J AXoXG -XSX XS.I.P a ;.}.].[.gX>XS.m %.'.;.].fXIXAXmXIXNX&.;.UXgX` I.D.a L qX*.P.8XfXY.L b *.P.%.T.gX1XD.d *.qX`.U.hXIXGXUXIXSXU.I.NXhXJ.J.D.b *.].].*.fXNX[.;.v *.*.=.6.hXLXbXJXIXaX-.W.kXlXZXZXFXNXNX",
"BXVXVXBXBXBXBXBXBXCXBXVXCXVXCXCXVXMX9 q q q q B t t t t r t ) t t t t :.:.:.:.:.:.:.:.:.1.1.:.:.<.<.i.8.1.<.<.<.,.) ,.>.,.,.,.,.4.8.,.( ( q.4.) M B 4._ e.w.e.q.5.4.4.q.q.e.w.7.e.q.q.e.y.q.i.q.y.y.y.y.w.7.{.w.w.7.7.4.7.9.9.9.7.4.( B _ ( ( ( ] ) _ ( _ _ ' ) ( ) B ) ) _ 4.( >.>.>.:.>.>.>.( ( >.$.) ( _ A M A M 0 k 0 U.CXBXBXBXCXBXuXBXCXBXCXBXBXBXBXuXBXuXuXBXhXBXuXuXuXuXpXpXpXpXpXpXpXpXuXpXeXpXuX}.  .         * PXUX=XL '.fXwXUXwXP b m L %.L v v 6 9 6 # %.I 5.xXPXSXY.&.` +XwXP.-.m = m '.d % [.NX;.a $ ;.[.* * >XNXG.p : A.W.i h >XIXIXIXLXgXY.G.J.3XxXY.H.K.R E jXLXxXY.I =XgXgXUXP.v b v v v n v b v v v v v v v v b b v b v v b v v v v v v v b b v b v v h J .. .o.).ZXW.i ! W._.X.R.5XLXGXAXIXgXS.E 3XnXnXDXnXnXGXI.! E.z D Q  .2XvX[.P D h W I.G.A.R.DXR.p J U K K ] _.LXsXD.G K ] (.bXHXcXI.h D F F F F F F D F F F F F F F F F F z Y SX XH -XAX[.S.[.P a *.[.;.-XgX8XD.m &.].P.6.fXIXUXAXPXMX-.S.KXgX&.P.D.s C t.].P.8XhXI.D n *.P.%.P.hX*XF.d *.}.}.`.hXPXKXUXIXgXI.I.SXsXY.J.6.b *.*.].].fXNX[.&.v %.*.*.3.hXLXAXHXLXaX-.W.kXZXzXNXNXNXNX",
"AXVXVXAXUXVXUXUXmXVXAXVXVXUXUXUXUXSX` d I U N M B B t t r w t ) r t :.:.:.t :.:.:.:.:.r.:.<.:.i.<.<.<.1.<.<.<.<.1.$.<.,.>.,.4.4.8.4.4.,.( ( ,.( ,._ 2.4.e.w.w.5.7.4.e.e.e.w.e.7.e.q.y.y.y.q.e.y.2X{.{.w.q.5.w.w.9.e.7.7.7.w.q.9.q.5.,.( ) ( ( ) ) _ _ _ i._ _ ) ) ) ) B ( ,.( ) ,.4.>.) ( >.>.>.( ( ) A ( _ A k I {. X|.e.eXVXCXCXBXCXCXCXCXCXCXCXBXBXCXBXCXBXCXBXBXBXBXBXBXhXBXBXBXxXBXuXBXxXpXBXuXhXpXCX|.            6 PXVX-XD Z.S.Y.SXwXL f d D %.L v a 9 9 6 = L U 6.hXPXVX'.U -.=XaXZ.&.D 6 b I.h 8 [.zX;.m $ ! wX8 % &XgXI.f % A.[.u i >XLXFXFXLXgXY.D.T.3XxXK.H.E.x E dXLXVX XP =XxXgXKXU.a s b v b v d v b s b v d b b b v s b v s b v b s b b s b v b b b v m h g K  . . .).ZXI.j ! Q._...X.5XLXGXGXIXNXA.J >XnXZXFXnXcXFXY.W E.x D | L.%XZX XL D h Q K.I.Q E.ZXR.p J U J G K %XJXsXF.F K J R.bXHXcXK.z F F F F F F F F F F F F F F F F D F z J mXoXG -XSX XI.I.P v ;.qX'.[.gX>XS.D %.].P.P.eXIXUXAXIXNX&.S.KXhX| P.5.s %.].t.P.8XsXY.D b 2.6.%.U.gX=XA.b 6.}.|.`.eXIXUXGXLXVXY.I.lXfXJ.J.D.b *.].].*.fXSX X;.v %.=.%.*.hXLXDXHXHXwX! W.kXZXZXFXFXNXNX",
"UXUXUXUXUXUXUXUXUXUXUXUXUXUXUXUXUXUXSXxXSXSXVX5.y B r r w y t ) t B ) :.) t t :.1.:.:.:.:.:.:.:.1.<.:.<.1.i.1.i.,.$.:.,.,.,.4.8.4.4.7.4.( ) >.8.( ,.4.4.e.y.w.e.7.7.9.e.q.9.q.5.7.w.y.w.y.8.9.w.y.{.{.w.e.e.y.e.9.e.9.7.7.9.w.9.w.q.4.( ( ) ( _ ( _ ( _ i._ _ ( ) ] r B ) _ ( ) ,.2.>.( >.>.( ( >.>.A A ( _ V s !.VXVXUXVXUXVXVXVXVXVXVXCXVXVXVXCXCXVXVXVXVXVXVXVXVXVXVXBXVXVXBXVXBXVXBXxXBXVXBXxXBXBXxXCX|.  .         u PXlXW.! ;.d W.LX>XG i a L &.C n a 8 6 6 7 L &.&.-XIXSXI.P -.=XaXP.U b $ n I.d * .XhXS.d $ &.-X8 * -XNXG.a % -..Xi i =XIXFXFXIXgXI.Z.F.5XxXY.K.Q.x x jXLXvXU.H Y.&XaXZXY.a a a a a a a a a a a a a a a a a a a a a a a a a a a a a a a u a D P m j G  ... .).cXW.i ~ )._...!.5XLXJXDXIXxXF.K 3XnXnXFXDXnXHXI.! E.x z | T.%XmX XP z h W G.J.A.E.DXR.p J U G G J %XJXdXD.G K ] E.bXJXvXJ.z G F F F F m F F F F F F F F F F F F h W vX XH -XSX XS.Y.L a *.}.'.oXhX>XS.m P ].P.P.8XIXGXmXIXNX-.;.UXhX-.I.D.a %.;.s.P.=XsXK.D n 0.P.%.P.hX*XF.d 0.}.}.`.hXPXKXGXLXgXY.I.NXsXJ.J.D.N *.t.].;.fXNX'.;.v *.=.0.3.hXLXJXHXIXaX-.Y.vXvXmXlXKXSXgX",
"VXUXUXAXVXUXUXVXUXUXVXUXUXUXUXUXKXUXUXKXIXUXPX2Xw w w r w y w ) t t ) ) t :.:.:.:.:.i.:.:.<.:.1.:.<.i.1.i.:.<.i.:.:.:.,.,.>.4.4.7.7.7.,.,.>.) ) ,.4.7.q.w.w.w.q.e.5.9.e.e.w.e.5.7.w.y.y.u.q.7.y.y.2Xy.w.e.w.w.w.w.9.9.4.5.9.e.w.{.e.5.4.e._ _ 7._ _ _ _ _ e.i.( ) ) ) B ( _ ( ( 2.>.,.( ( ,.>.( >.2.2.( 2._ N N eXKXKXKXIXIXIXIXPXIXIXKXIXUXIXKXUXUXUXUXKXUXUXUXUXUXUXAXAXUXUXUXAXUXAXUXVXSXSXVXmXVXUXVXKX1X            * PXgX[.W.I.i $XPX&XY s a P &.%.n a 6 6 = = P &.I `.IXSXP.P &.=XaXY.&.d 6 m ;.a * '.aX-.a * m '.: * -XNXA.u * Q I.8 u &XIXHXIXIXgXI.Z.F.3XxXJ.K.W.x x zXLXvXJ.P F F >XGXS.a s a a a a d a a a s d a a a a s s f a a a d a a a s a a s u b  XZ.P m h E  . ...).nXW.i ! W._.X.X.5XLXJXDXIXNXD.J >XZXnXFXnXvXHXI.! Y.F D |  .%XSX XL D h Q I.G.-.R.cXR.g G U K K K _.JXsX| F K K (.bXHXNXK.h F F F F F F F F F F z D F F D F F G D Y ZX^.P -XvX XT.Y.Y b *.}.]. XhX8X;.m %.].].P.eXPXUXVXPXMX&.S.KXhX&.P.D.a *.qX;.P.8XhXI.D v &.t.%.T.gX=XD.d 6.qX}.`.eXIXKXUXPXSXI.I.NXaXJ.J.3.n *.].].6.fXNX[.;.v *.*.*.*.hXLXbXHXLX>XQ W.gXvXmXnXFXNXNX",
"VXVXUXUXVXAXSXSXUXAXSXVXVXUXUXUXUXUXUXKXKXKXKXUX' < q 1 w w w t ) ) ) :.:.t :.:.:.:.:.1.<.:.:.:.:.i.i.i.<.<.i.i.>.:.:.>.:.>.4.7.e.q.4.4.7.7.q.7.7.q.e.8.w.w.w.e.5.7.9.w.w.e.9.9.9.y.y.q.w.q.7.q.y.y.y.y.7.e.w.!.9.w.w.4.9.9.!.{.{.!.e.4.e.e._ _ _ ( _ e._ ( _ ( ) k B B ,._ ( ( 4.2.,.>.>.( ) ( _ 2.B A ( V k H xXPXIXIXIXIXIXIXIXKXJXIXLXLXHXJXIXIXIXIXIXIXIXIXIXIXHXGXGXIXIXKXGXGXKXKXIXIXIXGXUXKXKXIXLXaX            * PXNX XW.I.p +XLX$XG f d L &.C v 8 6 $ = 6 I 3.L  XPXNXP.&.;.=XgX X3.s $ n -.u = Z.&XQ u - N I.* % [.wX;.u % U G.* i +XFXHXPXLXgXI.Z.F.3XdXJ.Y.).j x jXLXxXY.Y.W h dXHXI.d b d d b d b b d b d a b b d v d b d d b d b b d b d b b a N >XhXY P h j J ..X. .).cXW.p ! )._.!.!.5XJXJXAXIXcXA.J 3XDXnXFXnXcXHXY.! E.x D | ..%XvX XP D h W H.I.} E.DXR.p P ` G K J %XJXdXZ.G K J R.bXHXcXK.m F F F F D F F F F F D F F F F F F D h Y SXoXH -XSX XS.Y.Y a *.}.'.[.gX>XS.m %.'.;.].fXIXUXmXPXMX-.;.KXhXZ.P.5.a C ].t.P.8XhXY.L v %.P.%.6.gX*XD.d *.}.'.{.hXPXUXGXPXgXI.I.lXhXJ.J.D.b =.].].;.fXNX[.P.v *.*.*.6.hXLXDXHXLXwXQ ^.gXmXnXNXFXSXNX",
"VXAXVXVXVXVXVXVXVXVXVXAXUXUXUXUXKXUXUXKXKXKXUXIX2X0 w q 1 y y t ) t t t :.:.) :.1.i.<.:.:.:.,.:.<.:.:.i.i.1.i.1.:.:.:.>.,.( 7.w.q.e.7.7.4.7.q.q.w.q.q.e.w.w.{.9.5.7.9.e.9.w.9.9.7.9.y.w.y.w.7.q.y.y.y.w.7.e.w.e.9.!.w.7.4.9.w.{.{.e.5._ _ _ _ _ ( ( ( ( _ ] ) ) B k B B 4.( ) B A A V B ) B M k B V 0 M V k s U.UXLXLXLXIXIXIXLXJXIXLXLXLXLXLXLXIXIXJXIXIXJXIXJXJXGXLXLXJXJXJXKXGXJXJXJXKXJXHXGXJXKXJXJXLX3X  .         * PXgX XY.S.h #XLX&XF i a %.*.L 8 6 6 6 6 u L &.I  XPXMXP.Q Z.=XVXoXY a $ a ;.u $ `  XY u - d '.6 X ;.oXU u $ P I.* * F.>XgXIXPXgXJ.Z.J.3XvXY.R.R.j J jXLXVX^.E.! m sXIXY.b b v b v v b v b b b b b v b v b b v b v v b v b b b b a m Y wXaXU G m g J  .....).bXR.i ! /._.X.X.5XLXGXUXIXgXA.Y >XnXnXDXDXvXGXI.Q R.x D Q T.%XVX XP m h Q I.K.-.R.bXR.p J U K K J _.JXsXD.G G J R.bXHXcXG.h F D F F F F F F F F F F F F F F F F z Y mX XK =XVX XS.I.P a *.'.].oXhX>XS.m &.].;.P.fXIXJXVXIXNX&.S.UXsXZ.I.D.s %.].t.U.8XfXY.D b 6.6.%.U.gX=XD.b 6.qX}.U.hXPXGXUXIXNXY.U.NXsXJ.Y.D.N *.].].6.fXSX[.&.a *.=.%.3.fXLXDXHXIXaX-.Y.vXvXvXZXFXNXgX",
"BXVXxXVXVXVXxXVXVXVXVXVXVXSXSXSXUXAXUXAXGXGXUXKXVXV 0 s w w y w Z Z t t Z t $.:.:.:.:.:.:.:.:.$.:.<.:.:.1.:.<.<.:.$.>.>.( 2.2.8.5.7.4.4.4.4.7.e.e.7.4.4.5.e.9.4.4.4.5.2.2.5.4._ 2.2.7.4.8.,.>.>.2.7.5.4.( V A _ _ 2.4.( A ( 5.2._ _ V V ) ( l ) ) ) ) ) ) ) ) ) k ) V ) 4.,.Z A ,.>.A >.>.( ) A 2.2.A 2._ V l 1XIXIXIXJXLXLXLXLXLXLXLXLXLXHXLXHXLXLXLXLXIXJXLXIXHXLXLXJXJXLXLXLXJXJXJXJXHXLXIXLXIXHXHXHXPXaX            * PXgX XY.-.h +XLX&XD f d m *.m 6 6 6 = 9 9 L _ I }.IXSXS.Y S.wXAX XP D a N Y d u Y.oXH b 9 b D.f *  X XP m u D U u f W.+X>XKXLXhXI.Z.G.3XxXY.H.R.G ..zXLXZX.XY.Q h aXPX[.b b b v b b b b v b b b n b v b b b b n v b b b b b v v W.| Y 8XsX&.G m h G .... .).vXW.p ! Q.X.X.~.6XmXGXUXIXSXA.J >XbXnXDXnXnXGXI.! E.F D Q  .1XvX XP D h Q G.I.-.Q.DXR.p J U Y K K _.LXsXF.G K K R.cXGXcXJ.F F F F F F F F F F F F F F D F F F G h J AXoXH =XSX^.S.I.P n *.qX'.[.gX>XD.m %.].P.P.fXUXUXAXIXMX&.S.KXhX` P.D.a %.t.].t.*XgXI.D b *.U.I P.hX1XD.d 6.}.}.{.eXIXKXUXIXVXI.Y.NXhXY.J.D.b *.;.].*.fXNX[.;.v *.0.*.0.fXLXDXHXLXwX-.W.lXnXZXZXFXNXNX",
"xXxXVXVXvXVXVXVXUXUXUXUXUXUXUXUXUXKXKXKXKXGXGXIXIX X9 0 w w w w B Z r r t r r t t t t t t Z Z t t t ) $.:.:.:.:.$.>.>.>.:.Z Z ( ( _ ( A ( ) ) ( ( ( V ( _ 4.4.4.2.A A _ 2.4.4.$.( 4.7.8.8.0.>.2.7.w.w.w.4.( 2.!.{.{.e.4.9.!.w.e.w.w.4.2.e.7.e._ ' _ ' _ e._ ) ] ( ) B ( 4.4.2.4.8.2.>.2.>.) >.,.( $.2.2.I N I xXIXIXIXLXLXJXLXLXLXLXLXLXLXHXHXLXHXLXHXLXIXLXLXLXLXLXHXLXHXJXJXLXJXKXJXKXHXHXHXHXHXIXGXGXPX3X            * PX8XY.Y.-.d &XPX&XD 9 8 n ;.n 6 8 6 * 6 u L Y U oXPXVXD.P ;.&XNX[.D L D D L D F oX XD D D D D m D eX XD Y D D D z Q *X&XsXHXKXaXG.Q J.1XdXS.G.L.j E mXPXSX[.Y.-.h aXPX[.b b b b b b b b b b b b b b b b b b b b b b b b b a b aXNXQ H 3XaXY G m h E  ... .).vXW.p ! W.X._.e.5XJXGXDXIXgXA.J 3XZXnXFXnXnXFXY.! E.z D | ..%XVX XP N h ! G.K.Q E.DXR.p K U G K J %XJXaXF.G K ] _.mXHXZXG.h F F F m F F F F D F F F F F F F F G z Y vX XK -XSX XS.I.P a ;.[.].[.gX>XD.C &.'.].6.eXIXUXmXPXNX&.S.KXhX3.I.5.s C ].t.P.=XaXY.D b %.t.&.T.gX=XD.d 6.}.}.{.hXIXUXGXIXvXU.I.lXfXJ.J.D.b *.].].].fXNX[.&.v *.*.*.&.hXLXbXHXLXaX! W.kXnXzXZXFXNXNX",
"UXUXUXUXUXIXIXIXKXUXKXKXIXIXKXIXIXIXIXIXIXIXKXKXIXhXl 0 w q w w t ) t t :.Z t <.1.,.,.$.:.1.,.1.:.:.<.<.<.,.:.<.,.:.>.>.>.( 2.5.9.!.e.5.4.5.w.w.w.{.7.9.{.{.{.w.9.7.9.w.w.w.w.9.9.y.y.{.y.w.9.y.y.{.w.w.9.9.w.{.!.{.{.w.w.w.9.9.9.w.5.7.e.e._ i.) ( ( i.e._ ( ) ( ) B ( 2.>.>.2.,.%.A >.>.) ) :.( A >.I V s !.KXIXJXLXLXLXJXLXLXLXLXLXLXLXLXLXLXLXLXLXJXLXLXLXLXLXLXLXJXLXLXIXJXJXJXJXKXHXLXHXLXLXHXHXHXPX3X            * LX=X[.S.m u W.KX+Xd 8 8 n *.a = 6 = = 6 a D L L ^.PXgXU Y G Z.>XY.h m m D D D H ^.Y.f s D b z D d -XI.d z H F D x U XX^.W.&X[.W.-.-.D.3XdX3.J.L.3 R kXPXgX[.Y.-.d >XPX[.a b b d b v b d v b b d b v b d b v b d b b b d 8 L dXPXgXU K wXaXQ P j d E ! ..L._.cXI.j ! Q._._...1XJXKXUXLXcXA.Y >XZXnXFXbXvXFXY.Q E.F D | X.%XxX XP N g Q I.I.} R.bXR.i J U K K J _.JX4XZ.G G J R.cXHXcXG.m F F F F F F F F F F D F F F F D F F z Y vX^.K -XSX[.S.[.P a *.}.'.[.gXwX;.m &.].P.P.eXIXAXVXIXNX&.S.KXsX-.I.D.a *.].*.P.8XhXY.L b *.P.%.6.gX=XD.d *.}.].{.hXPXKXGXLXVXI.Y.lXhXJ.J.-.n *.].].*.fXNXoX&.s *.=.*.0.hXLXDXHXHXaX-.Y.kXnXZXNXFXNXNX",
"UXUXGXKXGXKXGXGXGXKXKXKXGXIXIXGXIXGXIXIXJXKXKXIXJXUX` 0 w w w y w ) Z t t t t ) :.:.:.:.:.:.:.:.<.<.:.:.,.,.1.:.>.:.,.>.>.4.9.{.w.!.9.7.7.5.9.q.w.e.9.w.e.w.e.9.7.7.9.7.w.w.9.7.9.9.y.w.q.9.7.7.q.y.w.q.7.7.9.e.w.9.9.5.w.9.9.9.7.5.5.2._ i.e._ ( ' _ _ ( _ _ ) ( B Z 2.>.( >.2.2.( ( :.) ) >.( :.Z A A N k eXPXLXLXLXLXLXLXLXLXPXLXLXLXLXLXLXLXLXLXLXLXLXHXLXLXJXLXLXLXJXLXJXIXJXIXJXJXJXLXLXHXHXLXJXGXPX3X        .   * PXgXI.D b m [.SX[.u a v L *.n = $ 6 = = 9 N H N U.IXgX` Z.G F W.Q a u d m m i f | | f u d D N d u Y.` u f f h F d z W.-.d d m -.-.W | 3XdX| F. .i x jXHXaX XD.P 2 [.PX-Xa 6 8 6 8 8 6 8 8 8 6 6 8 8 9 8 6 8 8 8 6 8 6 6 L ZXHXGXgXU Y 1XfXQ G m j E ! X...%XmXW.p ! W._..._.5XJXJXAXIXxXD.J 3XbXnXFXnXnXGXI.! E.c D W ..1XmX XP D h ! G.J.A.E.DXR.p J U K F J %XJXdXF.G K J E.bXGXZXK.h F F F F F D z F F F F F D F D F F F z Y AXoXH -XSX[.S.Y.P d *.].'.}.gX>X-.b &.].].9.eXIXJXVXPXgX&.P.KXhXZ.P.D.a $.].].P.=XfXI.D b %.`.I U.gX=XD.b 6.}.}.'.eXPXGXGXPXgXJ.I.NXhXJ.J.-.n *.].].].fXNX[.3.a *.*.*.3.hXLXbXJXIXwX-.W.kXZXZXZXNXNXNX",
"KXKXKXKXIXGXIXIXGXIXIXGXIXIXIXGXIXLXIXIXJXIXJXIXIXKX-Xk k s 0 0 w t Z t Z t Z :.:.:.:.:.:.:.:.:.:.:.i.:.:.,.:.:.:.:.,.,.>.4.9.9.!.9.9.w.5.7.w.5.w.w.9.9.w.!.w.w.9.4.4.9.w.w.9.9.7.q.w.w.9.q.8.y.q.q.w.w.7.5.9.!.w.9.w.5.7.9.w.5._ e.4._ 7.4.4._ ( ,._ _ i._ ( ( ) ) ) ' ,.A 2.4.>.$.>.) A ( >.( ( Z A A s I VXIXIXPXIXIXIXIXIXIXPXIXIXPXIXIXPXIXIXLXLXLXLXLXIXIXLXLXIXLXJXLXJXJXIXJXKXJXJXKXKXJXJXJXIXJXLXeX  .         $ aXaXI.b D D U.SXoXf s n a v n b 8 6 - 6 6 n %.N !.LXhX| ^.^.F F h u 8 8 u u i P A.H u * < p i < F U.H u < u 3 i u F K.G 8 d m I.A.K W >XgXA.! | g c 4XPXNXY.m m h ;.FX'.6 6 6 6 6 6 6 6 6 6 6 6 6 6 6 6 6 6 6 6 6 6 * W JXHXvXGXgX` K wXwXQ G m h J  . .X.).nXW.j ! /._.X.L.5XLXGXAXIXNXA.E 3XnXnXFXnXcXFXJ.Q E.x D | ..%XvX[.P h h Q G.H.-.R.ZXR.p P Y K K J %XJXsXF.G F J R.mXHXvXK.D F F F F F F F F F F F F F F F F F F z W ZX XH -XAX XS.U.P a *.}.'.[.gXwXD.D *.'.;.P.eXIXGXUXIXMX-.S.KXfX-.U.D.s %.t.].U.8XsXI.L b *.t.&.P.hX1XD.d 6.}.}.`.hXPXUXUXLXVXY.I.xXhXH.J.3.b *.].].6.fXNX[.;.n *.*.*.6.hXLXbXHXLXwXQ W.kXmXmXlXKXNXNX",
"KXGXGXGXGXIXIXGXGXIXGXLXGXJXJXIXIXJXJXIXIXIXIXJXJXIXgXV q s 0 0 w t ) t t Z $.:.:.:.:.:.:.:.:.:.:.:.:.:.1.,.,.:.>.,.<.,.:.8.w.9.w.U.9.5.4.5.9.w.w.w.9.7.w.w.w.w.9.4.7.9.w.w.e.7.4.q.w.w.q.9.7.q.y.q.q.w.4.5.9.w.w.U.9.4.4.7.w.7.e.i.4.4.4.4.e.,.( _ 4.( ( _ _ ( ) ) ( ( ( ) 2.4.( ( 2.2.) >.>.) A A A A s U.UXIXPXIXPXIXPXPXIXPXIXIXIXUXIXIXIXIXKXKXIXIXIXIXIXIXJXIXIXJXKXKXJXIXJXIXGXGXIXIXKXGXKXKXIXUXLX1X            X -.Y.&.d s a D eX'.u 6 6 6 8 n %.8 6 $ # a b b H #XPXdXT.3XdX} h p 8 : * $ + D oX| p < 2 * $ X c %XY d 9 & < < + p W.Y.d u b Y Y.D.D J %XjXA.! E c X.%X3XSX'.a J ;.Y.SX[.6 6 6 6 6 6 6 8 6 6 6 8 6 6 6 9 9 6 6 u 6 6 E 5XJXDXAXLXgXQ P wXwXQ P h g J .. . .).cXI.i ! /.X.!.X.3XLXGXGXIXgXA.J >XDXnXDXDXnXFXY.Q E.z D Q T.%XZX}.L m h W I.I.A.E.bXR.g J U Y F W _.JXaXD.G K ' R.mXHXcXJ.h F F F F F F F F D F F F F F m F F G m Y vX XK #XVX XS.Y.Y v *.}.'.[.gX=X;.b &.].].P.eXIXUXVXIXgX&.S.KXhX&.P.D.s C ].t.P.=XhXY.m b &.t.%.T.gX*XD.d 6.qX{.`.eXIXUXUXPXxXI.Y.NXhXK.Y.D.n %.].].*.fXNX[.&.v *.=.*.0.aXLXbXHXLXwX-.W.vXvXnXnXFXNXgX",
"KXGXKXGXIXGXIXIXIXIXGXGXJXIXIXJXIXLXLXLXKXIXJXLXIXIXGXU.9 s 0 q 0 r :.) t t Z :.:.:.:.:.:.t :.:.:.:.i.:.1.,.<.,.,.,.:.:.>.8.9.9.9.5.5.5.4.7.e.q.e.9.4.9.w.{.{.w.7.4.7.e.9.w.9.7.4.e.q.y.q.q.0.9.y.y.w.q.4.4.7.!.{.!.9.4.4.7.9.9.q.e.e._ 4.4.4._ ( ( _ ,.( _ ) ) ) ) ( i.Z ( 4.( A >.>.) V >.>.) A ( A N N =XUXUXIXIXKXIXIXUXUXUXIXUXUXUXUXUXUXUXUXUXUXUXUXIXIXUXIXUXKXKXIXIXIXIXIXIXIXKXGXUXUXUXGXUXUXSXIXeX            $ =X'.m 6 * 6 s oX3.9 6 8 a a L n 6 $ 6 = 6 m L T.hXPXdX..3XDX_.G l 2 : & % p %X1XH z 2 * & $ < 2XdX` l u = + + & Y.4XY.m m D P [.S.F ' %XsXA.! F 4 1X..f Y.-Xm d m D sX-X6 6 6 6 6 6 6 6 6 6 6 6 6 6 6 * 6 6 6 6 6 ! Q.:XFXJXmXJXgX` K wXaXQ m m j J .... .).ZXW.i ! Q._.X.X.5XJXJXAXIXSXA.J >XnXnXDXnXnXGXJ.W E.x D Q X.%XvX XP D h Q K.G.A.R.DXR.p J U K F ] %XJXhX} G F J (.bXHXcXI.D F F F F m F F F F F F F F F F F F F h J SX XK -XAX XS.U.P a ;.}.].[.gX>XS.m &.'.].P.fXUXUXmXPXMX-.;.KXhXZ.P.D.a *.].*.P.8XsXI.D b *.P.%.P.hX*XF.d 6.7X}.'.hXPXGXKXIXlXI.I.NXsXJ.J.D.N =.].].P.fXNX[.&.v *.=.*.6.hXLXDXHXLXaXQ Y.gXvXvXNXSXSXNX",
"HXKXGXKXKXIXGXIXIXLXLXGXIXJXIXLXJXLXJXJXJXIXLXLXLXJXLXaXM 0 0 0 0 0 t :.t t $.:.:.:.:.:.#.:.:.:.i.:.:.:.,.<.<.>.1.,.<.,.>.4.9.9.9.w.e.5._ e.q.7.q.q.7.e.w.w.e.9.9.4.4.9.w.w.9.7.7.e.q.q.9.q.8.7.7.9.7.w.7.4.5.w.{.w.7.5.5.7.9.9.e.i._ i._ 4.4._ _ _ 4._ _ ' ) ] ) ) _ i.A ) 4.) Z M w s M _ 4.( B I A s I VXIXIXUXIXUXUXUXUXUXUXUXUXUXUXUXUXUXCXUXUXUXUXUXUXUXUXUXUXUXUXUXUXKXJXUXUXUXUXUXUXVXVXVXVXVXxXUX=X            * LXoXY P P L 6.eX3.a b m n n P L 6 6 a 6 9 N D.gXJXLX4X..:XJX3X` | J 2 > ' 4XDX3XH ' K 2 % z :XJXaXH ` ' 2 & g %XJXgXY.Y L d Y '.Z.H K %XsX!  .J h 6X5XD.Y.&.8 * * 8 [.;.6 = 6 6 6 6 6 6 6 = 6 = 6 6 6 = 6 6 = u R.;Xo.,XJXFXmXGXxX` Y >XhXQ G m h G ......).nXI.j ! /._.X.R.5XLXHXUXIXlXA.E >XDXZXDXDXcXFXY.| E.z D | ..%XZX XP D h ! K.I.Q E.cXR.p K U Y F | _.JXsXF.G K J R.bXHXcXJ.h F D F F F F F F F F m F F m F F F F h Y ZXXXH -XSX XS.Y.P a *.}.].[.gX&X;.m %.].;.;.eXIXAXAXPXNX&.S.KXsXZ.U.D.a $.].].P.8XfXY.L b %.P.%.U.gX=XS.d &.}.}.U.fXPXKXUXIXNXI.I.NXfXG.K.D.n *.].].P.fXSX XP.a *.*.%.3.hXLXbXHXHXwX-.W.vXmXvXFXFXNXNX",
"GXGXGXKXIXGXKXGXGXIXJXIXJXJXLXIXJXLXLXLXLXJXLXLXLXLXIXUX` s M q q w r :.t t ) ) t :.:.:.:.:.$.t t t :.:.:.<.<.>.:.,.,.<.>.4.7.7.U.w.{.U.7.5.e.q.9.q.7.9.e.w.w.w.9.4.7.e.e.w.9.7._ q.,.( >.>.4.4.>.2.q.w.9.4.9.w.{.w.9.5.7.7.5.q._ i._ _ ,.,.e.,.i._ ( _ i.' ) ) k ) _ ( ( i._ ) t q # 1 0 I 5.( V V N M |.UXUXUXUXUXUXUXUXCXUXUXUXUXUXCXUXUXCXUXVXUXUXCXVXUXCXCXCXCXVXVXVXVXVXVXVXVXVXVXCXVXVXBXBXxXCXMXCX8X            u PX-X[.8XeX8XfXhX3.9 N n n a %.n 7 n =.t.Y d G.ZXJXJX,X~ sXHX4X XXXK.F.H.$XsXdX3XE.J.} ` Y OXdXvXhX` ` | ' ' _.4XmXsXG.D m b G S.U z K OXsX .W F c jXJXvXfXD a a a d wX[.8 6 6 6 6 6 6 6 6 6 6 6 6 6 6 6 6 6 n Q.;XQ.X.,XJXbXnXJXxX` P aXaXQ G h j E  . .X.).vXQ.i ! Q._.X.!.5XLXJXDXIXgXD.K 3XnXnXFXnXnXFXY.! E.c D | T.%XmX XP N g Q G.J.A.E.bXR.p K Y H G J %XJXdXD.G K K R.cXHXvXG.z F F F F F F F F F F F F F F F D F F z Y AX^.H -XAX XS.I.P n *.}.'.}.gXwX;.m &.].P.P.eXIXUXAXIXNX&.D.UXhXZ.T.Z.s %.t.;.].8XaXY.D b 0.P.I P.gX1XD.d 6.qX}.{.uXIXUXGXPXgXY.J.NXhXJ.J.Z.N *.].t.;.fXNX[.;.s *.=.*.*.hXLXJXJXHXwXQ W.lXnXZXZXFXNXNX",
"GXGXKXKXGXKXGXIXKXIXIXJXIXLXLXLXLXLXLXLXLXLXLXLXLXJXLXIX=X9 0 0 y y r ) ) t t Z :.t t :.t t t 0 w r B >.:.>.,.:.:.:.,.<.,.4.4.9.9.w.w.9.5.4.7.9.7.e.7.7.w.w.w.w.5.4.4.9.9.w.w.5.i.e.( 7.M 9 k k 0 N !.w.7.5.e.!.w.!.7.5.9.9.q.5.e.i._ i.e.' ,.,._ ( i._ ( ( ) ) ) ) _ ( ( ( ( k B 7 o # 0 A 2.A ( I M M eXCXUXCXCXCXCXCXCXCXCXCXCXCXCXCXCXCXCXCXVXCXCXCXCXCXCXCXCXCXBXBXBXVXBXBXBXBXBXBXBXBXBXBXBXBXBXBXCX-X            * PX&X-XfX8XeXfXMX&.a v m d d P n 6 n qXrXU.b -.>X4XDX>X~ :XJXaXY.:X>X:X4XsX).3X5X%X1X/.(.sXdX.X3XaX(.%X(._.1X3X%X$XsX .p d b D Z.&.H z ..3XA.F z x 4XJXLXxXP. X+X[.[.KX8Xa 6 a 6 6 n 6 6 6 a e 6 6 e a 6 6 d R.).~.Q.H.,XJXJXbXJXgXU P =XfXU P m h G  ...X.).vXW.p ! W._..._.5XLXHXDXIXSXA.J 3XZXnXFXnXvXHXI.Q E.z D | ..1XvX XP D h ! I.G.-.R.ZXR.p J | K K J _.JXsX| G x ' _.bXGXcXK.h F F F F F D F F F F F F F F D F F F z J AXoXG -XSX XS.I.P a ;.].'.[.gXwXA.m %.].].P.eXIXUXUXIXMX;.S.KXhX3.P.T.s C qX;.P.8XhXI.D b %.t.%.P.hX*XD.d *.qX`.U.hXIXGXUXIXSXU.I.NXsXJ.Y.D.b *.;.qX;.fXNX[.&.v %.0.*.0.hXLXDXHXLXaX} W.kXnXzXZXFXNXNX",
"GXGXGXGXGXGXIXJXJXIXIXLXJXLXLXLXLXLXLXLXLXLXLXLXLXLXLXIXVXd q 0 y y w t :.t t :.:.t t :.t :.e # # - y :.Z ) >.>.:.) :.8.,.,.4.9.w.e.e.e.4.4.9.q.w.q.7.7.w.q.q.q.q.4.4.9.e.9.w.4.i.( ( 9.< i ] l + < !.e.4.4.9.w.9.U.7.4.q.9.e.9.' ( ,.' ' ) ,.' _ ( _ _ i.( ) ) B ) ( ( _ i.( w A = o # s C H V I S 0 >.yXCXCXCXCXBXBXCXCXCXBXCXCXCXBXCXBXBXBXCXuXBXBXBXBXuXuXBXuXuXhXuXuXhXuXuXuXuXuXBXhXBXhXuXhXuXuXuXBX|.  .         2 PX-X X&XwX&XwXfX-.a f n d a *.*.n =.qX8X&.v b d G :X4XE W.HX:XG [.@XW.>X:XL.%X%X..OX3XK.3XsXW.#XsXJ %XdX_.:X5XQ.:XsXA.d d d D U Y H c ..!.z z c c jXmXHXgX'.-XwXfXwXSXqXa 6 e 6 e e 6 e 6 6 6 6 e 6 6 a D E  .~.Q.Q.X.,XJXDXbXLXgX` P wXaXY P h h K  ...X.OXvXW.i ! Q.2X..X.5XLXJXAXIXlXA.J >XDXnXFXnXcXFXY.! E.x F ` ..%XVX XL D h ! H.I.} E.bXR.p K U K G J %XJXsXF.G K J R.cXHXcXG.D F F F F F F F F F F F D F F F F F F z Y AX^.H -XSX[.S.I.P a *.}.[.-XgX*XA.m &.'.P.P.fXUXUXVXIXMX-.D.KXhX-.P.D.s C ].t.P.=XfXY.L v %.P.%.P.gX*XF.d *.}.}.`.hXPXKXUXIXgXI.I.SXsXJ.J.;.n *.].].*.fXNX X&.v *.=.%.3.hXLXbXHXLXwXQ Y.kXnXZXNXFXNXNX",
"GXGXGXJXHXLXLXJXJXLXJXLXJXLXJXLXLXLXLXLXLXLXLXLXLXLXKXIXLXI.1 0 < y y t :.t t t :.:.t t t t e # o # w ( A Z :.>.:.) >.>.,.>.4.7.w.e.4.7._ 4.9.w.w.9.7.5.q.e.w.e.e.4.q.!.{.w.w.4.4.( ) 5.< L.mX5X< < e._ ( _ 7.U.w.w.7.4.9.9.w.7.e.e.i.,.,.i.) ,.( ( ( i.( ( ) ) ) ) ( ( _ ( ) w B = o - q V M M A M 0 7.BXBXBXuXBXBXuXuXBXuXuXiXiXiXuXiXiXiXiXiXuXpXpXpXuXpXuXpXuXpXyXuXpXuXuXpXuXpXuXpXpXpXpXuXuXpXpXyXiX|.            * IX@X/.:X@X@XwXgX3.a s m a b n n n C.qXb.$.a L -.h H.>X! wXIX:XE H.W..X/.L.L.OX(.Y L.W.E.).G.H.E.>XF L.L.X.%XR.! I.$XA.d d z d U ` ' ` _.E.i F K c 6XmXHXZX|. X=XwX8XNX8Xn 6 a a 6 a 6 a 6 a e a a 6 n aXR.x o.~.Q.Q.X.,XJXDXbXGXgX| G wXaXQ G m h K  ... .).vXW.p W ).X.O._.1XHXGXUXKXcXA.J 3XnXnXFXbXvXFXY.Q E.F D | T.%XvX XP D h W I.K.-.R.DXR.p K U K K J _.JXsXZ.G K J E.bXGXZXJ.h F F x m F F F D z F F F F F F F F F z Y AX(.P +XSX.XI.'.Y v *.}.;.[.gX8XS.D %.].].9.eXIXGXmXIXgX&.P.UXdX-.P.D.a %.].t.].=XfXY.D b 6.6.I P.gX1XA.b 6.}.|.`.eXIXUXGXLXVXY.I.gXhXJ.J.&.n *.].].].fXNX X;.a %.0.*.*.hXLXDXHXLXwX-.W.kXZXZXZXNXNXNX",
"IXJXJXJXJXJXLXJXLXJXJXIXJXLXLXIXIXJXIXLXLXLXLXIXIXIXIXKXIXfX9 q q 1 1 w Z Z t t ,.t t :.t S w # o # s A B V ) ( :.) ) ,.,.>.,.4.e.e.7.5.4.7.e.w.w.w.7.e.q.w.w.w.q.5.w.{.{.w.q.4.,.) ) ' < O.jX%X3 < ' ( ( ( 7.7.e.q.4.4.q.e.4.q.q._ i.e.( i.,.' ( ( ( _ ( ( B Z ) 4.( ( _ A M M M = o - y M M B V M S |.BXuXuXuXuXiXiXuXiXiXiXiXiXiXiXiXiXiXiXiXiXiXiXiXpXpXpXuXpXuXpXpXyXyXyXyXpXpXpXpXpXeXrXpXeXyXyXeXyXu.            * ZXW.W.@X@XH.+XaX;.a N N f N &.n =.C.p.=.e e L P u H.>X! wXPX*XF.^.#XsX_.(.1XxX1X../.W.,X,X[.@X@X>XL.3XL.1X$XL.J.OXwXI.h I T.Z.Y.T.' ..1X2XK ^. .c 5XjXnXFX[.oX8X$X+XNX8Xa a 6 a e 8 a 9 a a a 6 6 j Q.nXH.x o.Q.~.Q.Q.,XJXbXbXHXgX` Y =XsXQ G m d E ~ .. .%XvXY.g ! W._.X.!.5XmXJXAXIXSXA.J >XbXnXDXnXnXGXY.! E.F D ` L.%XmX XI D h Q G.I.-.R.DXR.g G U K K J _.LXsXD.F G J R.bXHXcXJ.z D F F F F m F F F D F F F D F F D G z Y SX^.H -XSX XS.U.P a ;.}.'. XgX>X;.m &.].].;.eXIXUXmXIXBX&.S.KXsXZ.P.5.a C ].s.P.=XfXI.L b 0.P.%.P.gX=XD.d 6.qX].{.hXPXIXUXIXlXI.I.NXsXJ.J.D.b *.=.].].fXNX[.;.v *.=.*.6.hXLXbXHXLXaXQ Y.vXvXmXcXSXFXNX",
"JXKXKXIXJXJXJXLXJXIXIXJXIXJXIXJXIXIXIXIXIXGXJXKXIXIXUXKXKXPXN = 1 1 1 y r $.r t $.:.t t r t w # o - q A A S Z ( ) >.:.,.4.>.>.4.4.7.4.4._ 4.q.w.w.w.4.4.w.y.w.w.7.7.w.{.{.w.e.<.( B B _ & ..6X6X< < ' ( V A 5.5.7.9.4.4.q.q.7.q.q.q._ i.i.' ,.,.( ( _ ( _ ) A ) ( _ ) ( A M w w M 7 o - = 0 M N M r A eXuXiXuXuXuXuXiXiXiXiXiXiXiXiXiXiXiXiXiXiXrXiXyXyXyXyXiXpXyXyXyXyXyXyXyXyXpXpXpXpXpXpXpXpXpXrXyXrXiX}.        .   * GXW.Q I./.@XsXaX;.b d s a D Z.n #.C.C.#.e v s = & K.:XP I.GX1XH _ ` 5.' !.5XxX1XL./.W.W.;.[.[.[.3X).dX_.%X^.T.S.oXaXT.s '  X&X&XY f H _...' hX| p jXjX4XcX[.[.>X@X[.NX[.a 6 6 6 6 6 6 6 a 6 6 6 L Q.;XzXH.x  .~.Q.Q.H.,XJXJXbXJXdX` P 3XfXY P m j K  ...X._.bXW.p ~ /._.X...5XJXJXGXIXgXF.J 3XZXcXFXbXnXFXI.! E.x F Q ..%XvX|.L z h W G.K.Q E.DXR.p K U K F J %XJXsXF.G K ' R.cXHXcXG.z G F F F F F F F F F F F F x F F F F z Y ZXoXG #XSX XT.Y.Y v *.}.'.|.hX=X;.m P '.;.P.fXUXUXUXIXMXZ.D.KXhXZ.I.D.a %.].;.P.8XsXY.D v *.P.%.T.hX*XD.d 6.}.}.`.eXIXGXKXIXVXI.I.NXhXJ.Y.D.N *.].].;.fXNX[.;.a %.*.*.3.hXLXbXHXHXwX-.W.gXvXmXnXFXNXgX",
"UXGXJXJXIXJXLXJXJXJXIXJXJXJXJXIXLXJXIXKXGXJXIXIXKXIXUXKXUXPXU.- # # # # 0 :.t r t t t r t r q # o - q M A N M A ) >.( ,.4.,.>.,.4.4.5.4.e.4.e.w.w.w.7.q.w.y.w.q.9.9.q.w.w.q.8.,.) w w ' < O.6X5X3 < _ V k V 4.4.4.7.7.5.4.7.7.7.i._ i._ ( i.( ' ' ( ( ( ( ( V B ( _ ( A V q < q 9 = - - # = 9 M k 0 7.pXBXiXuXiXiXuXuXiXiXiXiXiXiXiXiXiXiXiXiXiXiXiXiXiXyXyXyXyXyXyXrXyXyX8XyXyXpXpXpXpXpXpXpXrXyXyXrXpXiXb.            * IXW.E ;.W.>XgXfXS.b s a a I Z.n =.p.C.#.e v 0 = < Y.&Xm H.nX3Xl l H H ) ' 5XxX1X!.(.K.;.H.[.W.K.>XOXdX%X_.!.| | '.=XI.f H -X>X#XP 2 c !.' ' dX..p mXjX4XnX[.Y.&X)..XgX-Xa 6 a 8 6 a 6 6 6 a a L Q.o.Q.nXH.x X.~.Q.Q.Q.,XJXJXcXIXgX` K eXaXU G m h J ....L.).vXI.j ! Q._.X.!.5XLXJXAXIXgXS.Y >XbXnXFXnXcXHXY.! Y.x D Q  .%XvX XP D g Q I.I.} R.ZXR.p J U K K J _.JX4XZ.K x E R.bXGXZXJ.h F D F F F F F F F F F D F F F F F F h Y vX^.H #XVX XS.Y.P a ;.].'. XgXwXS.m %.].P.6.fXIXUXVXPXgX;.S.KXhX-.U.D.a %.].t.P.8XfXY.D b *.P.%.U.gX1XD.d *.}.}.!.hXPXGXUXIXlXU.Y.NXsXJ.J.3.n *.].].;.fXSX[.&.v %.0.*.*.hXLXDXHXLXwXQ ^.gXmXnXNXFXSXNX",
"UXGXKXJXJXLXJXLXLXLXLXJXIXLXLXLXLXLXIXKXIXGXJXIXIXKXKXKXUXUXl = 1 - # # 7 Z :.0 t t t r e q y - o o = 0 N k 0 B ( ( ( >.8.4.( ,.,.4.e.7.e.4.w.w.w.w.e.q.e.w.e.q.q.9.7.w.w.7.>.>.w 1 w w 1 ..mX1X< + s 0 q B 4.7.7.7.7.4.q.7.q.e.q._ e._ e._ e.) ( ( _ _ ( ) ) B _ ( A V q # # # = < s # o - q 0 0 r {.uXuXuXuXuXuXuXiXuXuXuXuXiXiXiXiXiXuXiXiXiXiXiXiXiXyXyXyXiXyXyXyXyXyXiXyXeXpXpXpXrXrXpXpXpXpXpXpXrXiXqX            * LXW.! H.W.>XgXaXS.b s s u I 3.n =.p.C.#.e 0 s & 2 R.&Xm ;.DX1XD H H H ] !.1XxX5XL.(.K.W.H.W.[.R.>X).dX_.XX!...-.W.eXS.s H  X=X&XY f l _.' ' dX] g jXxX,XcX'.W.&X.X@XgX[.a a 6 a e 6 6 8 a h ~ ~ Q.Q.Q.zXR.x  .Q.~.Q.o.,XJXDXbXIXxXU K >XaXU P m g J .... .).bXW.i ! W._..._.5XLXKXDXIXlXA.E 3XnXcXFXbXvXFXI.! E.x D Q T.%XZX XP D h Q G.K.A.E.DXR.p J Y K K J %XJXdXF.K K J E.bXHXcXG.z F F F F D F F z D F D F F D F F F F D Y SXoXK -XSX XS.U.P a *.}.'. XgX=XD.m %.].P.P.eXIXUXmXIXMX&.D.UXhX3.P.3.s L ].t.U.8XsXY.D n &.t.%.P.gX=XS.b 6.}.'.`.fXPXUXGXIXSXI.I.lXfXK.J.Z.C =.].].t.fXNX X;.v *.*.*.0.hXLXDXHXLXaX} Y.vXvXvXZXFXNXMX",
"GXJXIXLXLXJXLXLXJXLXJXLXLXLXLXLXPXIXLXLXIXIXIXIXIXIXUXUXUXVXs 9 w q y 0 y 0 >.r r t r q r y 7 - o o 6 0 y = # q A 2.>.,.4.4.>.>.4.7.4.4.4.5.w.w.w.w.w.q.e.q.e.e.w.7.7.u.w.7.4.Z y # 1 ) l < k 3 @ # ] ) # q _ e.7.4.4.4.7.e.7.7._ _ i.( ) ) ) ) ) ] B B B B ) V ,.V M w q q q q 0 s N s # = M 0 q %.8XBXCXuXuXuXuXuXuXuXuXuXiXuXuXuXuXuXiXiXuXiXiXiXuXyXyXiXiXpXyXyXyXyXyXyXrXyXyXyXpXpXpXpXpXrXrXyXyXyXiXu.  .         * KXW.! H.Q.,XgXwX;.b d a f I 3.v =.k.C.#.e e e < 2 L.$XD G.mX1XV H H H ' | 1XxX>XY.W.W.I.H.[.W.W.>X.XdXOXXXW.| | '.>XS.s H  X*X=XK f c (.` ' dX..g vXjX4XcX[.Y.>X@X.XgXqXa 8 8 6 6 a ;.! j E ~ ~ ~ Q.).zXH.R H.~.~.Q.Q.,XJXbXbXLXdX` K wXsX! P h j G  ...X.).cXW.p E (._.!.R.1XJXJXDXIXxXD.J >XnXnXFXnXcXHXY.W R.F F ` L.%XmX XL z h Q K.G.-.R.DXR.i J U Y F J _.JXsXA.F K J (.mXHXcXJ.m F F F F F F F F F F F D F F F D F F D J AXoXH -XAX XS.I.P a ;.}.;.+XgX=XS.m &.].P.P.8XIXIXmXIXNX&.S.KXhX-.U.D.s C ].t.P.8XhXI.D b *.P.%.P.hX1XD.d 6.qX}.{.eXIXKXUXIXVXY.U.lXsXJ.J.D.N *.t.].;.fXNX[.P.v *.=.*.&.hXLXAXHXIXwXQ W.lXnXnXZXFXNXNX",
"LXIXLXLXLXLXLXJXLXLXLXLXLXLXLXLXLXIXLXPXLXIXIXIXIXIXUXIXUXUXI k M w w w 0 w :.Z r 0 w q r r - o o 7 L q = 9 q 0 M ( A A >.8.4.>.>.,.( _ _ 4.5.9.7.5.4.4.,.,.,.4.>.>.4.>.2.>.( r w w q i.e.3 - X # < ' ( 9 V ( ( ( 2.4.( ( ( ,.( ) ) ) ) ) ] ) ) ) l B B V A B A 4.) B _ I :._ >.2.A B I 0 w V k w 2.pXBXuXuXuXuXuXuXuXuXuXuXuXuXuXiXiXuXuXiXuXiXuXiXiXpXiXpXiXpXyXpXyXyXyXyXyXyXrXyXyXrXpXrXrXpXyXyXrXyXuX}.            8 IXW.J ;.:X>XZXlXP.b v 9 9 L 3.e #.n.C.#.e e 7 # & R.*Xm T.GXeXl d l _ l !.hXxX*XH.R.;.H.-.I.W.H.*X/.vX%X/.Y.Z.Z.oXaXU.f H -X=X&XH 2 l !.' K gX' 2 xXjX,XcX[.[.>X[.@XNX-Xa 6 a n m ~ zX[.j x ~ o.Q.o.Q.zXH.x o.).Q.Q.o.,XJXJXmXIXgXU P 8XaXY P m j J  ... .).cXK.g W _.X.X.X.5XLXJXUXIXlXD.J 3XDXnXDXDXnXFXI.Q E.c D | ..%XvX|.P m h W I.I.A.R.bXR.p J Y K K K %XJXdX} F K ] R.mXHXcXI.z F D F F F D F F F F F F F F F F F F z Y vXoXG -XAX XS.I.&.a *.qX'.[.gX>XP.L %.].].P.eXIXGXAXPXNX&.;.UXhX&.T.D.s %.].t.U.8XsXY.L n 3.t.I P.gX*XD.d 6.}.].{.hXPXKXGXLXxXY.I.NXfXJ.J.D.n *.].].;.fXNX[.&.v %.*.*.6.fXLXbXHXLXwX-.W.kXnXZXZXFXNXNX",
"KXGXJXGXGXIXJXLXLXLXLXLXIXLXHXJXUXIXIXIXUXUXUXUXUXUXUXCXVXKX&.q M M 0 0 y r $.>.e r t t 0 A v # = C $.w %.9.t.9.2.$.) B >.8.,.>.>.) ( ) ( ( 4.2.4.2.( _ e.e.e.e.7.2.,.7.7.8.4.8.) i.) _ {.!.B < k 9.5.( A 7.w.9.e.w.e.7.e.7.q.q.q.e._ e.' i.e.' ,.) ) e._ ( V ( 2.( 4.9.2.A >.A A >.A A A V M 0 B ,.pXuXuXuXuXuXuXuXiXuXuXuXuXuXuXuXiXuXuXiXuXiXiXuXpXpXpXpXiXpXpXpXyXyXyXyXyXyXpXpXyXyXpXpXpXpXyXrXyXyXiX7X            * gX@XI. .E ! [.Y.G D G G Q | P n *.].].*.m n n H i L.W.x  .,X_.T.^.` K R  .;X4XsX:X>X,X@X,X>X,X:XdX%X#XL.1X+X| Q H.G.! h E L.).$XF.d F X.....:X..X.mXvXjXkXK.;.@X>XW.-X;.m i ~ ~ R ~ ,XW.j ~ ~ ~ <Xo.~.cXL.x -.~.~.Q.H.,XJXFXAXJXgXU Y >XsXQ m m h G  . .o.).nXK.g | _._.X.X.5XLXIXAXIXNXA.! >XnXnXDXnXvXFXY.! E.x D Q T.%XvX[.P D h Q H.I.} E.cXR.p J W K K K _.LXsXD.G G J E.bXHXZXJ.z F F F F F F F F F F F F F D F F F F z Y AX^.H -XSX[.S.'.P a ;.}.'.[.gX>XZ.m %.'.;.].fXIXUXAXIXMX-.D.KXhXZ.P.D.a $.].*.P.8XfXI.D v &.P.%.P.hX*XD.d *.}.}.`.hXPXKXUXLXVXI.I.NXsXJ.J.D.N *.t.].t.fXNX'.;.a *.*.%.6.hXLXbXHXHXwX-.Y.kXZXzXNXFXNXNX",
"VXSXSXVXSXAXUXUXGXJXIXIXGXUXUXUXUXUXCXUXVXCXUXCXCXVXCXVXCXUX9.q M w 0 0 w y t ,.r r r t S B :.M A 2.V $.9.7.8.>.8.7.1.4.,.4.4.>.4.4.7.4.7.e.w.w.w.w.7.w.{.y.y.y.y.9.y.y.y.y.7.8.( ( _ e.e.5.5.5.9.e.5._ 4.5.7.7.9.7.4.8.4.8.q.e.q.i.( i._ ( i.) ] ] ) ) ( A B ( 2.A 4.7.2.A A A ( $.:.B q 0 M 0 ) ,.pXCXuXCXuXuXuXuXuXuXuXuXuXuXuXuXuXuXuXuXuXiXiXpXpXiXpXpXuXpXiXpXpXpXyXyXyXyXpXpXpXpXpXpXrXpXyXyXrXiXiXu.            O @X,XwX-.% @ 8 : j ~ ~ Q.jX).g m ~ o.^ ^ ^ R ;.5Xz | E R ^ R E 4XJXL.c ~ o.o.,XbXDXZXnXnXnXnXFXJXLXsXH H 1XaX! J j : x ~ O.R ..,X+XG E ..o.X.O._.mXJXmXIXkXA.m oXfXS.G m j ~ -.~ R ~ ,XQ.d R ^ o.;.Q.Q.nXH.R  .~.Q.Q.Q.,XJXJXmXGXxX` K wXaX! P h g J .. . .).ZXI.d ' _._.X.R.5XJXHXAXIXlXA.J >XnXZXDXDXcXHXJ.W ^.z F Q  .%XZX[.I D h ! I.K.-.R.DXR.p Y ` K K K %XJXhXF.G K J R.mXHXlXJ.h G F F D F F F F D F F F F F F F F F z J AX XK -XSX[.I.Y.P a *.qX].[.gX>X;.m &.].;.P.fXIXUXVXIXMX-.S.KXsXZ.P.S.a *.].].P.=XhXY.D b *.9.%.P.gX1XS.b 6.}.}.!.eXPXGXKXIXlXI.I.NXfXK.J.D.n *.].;.;.fXNX[.;.v *.=.*.3.hXLXbXJXIXaX-.W.kXZXZXZXNXNXNX",
"VXVXVXVXSXUXUXSXUXUXKXUXSXVXNXCXNXCXMXMXBXMXBXBXBXBXBXMXMXCX{.q r 0 r y w w w ) t r r t t B r ) A S Z 0.8.1.>.>.1.>.4.1.>.8.>.>.>.4.4.2.4.4.q.q.e.7.7.7.w.w.w.q.e.7.q.q.y.q.q.i.i.( ( i.e._ ( ' _ _ 2.4.4.4.e.7.i.e.,.,.,.e.i.,.i.' _ i._ _ _ i.' ) ( ( ) ) V 4.2._ 2.9.2.A A >.:.A >.A q 0 M M A $.uXBXuXBXuXuXuXuXuXuXuXuXuXuXuXuXuXiXuXiXiXuXuXiXiXuXuXiXiXiXpXuXpXpXpXpXpXiXpXpXpXpXpXpXpXyXpXpXpXpXyX{.  .         + @X>X>X;.* > p i j ~ ~ Q.4X~.h m ! o...~ ~ j X.5Xl ..E R O.~ ~ 5XDXT.c ..o.o.,XnXnXnXzXzXnXnXnXnXHXaXY Y aX3X| P j j m ~ ~ ....,XXXF ~ o.~ Q.o.<XjXJXmXUXdXF.D +XaXI.Q E m ~ ~ ~ R E ,X[.j x ~ ~ o.o.~.nXH.x o.Q.~.~.H.,XJXDXnXIXdX` P aXhXU P m j E  . ...).cXE.g ! Q._.X.X.1XJXJXUXLXlXD.J 3XDXnXFXnXnXFXY.! E.z F `  .%XvX XI D h ! K.G.A.E.ZXR.p G Q Y F J _.JXdXZ.K x ' R.bXHXcXI.h F x m m F F F F F m F F F F F F F G h Q SX^.H -XAX XS.U.P a *.}.'.[.gX8XS.m %.].P.P.eXIXAXVXPXMX-.D.UXhX3.P.3.a %.].].P.8XsXI.L b %.6.%.T.hX1XS.d 6.qX}.`.hXPXUXGXIXVXI.I.NXsXJ.Y.Z.b =.].].P.fXSX[.Z.v *.*.%.*.fXLXAXHXLXwXQ W.vXvXmXcXSXFXgX",
"xXVXVXVXVXVXCXUXUXUXUXSXUXCXCXMXMXMXMXBXBXuXBXBXBXuXBXBXMXCX|.0 r r r r w y w ) ) r t t B t w w 0 q :.8.8.<.>.,.>.8.<.4.:.4.4.,.,.4.4.,.4.7.w.e.q.9.7.4.e.w.q.w.7.i.e.q.q.q.e._ i.i.( ( i._ ) B k A 2.4.4.4.q.q.e.i.e.i.i.,.e.,.i.( i.' _ i._ ' ) ) ' ) ] ) B ( >.2.2.7.>.>.A >.:.:.) >.A M 0 A v A CXuXuXBXuXBXuXuXCXiXuXuXuXuXuXuXuXuXuXBXuXuXuXuXuXuXiXuXuXiXuXiXuXiXpXpXiXiXpXpXpXpXpXpXpXpXpXpXpXpXiX|.            $ @X>XwX-.% % d i h ~ ~ R.sXQ.h h E o.^ o.^ j X.3Xg ..E R ~ R ~ 4XDXL.c ~ o.o.,XnXnXlXlXzXzXnXnXZXHX3X' H aXaX| E d i R ~ ^ ^  .,X@Xm E ~ o.o.o.@.zXJXAXGXgXF.D -XsXG.Y m j ~ ~ ! R ~ ,XW.g G ~ o.Q.Q.Q.zXL.x  .~.Q.Q.o.,XJXDXDXJXxX` Y =XaXY G m h G ......).cXE.p ! W._.X.!.5XJXJXAXIXgXF.J 3XZXnXDXnXvXGXI.! E.F D | ..%XSX XP N h Q I.G.A.R.nXR.p Y U K K J %XJX4XF.F K E E.bXHXcXK.D F F F F F F F F F F F F F F F F m G h W ZX XG -XAX XT.Y.P v ;.}.'.[.gX>XS.m &.].].P.fXIXUXmXIXNX&.S.KXsXZ.T.T.a %.qX=.P.8XsXY.D b %.`.%.P.gX=XD.d *.}.}.`.hXLXGXGXPXxXY.I.NXhXJ.J.D.C *.].].;.fXNX XZ.v *.*.0.6.hXLXmXHXLXwX-.W.kXvXvXnXFXNXNX",
"BXMXMXMXMXMXCXCXMXCXMXCXCXCXCXCXCXBXBXuXuXBXuXBXuXCXBXBXuXBXeXk r 0 w w y w y t B w w r Z t t w e M 4.1.<.>.1.:.<.<.,.,.>.8.4.>.,.4.8._ >.4.w.7.7.q.4.4.e.q.e.q.q.i.e.i.q.q.i.i.( i.( i.( q.e.) ( 4.4.7.,.4.7.q.e.i.i.,.,.i.e.e.e.i.' i._ i.i.' ) ] ) B r B ) l A 2.2.4.2.>.Z Z A Z Z >.%.M 0 2.5.|.CXuXuXCXCXuXuXuXuXuXCXuXuXuXuXCXuXuXuXuXuXuXuXuXiXiXuXuXiXuXiXuXuXpXpXuXpXpXuXfXiXpXiXfXpXpXpXpXyXeXuX|.            + @X>X>X-.> % i 3 j ! ..R.4XQ.h m ~ o.o.^ ^ j R.3Xp | E R ^ R E 5XAX..F ^ ~ o.<XnXnXnXzXzXnXnXmXbXHX3XY H aX1XZ.! j i j ~ ^ ~ o.,X).G E ~ o.o.o._.jXJXmXHXdXS.D +XfXG.Y E m E ~ ~ R R 5XW.j x ~ ~ Q.Q.Q.nXH.z X.).~.Q.H.,XJXDXbXJXgX` Y wXaXQ P m g K .. .X.).vXI.p ! )._.R.X.5XJXJXDXIXlXA.J >XbXnXbXnXcXFXY.! E.x F Q L.%XxX XP D h Q I.G.-.R.DXR.p G Y K F K OXJXsXF.G F J R.mXGXcXG.h G F F F F F F F F F F F F F F F F F h K AX XK -XSX XS.Y.Y a *.qX'.[.gX=XA.m %.'.P.P.eXUXUXmXPXMX-.S.KXgX&.P.D.s L ].].P.=XfXI.D v *.P.%.P.hX*XD.d 0.}.}.'.eXPXKXUXLXVXU.I.SXsXJ.J.Z.n *.].].*.fXNX X&.v %.=.*.3.hXLXbXHXLXaXQ Y.vXvXmXNXFXSXNX",
"BXBXuXuXuXuXMXMXuXMXMXMXMXBXBXBXBXuXBXuXuXuXBXuXuXCXuXuXuXBXuXN y q y w y y y w t t r t B Z t r B 4.>.<.:.:.,.,.>.1.,.1.>.,.7.>.,.4.4.4.4.7.7.7.7.q.4.7.q.q.q.e.q.7.i.e.q.i._ i.i.( i.i.( ( i.i.4.8.5.4.4.4.i.7.i.e.,.e.e.i.,.i.i.( ( i._ _ i.( ) ] ) ] ) B ) ( >.2.2.>.>.) r Z Z Z Z A >.V r %.BXBXBXBXCXuXCXuXCXuXuXuXuXuXuXuXuXiXuXuXBXuXuXuXuXuXuXuXuXuXuXiXMXiXuXuXuXpXuXpXpXpXpXiXiXpXpXpXpXyXyXpXuX7X            + ).>X>X-.% > g i j ~  .Q.4X(.h h ! o.~ o.o.R X.5Xz  ...~ O.~ ~ 4XGXL.c ..o.o.,XnXbXcXlXzXnXnXmXDXHXaXY G aX3XQ ! j j E ~ ~ ^ ~ ,X@Xm ~ o.~ o.o._.mXJXmXHXgXD.D +XfXG.Y m j ~ -.~ R ~ 5XQ.h F ~ ^ Q.~ Q.zX .x  .X.Q.Q.o.;XJXJXbXLXgXY P wXaXU G m g G .. ...).cXW.i E R.E.....5XJXLXUXIXNXA.J 3XbXnXDXnXnXFXI.Q R.z D } L.%XmX XL m h E S.G.Q R.DXR.p E | U J W %XJXsXA.J Y W E.bXHXZXK.z F F F F F F F m F F F F F m F F F G h | AX XH -XSX XS.U.P a *.}.].[.gX>X;.m &.].].9.eXIXUXVXPXNX&.D.KXhXZ.I.5.s C t.t.P.wXfXY.L b &.t.%.T.gX*XF.d 6.qX{.{.eXPXIXGXIXgXJ.I.gXhXJ.J.D.n =.;.].].fXNX[.&.v %.*.=.*.hXLXJXHXHXwX-.^.kXvXvXZXFXNXMX",
"fXuXiXMXBXuXuXMXBXiXMXiXuXBXBXuXuXCXCXuXBXuXuXBXCXuXCXuXBXBXCX].I A 0 y y y w w r t t t t ) ) r Z <.>.>.>.) ,.>.>.,.<.>.>.>.7.8.,.4.4.4.4.7.4.i.7.4.i.e.,.i.q.i.7.7.7.i.i.q.i.i.i.( i.i.( ) i.( i._ i.e.,.4.q.i.,.e.,.i.i.e.i.,.i.i.i._ i.i.' ( ) ] ) ) B ) ( ( 2.,.>.( >.) M B t B Z Z A A B 0.CXuXuXCXuXCXuXuXuXuXCXCXBXuXBXuXuXuXuXuXuXuXuXuXuXiXuXuXuXuXuXuXiXiXuXyXuXuXuXuXpXpXMXpXiXpXpXpXyXuXyXpXuX|.  .         X ! ! A.-.x j E x E Q.Q.;X4X~.z h ~ o.o.X.X.X.;X%XF (.%X~.~.;XQ.dXmX..J Q.<XX.5XnXvXlXzXzXzXnXzXmXLX3X` Y aXaX| K F ~ ).,X<XX.X.>X@XE H.Q.Q.~.X.@.jXGXAXGXgXS.D oXaXA.J x E H.Q.~.Q.X.,XQ.G X.Q.Q.o.o.Q.zX .R X.o.Q.~.o.;XbXbXnXHXdXU G *XaXY D D E X.o.o.o.o.jXQ.R ! ~ ..O...~.bXHXFXLXgXZ.P 3XvXvXnXnXvXFXY.Q K.x Q E.X._.dX[.L D F ..} | E  .lX .j H.L.X.H. .,XJXsXW F.:X).%XmXJXvXG.z F F F x F F F x F F F x F x F F F h F.SXAX^.H #XSX XS.;.&.a ;.}.I.[.gX8XS.m *.].].;.eXUXUXAXIXMX;.;.KXhX-.I.D.a *.].s.P.-XhXY.D n %.P.%.P.gX=XF.d 6.}.}.U.hXPXUXGXIXcXY.I.NXsXJ.J.D.b *.].].;.fXNX'.;.v %.*.*.6.hXLXJXHXLXwXQ W.lXnXnXZXFXNXNX",
"uXuXMXiXuXMXuXuXuXBXBXBXBXBXuXuXuXuXuXuXuXBXBXuXuXBXuXCXBXBXBXMXCXeX0 7 q q w y r Z t B t ) ) ) :.>.:.:.t :.<.<.1.1.8.4.>.:.4.4.,.4.,.4.4.4.7.7.i.,._ i._ i.e.i.,.i.i.e.q.q.i._ i.i.i.i.i.( ) i.q.i.7.7.i.4.4.7.i.i.i.,.i.i.i.,.' ( ( ( ( _ i._ ) ] ) B B ] ) ) >.4.>.:.4.>.>.:.>.4.4.A A B S {.BXCXCXuXCXuXCXuXuXCXuXuXuXBXuXBXCXiXCXuXuXuXBXuXuXuXuXuXuXuXuXuXuXuXuXyXuXuXuXuXMXuXpXpXMXpXuXuXeXuXuXpXuX}.            % ;XE W.sX;.m G F E ~ o.%XdXR.h h E ! ~ o.o...3X5Xc X.E ~ o.Q.H.dXGX| K Q.~.o.,XbXmXvXvXmXzXvXvXbXJXaXK ` hXaXF.J h x -.~ o.X.~.4X@X~ -.Q.o.Q.o.;XjXJXvXGXgXF.D +XaXA.Y m j R.).).Q.X.5XR.R  .~ Q.Q.;.<XzX .E ~.;X<X<X<X5XbXJXnXGXdX` H 1XeXU D j x Q.X.X.X.Q.sX;.~ ).,X;X;X~.,XbXHXDXLXgX` G >XkXzXnXjXjXHXY.W Q.G R.@X_.5XkXW.P P Q.).Q.~.~.X.jXX. .,X~.Q.~.Q.;XnX3XJ J K.).%XzXDXnXG.h G F F F F F F F F F F x G G G x h /.JXLXAX^.P -XSX XS.I.&.a *.}.].[.gXwXA.m &.'.;.P.fXIXUXAXIXgX&.D.KXhX` P.D.a =.;.;.].=XfXY.D v 3.t.%.U.hX*XA.b 6.qX}.`.eXPXKXUXIXVXI.I.NXaXJ.Y.Z.N =.].].*.fXNX[.&.v %.*.*.0.fXLXbXHXIXaXQ W.kXnXZXZXFXNXNX",
"BXBXBXBXuXBXBXuXiXMXBXuXuXBXuXBXBXuXBXBXuXCXuXuXuXBXuXuXuXBXBXMXBXeX0 # y y y q q t ) B t ) ) :.>.:.:.:.>.<.<.<.,.8.8.1.,.Z >.,.( ,.,.,.( i.7.,.,.i._ ,.i.i.i.q.,.,.7.q.q.q.e.i.i._ e.i.i.q.( i.q.i.7.i.4.,.,.q.i.,.,.,.i.,.i.,.( i.( i.( ' _ ( ) ) ) B w ) ) ) ( >.( ) 4.>.Z ( 4.2.2.A M M M `.CXuXuXCXCXuXuXCXCXuXCXuXBXuXuXuXuXCXuXuXuXuXBXuXuXuXuXuXuXuXuXuXuXiXuXuXuXeXuXuXpXuXiXuXuXeXpXuXuXuXuXyXuX7X            % sX:XsXjX-.! ;.E E } ..L.4X(.z m ~ R.~ o.H.E ~.,XE R...! ! ! } hXmX} K ! ~ ~ ,XbXvXkXvXnXzXzXvXbXHXaX` Y sXaXZ.J h h E ~ ~ ~ Q.,X@X~ ~ ~ o.X.O._.mXDXcXHXgXA.D OXaXA.J h h !  . .~ ..,XX.x X.~ o.~ ^ ;XzX..x  .X.o.X.X.;XnXJXzXFXdX} Y 3XaXY G j i ~ ^ O...~.zX-.R ~ R R O.o.;XbXJXvXIXgX` G >XvXlXnXzXjXDXG.! R.x K.Q.X.5XkX'.L Y X.R.X.~.Q.R.zXX.o.,XQ.~.<X;X5XbX3XE K x ..%XzXDXlXH.z G x F G F F F F F F F F F G h z *XLXJXGXAX^.H -XSX[.S.[.P a *.}.].[.gX>XS.m %.].P.6.fXIXUXAXPXMX-.D.KXgX&.P.D.s %.].t.P.=XhXY.L b *.P.%.T.gX=XD.d 6.qX}.`.hXPXGXGXPXgXI.U.NXhXJ.Y.D.n *.;.].].fXSX[.;.v %.*.%.3.hXLXAXJXLXaXQ Y.kXZXzXNXFXNXNX",
"BXuXuXBXBXuXBXBXBXBXuXBXuXuXBXuXBXuXuXuXBXuXuXuXBXuXuXCXuXuXBXiXBXeXe # 1 1 y y y w ) B t t ) ) ) ) :.,.1.:.:.1.1.u.8.1.,.A :.>.,.( _ ( _ 4.8.8.4.,.i.4.i.e._ i.i.4.7.i.i.e.i.i.( i.e.i._ i.i.i.i.e.i.,.,.,.,.i.e.,.,.,.,.,.,.i.i.) ) i.( i.( ( B ] ) w ] ) ' ) >.2.>.>.>.>.A ( 2.>.) B M k M `.CXCXCXCXuXCXCXuXuXCXuXBXBXBXCXuXuXuXuXCXBXuXBXuXBXuXBXuXuXBXuXuXuXMXuXuXuXuXuXuXpXuXuXuXuXuXuXuXyXuXuXyXBX|.            $ 4XjXHXgXQ ! :X} x K H | aX(.z E G P P P  .J ).5Xc K x J -.! U aXSXY.Y ! ~ R @XbXmXvXjXzXjXvXvXDXHX4XY Y dXsX| G F E ! -.;.~ -.,X[.~ -.H.L.H...X.xXGXAXGXdX| z +XsXF.K G x Q ! ! ! ~ :XR.E R. .H.~ ~ -.jX..E  ...X.Q.! ).nXJXnXJXdX| Y 8XaXY F h h E E ..R  .4X .G ! z j ~ ..Q.nXJXvXHXgX| G *XlXzXzXzXvXJXI.! E.F H.~ O.:XjXY.P Y L. . .R. .X.jX . .~.o.H.Q.H.:XbX:X| A.| .._.nXFXgX! h z z z h z z D h z x h h F p G sXLXGXDXGXAX^.P -XSX[.S.Y.P v ;.[.].oXgX=XS.m %.].P.P.eXIXGXvXPXgX&.P.KXhX| P.5.s L ].t.P.8XsXI.D n &.9.%.P.gX=XD.d *.}.{.{.eXPXIXUXLXNXI.Y.NXsXJ.J.D.n =.].].;.8XSX X;.v %.=.0.&.fXLXDXHXHXwX-.W.kXZXZXZXNXNXNX",
"uXuXMXuXBXiXBXiXBXMXiXuXuXBXuXBXuXuXBXuXCXuXuXuXCXCXuXuXBXBXBXBXBXpX0 # # 7 1 1 1 w Z B t B t ) :.:.,.:.:.:.<.:.<.8.8.1.>.>.:.2.( >.( ( >.4.,.4.i.( ( _ _ i.i._ ,.7.q.i.q.i._ ( i.e.i.i.q._ i.( ( i.7.,.( ( i.i.i.i.( ( ,.,.,.,.( ) ) i.) ) ] ) ] ) w [ w ] ) ) 2.( >.4.2.>.A >.>.4.( B k M M w.CXCXBXCXCXCXCXCXuXuXCXCXuXCXuXuXCXCXuXuXCXuXCXuXBXuXBXuXBXuXBXuXBXiXBXiXuXuXBXiXMXuXpXuXuXuXuXuXiXuXuXpXBX}.            % 5X,XbXdXJ Q XXF.F i z E.xX|.F Q d a ;.;.I.=XlX5Xx 2 z 3.].=X&XSXSXY.U h i R :XJXmXxXjXmXvXnXvXbXHX4XY J sXsX-.-.~ m i m j h W 3X-X! h g m G x K.mXIXSXGXdXF.H $XsXA.J U D d m D D Y 5X(.x K x K Y K } vX .J | c P Q W ^.bXJXvXHXjXQ J sXaX-.W G F F G F F } 4X .E | Y Y H.~ Q.cXHXDXHXhXQ G &XvXlXzXzXjXFXI.Q /.W } ~ ] _.vX'.D P | W W } | | 4XX.} H.! F.H.W _.LX3XZ.A.K.X.E.vXLXgXU h h h h D h z d z h z h h p ! lXHXZXJXDXDXAX^.P -XVX(.S.Y.P a *.}.`. XgX>X-.m %.].P.P.8XIXJXmXIXMX&.D.KXhX-.I.D.s L ].t.P.8XhXY.L b *.P.%.T.hX1XF.d 6.}.}.`.hXIXUXUXIXVXI.I.VXfXJ.J.6.b %.].t.;.fXNX[.;.n *.*.*.6.hXLXbXHXLXaXQ Y.lXvXvXcXKXSXgX",
"uXuXuXuXuXiXiXMXiXBXiXBXuXBXuXuXuXBXuXBXuXuXuXuXuXuXuXCXBXBXBXBXCXeXy # # # # # # w Z t t t ) :.) :.<.:.,.1.,.1.1.>.8.1.,.,.,.7.,.>.2.( ( ( _ 4._ i.i._ _ q._ i.i._ _ i._ i.( i.( ,.e.,.i.( _ i.i.e.7.,.( ) ( i.( ( i.) ,.i.) ,.) ) B ) B ) ) ) ) B B w w B B ) >.( >.>.>.>.Z 2.4.>.Z B w M N 5.CXCXCXCXCXCXCXBXCXCXCXuXBXCXCXCXCXuXCXCXCXuXuXCXuXBXBXuXBXBXuXBXBXBXBXBXBXBXuXBXuXuXMXiXMXpXpXMXBXuXMXpXBX}.  .     .   * mX5XbXkXQ |  XJ.K p ` 1XVX XH } b C }.}.8XMXUXsXc 2 T.}.8XUXSXKXVXY.U i i E wXJXmXkXvXvXzXmXzXDXHX3XJ J sXsX-.-.;.d i ;.;.&.Y.hX+XP a d Z.P.F.%XGXKXmXJXdXL.c *XdXF.W Q d u &.P.Y T.dXOXF u l Z.&.Z.-XGX^.H 2 G P.P.P.aXIXbXvXJXkX} W wXwX;.! W a 8 n N d Z.dXL.x f h L L G @XIXHXvXHXgXU G >XlXzXlXzXvXFXI.W ).| F D ' (.gXoXU D f d N Y Y | vXE.h h L &.A.| %XHXaXJ.Y z H J.mXIXxX} D D D D D D D D D D D D h Y.IXHXnXFXFXFXJXAX^.Y -XAX XT.U.Y v ;.qX`. XhX>X;.m &.].].P.eXPXUXVXIXNX&.S.KXhX&.P.D.s $.qX;.P.=XsXY.m b &.t.%.P.hX*XD.d 6.qX`.{.hXPXUXGXIXvXY.I.lXsXJ.J.D.N *.].].P.fXNX[.&.a *.=.*.3.hXLXbXHXHXwX-.Y.lXvXnXnXFXNXNX",
"uXiXuXuXiXMXiXBXuXiXBXuXuXuXuXBXuXuXuXBXCXuXCXuXuXuXCXuXBXBXBXCXCXuX0 - - # # # # q B B r B t ) :.,.<.:.:.1.:.,.>.>.,.4.,.1.>.9.4.2.2.( ( ( 4.>.e._ ) ( i.( ( i.( ,.,.,.i._ ( ) ) ( ,.,._ ( ( i.e.i._ ( B B ) _ ( i.) ) ) ' ( ) ) B B B [ ) ) B B w w w w l B ) ( A >.,.>.( ( >.>.A A B r k B 2.CXCXBXCXCXCXCXCXCXCXCXCXCXBXBXCXCXCXCXuXuXCXCXuXBXBXBXBXuXBXBXuXBXiXBXiXuXBXBXuXMXuXBXBXMXuXBXuXuXuXuXuXCX}.            & JXjXJXlX| | ^.F.z p K oXhX XI &.v v 6.t.}.8XgXsXH f Y ].qX8XfXUXxXJ.| j i E wXJXmXvXjXjXvXvXzXbXDX3XJ J sXsX-.-.-.m m '.8X}.-XNX&XP d D P.`.U.1XJXKXGXJXdX .F *XdXA.Q -.f b U.}.'. XxXXXK u P !.P.U.8XSXW.J i U.8X8X8XhXPXGXGXHXdX| E sXfX-.-.P a 8 *.*.L Z.kXE.F : D P.*.Q &XLXIXAXLXdXW G >XnXlXcXnXnXHXJ.Q /.| h I E.3XxXY.A.D f N %.6.I D.cXW.d v %.%.%.Y 5XJXsXY.D u z K.AXPXNXS.D H D G D D H G D G D G ^.DXLXDXFXDXFXJXGXAX^.H -XSX XS.Y.P a *.}.'. XgX8XS.m %.'.;.].fXUXUXAXPXgX;.P.UXhXZ.P.5.a %.t.=.P.8XsXY.D b *.P.%.S.gX=XD.b *.qX}.`.eXIXKXUXLXVXI.I.NXfXJ.L.T.b *.].].*.fXNX[.3.v *.=.*.*.hXLXDXHXLXaX! ^.kXmXvXNXFXSXNX",
"uXuXuXuXBXiXBXiXBXBXuXuXuXBXuXuXCXuXBXuXuXuXuXuXCXCXuXCXBXBXBXMXCXeXf # # - # o # q B r r B ) ) >.:.:.:.:.:.,.:.1.>.:.1.,.:.>.8.4.( 2.A ( ( ( _ ) ) B B ) ( ' ( ( ( ( 4.( ) ) B ) ) ( _ i.( ( ( ( ( ( ) w ) ) ) ) ) ) ) ) ( ) ) B w w 1 w w w w w w [ w < l B ) ( ) >.2.,.( >.2.>.Z Z B w s N 2.CXCXCXCXVXCXVXCXCXCXCXCXCXCXCXCXCXuXuXCXCXuXCXCXBXuXBXBXBXBXBXBXBXBXBXuXBXBXuXBXuXBXBXuXuXBXBXBXBXBXBXBXCX7X        .   < JXzXJXgXU Z. XG.F i N  XhX XL &.b n *.*.].8XMXhXH u L *.].-X+XAXvXY.| d i m >XLXmXjXvXbXbXnXvXbXDX3XJ J sXwX-.! -.m a *.*.*.'.fX-XP i f I U ` #XJXIXUXJXxX} F 3XsX-.Y &.b a %.*.%.D.dX#XK i d P.6.&.XXZXW.J u 3.}.].`.eXPXKXDXGXdX| Y aXaX-.-.;.a a $.%.N Z.gXE.G u L *.%.&.8XIXIXAXLXdX} E >XZXnXnXcXcXFXS.| XXT.b Y ^.1XVX'.-.D s %.=.0.%.S.lXW.d n P.t.'.|.5XLXaX'.D z T.(.GXPXxXS.D D P D P G P D D I N T.JXvXHXFXDXDXFXDXGXAX^.H -XSX XS.Y.P a *.qXI. XgX>XD.m &.].;.P.fXIXAXAXPXMX-.;.FXsXZ.I.D.a *.].].P.8XfXY.L b &.t.%.U.gX=XF.d 6.}.}.{.hXIXKXGXPXgXI.Y.NXsXJ.Y.3.b *.].].].fXSX[.;.v *.*.%.0.hXLXDXHXLXwXA.W.xXvXvXNXFXNXNX",
"uXuXiXBXiXBXiXBXuXuXiXBXuXBXBXuXuXBXuXBXuXCXuXCXuXCXBXBXCXBXMXCXCXeXq = # # # - # y ) B r r t Z ) ) :.:.:.:.:.>.>.>.>.>.>.:.>.2.( ( _ B ) ) ( ) ) w w ) ] w ) ) ) ) ) ) ) ) w w ) ) ) ) ( ) ) ) ) ) B r w w ) ) ) ) ) ) B B B w w 1 1 1 1 w w [ w w [ 1 1 B B ] ( A ,.2.>.) >.>.( B Z B w w N I MXUXVXUXCXCXVXCXCXCXCXCXCXCXCXCXuXCXCXCXCXCXuXCXBXBXBXBXBXBXBXCXMXBXBXBXBXBXuXBXuXBXBXBXBXBXBXuXuXBXuXuXCX-X            * JXvXJXdXY -..XG.D p Y +XgX'.P &.v %.'.}.8XhXVXhXd u Z.'.8XhXgXGXmXE.| m E ;.zXHXnXjXvXvXnXbXcXDXHX3XW E sXsX-.-.&.b m t.t.0. XsX+XP d p I I I OXJXKXZXHXgXA.G >XsXA.&.&.b b *.0.*.S.gX@XE i a I %.C J.ZXW.G 3 Y t.0.U.eXIXUXUXJXdX` ` aXaX| -.-.a a C C v D.lXW.P 8 L 6.6.*.8XPXUXAXLXgX| J sXFXZXZXnXlXHXI.| XX3.l b D.=XZX'.-.F s C $.0.6.Y.jXK.a S t.].8X-XdXLX1X^.h L Y.+XGXPXvXS.P P H I P P G I P D Q dXvXvXJXFXDXDXJXDXJXAX^.H -XSX^.S.I.P n *.[.'.[.gXwXD.m %.].P.P.eXIXUXAXIXNX&.S.KXhX| I.3.s %.].=.].8XhXI.D v %.U.%.P.hX1XZ.d *.qX}.!.hXPXGXGXLXxXY.I.NXaXJ.J.D.n *.].].;.fXNX[.;.v *.*.*.&.hXLXAXHXLXwXQ W.lXnXZXZXFXNXNX",
"uXMXBXuXuXBXBXiXBXBXBXuXBXuXuXBXBXBXBXuXCXuXCXuXuXCXBXCXBXCXCXCXCX{.= = # # # # 1 0 B M r r Z ) ) ) ) :.:.:.:.:.,.:.$.:.>.:.:.>.( B ( B k ) k w 1 1 1 w w k B B w B ] ) ) B < w w w k l B B B r B B w q y w w w B B w B w w w q 1 1 w [ [ w < w < w w w 1 w B ) Z B >.4.( ( ( ) A Z Z B k 0 V M 2XCXCXVXCXCXCXVXCXCXCXCXCXCXCXCXCXCXuXCXuXCXCXuXBXBXuXBXBXBXuXuXuXBXBXiXuXBXBXuXuXBXuXuXiXBXBXuXBXuXBXuXBX7X            & bXmXJXgXQ Z..XA.h i G W.gXoXY &.a b ;.I.I.Y.aXhXz u P I.'. X_.xXDX_.E i m ;.zXFXnXzXnXlXvXcXnXbXJX4XW W sXaXA.-.-.d n ].].U.oXgX+XG i d ` 3.` %XJXHXFXIXgXQ D wXsXG.-.Z.s N `.].P.^.gX@XG p d P &.P Y.ZXW.F p J. X|. XeXIXKXUXJXhX| ` aXaXA.-.-.a v %.%.C T.vXW.G 9 U.8X}.oXaXIXJXDXHXdXA.J aXZXlXcXcXlXHXG.Q OXD.d H T.1XgXY.U D N 6.].{.MXaXdXY.f A {.}.eXfXdXLX*XY.N D ^.=XGXLXgXD.D H P G G H P P P H ^.LXdXvXHXFXbXDXFXGXGXSX^.P -XSX XS.I.P a ;.qX'.[.gX>XD.D %.].].P.fXIXUXUXIXgX&.P.KXgX3.P.Z.a C qX;.P.wXsXI.D b 0.P.%.P.gX=XD.d 6.}.}.`.eXPXGXUXIXSXI.I.lXhXJ.Y.D.b *.*.qX*.fXNX[.&.v %.0.%.6.fXLXmXHXLXwX-.W.kXnXzXFXFXNXNX",
"BXBXBXBXBXBXBXBXBXBXBXBXuXuXBXuXuXuXBXBXuXuXCXBXCXBXCXCXCXCXCXNXCX-X6 1 1 # # 1 # q ) w r r t ) t ) :.) :.:.) :.:.:.) :.:.) A 4.( B ) k w w < 1 q w k w w w w w w w w w w w 1 1 B 0 w w w w w w w w y 1 1 ) w < w w < w q w < 1 1 1 w w w w 1 < < < w 1 1 w [ B V A ( ( ( A ( ( Z B B M w 0 V V eXUXCXCXCXCXBXBXCXBXBXBXuXBXuXuXuXCXCXuXuXBXiXuXBXuXBXuXuXuXBXuXiXBXuXuXuXuXBXiXuXuXiXBXiXBXiXBXuXuXuXuXCX7X        .   * JXkXHXgX| ;.@X! z h x E.lX+X-.P i d W Y K Y >XdXF d G G J K | jXmX..J i m ;.4XFXnXzXmXvXvXnXnXnXFXsXW Y dXsX-.Q P i a Y %.N G.sXOXx 2 < 3 p p X.mXLXFXKXgXQ F &XhXS.&.&.a a U J D Y sX+Xm 8 : g x h W.UX'.D 2 K J.G.G.wXIXGXDXJXdX| | aXaX-.-.J a d &.&.I F.xX^.F u P.}.U.!.3XJXKXDXLXkX-.Y sXZXNXcXnXZXHXK.Q OX` f Y '.1XgXY.Y D D |.|.}.hXaXdXE.d %.|.8XMXaXdXLXaXH.d Q +X*XHXIXgXS.L G G G D P G P D 3.JXmXxXvXHXDXDXDXFXDXGXAX^.H -XSX[.S.[.P d *.}.'.[.gX>X;.m %.'.P.P.eXUXGXVXIXMX-.S.KXhX&.P.T.s C ].t.P.=XfXY.L b %.t.%.P.gX*XD.d 0.}.}.`.hXPXUXGXIXgXU.I.NXsXJ.J.&.b *.].].;.eXNX X;.v %.0.=.3.hXLXDXHXHXaX-.Y.kXnXZXNXFXNXNX",
"BXuXuXBXBXuXuXBXiXMXuXBXBXBXuXBXBXBXBXuXBXCXuXCXBXCXq.S n n n L n q 7 = y 1 y y # < ) ) r r t t ) :.) ) ) ) ) ) :.) :.) ( Z ) >.( w k k < < 1 1 w ] w ) w 1 < w < q w < 1 1 1 1 w w q 0 q < q q 1 1 1 1 1 B w 0 1 < 1 < 1 < 1 1 1 1 l w w w B < 1 1 1 5 1 w w w B A >.( Z A ( Z B M r M w 0 M N |.CXBXBXCXVXVXBXCXCXBXBXBXBXCXBXCXuXuXuXCXuXBXuXuXuXuXuXuXuXuXuXBXuXuXBXuXBXiXBXiXuXBXuXuXuXuXiXuXuXuXuXuX|.            & JXvXKXgXA.S.[.! G H.! [.lX&XQ P m ~ -.H.!  .$X.Xp D -.! E J R.mXmXL.K ~ ~ ~ zXHXbXnXjXzXjXzXvXDXIX3XY J sX4XQ ! G i h R R R X.jXOXF x ..R ..E _.GXKXDXHXdXA.z &XhXS.-.P d i F E E W dXoXm m z x R E K.SXY.d z E ] J W :XHXGXmXJXdX| Y aXsX;.! P u d P G z | vX^.g i D P K J OXJXJXDXLXdX-.-.sXFXnXcXnXZXLXG.| #XK p h W $XhXJ.U m u P 3.` I ` dXJ.f D D.S.S.Z.:XLXaX;.d x  .).DXLXlXG.G G P K Y G K K K 3XmXmXvXvXHXFXZXDXJXGXGXAX^.K -XSX XI.I.P a *.}.].'.gX>X;.b &.].].9.eXIXUXmXIXNX&.S.KXhX` I.5.s %.].t.P.8XhXY.D n %.P.I P.dX1XF.d 6.qX}.`.hXIXKXUXLXVXY.Y.NXfXJ.Y.;.v *.].].].fXSX[.&.a *.*.*.*.hXLXJXJXIXwX-.W.kXZXZXZXNXNXNX",
"BXuXBXuXuXBXuXBXCXuXBXBXBXuXuXBXuXBXuXBXCXuXBXBXCXMXS o - - - $ - # 7 = 6 y < = # 1 B M r r r r t t Z ) Z $.) ) ) :.) Z Z Z ) >.A r 0 q q q # 1 M M 0 M w < 1 < 1 1 1 y * 1 # k I V q < q 1 = # 1 1 # # q V ' < # 1 # # 1 # # # - # ) ( ) ) k < # - 1 < 1 9 k M B V ( B B ( A B M w w B k q M A N L I %.L %.&.&.pXCXCXuXuXCXCXuXuXCXCXuXCXuXuXCXuXuXuXuXuXCXuXuXCXCXuXuXuXuXuXuXuXuXuXuXuXiXuXuXuXuXuXiXBX}.        .   & FXZXHXZXS.} /.| ..(.R.).sX;XG m ! H.Q.Q.~ R i j i m m h g c ~ dXJXE.x X.X.X.5XmXmXmXjXzXmXnXnXGXIX3XH H 4X1X| W F x ~ o.o.^  .3XQ.x .. .o.o...).mXGXZXIXgX| z 1XdX| Y G h W  .R. .o.jX/.h -.H.~ ~ ~ W.ZX;.z o.R.X.X.X.,XJXDXbXJX4X' J aXwX-.~ E h G ~ ..E X.zXo.c E ..~ ~ ..:XbXbXmXJXdXA.-.sXZXcXnXvXvXHXR.A.@XF z K ..3XdXY.P d d ~ ! !  .(.xXT.h ' | ..W ..3XLXwX-.F J .._.JXLXlX-.h F m x m m x m T.JXmXAXxXmXLXDXDXDXFXDXJXAX!.Y -XVX XT.Y.P a *.}.'.[.gX8XD.m *.].;.P.eXIXUXmXPXBX&.F.UXsX3.I.D.a $.].s.P.8XaXY.D b &.t.%.P.gX8XZ.d 6.qX}.{.uXIXKXKXIXSXI.I.lXhXJ.J.D.n *.].t.P.fXNX[.;.n *.*.*.6.hXLXbXHXLXwXQ W.vXvXmXcXFXSXgX",
"BXBXuXBXBXBXBXuXuXBXBXuXBXBXCXBXCXBXCXBXBXCXuXBXCXCX%.= 6 6 C 3.P.a # 6 y = # # - 1 B r w w r w t r t t B Z Z Z Z Z A Z t :.:.>.B q q 9 # # - 9 _ V k _ ' 1 # # # # # # # - - 0 _ A = - - - # * # - o - < ' ( 1 - # o # < # o o - < l l < < q 1 - - # < = y 0 k M B B w M B k w w q 0 k w 0 M I 6 # = = = # 6 7 2XCXBXCXCXCXuXCXCXuXuXCXuXCXCXuXCXuXCXuXuXuXuXuXuXuXuXCXCXuXuXuXBXuXuXuXuXCXuXuXuXuXuXpXBX}.            + [..X4X>XG K  .x J R.X.~.sX:X;.-.-.H.-.~ ;.;.E -.m a n u 2 g x 4XbX^..._.X.X.6XJXmXvXnXmXzXkXkXZXKXaXK ' aX$X| Y x ~ Q.~.X.Q.~.4XE.E R.~.X.~.X.~.vXHXFXKXdXT.z 1XaX| Y z J ).Q.~.X.o.4X).E ).).;XQ.<XQ.zXH.x Q.Q.X._.X.;XnXJXmXJXaX` K aXsX;.W G ~ R.Q...o.R.jX..j  .X.o.~ o.).mXbXnXJXsXU &.sXZXlXnXzXvXJXK.S./.E ..X...:XdXK.&.m ~ -. .o. .Q.dX..E X. .X.X.o.5XLX>X-.! L.X.).FXIXlXQ h x x x x x j E xXmXmXmXxXxXHXDXDXDXFXJXUXAX(.H #XSX XS.I.P a *.qX'.[.gX>XS.m &.].].P.fXPXGXAXIXMX-.S.KXhXZ.P.D.a %.].;.P.8XsXY.L b %.P.%.S.gX1XD.d 6.}.`.U.hXIXGXUXLXgXY.I.NXsXJ.J.D.b %.].].;.fXNX[.&.v *.=.*.2.fXLXDXHXLXwX-.W.kXvXvXcXFXNXNX",
"uXBXBXBXBXBXBXBXBXBXBXBXBXBXBXuXBXBXBXBXCXBXBXCXMXCXfX8X8X8XeX|.}.b 9 q 9 9 9 = - y A M w w r r r r r B r B r r Z B B S B Z A $.r y q # # # - # l q q V B 1 # - - < q - X $ = l H H < & - - < d 9 # # u k V ] q 2 1 < f l k < < < k l ) w w q # # < < 9 < 0 s M N w 0 s k 0 0 0 q 1 q 0 q < 0 s 9 %.3.%.a = 0 q eXBXBXCXCXuXCXuXuXCXCXuXCXuXuXCXCXuXuXCXCXuXCXCXuXCXuXuXBXuXuXCXuXuXuXiXuXuXuXuXuXuXBXuXCX7X            % :XW.(.Y.K F K F J F G E H.sXFXFXNXsXwXsXzXlXlXwX[.;.*.L d i x 4XgXJ.| ....Q.4XmXmXjXvXzXjXkXvXZXGX3XY J 4X1XU P x z ~ R...o.~.4XQ.~ R. . .X.R.:XmXDXAXKXhX5.F 1XdX| K g E R.X.o.X.X.4X).~ Q.~ ~ o.Q.).zX~ E Q.X.o._.~.,XbXHXZXJXdX' K 3X>X-.W x  .Q.X.~.X.~.zX .R ).;X+.X.;X,XmXbXvXHXaXU U dXvXjXzXjXvXDXE.A.[.! Q.)._.5XdXY.L ! Q.;XQ.Q.Q.R.5XX.o.;X<X<X~.X.5XJX>XY _.;XX.:XnXHXsX! m F m m x m m :XmXmXmXmXxXvXLXDXbXDXFXJXGXAX^.P -XSX XS.I.! n *.}.'.[.gX>XA.m *.].P.P.fXIXUXAXIXgX&.D.KXhX&.U.D.a L ].t.P.8XfXJ.D b 3.t.I P.hX=XD.d 6.qX}.`.hXPXKXUXLXNXI.I.NXfXJ.L.T.n *.].].*.fXNX X&.a *.*.%.3.hXLXbXHXHXaXQ Y.vXvXmXNXFXSXNX",
"BXuXuXBXBXBXBXBXuXCXBXCXuXCXCXBXuXBXCXuXCXBXCXCXCXCXCXCXVXCXCXhXI.a 9 = = # # # - = k k w w w q q 0 w w 0 M 0 0 r w q 0 B M $.( N y q S N N # # k q s V ] 0 w < 0 l N l 0 q 9 s V V < < q k l N N l s = < l ) < 1 f f k l k 0 f < 1 w l ) k q # X # = = # 9 s 1 0 q q q = < < 1 1 # 1 0 = 1 s k q -X8XeX}.'.eX|.BXBXBXCXuXCXuXCXCXuXuXCXuXCXuXuXuXCXuXuXuXuXuXuXuXuXuXCXuXuXBXuXuXCXuXCXCXuXCXuXuXBXuXuXCX7X            * FXDXDXdXF.F.^.H. .W.Q.R.>XsXsXNXFXKXKXIXIXIXIXKXFXUXMXeXP.F K sXvX .W .... .5XJXmXvXvXzXmXnXvXAXKXaXY Y sX1XY P z z ! ~ .. .(.4XQ.~ L. ... .R.:XbXDXcXIXxX} H 1XdX| H h x  .~ o. .o.zXQ.R H.~ E R ~ ).zX~ R E c 4 ....;XDXHXZXGXhX` ` sX>X~ ! z E  .o.X.X.).nXo.E o.R ..~ X.;XnXHXvXGXgXY U hXvXmXzXzXkXFXK.A.Q.G ~  ._.4XdXY.P m Q.~ ~ o.~.~.5XX.X.X.X.X.o.X.5XLX>XE L._.X.5XZXHXaXP h x z x z h J cXmXmXVXmXxXmXJXDXDXDXFXDXGXAX^.G -XSX XS.I.P a *.[.].[.NXwX-.m %.].P.P.eXIXUXVXIXMX-.P.UXgX` P.D.a %.].t.U.=XhXY.L v %.6.3.P.gX1XF.d 6.}.}.U.eXPXGXUXPXgXU.Y.NXsXJ.J.3.N *.].].].fXSX X-.v *.=.*.*.hXLXJXHXKXaX-.^.kXvXvXZXFXNXgX",
"BXuXBXBXBXBXuXBXBXBXuXCXBXBXBXBXBXCXuXCXBXCXuXCXCXCXCXCXBXCXCXCXn # 6 = # # y 9 # q 0 0 q 0 0 q y y q q q q 0 0 < y 1 1 y y 0 S M = q N < = o # N k M M k # # 2 q f k w k < < q k k < < 0 k k l k k k 9 < k w q < 0 f q 0 < < k 2 q s 0 0 0 k 9 < < < < * # q 0 9 q q 9 < 9 9 < < = < s 9 I 2.M # `.MXMXCXCXCXCXBXBXBXBXuXCXCXCXCXCXuXCXCXCXuXuXBXCXuXCXBXuXBXuXuXCXBXuXuXCXuXuXuXuXuXuXuXuXuXuXuXuXuXuXCX|.        .   * HXlXHXvX| Q W.! G m g -.zX+XP ' K H 3.[.oX=XxXGXgXgXMXeX}.S.} gXGXF.J H x K %XDXvXzXnXmXnXjXmXbXGXaX` U hX1X| ! D G E W | Y } >X(.|  .| F.D.T.%XDXHXAXGXgXA.H 3XsX| F F K } W F.Q E 4X).E  .E W ! ! ! jX .G E E Q H.! @XFXFXFXGXhXU U sX:X! J F W L.| L. .K.lX} E R... .X.Q.).zXJXbXHXsXY Q dXvXmXzXzXvXDXG.A.W.E ..| X.5XgXY.D Y Q.Q.H.R.X.R.5Xo...X.....o.X.5XLX:XY | L.X.:XmXJXsXE m m m m m m zXDXmXmXmXmXvXlXHXFXDXDXFXFXHXAX^.H #XSX XT.Y.I a ;.}.'.oXgX=XS.m %.].P.P.eXUXUXAXPXNX&.S.KXfX&.I.3.f $.].].P.8XhXI.D b *.6.%.6.dX=XD.d 6.qX}.`.hXPXKXUXLXxXY.I.NXsXJ.J.D.n *.t.].;.fXNX[.;.n *.=.*.6.hXLXbXHXLXwXQ W.kXnXzXFXFXNXNX",
"yXyXiXiXpXpXiXuXiXuXuXiXuXuXiXuXiXuXiXiXuXuXuXuXuXuXuXuXBXBXBXBX}.6 # - o - = 9 9 q ( 5.A w M 0 q 0 0 0 0 0 0 w M M M s 0 M V A k < 0 < = k q q k N l k l k k l k k V l l H H H l ] _ ( V B ] ) V l V ( ) ] l ] ] V V ] ] ) _ V ' V k l k k s f f < $ 1 = N 3.I 9 = = = = = # 1 = # < 0 V _ N 9 0 0 }.CXCXCXBXuXBXuXCXuXCXuXuXuXiXuXuXuXuXuXuXuXuXuXiXuXuXuXuXuXuXiXuXuXiXiXuXuXuXuXuXuXiXuXuXuXuXuXuXpXuXqX  .         * HXnXHXgXW Y G.Q G 8 i ;.gX=XY H u < b L L I #X4X' V 6.`.{.eX>XAXAXK.Y p p W 5XHXDXcXcXmXnXmXvXbXJXsX` Y gXaXZ.Q ! h i G Y G J.aX).W d d U U &.-XGXGXbXIXgXA.G 3X3XY F G D d P P P Y dX:XG F m P &.-.Y.kXR.G F F Y Q -.&XIXKXFXLXgX| 3.hX>X} Y G L F H P H ` cXK.J | K Y J ! @XnXFXvXHXhXY U sXkXjXjXmXkXDXG. .W.W Y K ' %XdXY.P P ~ P ! -.J  .4Xo.E Q Y | } ~ >XLX$X! | ..| _.mXJXgXQ G G G G G m dXJXmXmXVXmXxXnXIXFXnXDXDXFXDXAX^.H =XSX XS.J.P a *.].Z.U.dX>XS.m L '.P.P.fXIXGXmXIXNX&.S.KXgX-.U.Z.s L ].*.T.=XdXI.D v &.`.3.Y.gX1XZ.d 6.}.}.!.hXLXUXAXPXVXI.I.NXfXJ.K.D.b *.].].P.fXNX[.-.a *.*.*.2.fXPXDXHXHXaXQ W.kXnXnXZXZXNXNX",
"tXrXtXrXrXrXrXrXrXrXrXrXyXrXrXrXrXyXrXrXrXrXrXiXiXiXiXiXpXpXpXpXMX|.M q = # = y = 1 q A 4.( r q # # # # # # # = = q 1 y 7 1 0 7.w.( < 1 1 < k < 0 V _ ( V l V H ] M l l l l l k l ) k l k w w k k w f k w < w w < w < < < < < 1 < < < < 1 < < 1 $ < < < l 5.5.9 9 k k f k N V I I _ _ _ 5.5.2.5.3.9.uXuXuXuXuXiXiXiXiXuXiXiXpXpXiXuXiXiXiXiXiXuXiXiXiXiXyXiXpXpXiXiXiXiXiXiXiXiXiXiXyXyXiXiXiXiXiXpXiXiXuX7X            * FXzXHXgX` G G.;.m d P oXNX=X` ` d b `.`.U.!.sXdXV 9 6.|.7XVXvXUXAXY.| p z F.sXHXFXnXnXcXbXnXvXDXLXaXQ U gXsXD.&.| d h Y.}.'.=XvX/.Y d I }.}.}.fXIXIXAXHXgXQ G aXaXZ.U Z.b a P.}.].oXSX+XG d m [.'.[.8XSXG.D 8 b *.%.-.>XIXKXDXHXdX| | dX>X| } Y f a C L b 3.AXW.F i N I D G @XHXHXZXIXaXJ Y dXvXzXmXjXlXDXA.W Y.Y h f z oXhXS.-.D u L %.*.'.$XdXR.d f C ` Q ! aXLX>X! F c E _.zXJXjXA.E P Y Y Y Y dXbXxXxXvXxXvXbXHXZXnXnXDXFXGXAX^.Y =XAXoXD.S.P a d m h } 4X>X~ h d d d z 2XUXJXAXPXMX&.A.UXfXZ.I.` u a %.v d !.sXI.m f h D p ' sX=X-.i D &.H K 1XLXAXAXLXgXI.Y.NXaXF.H.-.b n *.*.P +XlX[.P a L &.m D aXPXKXIXIXfX-.K.kXZXnXZXNXNXNX",
"c.v.B.tX7XtX7XtXtXtXtXtX7XtXtXtXtXtXtXtX0X0X0X0X0XrXtXtXrXrXrXpXyX|.r S A A $.Z A Z B B >.2.B M r 0 e 0 q q q y y = = q 1 1 = A q.e.< # # = # # 1 < < 1 1 # 1 1 # 1 1 1 # 1 1 1 1 < 1 1 1 < 1 < 1 < < < < < 1 < q 1 q 0 f w < k k k k M V ( _ 5.` 5.e.` 5.I 5.5.U.9.!.!.{.!.U.9.!.U.U.5.5.2._ 2.S 7XuXpXiXiXiXiXiXiXiXiXyXyXyXpXiXiXiXrXiXiXrXiXyXrXrXyXrXyXrXrXrXrXrXrXrXyXtXrXrXrXrXrXtXyXrXrXrXrX0XrXiXu.            * HXlXFXvXJ J I.W.P d Q 8XNX=XI &.N n ].t.}.eXVXxXI 9 6.}.}.hXaXAXvXF.Z.d d Z.aXHXnXvXnXDXcXnXvXDXJXaXQ -.gXfXD.| Z.d m '.7X|.8XxXXXU b %.8X8X|.fXIXGXDXLXdX! G aXsXZ.&.D.N v qX8X}.-XUX[.J f L 8X7X8XfXZXK.J u %.].*.;.8XIXHXDXIXsXU ` dXwX| } Y a S `.].t.oXUXE.G 9 I 9.*.&.=XLXLXHXHXsXW | dXkXmXmXzXvXDXF.T.(.Y h d Y 1XgXS.Q D n ].qXqXMXZXlXW.s b *.6.D.G.gXPX>X-.z H (.5XmXJXdXQ P P P G P I 3XxXhXxXdXdXxXAXFXFXFXZXFXDXGXAX X` -XVXoXZ.D.&.A.E.Q.H.~.jX).E  .H.X.Q._.4XJXGXAXPXgX&.A.FXaXQ S.Y g P H.-...:XaXH.J W ~ W K E.xXoX-.Q E W c ..:XJXJXmXLXgXI.Y.NXaXG.H.-.h P J ! ! >XlXQ.E j x ~ ~ ! dXLXKXIXIXaXU K.lXnXZXZXFXNXNX",
"v.v.v.b.c.7Xc.c.c.c.c.c.9X7X9X7XtXB.tXtX7XtX9XtXrXtXtXtX7XrXtXtXrX7XM y r t Z S t B Z ) ( ( >.>.i.e.i.i.,.i.i.i.4.4.q.8.4.w.8.,.4.q.4.4._ 5.5.2._ _ ( ( ( _ ( A ) ) ' ) ( _ _ ' 4._ e._ 4.4.4._ _ e.5.e.9._ e.5.5.!.e.e.e.!.w.!.!.!.{.{.y.e.e.w.U.5.5.5.3.2.5.U.9.9.5.U.5.5.5.6.2.2.2.2.3.A k S M 7XpXrXrXrXrXrXtXrXrXrXrXrXrXrXtXtXtXrXtXtX2XtXtXtXtX2X2XtXtXtXtXtXtX2XtX2X7XtXtXtXtXtX7XtXtX7XtX7XrXtXrXu.            * HXkXHXgXW Y ^.Y.P p P -XNX=X&.%.n v =.*.].8XfXaXH a *.t.t.=X#XxXvXF.W d D I.sXGXnXzXvXbXcXvXvXbXJX3XY &.gXaXZ.Z.Z.d s 6.].t.oXgXOXU d %.{.].`.eXKXDXmXJXdXZ.G aXaXZ.3.D.v v `.{.t.'.SX-XU f b qX].`.8XxXY.P f &.t.t.P.eXIXFXbXJX5XY | hX>XA. .W s %.qXqX}.8XFXW.J a %.0.%.&.8XIXKXGXLXsXU Q kXkXlXnXvXkXZXG.S. XY D I Y.hXgXS.Z.m n }.8XqXMXlXdXJ.b %.}.}.fXaXxXPX=XG.D Z.-X3XbXLXfX&.m P P H G I (.#X!.2X_.XX2XmXHXDXDXDXDXDXJXVX XY -XgX XZ.U -.G.R.Q.~.;X4X).~ Q.Q.Q.~.~.3XDXJXDXPXgXY D.SXwXU F.G W R.H.X...;X5X..-.Q.Q.o.o.W.vX(.-.Q.W.R.o.X.5XLXDXAXLXxXJ.J.lXaXP.P.&.U R.Q.~.;X4XjX .~ Q.Q.;XQ.;XjXLXJXUXKXaXU W.lXDXmXAXmXSXSX",
"b.v.v.b.c.b.c.c.c.7X7Xc.c.c.9Xc.B.c.c.7XB.7X7X9Xc.tX7XtXtX7XB.2X7X7X) q 0 0 0 0 0 0 M w M $.2.( ( ( ( i.,.,.i.i.8.7.u.i.q.y.u.q.<.,.4.4.5.4.5.w.y.{.{.{.{.!.{.|.!.!.!.!.!.|.|.|.{.{.|.2X2X{.{.{.!.|.{.{.|.!.!.{.|.|.{.{.e.7.e.{.w.e.9.4.4.4.4.2.2.5.A 2._ %.0.5.9.5.5.2.2.%.2.2.I 2.2.0.A V M S M 7XpXrXrXrXrXrXtXtXtXtXtXtXtXtXtXtXtXtXtXtXtXtXtXB.tXB.B.7XB.tX7Xv.B.tXB.v.v.7Xc.B.B.7X9X7X7XB.tX7XB.7XtXu.        .   * FXjXFXxX` | ^.U.G d Z.=XNX-X&.&.s C t.qX8XhXVXhXP v 6.}.7XBXhXAXDXE.' f U [.gXHXnXzXlXcXvXbXvXmXJX1XD -.gXaX&.` Z.d d `.t.t.oXgXOXJ l %.].].'.fXHXJXvXGXdX| H hXgXD.| 5.s s 0.t.t.'.SXOXG f N }.t.6.=XSXJ.F s 6.t.`.'.hXLXJXJXLX3XU | gXeX} | W a C t.t.*.[.NXW.G u C *.%.Y =XKXGXAXIXaX| ! kXDXnXnXnXSXSXG.I.oX` d L I.fXgXP.D.D v 6.6.t.-X=XdXY.s A t.{.8X*XdXPX8XS.z H Y.$XvXHXaXY G G G F P D ' ' ' ] ' ] ' 3XHXFXDXDXDXJXIXvX^.Y =XNX XZ.U I.:X:X;X;X;XzX@X-.,X4X,X<X<X,XFXHXFXPXgXU | mX>X-.D.G R.,X,X,X~.5X4XT.W.,X<X,X;X;X4XR.H.,X;X).,X_.%XJXHXSXGXdX} F.gXaXI.;.Y H.).~.;XX.,XzX .H.~.;X~.;X;X5XJXmXmXGX3X` Y.cXGXmXAXJXAXvX",
"v.h.v.v.v.v.b.c.z.b.z.z.c.c.c.7Xc.c.9Xc.c.c.c.c.v.c.c.B.c.B.7XtX7XtX:.y 0 e w r k 0 q q 0 A >.A ) ) ) :.) :.:.:.1.:.<.<.:.,.,.:.:.,.>.) ( 2.>.>.( i.4.,.e.w.w.!.w.5._ 5.!.w.9.5.4.e.4.e.e.{.7._ e.w.{.9._ ( 5.( I 5.9.2._ 2.( 5.4.N M A >.>.>.( M B A %.%.2.2.2.0.6.4.2.2.2.2.2.0.%.2.2.s 0 A $.r 7XrXtXtXtXtXtXtXtXtXB.tXtXtXtXtXtXB.B.tX7XtXB.tXtXB.B.B.tXB.B.B.v.B.v.B.B.c.tXB.c.7X9XB.7XB.c.c.c.7Xc.tXt.. .         & DXzXDXvXY | oXI.D d -.=XvX-XU Y s b `.].8XfXxXsXm a ].8X}.hXhXAXAX(.| d S.oXgXHXnXnXnXnXvXbXzXvXJX:XG ;.gXwXZ.` U s D }.qX`.=XjX/.J d %.}.}.}.fXHXJXmXJXdX' F aXgXD.` 3.d N {.}.{.-XKXXXF d I -X}. XaXxXL.D b `.7X}.-XMXIXJXGXJXaXY Z.gX1X` D.Y b *.].].].}.FXW.F u &.0.&.Z.=XKXKXAXJX3X` Q gXFXnXnXDXZXcXG.G..XY b Y Y.fXgXT.3.D n 6.t.}.8XfXdXI.s %.t.}.eXaXjXPX-XS.D D U.3XDXJXwXD m D h D D D !._._.2X_.2X%XxXJXDXDXFXAXAXJXAX^.Y =XVXoXD.I P K.Q.Q.Q.;XsX@XH.Q.o.o.<X;X,XJXHXFXIXNXY | AX3XU | K  ._.:X,X,XjXaXJ.W.).~ <X(.).jXE.H.;X).Q.:X_.5XJXGXmXHXhX|  .xXaX;.&.J R.,X;X;X;XjXzX~ ;X,XzX;X;X,X6XmXmXJXJX3X| Y.cXAXAXbXJXGXvX",
"b.v.b.h.b.b.v.v.z.z.z.c.c.c.c.c.c.c.c.c.c.B.c.c.7XB.c.7X7XB.tXv.9XtX1.y y 0 r r w 0 0 0 q A >.>.) ) ) :.:.:.:.:.:.:.:.:.:.:.:.:.:.,.>.:.Z w q Z ( _ ,.( ,.k M _ k k ` ( s _ _ k B _ w ) _ q w 7.( < l !.M k 5.k V U.0 = _ 5.= y 2._ 0 ( >.2.4.A = w B I ( _ %.2.3.2.2.2.2.2.2.%.2.>.%.2.v q N A S qXrXtXtXtXtXtXtXtXB.B.tXB.B.B.B.B.tXB.v.B.v.7Xv.v.B.B.B.7XB.7Xv.tX7XB.c.v.v.tXc.c.v.c.v.c.c.c.c.v.v.v.B.r.            : FXlXHXgX` ` ^.| z d D  XVX#XY K f s _ %.I ` *X3XG i %.`.9.5.T.xXJXL.` f D I.sXJXnXzXnXnXvXAXlXmXFX3XY Z.NXfXZ.` Y p l U.Y.A..XdX/.U f F U.U.U.*XKXHXAXGXhX` z aXsXZ.Q ` f d !.{.U.].UXoXc p H  X`.!.2XxXL.D d 6.8X}. X1XIXGXAXKX3XY Z.gX1X` | P d &.}.}.U.-XUXW.G d ;.|.`.!.3XKXJXAXJXsX` Q kXDXnXDXnXcXvXJ.A.W.G h ` oXgXgXS.&.d n 8X}.7XMXgXgXT.b 0.}.8XMXgXkXIX8XA.D U oX3XbXIXwXL m D D D h l xXmXxXxXxXxXxXmXJXmXbXDXDXAXKXvX^.Y *XVX XA.U &.K.R.R. .W.sX[. .Q.~ ~ Q.;.wXJXHXKXIXhXD T.GX1XU U K | o.K.).).>X3XG.Q.;X;.;.R.@XkX(. .(.Q.o.X.X.;XJXJXAXLXdX..T.xX3X! U G } ).Q.R.X.,XzXH.Q.H.).R.~._.5XJXJXJXIXaXQ Y.xXZXcXbXJXLXGX",
"b.h.h.v.v.b.v.v.z.l.l.v.k.z.z.m.m.m.m.N.c.N.N.c.c.c.7XB.tXv.B.B.9XtXi.y e y 0 t M w 0 1 = ( :.) ) :.:.:.t :.:.:.:.:.i.:.<.:.:.:.,.,.>.( ) 1 - q 4.4.4.4.( M 3.s o q U.I # 1 ` 5.B _ ( ' w - < 5._ = = V 5._ I 3._ N = < A 5.0 q q V &.2.2.>.5.s 0 V B A _ %.2.2.2.2.2.3.2.2.2.%.2.%.2.%.A q v A ) b.rXtXtXtXB.B.tXv.B.2XB.tXB.B.B.B.tXv.7XB.tXv.v.v.tXv.7Xv.v.B.v.v.v.v.v.v.7Xv.v.7Xv.7Xc.v.b.v.v.v.v.c.B.t.  .         * HXcXHXvX| ` Y.W z h ! +XxX#XY D f d F K | | :X3Xg p G J A.W o.nXZX .G x x ..jXJXnXnXnXcXvXcXcXZXIXaXP &.gX3X` Y K z p x J F W.zXW.K F D H Y ` $XJXGXcXGXdX! P hXgXQ P ` l f N A I Y.ZX(.g l l H H Y XXvX..F d D %.L U aXJXJXJXLX3XY | gX1XU U Y d h Y U H !.JXE.K d m Z.Y  .3XJXJXmXLXdXQ -.gXZXnXnXnXcXvXF.K./.K h F D.sXxXD.` D v ].}.].`.$XgXJ.s I 9.'.oXXXdXPX8XQ z F G.*XDXHXhXP P P P P I P 3XxXxX5XxXxXdXxXJXcXbXDXDXZXGXlXY.Y 1XNX XD.I.D.P H -.P I.sX).-. .-.;.;.-.&XHXKXFXIXgXP T.GXaX` Z.| ~ -.;.;.! +XwXK.;.;.;.;.;.[.gXW.H.I.;.~ X...:XJXKXFXHXdX| L.lXwXD.-.Q H.R.R.E. .R.sXH.R.G.W.W.K.L.3XJXmXZXIXaX&.W.lXFXnXJXJXJXDX",
"h.j.b.b.v.h.h.h.h.l.l.h.m.z.m.m.m.N.m.M.B.N.N.M.B.v.B.v.v.B.7XB.B.rXr.y e w w t r k q # 1 B ) Z ) t :.t :.:.:.:.:.:.:.:.:.:.:.:.,.<.,.>.B r # # _ ,.>.2.4._ q = 9 V _ 3.V = # V _ 5.' # o w _ _ 5.' < o < _ 5.2.# . < I ` 2.` d . X N 2.A _ 6.M q N V I 2.I 2.3.2.2.%.2.3.2.2.2.2.%.I _ I N N B ) u.2X7Xc.tXtXtXtXv.tXB.B.B.B.V.B.B.v.c.c.B.v.v.tX7Xv.v.v.B.7Xv.v.7XB.7Xv.v.v.v.v.v.v.v.c.c.c.c.c.c.c.b.B.r.            > DXzXFXxXT.J K.H.E E Q.3XsX#XI L | Y x ..,X~.:X,X .~ G E ,X5XX.4XFXK.E x ..5X4XJXnXnXlXnXnXnXlXDXKX3XK U gX*X` F h F K E ).:X:XsXH.x | '  .%X%X3XbXDXmXJXsXU G gXsX-.Y h z K ` ^.Y..XGX(.p c x ..(.E.1XjX| x J ! G./.).dXJXJXJXIX3XY A.gX>X! Q m h h J } | _.mXL.h x P Y | X.3XJXJXmXLXaXU -.lXDXnXbXmXlXvXL.T.E.z l z Y 3XdXD.Y d a D %.I P (.dX} d N I U H ..dXPX&XU z l K :XJXLXsX-.P Y P P P P 1XxXxX5X5X2X5XvXbXbXbXDXFXFXIXVXU.-.aXNX'.Z.S.G u v L L ;.fX@X! d h *.m m &XIXUXFXPXgXP L.AX*XY P.G.m i m m m +XgXW.-.m ! *.&.[.NX+XQ d 4 i 3 3 _.LXIXUXLXsX| J.lXsXI.I.;.P D P Y D @XgXW.G.D -.A.-.F.aXLXGXKXIXwXU '.NXFXnXnXnXnXnX",
"j.b.h.h.h.h.h.h.h.l.l.k.k.m.z.m.m.m.m.N.M.N.M.B.v.B.B.c.v.v.B.7X7XrXq.e y y y ) M w y y k Z ) ) t :.:.) :.:.i.:.:.:.:.,.:.:.:.:.:.8.,.) ) B # # A _ 2.4.9.9 o # N 2._ _ _ < o # _ 5.k o # l _ ' ` 5.V # - M U.N - # k %._ 2._ A q - q _ 2.>.4.M q V I A ( _ 2.2.2.2.2.2.2.2.2.%.I 2.I _ s d I C t u.rX7XtXtXB.tXtXtXB.tXB.tXtX2Xc.B.B.B.tXtX7XtXv.tXv.B.7XB.v.tXv.B.v.v.c.7Xc.v.c.v.c.v.v.v.c.7Xc.c.c.c.B.r.            & nXsXbXdX` K K.L.R.Q.H.R.dX#XF D G./.~.X.X.~.).,XH.,X@X . .Q.o.4XnXL. .Q.R.X.5XnXnXzXvXnXnXnXcXnXHX>XG Y gX$XY F c } K. .~.,X%X>XR.L.R...R.5X_.:XmXDXmXJXhXP D sXwXE J z |  .| ).1X@XdXX...X.' ..:X5X_.5X..F.R.E R.4X,X5XmXmXbXJXaXY A.dX>XW P F E E ~ :X_._.dXR.! ! E _.4X3X5XmXJXvXHXaXP U lXbXmXbXbXAXvXT...(.J c ` #XdXhX} F z z z Q #XOX:X5Xo.K c Y (._.X.4XLX=XU K H XXdXbXPXgXP D F D D D F 2X%X2X%X1X2X2XxXHXbXFXFXFXFXIXNXI.&.wXgXY.Z.I.P a n %.n P.gX>X;.b n *.*.*.fXIXKXGXPXgXY L.AX*X&.I.P.a a *.n %.&XgXI.&.a *.*.m ;.NXwXP * 8 j j p E.LXIXKXPXdX} J.NXsXY.'.;.d a L L D &XNX[.&.a L &.&.P.fXPXKXKXIXaXZ.[.NXFXlXnXnXDXZX",
"h.j.j.h.b.h.h.b.l.k.l.l.l.k.k.z.z.m.z.m.m.z.M.M.c.B.c.B.v.tXB.B.c.rXu.w y w y t B r w r q t ( ) ) t :.t :.:.:.:.:.:.:.:.:.:.:.:.,.,.,.>.A B w q Z ,._ 4._ q = N 5.V I 9.T.5.B q V 5.k 9 ( !.( ( 5.w.e._ M s 3.B s A U.V V >._ 2.%.V s A 2.>.2.A 0 V V A _ 2.2.2.2.3.2.2.2.3.2.2.2.3.2.2.9 9 I $.$.u.tXtXB.7XB.B.v.tXB.v.tXv.v.v.B.7X7XB.v.c.v.v.v.v.7Xv.B.v.v.v.v.B.7Xv.c.v.c.v.v.7Xv.v.7Xv.v.v.b.c.z.z.9Xr.            > nXjXDXgXY J J.G X.>X . .dX1XY h h  .3X_...X.;X:XR Q.,X3XX.R.;X4XHXE E 4X_.R 5XJXnXnXmXnXzXnXlXnXFX>XG | kX$XJ K p x %X5XX.H.;X4X .| ).5X_.~.R.:XbXJXmXLX3XP P gXwXY P g ' %X$X .X.~.dX .K %X)._...X.%X5X|  .3X;XQ.R.Q.5XvXmXmXGX>XG Z.gX@XJ D m H.Q.o...X.X.dXE. .@XW.R.R.X.%XbXDXvXLXaXD Y lXmXmXzXnXcXvX} ..E.L.^.L.(.aXdX| H K.OXX.| (.~.).,X;X~.X. ._.:X%X4XLX=X[.R. .#X5XzXIXfX&.m m L D D ' X.2X_.2X_._.%XxXFXDXDXFXFXFXIXxXY.U wXgXI.Z.Y.E a n %.n ;.gX-X;.d n *.n %.fXIXIXGXPXhXH L.GXwXP.'.P.n a *.$.m -XfXW.m a n *.$.;.NX>XI 6 i x G F .XLXIXUXIXgXJ.Y.NXfXI.Y.S.b a C D b -XMX[.D.a L &.*.%.aXPXGXKXIXaX;.[.SXGXcXDXHXGXSX",
"j.h.j.h.b.h.h.h.v.h.l.l.b.l.l.v.l.l.l.l.v.v.v.v.v.c.M.B.B.B.B.B.7X0Xr.y y q y M t r t 0 # S >.Z t t :.:.:.:.:.:.:.:.:.:.:.:.:.:.,.,.,.:.) w y w ) ( ,.4._ M _ 1X|.B ( 5.-X|.5._ l ( ) _ 2X2X( ) 7.|.|._ ( V I V I {.|.V B 2.2.9.V H B A >.( 4.A q 0 N V ( 2.2.2.0.2.2.2.2.%.2._ 2.2.2.2.N < N %.t u.tX9X9XB.B.tXB.B.B.tXB.B.B.tXv.tXtXv.v.tXv.B.c.c.B.v.c.v.v.v.v.v.c.v.v.v.v.v.B.v.v.v.v.v.v.v.v.v.v.v.v.i.            & nXzXbXdXW D W h x E.} W 3X#XK g i K ).X.c ..;X,Xx R R.:X .....4XLXE 3 ;XR.c 5XJXbXnXzXnXzXnXnXDXHX4XW W 3X&XW J g i W.>X~ R.@XdX .x R.5X%X..~.,XJXJXbXLXsXY P fXwX-.! i p R.4X .~.Q.zXL.g R.5X5X....;X5X| E ,X4X,XQ.).6XbXbXJXHX>XW -.sX>X! P d j ;X,X....R.jX-.E ,XaX1XX._.,XmXbXbXHX3XJ ;.kXcXkXzXjXlXlXH. . .W 5X1X..*XdXD.L h X.4X:X .Q.;X,Xo.Q.5XdXX.X._.5XPX[.Q 5X4XE.%XmXLXaXD m m m m m m A.J.F.J.T.T.(.kXHXFXFXDXFXFXHXNXU.Z.aXNX'.J.Y.G a *.*.P '.gX-XZ.n n *.%.&.wXIXKXFXIXhXY K.GXaXP.'.P.a v *.%.L =XhXK.m v n *.m [.NXwXP * d ! E m /.PXIXKXIXgXJ.Y.SXsXY.Y.-.b v C b b -XgX'.;.8 L %.%.&.hXPXGXIXIXwXZ.'.SXGXDXDXJXKXSX",
"j.b.h.b.h.h.h.b.h.b.h.v.v.h.l.l.l.v.l.v.l.v.v.v.v.M.v.v.v.B.v.v.c.0Xr.y q y q S t r r y # B :.A ) ) :.t :.:.:.:.:.:.:.:.i.:.:.:.,.,.,.) ) 0 1 k ( ( ( 4._ V U.2X` M 2.4.{.|.3.5.( ( ' !.2X_ k ) 2.e.!.5._ 2.2.2.5.8.( M A ( ( ( V 5.2.I 2.>.4.A q 0 V A I 2.2.2.3.2.2.2.2.2.2.%.2.I A I N 9 0 B t r.tXB.tXB.B.B.B.B.B.v.B.B.B.v.tXv.v.tXv.v.B.v.c.c.c.v.v.v.v.v.v.c.v.c.v.v.v.v.c.v.v.v.v.v.v.v.v.v.b.v.V.i.            & ,X~.>X*X` Y U G W R. .} OXY.z z F | ^.L.x E R.R.x } R.J.J F E 3X4Xx p H.H.x R.dX5X4X,X3X5XzX4XzXlX+XF F G.W.W m j x K.:XE E K.:XE z .._.(.J ..%XlXvXkXDXaXE m I.@X! G p c R.:XF E Q.jXH.3 .._.;Xx .._.3Xx j H.Q. .~ o.:XbXJXDXLXaXQ F W..XW G h h Q.:Xc K X.dX~ j ! @X(.| L.:XbXLXJXLXwXQ Q @XzXcXnXzXlXcXH.~ | h L.(.H 3XvXG.m p j :X5X! R.;X5X~ ..).5XX.R.R.3XPX.XG 1X5X| %XJXLXgXP m m ! m m *.D F z F c l ' sXHXZXZXFXFXFXIXNX^.-.aXNX XS.Y.F a P &.D F.dX+XZ.d b &.m m wXIXIXIXIXhXU K.ZXaXP.'.P.a v L n D #XgXI.m d L &.m ;.NXwXQ % 8 R E j /.PXIXKXIXgXJ.Y.SXfXY.K.;.d b %.%.m =XcX.X-.a *.;.&.P.gXPXGXKXIXwX;.'.lXAXDXbXAXUXUX",
"b.j.j.b.h.b.h.h.h.b.v.h.l.v.l.l.l.l.l.v.v.M.v.v.v.V.v.v.v.v.B.v.c.tX$.7 7 q y 0 r r w # 0 t >.Z ) t ) :.) :.:.:.:.:.:.:.:.:.:.:.,.<.,.:.) w 0 r ) ,.4.4.2.U.!.A k ( _ 4.( ( 2X|._ 4.{.|._ M ] ) 4._ B {.eX( 2.9.`.B M V ( ( ( V ( |._ A 2.>.2.V 0 N N V _ A _ 4.5.0.3.2.2.5.2.2.I 2.I I N q s r t i.tXtXB.B.tXB.B.B.B.B.B.v.B.B.v.B.B.v.tXv.B.v.B.v.c.v.B.v.v.v.v.v.c.v.v.v.v.v.v.v.v.b.v.v.b.v.v.b.v.h.V.r..       .   & mX4XmXaX| W.*XW.L.W J E.aX XG Y K P Z.D.Z.A.OX>X} U -.D.`. X^.gXdX| F.-.! H.,XsX4X,X4X4X4X4X,X>XzX@XJ A.>XXX! J ! H.W.K.I.A.[.&X} W } W.W. .H.&XkXaX3XjX&XG P [.[.m G z } /.^.A.Q R.sX..z  .(.).F. .(.3X] W R.Q.R.H.H.%X4X3X:XsX@XJ m I.R.F h h Q W.W.K K  .OX~ F I.W.Y.Y } %XdXsXaXlX&XY F I.,X,X,X@X&X.XG x c g X.R.K W.#XP d h E E.E.x R I.(.E x  ._...K ..).DX[.g .._.c X.zXFXfXm i b m d m 8 ;.[.!.(.R._.W.4XHXFXnXZXDXFXIXSX'.A.fXNXY.Z.-.F d m D g ..jXOX| 3 p j j x wXLXHXKXPXgXU T.AXaXP.'.&.8 8 a i p #XsXF.p 8 3 i 8 -.lX@XG > @ > @ > Q.LXKXGXLXgXA.K.NXsXI.R.-.a 8 n v a oXlXW.W u h D G E wXPXFXUXIXaXZ.Y.lXZXZXbXAXAXUX",
"j.h.j.h.j.h.b.j.h.h.h.v.h.b.h.l.v.l.v.n.v.l.v.n.v.M.M.M.B.v.V.v.v.7Xb.=.e 7 y t t w y q q t >.) t ) :.) :.:.>.:.:.:.:.:.:.:.:.:.) ,.,.( t M r 1 w ( ,._ 2.5.5.k ( ) ( _ _ _ !.!.k _ !._ N ( ) k ( ( ( ` 5.M V _ M M A M w ( k B V I k M _ ( >.A M k k V 3.2.2.2.A A C A B M N s M s 0 0 0 s r e r i.rXB.B.B.B.B.B.B.B.v.B.B.V.B.B.v.B.v.v.v.v.v.c.v.c.v.v.c.v.v.v.v.v.v.V.b.v.V.v.b.v.v.h.h.b.v.h.v.h.b.V.r.  .         : bXjXJXxXK A.+XK.z i J @XgX+XL I d a P &.&.&.&XhXU u s %.%.&.Q ZXGXY.} h h I.sXJXDXFXnXnXnXnXnXnXHX>XW S.lXaXA.-.H.h p ;.;.;.oXgX/.W g F A.U Q &XGXDXvXFXaXP Q sXwX! P Y F d P Y &.H.lX(.K K H &.U U XXdXK.! G P Q Q S.3XJXcXlXlX&XA.Y.sX>XW J G D &.;.Z.` Y.4XQ.-.H.D.'.Y.+XsXvXdXdXkXOXY H.4XwX>X,X>XwX>X! H. .} (.E.F.>X>XU -.A.G.G.H.W.I.@X/.! ! } !.L.| L.5XcXW.! _._.J._.>XsX[.-.-.-.-.-.-.-.,X,X1X%X2X%X*XlXFXDXDXnXDXFXIXZXY.S.sXNXY.D.Q G ~ ;. ...~.zXR.K  .X.-.-.Q.zXLXDXFXIXgXZ.Y.SXfXP.I.P d R -.-. .4XsX} E ! ~ E R Q.NX&XG x E x R G :XHXHXGXLXsXF.K.NXaXI.I.Q h h h g g OXvXE.E h x x 4 ~ sXIXKXUXKXaX&.Y.SXDXDXFXAXUXSX",
"j.h.j.b.h.h.h.b.h.h.b.v.l.h.h.v.v.h.v.v.v.v.v.v.v.v.v.v.V.B.B.v.c.9X7XtXu.1.0 q w 0 q y y M %.A ) r r w r B t B B B A ( :.:.) ) :.>.,.2.B 0 w 0 k ( >.4._ k k N V w B ( B V H V l ' V k ] B w ) ( V ( ] V B H V M I V B V ( k B V V k M A A A V M d k M _ 2.A s s M k M M N A A 3.2.I C %.9.0.t.i.v.tXB.B.B.B.B.B.v.B.V.B.B.v.B.v.B.v.v.v.v.v.v.v.v.v.v.v.v.v.v.b.v.b.v.h.v.v.b.h.h.v.V.b.h.h.b.h.h.v.h.M.r.  .         & bXjXbXAXD.A.XXJ.F h A.=XNX+XP I b v *.6.*.*.8XfXP a C 6.t.].I.NXSXY.} d P >XNXHXnXvXnXnXzXzXnXZXHX>XG ! gXwXY A.A.d h }.8X8XfXSXOXK i G U.P.U.fXKXDXGXLXxXY K kXaXG Y | f 6 *.*.%.Q ZX%Xz 8 u &.%.L [.kXK.F u b &.L Y aXLXHXHXHXsXJ A.NX>XQ F.Y u a &.%.C J.kXR.G j ;.}.'.@XgXIXHXGXHXaX! H.ZXnXFXFXFXKXcXI.! Y.K h F K sXlX;.I.m a %.&.P.W.>XaX-.h L T.D.3.| kXPX.XS.| Y ` *XFXIXsX! } Q A.-.| | 1XdX1X5X5X5XdXmXmXmXcXDXDXFXIXxXY.D.gXZX^.D.U } (.~.Q.X.~.4XX.E R.X.X.~.Q.,XHXJXDXPXhXQ J.UXaXP.S.G E R.Q.R.~.5X:X}  .Q.~.X.H.).lX/.E ;.o.o.X.X.5XLXGXFXLXgXS.Y.NXaXG.Z.P G X.R.o.X.5XlX .E Q._.~.%X,XkXLXHXIXIXfX-.'.NXFXFXJXJXAXSX",
"b.h.h.b.h.h.h.h.b.h.h.h.h.v.h.h.l.v.l.v.v.h.v.v.v.v.v.v.B.v.B.v.B.9X9Xc.B.7Xu.1.A B S B M M ) :.) r r r w w w w w 0 w w w w w y ) 4.4.( M 0 0 k w M A Z V V N V l B k l l V V V V V V l ) ] w ) V V l V V l V V l V l l k V M l l B M V M B A V A _ I 3.3.2.2.U.{.`.{.{.{.y.{.{.U.9.2.2.9.qX7X7XtXtXB.B.B.B.B.V.B.B.v.B.B.v.B.v.v.v.v.v.v.h.v.v.v.v.v.v.v.v.V.v.v.v.V.h.v.h.v.h.h.V.b.b.h.h.h.h.b.v.j.b.M.r.            & bXmXJXvXS.S..XT.z u K XXNX=X&.3.b v $.6.*.;.8XfX&.a %.t.t.8X-XSXKX^.F.h F W.gXHXnXnXzXnXnXcXnXFXHXaXG U gX+X&.A.-.i m }.qX].8XxX/.J i &.}. X}.fXKXJXJXIXgX| K sXaXK J D.s 9 6.=.$.Z.SX#XF f s *.*.%.'.gXE.H u C *.%.&.aXIXGXDXHXsXQ A.gX=X|  .U u b 6.*.%.U.dXL.F b `.7X8X8XMXIXSXZXLXsX~ ! zXzXZXZXlXZXlX-.Q Y.P d P P.gXgX;.I.L e ].].{.=X=X3XS.d L 3.3.3.I sXPX+X-.b N U eXHXLXsXG D F F F F H 5XxXxXxXxXxXxXxXmXmXbXDXDXDXKXxXY.S.gXgXY.D.Y E.,X,X,X,X;XnXR.X.5X~.;X;X_.4XHXLXHXLXhXU Y.SXfXP.| K R.,X;X;XX.:X>X ._.5X;X<X~.;XlXQ.! ;X<X<X<XX.5XHXHXGXLXhXZ.Y.SXaXI.-.W X.~.X.Q.X.@XdX! ! ~.~.~.Q.Q.>XLXJXKXIXaX-.W.lXDXZXDXAXSXxX",
"j.b.j.h.b.h.h.b.v.h.h.h.h.h.l.b.l.l.v.h.n.v.z.v.v.v.v.v.v.B.B.B.B.9Xc.9Xc.7X7XrXrX|.|.{.9.2.Z A ) i.e.w.q.9.y.U.U.{.{.{.{.w.i._ >.2.2.7.4._ _ _ _ _ 2.A I I I _ _ 4._ ' ' 5.` ` 5.' 5.T.e.e.e.e.T.T.!.T.T.T.Y.T.J.!.!.!.!.|.|.!.!.^.|.XXoX|.|.|.|.{.U.8.4.2.3.5.5.9.9.0.{.2Xu.:.2.%.$.Z u.rX9X9XB.B.B.B.B.V.B.B.B.B.v.v.v.B.V.v.v.v.v.B.v.v.V.h.v.v.v.v.v.h.h.V.v.h.v.v.h.V.h.h.v.h.h.h.h.V.j.h.h.h.h.h.M.r.            : JXjXJXvXU Z.+XJ.D p P [.gX-XP Y b n ].].}.8XMXfXP a I ].t.8XwXUXGXJ.| h D H.sXFXDXnXnXzXcXzXnXZXFXaXY Q MX8X-.;.;.a d ].s.t.oXgX).W 3 H `.6.t.8XGXJXAXKXaXK F dX3XG U Z.b a *.*.=.U.NX#XF u v *.$.%.oXgXK.z u N %.C 2.fXIXHXHXHXaXY A.lX=XY | J a n 1.=.%.'.lXE.F b 0.}.u.}.uXIXUXUXHX>XE -.FXZXZXZXZXZXlXA.&.'.U d I S.gXgX-.;.L n t.t.`.}.=XaXD.a A 6.2.%.I hXPXoX;.N D ` =XKXPXsXP G I P P P P 2X5X2X5X1X1X5XjXbXbXbXnXnXnXGXSXY.Z.hXdXY.S.! Q.Q.;.Q.Q._.vX(.E.).~.;XX.;XjXHXJXDXPXsX` Y.AXeX-.-.F  .).~.~.<X,X>XA.XX5X~.X.;X,XnXR.H.;X~.;X;X%X4XJXHXJXIXsX| Y.vX1XS.-.Q E.;XQ.;X).,XzXH.K.@X~.;X,X).4XLXJXLXLXfX3.Y.gXlXcXcXAXSXgX",
"j.h.h.h.h.h.h.h.h.h.h.h.b.v.h.v.l.l.h.v.l.v.v.v.v.B.B.v.v.v.v.v.c.c.B.c.B.B.7Xt.y.eXuXeXS 8.$.A ) ) ( q.7X|.0.0.2._ _ 5.5.q.e.q._ 2.2.7.y.|. X|.-X|.-X1X1X2X1X2X=X2XeX1XeX1X1X3X1X1X1X1X5X2X5X2X1X1X1X1X1X1X1X1X1X1X1X=X#X2X-X2X2X1X1X!.!.|.U.5.{.2.2.>.0.7.%.S C C 0.C 7XrX7X$.A ( 1.$.u.rX9Xc.tXB.B.B.B.B.B.V.B.v.B.B.B.v.B.v.V.v.v.v.v.v.v.v.v.h.v.h.V.h.v.V.h.v.h.h.v.h.h.v.h.h.h.h.j.j.b.h.h.j.b.j.V.r.  .     .   & JXjXmXvXZ.D.oXS.D m ;.=XNX&XW H d L ].qX8XfXNXsXP f 6.-XqXuXhXUXDXK.' g ;.+XlXHXnXmXzXnXzXlXnXDXHXwXY -.NXwX-.;.;.d G }.qX}.8XcXR.K f &.}.{.`.fXLXJXmXJXxXY P gXdXQ Z.D.v s }.}.qX+XSX#XD a b ].t.*.wXcXJ.c u N %.L ` aXIXGXDXLXaXY D.VX*XJ | G u $.`.6.P.+XlXW.D b 0.t.`.}.hXIXUXSXLX>X! ;.FXZXnXZXnXcXgXZ.U '.Y d H Z.hXgXS.;.b n 0.t.`.-X8XfX6.v *.6.t.|.oXgXIX=X-.b I ` eXKXIXwXP L P D L D H ^.%X_.2X#X_.%XjXJXbXnXDXZXDXLXxXY.Z.sXgXI.A.! ~ ;.Q.H.H.R.dX(...).Q._.%X).4XJXHXDXLXaX` Y.SX=X-.Q G E  .X.X.R.,X>XA.E.R. .R.L.@XlXH.H.Q. .X.X.Q.>XFXFXDXJXhX` Y.VX3XP.-.G  .R.R.H.H.@XlX~ H.).X. .W.@XsXLXLXGXIXaX| I.gXvXvXbXAXvXNX",
"j.h.j.h.h.b.h.h.b.h.h.v.h.h.v.b.l.v.l.v.l.M.v.N.c.B.B.c.c.c.B.c.B.c.B.tXB.9X7Xu.t $.{.|.$.8.$.( A >.A 0.rX7X$.S s q q s q q k V ( _ 5.7.9.5.H D H H H H _.2X#X1X#XeXeX*XeX3XaXxXxXxXxXxXxXxXxX5XxX1X1X3XeXaX1XaXsX1X1XoX!.-X|.2X1X1X5X` l ` I 2.|.%.$.,.4.0.0.I I 0.2.2.y.y.7Xt >.I A $.t.tXB.B.B.B.B.B.V.B.B.B.B.B.B.B.B.B.B.v.B.v.V.v.v.V.v.v.v.j.v.h.h.V.V.V.v.j.h.v.h.V.j.V.h.b.v.j.b.j.h.j.h.j.j.V.V.i.        .   > JXjXJXvXZ.J.+XT.d u D  XNX-XY K f v ;.].;.P.wXaXG u P `.6.D.G.kXGXE.Y i x ;.sXHXcXxXvXnXmXzXkXDXKXeXG ;.SX8X-.A.-.i m  X}. X&XlX.XP a %.'.{.U.3XJXJXbXLXgXQ P dXdXZ.-.-.a d }.}.}.+XZXOXD d D }.'.U.*XgXJ.x p U U.Z.I.sXLXFXGXLX3XY S.lX=XU } J a %.-X'. X=XvXW.D D `.-X|.oXhXKXAXAXLXwXQ ;.ZXlXcXvXvXvXgXZ.` !.P l Y !.xXaXU A.C C }.{.8XBXgXfX3.n 6.}.8XCXxXxXIX8X-.D D.!.hXGXLXhXD D L m D D L W  .......| H.4XHXnXnXDXFXFXLXxXU.S.gXhXI.J.J.Z.P &.'.;.I.zX@X .A.-.T.Y.J.3XJXHXHXLXaX` Y.SXaXD.Z.-.~ ;.;.;.;.@XwXW.J.F.;.I.;.K.kXK.H.W.R.W.W.;.@XHXGXDXLXsX| Y.NXwXI.&.&.I.W.W.K.Q .XkX-.R.E.G.H.W.W.3XLXJXGXKXaX-.J.lXDXmXmXbXZXgX",
"j.b.h.b.h.h.h.b.h.v.b.h.v.h.v.V.l.z.M.v.v.M.v.N.v.c.c.c.B.c.c.B.c.B.B.B.B.c.9X7X$.S S N S 9.>.S A ( A 8.2X7X%.A A N N I L N I _ ` _ 4.7.9.3.V H D J z c %X5X1X3X1XeXaXeXaXaXhXxXxXxXxXxXxX5X5X6XjX3X=X1X1X2X-X=X1X1X=X#X XoX%X_.%X_._...H D.3.5.|.A ( A Z B U.C C N 5.$.|.rX7X$.$.A >.$.u.tX9X9XtXB.B.B.B.V.B.V.V.B.V.v.V.v.V.v.v.v.V.v.v.v.h.v.v.h.v.h.v.v.V.u.h.v.j.j.j.V.b.j.j.V.j.j.h.j.h.j.b.j.j.u.V.r.            & bXjXJXgXY 3. XQ z x E Q.gX+XG D f d W ! ! ! >XwXG m E W ! ~ o.jXHXJ.D x G ~ zXLXAXxXmXnXnXmXmXbXHX>XL &.NXwX;.A.P 2 i D Y I J.dX/.G p z P Y Y _.JXJXbXLXgXU P dXsXY -.-.u u P P P ! kX@Xh u d J P J /.dXL.h 3 x Y J } 5XJXJXbXIX3XY D.SX>XQ D.P a D P.Q W ^.gXY.D d Y S.` T.1XJXJXDXLXwXP -.ZXZXvXvXjXvXdXT.D. XH f H ..dXaXP &.b n '.'. X X=XaX` s 6.`.|.|.oXgXIX+X-.D F.E.4XGXPXhXP D D D D D D m z c l D l J wXHXFXnXZXDXJXIXvXY.I.hXgX'.I.I.D v $.*.L I.NX@X! i b I P P *XLXKXGXPXsX| Y.SXwXD.Y.P.m a ! *.! wXsX;.D b m %.P I.ZX&XK.h P ;.;.! =XPXGXDXLXsXZ.W.NXfXI.I.;.L P &.Z.L -XNXK.G.Y -.;.;.S.aXPXGXHXIXaXA.W.lXDXvXjXbXAXSX",
"h.b.h.h.h.j.h.h.h.v.v.v.v.v.v.v.M.z.v.v.M.M.M.v.c.B.v.c.v.c.c.c.B.c.B.B.9X9X7Xb.$.S A e S u.0.A A >.$.0.7XrX$.V N f s H s f N I ' ( _ 5.5.5.Y Y z K c R O...X.E.!.!.!.U.U.Y.5.1X2X5XxX5X2X5X5X2X5X..H Z.T.` U 3.U.D.3.I < 3 | ....] O.5 4 X.` ` |.( $.2.2.4.|.M N s 3.$.b.rX7XZ A A %.:.u.tX9Xc.B.B.B.B.B.B.B.B.v.v.v.B.v.v.v.v.v.V.v.v.v.V.v.v.h.v.h.v.j.h.v.V.V.u.v.h.v.j.j.V.h.v.j.v.j.j.h.u.j.j.h.j.V.r.. .         * JXjXJXdX' U Y.G E o.o.Q.4X XY P D W X. .o.H.,X>XE ! -. . .o.o.jXDX| G H.Q.Q.jXJXmXxXjXzXnXmXnXbXLXaXG Z.UXaXU Q F h G | ..| _.kXR.j G L.F.X. .:XJXbXbXLXdXQ K dXsXJ Z.E m E ! ! J H.nX/.p K E | R ..).dX .x E ~ ~ ~ Q.dXJXbXbXHX3XP D.lX=XY P.L i F ! G x R.jXY.z d J Y K | 3XJXGXAXPXwX&.A.SXvXmXvXjXvXdXF.T.^.F g c x dXaXF P d i P ` J F ).sXQ d U Y K K K dXLX&XW g c | 5XHXPXhXD D G D D F F b b b b b v L wXIXFXbXbXDXFXIXgXY.3.hXgXY.Y.I.D a %.*.C I.SX@X-.a b %.L L aXPXGXKXPXhXQ Y.AXaXS.Y.Z.a n *.n m wXsXI.m a $.*.n ;.SX&XH.i n %.P L 8XIXIXJXIXgXS.Y.NXfXI.Y.&.a n n %.b -XSX'.&.a n &.&.&.fXPXGXIXIXaX-.Y.NXFXcXbXZXGXSX",
"h.h.h.j.b.h.j.v.v.h.v.h.v.h.v.v.z.M.v.M.M.M.N.c.v.v.B.v.B.B.B.c.c.tXB.B.c.c.tX7X$.S A v r ].|.>.( %.>.<.7XeX$.N N 9 9 l s 9 l Y 5.' e.w.5.S.Y z @ 3 5 5 , 5 c E J 5.5._ 5._ V 2XxXuX2XxX6X5X6X6XxX..p Y 3.I A I 5.2.3.l + & R c R [ [ 5 3 ..` _ -X>.>.>.2.0.|.s N M 0.A {.rX7XS %.A A $.u.tXc.tXB.B.B.B.B.V.V.B.B.B.v.V.B.v.V.v.V.v.v.v.v.h.v.h.v.h.v.V.h.v.j.h.V.V.j.v.v.j.j.V.h.j.j.h.V.V.j.V.h.j.j.j.j.r.. .         & JXzXDXdXY U Y.W  .Q.Q._.dX/.D D  .:X5X,X,X).,X,X! W.Q.R.~.X.o.jXJX| K Q.Q.X.4XJXxXmXmXnXzXvXvXmXGX=XP &.AXaX-.Q F E H.o.o.....dXR.x X.Q.Q.X.o.;XmXJXHXLXgXU K sX4XY -.P E H.Q.Q.Q.H.zX).z R.X.X.X.o.).5X| R X.Q.X.o.R.6XbXmXbXGX=XP D.SX$XY &.m x H.Q.o.o.~.jX .c | ..o.....5XJXJXDXPXwXP Z.UXkXmXmXjXvXdXF.J.J.` L.X.X.jX4XG &.d F ! ~ ....:X3XE E  ...| | ..4XLX(.G E ....5XJXIXaXG P K P P P P m b b b b b L sXIXFXbXDXDXJXIXxXY.D.gXhXY.Y.Y.m a C L b ].SX&X;.a a L n L fXPXKXKXIXfX-.W.SX>XG.U.P.a n =.n *.wXzX[.m a n *.n ].KX&X;.8 v %.L L wXIXIXKXIXgX;.[.NXwXI.`.P.n n %.$.n 8XNX[.;.a L *.m &.hXPXGXIXIXaX&.'.gXZXFXAXZXAXZX",
"h.v.b.h.b.h.v.h.l.l.l.h.v.v.v.v.v.M.l.v.M.v.M.N.c.v.B.v.c.B.B.B.c.9XB.B.c.B.tX7X1.S $.M e y.|.$.Z >.$.>.7XrXA M M f f N s < D Y ` ' y.e.5.5.` x > 4 O.o.5 [ O.E Y 9.5._ _ I H 2X2XuXxX2X5X6X5X6X6X] l ' 3.I I I 9.3.` H + & O.[ [ [ / T 5 ..| ' |.2.$.>.$.2.{.N N N 2.C u.rX7X$.A A ( $.r.tX9Xc.B.v.B.B.B.B.B.V.V.B.V.v.V.v.V.v.V.b.h.v.h.v.j.v.u.V.V.h.v.j.v.j.V.V.h.h.j.h.u.j.j.V.V.j.j.j.h.j.j.h.j.j.n.r.            * JXjXJXgXH U J.J ~ ).~.%XdXOXG F } ;X;X;X6X;X,X4X~ ).H.o.X.o.Q.jXJX..J Q.~.X.6XJXmXjXnXnXzXmXzXvXGXaXH U SX3XW J z  .).~.X.~.~.4XE...~.~.<X;XX.,XDXJXDXLXgXU Y dX4XU A.G ~ ).;X~.<XQ.jX(.E :X;XX.+.~.~.,X ...~.<X;X~.<X6XbXnXnXKX=XP Z.NXoXP &.m -.Q.Q.<XQ.;XjXL.~ ).~.~.~.Q.5XbXJXAXLXaXP ;.UXlXvXvXjXzXdX .J.J.| _.Q.X.jX4XW P Y Q.X.o.X...~.,X..o.Q.X.o.Q.R.5XDXK.G R.o.O.5XmXLXdXP Y Y Y Y I Y N b b m C b P gXIXDXDXJXDXHXLXvXY.P.gXhXI.J.Y.b b %.%.m I.UX X-.a n %.P &.fXIXIXKXPXhXA.W.SX>XD.Y.Z.n $.*.n L 8XgXI.m a n %.n [.KX&XA.i n C C L aXPXKXGXLXsXS.'.NXfXI.Y.&.v v n n n 8XNX[.;.8 m *.L &.fXPXAXKXPXwX;.'.NXFXFXDXDXSXZX",
"h.h.h.h.h.v.h.v.h.h.v.v.v.h.v.l.v.v.M.M.N.N.M.c.B.v.c.B.B.c.c.B.B.c.B.B.tXc.7X7X$.S A S v y.7X$.Z %.>.0.7X8X$.v N s f H f 9 z H ` _ ' q.4.` ` c > 4 O.6X/ ^ @.| Y D.9.3.` _ V =XxX2XxX5XxX5X6X6XmXO.p I 3.I C 2.6.6.2.N @ > ..[ [ [ [ [ 5 O...H |.2.>.>.A 2.{.b v M 2.S }.7XtX>.$.A A $.i.9X9X9XtXB.B.B.B.B.v.B.v.v.v.v.v.v.v.v.V.V.v.h.v.h.h.v.V.v.V.h.h.v.j.v.j.h.h.h.V.j.V.V.j.V.u.j.j.j.h.j.h.j.j.j.n.r.            : JXzXDXdXH Y J.G ! H.Q.).dXOXP F ~ R.Q.X.X.X.;X>X~ Q.~ E ~ ~ o.dXJX .c X.o.X.5XJXmXvXnXnXnXnXmXmXGX3XF ` gX*X' J z E T.X.O.o.~.jXR.W ~.o...o.X.,XDXFXnXLXgXJ K xX5XY A.m j ~ Q.o.~ ;XzX/.x Q.X.O.o.Q.).4X ...Q.o.Q.Q.).4XmXbXbXHX&XD A.lX.XG P i x Q.~ ~ X.,XdX ...~.X.o.R._.4XJXDXbXLXeXP A.SXvXkXmXzXnXdXL.J.G. .Q.~.~.zX4XY L ! Q.Q.<XX.X.,X,X .Q.~.X.Q.;X;XzXHXI.! (.;X~.jXbXPXfXL I Y Y Y P Y C b b b b b I aXHXJXDXJXDXHXPXgXY.D.MXhXU.J.J.h a L P m I.DX-X&.8 d P m G wXIXIXIXIXhXA.Y.ZX=X| S.&.a n $.%.P >XsXI.b a L %.m '.NX&XA.i b %.L P =XPXKXGXIXsXF.'.NXaXU.Y.D.a n %.%.$.8XSX[.;.a %.&.P 3.hXPXAXUXIXfX;.[.lXDXDXcXDXFXUX",
"h.V.h.v.v.h.h.h.v.h.h.v.v.h.v.h.v.M.v.v.v.M.v.M.v.c.B.c.c.B.c.B.9Xc.B.B.B.B.9XtX=.t C S t t.|.A S :.%.1.7XpX$.M l f f z p < l K ' ' ' _ ' 5.` x 2 4 ^ +.T T O...Y ` 5.3.3.` H -X5XxXxXxX5X6X6X6X6X..p _ 2.I V I 5.5.` ' + ; R T [ / T 5 5 O...K |.2.A 2.$.2.U.k d M %.A u.0X7X1.A I A $.i.7Xc.c.B.v.B.B.V.V.B.v.B.v.B.V.v.v.V.v.v.V.h.v.h.h.v.h.h.j.v.j.h.h.j.h.j.h.b.j.j.V.j.V.V.j.j.j.j.j.u.V.j.j.j.j.n.r.        .   * JXjXGXgXG U Y.! ~ H.~ K.dX*XW G W  . . .! E W.,X~ R.E E } !  .4XJXL.E X.....,XJXmXnXnXnXnXmXnXAXLX3XH W vX*XJ J c J ..X.o...L.jXL.|  . . .~ X.@XFXIXDXLXgXG D dX4XG -.m x R.o.~ ~ Q.zX).x R. ...o..._.3X .~ R.o.Q.Q.~.4XJXbXDXLX=XD D.ZXoXP W j x ~ ~ E ~ ;XjXX.E  .E E E R.5XJXbXZXIX>XP -.ZXcXnXmXnXnXsXD.S.J.}  .o.X.zX4XG I &.~ E ....X.3X>X .Q.o.O.o.X.Q.zXJXK.J L.Q.X.5XAXIXeXV U Y 3.I U I b s b s s a L aXDXDXbXJXFXFXLXSXI.D.gXgXY.Y.D.d u h d : ! ZX+XP i p h i j >XIXKXKXPXsXA. XSX=XY S.&.8 8 8 8 i ).sXH.i 8 i m 8 -.SX&XQ : f d i p $XPXHXFXIXgXS.Y.NXeXJ.Y.&.u a n a a [.NX;.P 8 m G m D 3XPXIXUXIXaX-.W.kXvXDXFXZXNXNX",
"h.b.h.h.h.h.v.v.b.v.v.h.v.v.v.v.v.v.M.M.M.M.v.B.B.v.B.B.B.B.B.B.c.9X9XB.B.B.tX7X$.S A S M 0.7X:.$.%.2.$.7XyX2.k l p 3 l p < z H ..' _ 4.e.` ] K 3 5 5 / T T O.E K 5.T._ 5.2.V 2XpXxX5X5XxX6X6X6XmX..p H ` %.I I 5.3._ ' @ @ O.[ T [ T T 5 O.O.' !.2.$.>.2.5.9.N M b 2.$.}.7XtX1.S A ( :.r.tX9Xc.B.B.v.V.B.B.V.B.v.v.V.v.v.V.v.v.v.v.v.v.V.v.h.v.v.h.h.v.h.h.v.h.h.h.h.h.j.j.V.u.V.j.j.j.j.j.j.V.h.j.j.j.h.r.            * JXjXGXxXY U [.H.! z x K.sX&XZ.U D a d m P ! ).>XE x D P 3.;.! kXLXL.E x j j ;XJXmXzXnXnXFXbXcXDXLX3Xz ` vX1XY | E K K K J x | xX_.K g F Q Q Q .XSXIXDXLXsXG K dX3XF -.P P ! G ~ ! ! sX@XJ } W } | ! E.3X .E ~ ! -.;.H.3XJXbXZXHX*XD Z.SX+XY -.m ! -.;.Q W R.sXH. .Q.Y.Y.(.(.aXJXDXZXLX>XP -.ZXlXcXmXzXmXdXS.Y.J.W ....O.jXsXL %.&.} W ~ ~ W ).*XH.H.........o.dXJX.X-. . .X.5XJXIXeXL &.&.&.U &.&.N d b b b s P 3XJXmXnXJXJXJXIXxXJ.D.gXhXP.T.&.m ! H.K.H.).ZXW.E ! -.H.R.[.zXLXIXKXIXwXQ ^.SX=XZ.D.Y m m ! ~  .>X4X-.m m G E x [.KX+XE G K x K W 4XHXFXHXIXsXP.Y.xX=XD.Y.Q p g x x j ,XZX[.P i m m x E 3XPXUXUXIXwX&.W.lXZXZXFXZXNXNX",
"b.h.V.h.h.h.v.h.h.h.v.v.h.v.v.h.V.v.V.v.B.v.v.B.M.B.B.B.c.B.B.B.tXc.B.B.B.B.tXtX) t A S e 0.8X>.$.>.%.>.}.yX*.s [ w 3 c l < g ] ..' _ _ i.' ' ..3 > 5 5 5 T 5 E K ` T._ 3.2.H 2XxXxXxX5X6X5X6X6X6X!.[ ) ' _ A I 5.5.3.H @ > [ T [ / T T T [ O.] !.2.A >.2.2.D.N b M I $.u.tX7X8.C A A $.r.7X9Xc.B.B.v.B.V.B.V.B.v.V.v.v.V.B.v.v.v.h.V.v.h.v.V.h.h.h.h.v.j.v.j.j.v.j.j.h.h.h.j.h.j.V.u.j.j.j.j.V.j.V.u.V.V.:.o .         * LXvXFXvXZ.D.oXK.G i G &XvX-X| &.D v %.*.;.-.+XwXE 8 m &.*.;.I.NXIXE.W p g ! >XIXFXnXzXlXnXDXFXDXHX1Xz Y vX3XZ.G.F.g 8 m P D Z.gX+XJ u D U.U.'.aXIXKXZXHXdXP G dXaXG Q Z.d i U &.&.G.lXOXz d s D D D W.dXK.x p D L D U 3XLXmXcXLX&XF Z.SX+X-.D.Y N N I C m K.gXE.G G Y &.U F.3XHXDXAXLXwX! -.lXlXlXzXnXFXdXI.Y.Y.Y c j c 4XfX-.;.P D L Y Y Y .X>X..z D D ` U | kXKX[.-.| Y K 3XJXPXaXP P &.U -.-.&.L D D L L D Z.dXHXFXbXFXDXDXIXxXT.D.VXgXJ.S.! ;.@XQ.Q.Q.Q.jXH.! ).).Q.~.Q.5XJXIXKXHX3XY  XUXaXS.Q G ! H.X.o.o.6X:XY | K.H.Q.H.).lXW.E ;.Q.Q.Q.Q.sXFXIXKXIXfX3.!.vX*XI.P.! ! Q.).~.Q.zXnX} ! @X@X[.Q.,XzXFXFXKXIX8X-.Y.lXZXNXZXNXZXSX",
"h.h.b.h.b.V.b.h.v.b.h.v.h.v.h.v.v.v.v.v.V.v.v.M.M.B.v.B.B.B.B.B.B.B.c.B.B.B.v.tX<.t A b 0 0.7X,.>.0.>.%.u.uX6.s w 3 < l p < l c ....' _ ' e...' 3 > , , , , 5 ..K ` U._ _ 3.H -XxXxXxX6XxX6X5X5X6X!.k ] ` I I N 5.3.2.Y < ; [ [ [ [ [ T [ { O.] !.2.Z >.6.5.2.M N s 2.$.].rX7X8.$.A A $.1.9XB.B.7XB.B.v.B.B.B.v.v.B.v.B.v.V.v.v.v.v.h.v.h.h.v.h.v.h.h.h.v.h.v.h.j.v.v.j.b.j.j.h.j.j.V.V.V.j.j.j.V.u.j.j.V.i.. .     .   > JXvXHXSXT.T./.H.J g -.1XgXoXY 3.C $.*.qXqX[.fXwXG i -.}.qXfXfXAXGXW.} i D [.sXFXZXZXZXnXcXZXFXDXHX3XD Y xXaX| A.H.d i ].'.;.[.SXXXU d 0.8X8X7XMXPXKXDXLXgXP G dXdXU Z.I.d a -X8X}.#XZX#Xm a L ].*.6.=XhXY.z i I `.6.U.hXIXAXAXLX&XD D.ZX$XU Y.3.9 n 6.*.%.oXgXR.h a I 3.L 3.hXKXAXZXLXwX-.;.NXZXzXnXZXFXkXY.Y. XP a b &.SXgX&.;.m f 6.P.}.&XjX4XE u N C %.3.I.lXKX.XJ d l H aXLXPXaXP ;.-.-.&.-.-.D D D D D m U gXHXHXJXDXbXAXLXgXS.D.NXgXU.S.-.[.,X<X;X;X).vXH.H.>X%X).;X;X4XJXKXHXLX1XY oXSX=X-.Y G K.;X~.<XQ.,X:X! W.~.Q.;X;XQ.zXW.;.@X<X;X;X@X,XFXFXHXIXhXZ.Y.lX>XY.A.~ ;.Q.~.;X~.,XzX~ E ).).;XQ.Q.4XHXIXKXKXwX&.W.NXNXlXlXlXSXSX",
"h.h.h.V.V.b.V.v.h.h.v.n.v.v.v.v.v.v.v.V.V.v.v.v.M.M.c.v.B.M.c.B.B.c.B.B.B.tXB.tX1.S $.N 0 >.8X%.$.0.%.%.'.pXA u 3 3 < l l < 5 R ....' ' _ 5.' ..3 , , , , , 5 R K ` 5._ _ ` V oXxXxX6X5X6X6X5X2X5X_.l H _ Y V V 3.5.3.Y & @ 5 T / [ [ [ T O.O.[ !._ Z ( 7.9.N s N s I ( t.7X0Xt.S A A $.1.7XB.c.B.v.B.B.V.B.B.B.B.B.v.V.v.v.v.v.v.V.v.v.V.V.v.h.h.v.h.b.h.h.V.b.v.v.j.j.u.V.h.h.j.V.j.j.j.u.V.j.j.j.V.j.V.r.            * JXzXLXAXT.F.XXW.Y d D oXgXoXI &.n $.=.t.].8XhX4XG i %.qXqX8XwXVXAX^.D.i P [.sXHXbXnXnXnXnXvXmXbXHX3XK ` gXaXD.G.;.d h ].t.].8XZX/.J f A }.].{.eXIXKXbXLXgXY G dXgX-.Z.P.N s 9.}.].oXlX+XD a *.qX}.}.8XgXY.F d 6.}.}.-XVXIXDXGXLX+XG S.SX8X-. .| a $.7X}.`.=XlXW.F s %.t.*.6.fXIXGXDXIX+Xm ;.FXFXNXnXnXGXgXJ.Y. XU b P ;.NXNX&.-.b V }.qXeXNXNX3XP f %.0.*.%.I.kXKXXXU d D ` aXPXIXwXP -.-.-.Z.-.-.b b b b b s P hXIXHXbXbXvXDXLXgX` &.gXgXI.A.P ;.Q.~ o.o.:XbXR.H.3X~.~.~.;X4XJXJXKXHX3X`  XvX-X&.Y G L.).~.~.@XzX,XR.).Q.).<X~.).lXK.Q.>X).;X).,X4XFXJXGXKXsX| I.lXwXI.-.G H.,X).,XQ.,XnX~ Q.4X,X,X,X;XjXJXbXSXIXwXP I.lXZXSXNXlXNXNX",
"b.h.h.b.h.v.h.h.h.v.h.v.h.v.v.h.v.v.v.v.v.v.v.M.c.B.B.B.c.B.v.B.v.B.B.B.B.B.B.tX1.B $.v q t |.0.A 2.I I `.eXU < < 5 > k c < 3 c ..] ' ( _ ' | [ 3 ; , ; 5 5 ; [ J ' T.3._ ` H ^.xX5XxX5X2X6X2X6X5X_.3 H 3._ H _ 5.5.` ' > ; 5 T [ / / [ T [ ^ ..T.3.A 2.4.2.I N s M %.$.8.7XrX8.A C A %.r.tXtXc.B.B.v.v.v.B.V.V.v.V.v.v.V.V.v.V.v.V.h.V.v.h.h.v.h.h.h.V.h.h.h.h.j.h.h.v.V.j.v.j.j.V.V.V.j.V.V.j.j.j.j.j.V.r.            * bXjXGXSXD.T.XXK.J d &.=XgX XI &.$.$.;.t.}.8XgXsX! i %.].qXfXfXUXAX(.F.f &.[.aXLXbXzXzXvXDXFXDXZXLXhXJ Y vXsXD.I.;.d m t.t.*.-XlX).Q s $.t.t.t.eXIXKXvXLXgXU P sXgXZ.3.D.b s 6.r.0. XgX+XL s C t.9.6.-XhXJ.D d 0.t.t.}.gXLXmXDXHX+XG S.SX=XU  .Z.0 C t.t.6.=XkXW.D s %.=.I 9.hXUXGXKXLX+XP I.KXFXZXZXFXGXdXD.S.Y.P f D Y gXfX&.P.N v `.].}.}.fXaXU 0 %.*.%.$.D.lXFXXX&.d D Y aXLXIXaXY -.-.-.-.-.-.L b N b N b &.gXIXFXbXDXAXGXLXgXZ.Z.MXaXA.-.Y -.-.~  .E Q.vX . .).L.R.(.W.,XJXHXKXIX3XU ^.SX+X-.Y F } R.R.R.Q.zX,X .Q.H.Q.;.H./.nXK.-.).).Q.Q.,X,XFXJXGXGXsX| K.NX>XH.Q z ! Q.H.Q.).,XzX~ Q.,XQ.@X@X~.4XJXbXFXIXwXQ I.kXcXkXnXZXNXNX",
"b.h.b.h.h.j.v.v.h.v.h.h.l.l.v.n.V.v.v.V.v.v.B.M.M.N.B.N.B.v.B.B.B.c.B.B.B.B.tX7X#.S A v s M {.8.A 2.%.I  X-X=X3 3 3 > 5 c < 5 c O.' ' ' _ e...O.5 ; , 5 5 ; @ c K ' 5.` ` 5.l T.xX5X5X5X6X2X6X2X5X_.0 l ` I V I ` ` ` | 3 ; T T / [ T T , [ O.O.L.4.) >.2.2.I M N N $.2.7X7X7X{.S N S 2.<.c.tXB.tXv.v.B.B.v.B.B.B.v.B.v.B.v.v.V.V.v.v.h.h.v.V.h.v.h.h.h.h.v.h.h.v.j.h.h.V.h.j.h.j.j.V.u.V.j.j.V.j.h.h.j.V.r.            > bXkXGXVXD.T.OXA.D d D.=XxX XI P n $.].qX7XaXgXsXJ i I.8XqXgXwXSXAXE.Z.f Z.-XgXPXDXmXvXbXDXFXDXGXJXsXY ` xXaXY Z.A.d z '.}.'.#XNX.XP a 6.8X}.}.eXIXUXmXLXNX&.D aXxXD.Z.-.f d |.qX}.oXVX+Xm a &.}.`.'.8XdXI.m m '.}.}.oXlXHXbXJXLX$XG I.UX#XY H.U v %.}.].U.*XkXW.D D ].qX}.-XVXIXUXJXIX*XY I.FXZXmXmXDXGXdXJ.Y.Y.Y d A.Y.ZXfXY -.C M 6.t.qX8XgXfXU v 6.t.].8XeXvXAX[.&.N Y Z.hXIXIXeXY A.Z.Z.Z.Z.Z.C b C b C b &.gXIXFXJXJXFXDXPXgXD.S.gXaX-.A.I.H.-.I.Y.-.;.zXX. .X.| J.K.G.4XHXKXKXLX*X` .XSX-X-.Z.Z.A.G.;.;.-.4X>X .I.I.W.I.-.R.zXR.-.).Q.Q.W.E.,XDXJXbXJXdX' Y.NX*X-.-.! -.;.;.Q.~ ,XzX~ ~ ;X;.;.;.R.4XJXJXFXIX>XP G.gXcXkXcXDXZXNX",
"V.h.V.v.v.v.V.b.l.v.v.v.l.n.v.M.V.v.v.v.v.B.M.M.B.M.N.B.M.B.B.c.v.v.B.tXB.B.B.b.1.S S N M M 7.0.A %._ H  X3.2 2 > & > [ g @ 3 c X.] ' ' _ ....c T , ; ; O O @ ] H H T.5.` ` z l ' _.5X1X2X6X2X@.R.l 2 l I 2.I ( 5.T.' R 5 5 [ / { / [ 5 T / ^ O._.4.A ( 5.5.A s N N I 2.7X7XrX1.v A A $.:.7XB.B.tXv.v.B.v.B.V.B.V.B.V.v.v.v.v.v.v.v.V.v.V.h.v.v.v.h.v.h.v.h.v.j.V.h.h.V.V.j.j.h.V.j.j.V.i.j.V.j.h.j.h.h.V.r.            * JXvXIXVXD.| /. .z f G  XgXoX` P a v &.3.Y Q .X>XF u P I.;.-.H.lXKXY.Y i z  .hXLXUXUXSXUXZXbXJXAXIXsX' U gX1XF U U 2 p S.P.Q Y.kXW.H i L U.U.3.1XGXGXAXLXlX3.D sXxXZ.D.&.f s Y. X`.^.gXXXm a %.'.U.I.>XsXG.m m I.[.'.[.gXHXJXJXLX#XD Z.AX#XY A.Y s &.}.|. X1XxXY.D P '.-XoX&XxXGXAXAXLX*XP G.SXDXmXbXbXGXsXS.Y.Y.D D W.+XKXgX&.Z.n %.qX}.8XfXMXeXL b ].}.8XBXxXvXAX[.P D I.Y.vXPXPX8XU D.D.Z.Z.Z.A.b n b n n v &.lXFXZXDXJXHXHXLXhXS.G.SXhXG.Y.I.G d %.&.L W.ZX(.W h d &.&.-.aXIXKXHXIX*X| oXSX&XA.I.D.b D *.&.~ ,X,XH.G m &.*.Y I.nXR.-.~ &.;.;.Q wXPXJXJXJXhX| Y.SX>XI.P.;.*.;.;.;.E /.ZX;.H.;.;.Q.;.G.4XHXDXFXIX8XP J.kXmXzXlXcXSXSX",
"h.v.v.h.h.v.V.v.l.l.v.n.v.h.v.v.v.V.M.v.V.v.v.v.M.B.B.N.B.M.M.B.v.B.B.B.B.B.B.tXu.S S M v s q S 2.I _ L D.c % ; 5 5 3 5 g @ 5 c ] ] ' ( _ ' O.^ O.T 5 5 , , , ] K H J.T.` ` H f < l l [ ] [ [ w < < s D ` _ I I 5.T.H c O.O.{ O.[ [ T T 5 [ [ T ..` A 2.4.9.A s B N $.0.|.rX|.0 M C B $.1.c.tXM.v.B.v.B.B.B.v.v.v.B.v.v.v.v.V.v.v.V.v.v.v.V.V.v.h.h.v.h.V.V.h.V.j.v.h.j.j.V.V.v.j.V.j.V.V.V.V.j.h.h.h.f.V.r.            * JXvXIXAX5.Z./.| E  . .#XxXOX| J d z  . .!  .:XsXF x ! ~ ~ ~ o.kXLXG.F W E  .4XJXUXSXSXGXbXbXJXAXLXaXY U SXaXY | Y i d Y G F R.vX^.x h F J z H XXGXJXmXLXSXY F dXxXY D.Z.p i G G D | dX&Xm i m Q G W .XsXH.h p P Q W H.sXJXJXbXLX-Xl Z.AX%XY -.P a m &.Y K XXdXK.h p P Z.Q F.dXLXmXmXLX*XY G.AXDXmXbXbXGXsXD.^.^.F i W ;.ZXhX-.&.d N P.U.U.T.$X1XH u ;.Y.S.T.L.xXDXoXP d | J.gXPXIXaXY S.T.S.P.;.F.m a b a b 8 P lXHXnXbXDXHXKXPXgXS.Z.NXgXF.Y.Y.h 8 *.*.m I.NXW.Q d d &.%.&.fXIXKXKXKX=X-.oXSX=XI.Y.&.a n $.m -.wXwX! d a *.*.m I.ZX/.-.8 a *.&.P wXPXGXUXJX3X| Y.vXaXI.P.;.n n m P m @XFXI.-.j m &.m &.aXLXAXFXIXwX-.Y.xXZXcXZXZXZXNX",
"v.h.h.v.v.h.v.h.n.v.v.v.v.v.l.z.v.v.M.B.M.B.V.B.M.v.B.M.M.M.B.M.B.B.B.B.B.B.B.7Xb.$.Z Z r M r N A A H H l 3 > @ l ..5 l 5 @ > 3 [ O.' ' _ ' O.R [ { / { / T T [ ] ] L.T.` ' ` Y ] l l < < 3 < k l l H H V H _ I 5.T.] ..O.{ ^ / [ / 5 T T T { O...Y _ 2.4.`._ M N M I 2.|.eX}.q _ B Z <.1.B.B.M.B.v.B.B.B.V.B.V.v.B.B.V.B.B.V.v.v.v.V.V.v.v.h.v.V.v.h.V.h.V.h.V.j.V.V.h.V.h.h.j.V.j.V.j.V.V.j.V.h.h.h.h.V.r.  .         2 JXvXGXSXT.D./.~ ..~.~.%XdX#X| F x  .R.X. . .).:XE  .H.-.o.Q.o.4XHXF.G (.~.R.4XJXvXvXmXbXmXDXbXDXLXaXP ` SXaXU A.G F W ! X. .(.jX..h E X.X.R.X.5XJXJXxXLXcXU F dXdXY D.P d G X.H.~ /.jX.XD !  . .~ ~ :XdX} x ~ ! ! ~ Q.zXJXmXAXLX#XH T.UX%XJ ;.m p ! ~ K ..$X4X .F Y Q ! Y  .dXLXAXAXLX*XH S.ZXAXmXbXDXGXhXT.Y.Y.G J x ~ nXsXY &.l f Y | Y Y 3X3Xx h ! ` | K L.vXDXoXY F ` ..dXIXIX=XH D.3.| Z.-.-.m b m b m a -.kXDXcXnXFXFXHXIXgXZ.Z.SXsXQ G.W.b a *.$.n '.ZXoX;.v n %.C L fXIXGXKXIX&XU .XNX&XD.U.&.9 n $.$.m wXsX;.b e $.$.a ;.cXW.;.8 n *.L L fXIXIXGXGXhX` !.VX>XD.U.;.a a *.L b [.ZXW.;.8 *.*.n &.aXLXGXKXIX8X-.U.lXFXZXZXZXKXSX",
"v.v.b.V.v.v.v.v.v.v.v.v.M.v.v.z.m.v.v.m.M.N.M.M.B.v.N.M.B.v.B.M.B.B.9X9XB.B.B.tXl.$.$.M M v M S A _ H N ) > 5 [ 3 [ [ 5 5 c O.T O.] ] _ _ ' ..c T T / / / T [ O.c ] !.T.` ' Y ' ' ' ' ` H H H H H _ H H H _ _ A 3.5.' ..O.[ [ [ [ 5 T 5 5 / O.@.O.c 2.( 5.5.2.B V k V N k !._ < A V A 1.t.tXV.c.B.v.v.B.B.v.B.V.V.v.B.v.V.V.B.V.V.V.V.V.h.h.v.h.v.h.v.h.j.V.j.V.V.j.V.j.j.j.V.V.j.j.V.j.j.V.j.j.j.j.V.j.V.r.        .   * LXvXHXSXD.D.XX| | Q.Q.).dX.XJ x E ~.~.~.;XX.%X5X .~.).~.<X~.X.jXJX .J ~.~.Q.jXJXJXmXmXnXzXbXbXDXHXaXG U lX>X-.S.G ! .XQ.Q.Q.Q.4X..c ~.X.o.X.o.;XDXGXmXPXxXJ F dXsXJ U D F  .Q.o.o.H.,X).z R.Q.o.o.o.).4X! ~ o.o.o. .o.5XmXmXJXLX=XI T.UX.XQ -.m E ;.o. .X.).5X..G H.H.H.H.H.sXJXmXJXPX=XG T.AXZXnXbXZXHXaXD.Y.S.! R. .R.cX3XP I D J .. .| ..5X;XK ~ -...X..._.ZXFXW.-.K._.%XxXJXLX*XI D.D.D.| T.Z.m m m m m m ;.zXNXNXZXDXHXHXLXhX-.Z.NXhXQ I..Xh a =.%.L I.SX-X` b b %.m 3.sXIXGXKXIX=X&..XNX-X-.Y.&.a n *.n C fXaXZ.D e $.n n '.FX[.A.u n %.n %.fXIXKXGXLXhXS.Y.SX8X3.P.6.v a $.n a ;.NX[.;.a $.$.n %.fXPXAXUXKXwX&.Y.NXFXZXDXHXFXFX",
"h.v.v.v.v.v.v.v.v.v.M.v.M.M.v.v.N.c.N.z.c.N.c.N.v.B.N.c.N.B.B.B.c.B.c.B.B.B.B.B.c.:.t r 0 M M M A 5.` V [ 3 l ] 3 > 5 5 5 c O.@.O.O.] ' _ !.' ] T [ [ 5 T O.[ O.] ] L.e.` | ` T.` ] ` ' ' ` K ' ' ` ` 5.5.5.I I 5.5.' ] O.O.@.@.5 5 T 5 , T T [ O.' 2.5.3._ V 9 H N l f < l k 9 l B B $.r.tXv.B.v.v.B.B.V.v.v.v.v.V.V.v.v.u.V.V.b.h.v.v.h.v.h.h.h.h.h.j.V.j.V.V.j.V.j.V.V.j.j.j.j.V.V.j.j.V.j.V.h.j.j.j.V.r.            2 JXvXJXSXZ.` E.E E K.R.%XdX.XJ h ~ L.X.o.o.X.;X,X .Q.X.o.X.~.Q.jXJXR.E R.o.~.jXJXbXnXzXzXnXmXnXDXHX3XF U NXwXJ ! h ! XXo.o.Q.R.jXL.E ).<XX.<X<X,XJXGXvXPXvXY F 4X4XY -.P G ~.;X;XQ.Q.5X).~ ).Q.o.X.Q.;X,X .o.;XQ.Q.<X~.6XmXbXJXLX=XI P.FX.XQ -.m Q.;X<X~.~.;X5X..X.,X;X;X;X).jXLXDXDXLX=XH Y.AXnXnXnXZXGXaXD.Y.|  .).Q.Q.zX:XL I | ~.).<XQ.X.,X;X..;X;X~.;X_._.kXZXW.H._.~.@.jXJXLX=XK F.D.D.D.D.F.m i m i m m P zXFXNXnXDXFXIXPXsXY | NXsXQ G.E.h a *.I N Y.AX#XQ h m &.P ` 3XJXJXIXKX+XQ +XNX&XA.U.&.a n *.%.P aXaXS.m n *.*.m [.ZX:X-.u C *.&.P wXIXIXKXLXhXD.Y.NXwXS.I.;.v n *.*.m @XFXI.&.8 *.*.$.2.hXPXFXUXIXfX&.Y.gXnXnXnXZXSXSX",
"v.v.v.v.v.b.v.v.v.c.c.M.c.c.c.v.c.N.c.9XN.9XN.c.B.9XN.N.B.c.B.9XB.B.9Xc.B.B.B.B.7X:.e Z q e N M A _ V V l < 3 c [ ] O.5X<X@.@.5 5 O.' V 5.{.5.3 c [ 5 [ O.O.O...c l !.| ' ` ` ` ' T.' ` 5.' | ` ` ` _ 5.I _ I A 5.5.' ' X._.O.O.[ 5 [ 5 5 c 5 5 ..I 3.2.2._ l k l l f f k f ] l V B B $.r.tXc.B.v.V.B.v.B.v.v.v.v.V.v.v.v.v.V.B.h.v.h.v.h.h.v.v.h.j.j.V.j.V.j.j.V.u.h.j.j.V.V.j.j.V.j.j.j.j.V.j.j.V.j.j.V.r.            * LXvXLXSX` U ^.E E ~ } (.dX#XP z E  .........).;X| Q.X...o.X.X.6XJX..E ~. .Q.4XJXmXvXvXnXnXnXvXbXHX3XD Y ZXwXJ W h G H.~ ~ Q.L.dXL.c R.X.o.o.Q.,XHXGXAXIXgXY x 4XdXU Z.D p E o.o.o.X.5XR.K X.o.o.o.R.>XsX ...o.o.o.X.<X5XbXnXJXPX1XY S.KX[.P ! j ~ ;.Q. .Q.,X5X~  ._.R.~.).).zXLXvXUXPX=XP J.ZXlXlXnXcXFXaXZ.Y.U W R.Q.;XnX3XD L | ).;X~.o.X.5X5X..;X).~.;X).Q.kXZXW.K.).X.X.6XbXFX&XP J.G.J.G.T.G.b a a i m 8 -.NXFXNXDXDXFXKXPXaXU &.SXgX-.I.;.d 8 a d 2 X.zX(.c i i i p x 3XJXKXIXKX-XU oXNXoX-.I.P 8 8 d f m >XdXS.f 8 d h u U NX@XW u a d m m :XIXHXFXLXaXZ.'.NXwXS.J.&.a n L P m [.FX[.P a L ;.E Y 3XPXFXIXIXfX&.Y.vXvXnXcXvXFXSX",
"v.b.v.v.c.v.v.v.c.c.c.c.c.c.c.c.z.9XN.c.9XN.9XN.9Xc.9XN.9X9XB.9Xc.tX9X9XB.tXB.tXc.1.$.Z q q 0 M ( _ B l l l l 3 ] O.O._.R [ O.] c l ] _ 5.5.T.K c [ O.@.X.O.c c ] V !.T.` ` ` ' ` ' ` T.T.T.' 5.3._ ` I H _ A V 3.5.' ' ' ] 3 ..@.O.[ [ c c k k ( %.5.2.5.2.( V V k ] l k ' k l k M Z $.q.9XB.B.v.B.v.B.v.V.V.v.v.v.v.v.v.V.v.v.v.v.V.h.v.h.h.h.h.v.V.j.V.j.V.j.V.V.j.V.V.j.j.j.j.j.V.j.V.j.j.j.j.j.j.V.V.r.        .   : JXvXHXAXS.D.OX| | ! E H.sX+XJ m G G G Y E E Q.5X ...K W |  . .4XLXL...H. . .4XJXbXmXmXnXbXDXnXHXHXaXG Y FXaX! -.G ! F. . .~ H.dXT.] R. . . .! @XIXAXAXLXcXJ H sXxXQ Z.D g J | H.X.R.>XR.c  . . . .~ :X4X .~  ... . .X.5XJXbXJXPXaXI S.FX[.P -.m E -.~ ! X.%X:XW E K...R.R.Q.jXLXAXAXPX=XG I.NXlXzXnXcXDX3XA.Y.! | R ~ Q.zX5XG I W o.o.o.o...,X). .Q. .o.X.~.~.vXZXI.H.X.O.X.mXDXKX&XY J.S.S.T.T.F.m m m m n 8 ;.NXFXZXZXDXDXGXPXaXP D.NXNXA.Y.! j -.W. ...%XzXQ.E  .H.H.X.Q.dXJXKXIXGX+XY oXlXoX-.S.Y m D z x G sX4XW m h m G h F.GX+XJ z z z j z ,XFXFXFXIXaX-.Y.SX=XZ.G.&.i i i 3 > W.ZXI.P i a 8 i j >XLXUXUXKX8X&.U.gXvXlXlXcXZXSX",
"c.c.c.c.c.7Xc.7Xc.9XB.c.c.c.c.B.9Xz.9X9X9X9X9XB.9X9X9X9X9X9X9X9X9X9X9X9X9XB.9X9X9X=.$.Z e A $.A ( ( V k k k f l ] ..] 5 ] ..5 [ ' l _ _ 5.5.T.3.' c c ....c c l l H | e.` ` ' H ` ` T.5.` 5.' 5.5.3.3.I V _ A k 2.5._ _ ` V f c [ ] [ c E l k V ( 2.2.2.5.2._ V V l l l 9 l k 0 k k B $.8.9XB.B.v.v.B.v.v.v.V.v.v.V.v.V.v.u.V.V.V.v.v.v.h.h.V.V.h.v.j.h.h.h.h.V.j.j.j.j.j.V.V.V.V.j.j.j.j.j.j.j.j.j.j.j.V.r.            * LXvXJXAXD.F.oXH.G p z I.sX[.P E d a -.;.;.[.aX5X| p D Z.'.-X@XxXJX^.| z h E >XLXGXGXDXnXDXDXbXFXLX3XF U UXhXA.F.Q G F U -.Y | xXL.' K D Y A.Q =XIXKXAXLXgXU K dXxX` &.&.G G Y U L ! 4X_.F F H | Y P +XaXH.! ~ ! ! W H.4XHXDXGXLXeXP F.FX[.! ;.P P Q -.! Q /.*X| |  .|  .....4XLXbXSXIX=XI J.ZXZXZXFXnXGXaX-.Y.T. .R.....4X3XP Y W ~ | Q ! ! ,X:X~ W.Q -.G.A.R.jXFXW.I.L.| ..dXLXIX8XW K.H.F.F.H.I.m n m n n a ;.NXNXNXbXDXDXHXPXaXP D.NXgXG.H.! -.Q.Q.Q.o.;X4XX.~ Q.Q.X.Q.~.4XLXLXLXGX#XU XXVX X-.-.J ! F.R.X.X.zX3XK Q R.Q.Q.R.1XmXR.! ! R.Q.~.;XjXJXHXGXKXfX&.P.gX*XS.S.Y F ~ H.X.H.>XFXH.P -.-.-.H.R.jXLXbXFXIXfX&.I.gXlXZXlXlXZXSX",
"7X9Xc.9XB.B.B.c.7X9X7XB.7XtXtX7X9X9X7X9X9X9X9X7X9X9X9X7X9X9X9X0X0X9X9X9XtX9X0X0X7X1.t $.0 $.9.$.Z ( M k l k l l k ] ] [ l ] l l k B _ _ 5.` P.5.` l l H z c l l l k 5.' l _ V H H l ' H ` ` ` I H H V V C I V q 2.U.I V _ 2.( ) k l l l N M B 4.7.2.>.2.2._ _ _ k l H N k 0 0 k w w r ) 0.9Xc.B.B.v.B.v.B.v.v.B.v.V.v.V.v.V.V.V.v.h.h.V.h.V.V.V.h.h.h.j.j.h.h.j.j.j.j.V.j.j.V.i.j.j.V.j.j.V.j.j.f.f.j.j.V.r.  .         * LXnXJXAXD.F.#XI.E i G @XzX[.! &.n *.;.].-XfXNXdX' f 3.}.fXIXZXUXGX!.' h i W aXLXAXmXDXFXnXbXcXDXHXaXK U ZXsXA.G.F.g i `.`.U.-XVXE.c i m '.}.[.gXIXIXDXIXgXU H sXgXS.S.Z.d u D %.C -.sX%XK a a I C L -XsXH.m i m P m -.sXHXHXHXLX=XK S.ZX).! I.U d m Y P P +XaXA.z h Y | | E.gXLXAXSXPX=XG J.ZXZXnXcXDXLXaXS.Y.Y.Y d D F gXaXY Q z d L L &.P >X,XG b N L 3.-.L.vXDX[.;.F z c dXLXIX&XP I.H.G.F.;.;.8 n a 8 n a m zXFXZXDXFXDXHXPXaXY D.SXgX-.A.! W.,X;X;X;X;XsXQ.H.,X;X;X;X_.4XJXIXLXKX$X` OXxX XU Q A.@X;X;X;XQ.4X:XJ H.,X,X;X_.%XJXR.~ ).Q.Q.).~.5XJXHXGXKXfX-.Y.SX8XG.Z.E  .Q.R. . .;XnX~ ~ Q.Q.K.Q.R.5XJXbXFXIXwX%.S.gXcXNXZXZXGXSX",
"B.c.7Xc.tXB.B.tXB.9XtX9XtX9X9X9X9X9X9X9X9X0X7X0X0X0X0X0X9X0X0X0X0X0X0X0XtXtX0XtX0X0.#.S 0 1.uX|.Z A B 0 w k w q k w k l k w k 0 l B ) _ _ 5.` 3.` I H H V l H H V l T.` H ' _ ' ' ' ' ` ' 5.' _ I 2._ _ I A A M 2.5.2.A A V V A ) V l l A A >.2.S A 4.>.4._ V H _ N V V l B ( V ) ) k ( 0.tXc.B.v.B.B.v.B.v.B.v.B.v.V.V.v.v.V.v.h.v.h.h.v.h.V.u.v.j.v.j.h.h.j.h.V.j.V.j.j.j.j.V.j.j.V.j.j.j.j.j.j.j.j.j.f.r..           2 LXvXJXDXD.T.&XW.! i z [.lX[.;.;.n n ;.].}.8XhXaX' d I ].qXMXfXVXGX!.T.h i ;.sXLXAXmXcXnXnXnXDXFXLXaXH | SXaX| Z.G.h p }.qX'.=XmXL.` f &.8X8X7XMXKXHXDXLXgXU P sXxXS.S.P.b 9 I 0.*.P.gX+XY f N 6.6.%.8XgXI.m p %.;.%.D.gXKXDXHXLX-XG P.KXoX-.;.Q a L '.`.Y.aXsXH.h D {.|.-X=XSXIXUXmXLX*XK J.ZXcXcXDXDXKXaXZ.Y.U.D d &.D.NXwXJ } d z 3.%.%.P >X4XG 9 *.%.&.-.E.bXZX.X&.f z H gXPXKX+XP W.;.Q.;.Q.;.a 8 a n a 8 ;.ZXFXFXFXHXDXGXPXaXY Z.FXgXQ H.! ! Q.Q.Q.;X@XzXQ.;.Q.Q.~.).@XdXIXLXIXIX*X` .XgXoXQ J ! 5X%X:X5X~.zX,X~ Q.>X,X).,X5XmXR. .:X;X,X4X,X5XmXJXFXIXhX-.I.NXwXF.| ! E.;X~.,X~.;XnX .Q.,X,X,X,X;X,XJXmXFXIXeXP Z.gXZXcXNXFXIXIX",
"tXtXtXtX7XtXtX7XtX9X7XtXtX9XtXtX0X0X0X0X0X0X0X0X0X0X0X0X0XrX0X0X0XtX0XtXrXtX0X0X0X9XrXt.4.rXrX7X$.( ( M V l ( ' ( ] l l ] ) l _ ) k ) ` 7.5.2.V A _ ` _ ' 5.5.U.5._ 5.e._ _ H ( H ( _ _ _ 5.` 5._ _ _ ( I ( _ A 2.5.2._ 5.5.5.5._ 4.4.4.2.A A $.V $.8.>.4._ ( V V ' _ 4.( ( ( >.) l ) ( r.7X9Xc.B.v.B.B.B.v.V.V.v.V.V.u.v.V.V.v.v.h.v.v.h.v.h.h.j.v.j.v.h.h.h.h.j.j.j.j.j.V.V.j.V.j.j.j.j.j.V.j.j.j.j.j.V.r.        .   * LXjXJXGXF.D.&XI.P i m I.gX@X;.;.n n =.*.`.|.hXaXH a L *.].8X+XxXUX_...h d -.sXLXJXmXmXnXnXDXbXJXLXsXY 3.AXaX3.Z.A.p i 6.t.0.Y.vX~.| d %.qX=.;.fXIXHXJXLXgXZ.I hXgXD.Z.S.N 9 $.=.$.P.hX#XD a v =.=.%.-XsXK.j a *.*.%.6.gXIXDXFXPX+XH I.IX-X! ;.! a L `.U.Y.>XsXR.h b P.`.U.oXVXLXGXGXJX*XK Y.ZXcXnXDXZXKXaX-.Y.J.D N Y.Y.SXwXQ A.m %.t.t.6.6.aXaXD q 6.0.6.%.^.bXZX-XZ.N Y U gXPXFXoXY Q.;.[.;.;.Q.m m m m m i ;.ZXFXZXHXHXDXGXPXhXU Z.SXsX;.-.! -.H.o.o.~ Q.zXQ.~ H. .X.~.W.hXIXIXKXGX*X| +XlX+XA.J P L. .X.R.H.sX>XE H.).~.(._.:XmX(.| ).o.X.~.X.5XJXbXZXKXaX-.I.gX>XG.Q G F.Q.R.~.).>XDX~ H.).Q.Q.[.).6XJXnXZXIXwXY Z.gXcXlXZXKXIXIX",
"7XtXtXtXtX7X9X0X7X9XtX9XtX0X0X0X0X0X0X0X0X0X0XrX0XrX0XrXtX0XrX0XtXrX0XrXtXrXtXrXtXtXrX9XqXyXrX7X$.>.( B _ ( ) ( ) ] ' ] ] ] ] ) V ' _ 5.5.2.5.9.9.3._ ` ' ' ' ' _ V _ 5.( ' e.e.' w.e.w.e.' e.e.e.5.5.5.5.2.( B _ 5._ A ) ' _ 2._ ( ) ) ) i._ _ 3._ ( ( ,.e._ _ _ >.( 8.8.y.b.7Xu.) $.1.r.N.B.B.B.B.B.B.B.V.V.B.V.V.v.v.V.v.v.v.m.m.n.h.M.h.n.v.h.l.h.h.h.h.h.h.v.j.h.h.h.h.n.n.n.n.n.f.f.f.f.f.f.f.f.f.V.r.            2 JXjXJXAXF.T.&XJ.G m Y [.lX&X-.P b C P.'.8XfXMXaXD f %.}.yXMXgXGXAX!.| g m H.3XLXmXmXbXDXcXbXbXAXLXhXH U UXaX3.F.D.p p ].t.P.oXAXW.J d %.].t.`.MXPXGXDXLXxX` Y hXgX` ` D.s v ].t.].[.dX#XD s %.t.t.t.wXsXH.h h *.].*.'.NXIXDXDXLX+XD G.IX-XU R.Q 8 n *.P &.*XdXL.l d %.$.D Y.SXLXmXJXIX&XJ Y.DXbXbXDXbXHX>X| !.Y.G d I.[.NXfX-.;.b %.t.t.].'.aXhXN q $.=.*.&.^.vXcX+X&.d &.3.gXIXUXoXY Y.J.J.I.I.Y.m h m j m i ;.FXFXnXHXHXFXHXPXfXQ S.SXgX;.F.H.G.P.I.;.E H.dXQ.I.Q.;.R.K.Y.aXIXKXIXGX#XZ.*XSX+XS.Z.Z.G.J.;.;. .5X@XE F.G.G.J.F.F.lX).;./.~ H.Q.R.:XJXFXFXFXwX-.W.lX=XD.U G L.E. .R.H.,XnX~ ~ Q.;.;.;.E.4XFXnXZXIXwXP A.sXvXvXcXGXKXIX",
"tXtX7XtXtXtXtX9XtX0XrX0XtXtXtX0X0XrXrXrX0XrXtXtX0XrXrXtXrXrXrXrXtXrXrXtX0XrXrXrXrXrX0XrXrXrXyX7X$.>.2.( 9.w.( ( ' e.e.e.] [ < w k l ( _ 2.2.5.9.{.!.9._ _ B w w A B _ _ ( ' _ i.e.e.e._ _ ( _ _ e._ 4.2.( ( Z M A 2._ V l V k B A B w ' ' _ ' ] V V ( ( _ _ e.w.5.4.y.|.7X7XtXtXu.$.$.:.=.B.B.B.B.v.B.v.B.B.B.V.v.v.v.B.V.v.v.V.M.M.M.M.v.n.h.M.M.n.v.n.l.h.v.h.h.h.h.h.h.f.n.h.n.n.n.f.n.h.n.h.n.f.f.f.V.r.        .   & JXvXJXAX} F.&XI.D d m I.gX>X;.&.b n &.U.'. XeX=Xl u I U.'.=X&XxXAX_.' g x H.4XJXUXAXDXFXnXnXJXJXLXaXG Q FXdX` D.` p h }.7X'.oXZX.XP d %.8X8X}.hXLXJXmXKXdX| Y sXgX| | ` d N }.8X}.=XgXXXD N 6.8X}.[.fXfXI.m m '.}.}.+XNXIXmXDXLX+XF S.KX$XW I.&.a C ;.&.-.*XdXL.h d 3.P.Z.oXSXLXAXGXLX&XJ Y.AXbXbXJXbXHXaXD. X^.H h Y.[.NXsX;.;.b *.].t.8XuXxX1XN a t.'.7XfXhXDXvX+XU N U.Y.VXPXJX#XY '.Y.Y.Y.Y.Y.d u a i i 8 ! FXbXcXFXHXHXHXIXgX-.S.SXfXA.I.G.m a %.&.G W.kX.X! m E A.;.P.fXIXIXIXGX-X| =XxXoXD.I.D.I P ;.-.-.sX%X .} L &.;.P F.ZX.X;.Q ! ;.H.} :XHXHXKXIXfX;.W.NX>XS.-.3.Q Z.D.G.Q [.FXW.;.;.~ ;.;.H.>XHXDXFXKXwXP S.dXDXbXcXFXKXIX",
"tXtX7XtXtX0X0XtXtXtXrXtXtXtXrXrXtXrXrX0X0XrXrXtXrXtXrXrXtXrXtXrXtXrXrXrXrXrXrXrXrXrXrXrX0XrXrX7XZ >.$.( y.eX,.) e.' e.@._.O.] [ 3 ' ' 5.5.9.2.4.9.{.!.w.7.) w ) ) B ( 4.( ( ) ' i._ _ ) ) _ _ ) ( ( _ ( A B Z M ( _ _ V ( l l k w B e.e.' ..2Xe.H c ' ) ' _ 4.4.8.7X7XtXtX9X9X0XB.s.r.c.c.B.B.B.B.B.B.B.B.V.B.V.v.V.v.V.B.v.B.v.N.m.M.m.M.n.M.h.V.v.n.l.l.h.h.h.h.h.h.h.h.h.h.h.f.n.n.n.n.f.n.f.f.f.n.C.V.r.            < JXzXJXAXF.S.&XG.z i i ! gX:XZ.Y d u z x x F /.*XD p x E G x E xXUXY.G i j ~ 5XLXAXmXmXDXbXbXDXJXGXaXK Q FXaXY T.Z.u 3 &.&.U G.vX(.F i z D.&.Y *XLXJXmXJXdXY P hXgX| | Z.p i ;.;.&.Y.gXoXl u I P.P.I.wXsXH.h h ;.I.I.K.gXLXJXHXHXXXF A.GX@X! G.P a m -.Y Y #X3XD.d d -.D.Q J.vXPXvXAXLX#XG Y.AXAXbXJXbXHXsXF.XXY.h D ^.@XFXwX&.&.b *.}.}.8X1XhX=XN s {.8X8XfXsXDXvX.XY D  XoXVXIXGX+XU ^.Y.[.[.[.'.b a a v n 6 ;.ZXnXnXFXFXHXHXPXgXQ S.KXfXZ.W.W.d n *.&.L [.gX[.P d m &.L *.fXPXKXIXIX+XU =XSXoXD.U.&.6 v *.$.V hX1X..m 6 n *.b I.FX+X;.a m &.D Y aXLXKXKXIXsX-.W.ZX>XI.U.3.b s L m b [.AXW.;.R m m *.P aXLXHXKXIXaX-.Y.xXDXcXZXSXIXIX",
"7XtXtXtX9XtXtXtXtXtXtXtXrX7X0X0XrXtX0XrXrXrXtXrXrX0XtXrXrXrXtXrXrXrXrXrXrXrXrXrXrXrX0XiXiXrXrXx.$.Z >.>.>.rX7X) ) ( ' O.2XO.[ [ c ] ' 5.U.2.' ( 2.9.w.{.e._ ] ) l k ( 4.( ( i.,._ ) B B _ _ _ _ ) B ) ( ( ( Z B ( _ _ k l V B k V 5.!.' ' ] O._.] ..X._.' ' 4.q.7XrX0X0XtX9X0XB.tXc.z.9XtX9XB.B.B.B.B.v.B.B.B.B.B.B.B.B.v.v.B.v.m.B.M.m.v.n.v.M.n.h.v.l.h.h.h.h.b.h.h.h.h.h.h.h.n.f.f.h.h.n.h.h.h.f.n.n.V.r.  .         : LXvXJXmXS.D.+X! E o.o.;XkXXXU P h E ~ ~ ~ ~ %X3XJ K } ~ o...R.vXAXJ.F ~ ~ X.4XLXmXmXmXbXbXbXbXGXLXaXF Q SXhXY S.Y p h Q G G E.nXR.j G | ! E ~ 5XJXmXmXJXdXJ Y dXhX&.Q Y p i G E m F >X Xz b D G G -.>XaX-.j x E ! P o.dXLXbXHXLX+XG A.FX@XY G.G 8 j m z x #XaXF.p i h h g | xXLXmXGXLX*XI Y.AXcXbXbXbXHX3XF.oXY.z i K H.lXwX-.&.b D &.3.&.H 3X3Xz u &.Z.-.A.(.nXvX XP d U Z.lXHXGX-XQ  X X XY.[.[.m a b a n a ;.ZXFXFXFXHXFXKXLXgXU P.AXaXZ.Y.K.m a %.%.m [.NX[.P d m *.*.&.MXIXKXIXKX-XU -XNXoXZ.'.P.v $.*.n C hX3XT.m 8 *.*.m I.SX+XG.v n &.%.P 8XPXKXKXIXfX;.[.SXwXI.U.6.v v %.*.n oXSX;.-.8 *.*.%.%.aXPXKXIXPXfXS.Y.dXbXNXNXUXKXKX",
"tX9X9XtX9X9X9X9X9XtX9XtX9X9X0X0X9XtXrX0XtXtXtXtXtXtX0X0XtXtXtXtX0XrXrXrX0X0X0X0XrXrXrXrXtXrXrXiX1.t 0.1.|.yXpX|.B w ' ' O._.O.[ l ] ' ' e._ e.V A _ 5.w.w.{._ ) ) w ) _ ( ( ' ) B ) ) ' ( ) _ e.5.( ) ) ) ) Z M ) _ ] k ( l k H 9.e.....[ 5 @.[ 5 @.5X6X_.' y.7XrXrX0X0XtX9XtXtXtXtXtXB.B.B.B.B.B.B.B.B.B.B.B.B.V.B.B.v.B.B.B.v.N.m.B.M.m.N.m.m.v.v.v.l.h.h.h.h.h.h.h.h.h.h.h.n.h.h.n.h.h.h.h.h.n.h.h.f.V.r..           : LXmXLXAXT.S.&X! ! Q.R._.4X^.Y P W  .X.o.o...).:X} K.Q.o.o.X...jXmXF.J ~ ;.o.zXJXmXmXmXnXnXbXDXGXJXaXK Y ZXaXK ` D z |  .~ ~ R.zXE.x ~ Q.Q.o.o.;XJXmXmXHXdXJ K sXgX-.Q F h E o.o.R x ,X^.z } ).~.o.Q.>XwXE R -.o.Q.-.Q.jXJXmXGXPX+Xm -.SXOXY -.D g R o.....>XaX! G ! o.Q.L.).cXJXmXbXJX$XP Y.AXnXmXnXnXJX1X| oXT.z |  .Q.NXwX;.&.m F ! J |  .dX/.z J | W ! ~ ).FXZXW.! P E L.mXLXLX+XZ.|.^.^.(.[.^.C v b v b a P.IXFXnXFXHXHXFXLXgXZ.J.SXhXD.Y.G.h a *.*.C [.gX+XQ a m *.n ;.NXLXGXIXIX&X&.-XSX-XD.'.Z.a v $.n C hXeXT.D 6 $.n n Y.UX+X;.b v %.b P wXPXGXKXIXhXZ. XSX=XS.I.P.v a $.$.a  XUXY.3.a $.*.$.I fXPXUXIXPXfXS.I.lXZXFXKXKXIXKX",
"c.N.B.c.9X9X7X9X9X9X9X7X9X9X9X9X9X9X9X9X9X9X9X9X0X9X0X9X0X0X0XtX9X0X0X0X0X0X0X0X0XtXrXtXtXrXtXiXu.$.1.1.rXrXrXpXi.w w ' ] e.e.[ 5 ] ' ' ' e.e.( H V V 4.e.y.e.) ) k ) e.' ( ) B B ) e.( ) ' _ ( 4.4.( B M B Z r ) _ ) ) ( ' l e.!.T.X.' [ [ O.O.5 O.6X_.' ' 2XrXtXtXtXtXtXtXtXB.tXB.9XtXtXtXtXB.B.tXB.B.tXB.B.B.B.B.B.B.B.B.B.B.B.M.B.m.B.m.B.m.M.v.M.M.v.n.v.h.h.V.h.v.h.m.n.n.n.n.n.n.n.n.n.h.n.n.h.h.B.r.            * LXnXJXAXZ.S.*X!  .Q.Q.:XgX^.F G  .~.;XX.<XQ.;X:XH.).).~.~.;X~.mXbX .R <X<X<X6XmXmXmXzXzXnXbXbXGXLXhXK Q SXaXY Z.z A.XX~.Q.Q.Q.kXQ.~ ,X<X~.<X<X).mXJXmXLXdXY J fXfXP ! F ~ ).Q.~.o.Q.zX(.p R  .o.Q.~ ,X,XE ~ Q.Q.Q.Q.Q.5XJXAXHXIX-Xb U ZXoXU -.F E Q.X.o. .:XaX-. .Q.X.X.R.R.jXLXbXAXLXoXD Y.vXvXmXnXnXDX*XZ. X| | E._.).lXwX-.&.!  .H. ...E >X%XJ R.L.H.R.X.@XDXlXH.;.E.Q.X.jXLXGX XZ.OXXX X|. X Xb a b v b 8 P.IXDXbXFXFXHXFXIXfXZ.J.SXaXA.J.I.d v *.*.*.[.lX+XP d L &.&.;.gXIXHXHXIX-XU +XSX-XS.'.I a n %.C C hX1XT.n a *.*.m [.SX#X;.b n L L Y aXPXHXHXLXgXD.Y.NX=XS.J.P.n n $.n n }.AXU.&.v $.n n %.hXPXGXUXPXhX3.I.NXZXFXFXFXFXKX",
"z.N.v.c.N.z.N.N.c.9Xc.N.9X9Xm.7X9X9Xc.9X9X9X9X9XB.B.9X9XB.0X9X9X9X9X9X0X0X0X0X0X0XtXtXtXtXtXtXrXu.:.$.1.7XrXrXrX7XZ t 8.' ' 2X] k ] ' ] ' ' _ l ) V k V e.q.y.' ) w ] _ ( ( ) ) ' ( ' ) ) ' ( ( ( 2.( 4.( B ) B ( _ ) l ' ] ( !.e.' ' O.[ [ O.@.[ @.@.O.' y.tXtXtXtXtXtXtXtXtXtXtXtX9XtXtXB.B.tXtXB.B.tXB.B.B.B.B.B.B.B.B.B.B.v.N.B.N.N.m.M.M.B.B.M.N.M.M.N.v.h.v.v.v.v.v.l.n.h.v.n.h.h.h.l.h.m.l.n.h.h.V.r.            * LXbXHXAXT.D.#X .!  . .%XkX^.G x | X.o.o.X.o.;X,XR.Q.Q...X.~.~.jXJX .E o.Q.Q.zXJXmXzXzXnXnXnXnXDXIXhXG Q AX&XI Z.l A.R.o.Q.R.).bXE.E ,XQ.o.X.X.;XJXbXmXHXdXG P gXsXQ P G ~ Q.Q.X.~.;XzXQ.E Q.Q.Q.o.Q.,X,X! H.Q.o.<X;X;XjXJXcXGXPXoXD 3.SXoXP -.E Q.;XX.<X~.4X>XH.W.,X<X;X,X).zXLXmXDXKXoXD  XZXvXvXnXcXHX>X|  X! L.).~.;XcX>XU &.R.,X;X;X@XX.5X:XH.,X;X;X;XX.%XDXlX;.Q.;X~.;X6XFXFX.XZ.XX X X X^.oXD v v b v a P.HXHXFXJXFXJXHXIXsX;.I.NXaXQ G.F.z u d m m [.lX/.P i a P m Q sXLXGXHXIX+XU -XSX XZ.I.P 8 a P I I hXaXD.b 8 P P b G.xX2X! i n L Y K #XHXJXFXLXsXD. XSX8XF.J.Z.v n *.*.n oXZXW.U a L &.%.3.aXLXJXGXIX1XY I.gXZXnXFXNXFXKX",
"N.m.z.z.z.z.z.z.z.z.c.v.m.N.m.9Xc.c.c.c.c.c.c.c.N.B.B.9XB.B.9XB.9X9X9X9X9X0X9X9X0X0X0X9XtX0X0XrXb.$.$.1.tXrXrXtXrXr.t r e.' ' O.l ] ] ] ' ' ' ] l l l ( ' y.q.i.) w B _ ( ( ' ( ,.) B B ) ( _ ( B B 2.>.4.) B r ( _ ( l ( ( 5.5.!.' ] O.[ [ @.@.[ @.@.e.e.2XrXtXtXtXtX9X9XtX9XB.tXB.tXB.B.tXB.B.B.B.B.B.B.B.B.tXB.B.B.B.v.v.B.B.B.B.M.N.M.N.M.N.N.M.N.v.M.v.M.z.v.v.v.v.v.M.v.m.v.l.v.h.h.z.M.m.l.l.h.h.B.r.            : LXvXJXAXT.D.OXQ  . .~ W.dXXXJ G | X...~ ..E _.,XH.R. .~  .R.R.4XJX .E o.;.Q.4XJXmXjXzXnXnXnXDXDXLXdXK -.SX&XH Y h Y W R ..| E.lXE.! @X~ ~ Q.X.%XJXJXmXIXsXJ P gXgX! P m x ~ ~  .o.;XsXW.E  .~ R ~ o.,X,X! ~ o.~ ~ ;.<X4XJXZXAXPXoXL A.SX XP &.h ~ o.~ ..R.4X>X!  . .~ X.Q.Q.jXJXmXDXKXoXH '.cXkXjXnXnXHX>XU [.Z.H.R.X.,XnX>X&.&.! Q.o.X.~.Q.zX).! @XQ.Q.~.@.:XFXNXH.H.~.o.;XmXDXHXoX;.XX^.^.^.XX^.P b N D D b I.FXHXDXFXHXHXFXHXfX-.Y.SXaXZ.D.-.Y D i p ! wXjXR.! ! j i p E.vXLXGXIXKX+XY +XNX XU D.Z.h 8 2 p J vX1XU -.a 8 u i ^.mX(. .F 8 u i z 3XLXFXHXLXhXS.'.NX=XF.S.Z.v 6 b m i .XKXH.Q u u I D P 3XPXGXJXKXeX` Y.NXZXZXFXFXFXKX",
"z.z.m.m.z.m.9Xz.m.m.m.k.m.9X9Xk.9Xm.9Xz.9Xz.9X9XN.N.9X9X9X9Xm.9Xm.9X9X9X9X9X9X9X0X9X9X9X9X0X9X0X7X$.t 1.0XrX0X9XtXi.t y ,.( ' e.[ ] ] w ] ' ' w w ] ) ) ) i.e.q.) w B e.) ] ,.] ] B ) ] ) ) ,.e._ ) ) ) ) ( B B ) _ ) B ) ' 2Xe.e.] ] [ O.[ { @.{ @.O.e.e.2XtXtXtXtXtXtX9XtXB.tX9XtXB.tXB.B.tXB.B.B.B.9XB.B.B.B.B.B.B.B.B.v.B.B.B.B.M.N.M.M.N.N.M.M.M.v.z.z.z.M.v.v.M.v.v.v.v.v.m.m.l.l.M.m.M.M.v.h.m.h.M.r..           * LXkXHXDXS.D.+X-.E G F } sXoX` K Y D G P -.! ).,X .J F ! ;.;.-.dXGXF.W ;.^ -.,XIXFXnXzXnXnXnXDXDXLXhXK Q FXaXY Z.Y K J }  .Q F.kXW.! Q.Q.;.;.~ OXGXGXmXHXsXQ Y gXsXQ G x E } A.A.A.(.4XW.~ H.~ ~ .. .:X,X~ !  .;.H.H.H.5XLXDXGXPX-XD S.AX XH Y K | }  .R. .:X:X| } F.! H.X.Q.jXJXmXmXKXoXP Y.gXvXvXbXcXIX>X&.[.| |  ...Q.vXaX-.I ! R.~  .L. .,X).~ ). .o.R. .~.nXNXG.! ...._.mXDXFX[.Z._.!.E.^.(.E.H l m m m d D.FXJXnXFXHXHXFXKXaX-.U.SXaXZ.! Y `  .(.:X4XxX5XX.] | L.%X5X5XmXJXHXIXKX+XU &XgX.XA.J G ! ~ E X.;XmX*XF S.W.W W L.dXmX..G  .Q z J _.xXJXJXIXLXhXS.[.NX>XD.` ` Y l u p K dXAXJ | | f u d A.kXPXFXGXLXfXZ.Y.gXAXbXDXHXKXKX",
"m.k.l.z.z.m.k.z.m.7Xm.9X9Xk.m.9Xz.z.z.z.z.z.z.k.m.N.m.m.m.9Xk.9X9X9X9X9X9X9X9X9XB.9X9XB.B.9X9X0X7X1.$.t.9X0XtXtXtXv.t r ) ( ' e.] ] ] ] ) ] ] l ] ] ) [ l ,.q.e.) w B e.) ,.) B w ) ,.' ) ' ) ' 7.4.( B w B ) t ) ( ) w w ' e.!.' O.O.] [ @.@.O.O.@.e.] e.pXtXtX9XtX9X0X0X9XtX9XtXB.B.B.tXB.B.B.B.B.B.N.N.B.B.B.B.B.v.B.v.B.B.v.M.N.N.N.B.N.m.N.M.M.z.v.M.v.M.z.v.v.v.v.v.M.v.n.z.m.M.M.M.m.l.M.M.v.l.l.B.r.        .   : JXjXHXUXT.Z.#XH.E i h Y.gXoXK Y b v %.;.].wXgXsXW f d &.'..X[.lXGXK.W m j ! ,XIXZXvXvXnXnXzXZXAXHXaXG Q DXaXI S.Z.z i D P D Z.lX[.W m E ! G E #XLXGXcXLXgX-.Q fXsX! G W G D I P D } sXW.G P D G Y J $XaXI.! G ! ;.Y -.gXLXZXGXIX+XG A.vXXXY ` Y G G E J K OX>X .! ! ! H.~ ~ 4XLXmXvXGXoXD  XcXkXvXbXvXFX>XW /.F.| | Y A.gXwX-.-.P Y Q A.A.W 4X).E H.! ! H.| ~.ZXNXI. .......4XLXFX'.U _.(._.!.!._.h f d d d u } DXbXnXHXFXFXKXKXaXU Y.SXaX-.Z.Y.#X ._.4X5X5X5X_._.(.(.4X4X3XdXLXKXKXGXXXQ &XlX[.;.! F. .H.5XjX5XjX%XY./. .).jX4X5XxX_.H.F.E.5XmX4XjXJXIXIXLXfX;.[.cXwXG.Y Y K F.OX5X3X6XxX..K | L.(.(.4XZXHXIXLXPXhXZ.S.dXAXGXJXFXHXIX",
"z.z.k.l.k.z.m.z.m.m.k.9Xk.m.7Xm.9Xz.9Xz.z.z.m.9X9Xk.9X7X9Xk.9X9Xk.9X9X9Xm.9X9X9X9X9X0XB.B.0XtX9Xu.t $.r.b.0XtXtXtXB.#.r t ( ' ' ' ' ' ] l ' ' ) ) w [ ) B ) i.' e.w w i.,.' B B ,.e.,.) B ' ,.) _ _ 4.,.V M ) t t ( ( w ) e.e.!.' ' O.O.[ [ O.{ O.@.e.' y.rXtXtXtXtX9X9X9XtXB.9XtXB.9X9XB.9XB.B.9XB.B.N.B.N.B.c.B.B.v.B.B.v.B.v.M.N.N.B.M.N.M.M.N.v.v.m.M.v.M.N.v.v.v.v.v.z.v.m.m.z.M.m.M.l.M.l.l.m.h.l.B.r.            & nXjXFXUXT.Z.&XW.! h Y #XgXoX` &.n C qX8X8XNXKXsXE f U }.qX8X=XSXGXY.| j 8 ;.4XLXbXvXDXbXbXnXDXDXLXaXF Y ZX3XY T.J.h : L P m D.FX[.G 8 n ;.;.&.8XLXLXDXFXgX-.-.gXsXW W -.d 9 L *.C T.hX[.G 8 a I L H 8XfXI.m d P &.%.-.gXPXDXGXLX+XD G.vX XY D.I a n *.L L &XaXK.m d &.&.%.'.SXPXmXvXAXoXP [.lXvXmXmXcXGX$XW %XY.J p U [.SXwXI.-.d s L %.3.D.kX:XD 8 b I Z.' ~.HXNXI.E g F | dXLXGXY.U XX^.^.(.(.(.D f b d m a Z.FXcXnXDXZXDXFXFX8XU Y.SX=X| U J @X3X~.~._.5X5X..^.3X_._._.).dXJXSXGXDX/.Y &XNXW.-.J L.5XX.~.;X).zX,XR.4X_...5X_.5XjXR.).,XR.;X4X;X5XJXHXGXPXaXQ I.NX=XZ.Y Y.#X.._.jX;X:X6XX.).R...5XjX5XdXFXHXFXLXaX| D.dXDXGXFXIXIXIX",
"z.k.l.z.z.k.9Xm.k.9Xk.m.m.9Xm.m.z.z.z.z.z.9X9Xm.m.9Xm.9X9X9X9Xk.9X9Xm.9X9X9X9X9X9X9XB.tXB.B.9X7X9X0.$.u.9XtX9XtXtXV.:.y ) 4.( ' ' ] ] B ] ( ] ] [ B w ) [ B ) e.i.B B e.,.) ) ) ' ( ) l ) e.,.' ) ) _ _ ,.( Z Z ) i.) w ) _ ' e.] ] ] O.[ [ O.O.O.@.O.' 2XrXtXtXtXtXtXtX9X9X9XtXB.tXB.B.B.B.B.B.B.B.B.B.N.B.B.B.B.B.B.B.B.B.B.B.N.N.M.N.N.M.N.m.N.M.z.M.z.M.z.M.v.v.v.v.M.M.v.m.M.m.z.m.l.m.l.m.l.m.m.l.B.r.            * JXjXFXUXJ.| +XW.! i F Y.xX-X_ 3.n $.;.=.].8XhXsX| f L qX;.'.[.NXGXW.-.m m -.wXIXAXbXmXDXbXDXJXGXLXsXF Q NXaX` J.I.p > %.%.b -.ZX@X! a *.-X}.'.aXLXJXUXIXgX-.-.hXdX| | | d a %.*.%.Y.hX[.m m n 6.*.&.wXsXW.G L *.*.*.P.VXLXDXDXLX$XF Y.SXoX' T.D a $.*.=.%.8XwXW.h P }.8X8X8XSXPXAXAXGX XG [.ZXvXmXmXvXHX*X| XXY.F d [.wXSXwX;.-.v L P.*.'.oXvX&XD a %.*.&.Y (.FXNX+XP d S.Y.vXLXAXY.` 2X_.XXXXXX.XL b m m m a S.SXLXDXFXHXHXHXHXaXU ^.NXaXS.Q D W 5X5XX.X.5X6XL. .:X5X5X~.5XdXJXbXbXGX.XY >XcX[.! E F _.jX;X_.;XzX:Xx 5X4X%XR.~.5X4X .R.zX4X;X~.;X5XmXJXZXLXwX-.I.NX=XD.K W :X).~.~.~.5XjX..R.zXX.~.;X;XsXFXZXZXKXeXY D.dXmXvXFXFXFXKX",
"7Xm.z.z.z.z.z.m.m.m.m.m.z.9Xz.z.9Xz.z.9Xk.9X7X9Xm.9X9Xk.k.k.9X9X9X9X9X9X9XB.9X9X9X9X9X9XtX9X9X0XrX8.$.b.0X0X0XtXtXtX) r ) ' ' e.' ] [ [ ) ' ] w w B [ [ ] ) i.' e.w B i.,.,.) ,.) ] w ) ' ' ( ( ( ) ) ) ( ( ) B ) ,.) q ) i.' e.] ] [ e.[ 5 O.O.O.@.[ ' |.rXtXtXtX0X0X0XtX9XtXB.tXB.B.B.B.B.B.B.B.B.B.B.B.B.9XB.B.B.B.B.B.B.B.B.N.B.B.B.N.N.M.N.M.M.v.M.v.N.M.M.M.M.z.M.M.v.m.m.z.m.M.z.M.m.m.z.m.m.m.m.B.=.. .         : JXkXKXIXU.| #XK.Y h m U.gX XI &.n e *.0.].-XfXsX| f b *.].P.[.NXFXR.W d D G.aXLXbXmXmXnXnXDXFXGXJXhXK Q AX3XU D.T.d : n $.D D.lX@X-.d L ].t.].eXIXJXmXFXgXU Y sXsXA.D.D.d u L *.$.S.sX[.m d n *.%.*.&XsXW.h d 0.t.=.6.VXIXmXGXLX+XD Y.UX#X` T.C a *.=.%.%.eX3XH.h L `.].'.-XUXPXDXUXGX.XG  XAXmXmXmXAXPX3X| oX XD m W.+XNXwXZ.&.b $.*.6.]. XxX1XL v *.*.6.&.+XKXNX[.P d ;.'.lXLXAXY.Z.1X#XOX#X#X#X%.L *.%.m m I.NXlXnXnXFXFXKXGXaXZ.D.-X=XZ.Y D A.%X%XJ | :X>X| E H.;XH. .).dXFXDXHXGX).! +XgXW.-.! h ..dXH.H.R.zX5Xh E.4XsX} R.3XjX..E ;X,X,XQ.).4XJXHXHXPXaX-.W.gXwXS.Q j E 5X>XQ.:X:XjX| ..,X5X,X~.,X4XFXFXFXIXaXP T.gXbXzXcXcXNXNX",
"m.m.k.k.z.m.z.m.7Xm.m.9Xm.m.z.z.z.z.z.z.9Xm.m.N.7Xk.9X9X9X9Xm.9Xm.9Xm.9X9X9X9X9X9X9X9X9X9X9X0X9Xb.$.$.1.qX0XtX9XtXtX<.w r ( ( ' ' ] B l l [ l k [ B w B k l e.e.e.B B e.,.) ] B B w ) ] ) ) ' ) ( ( k k B B Z t ) ,.:.0 ] ,.e.] ] O.[ O.[ 5 O.O.O.@.O.O.-XrX0XtX9XtXtXtX0X9XtXtXB.tXtXB.tXB.tXB.9XB.B.9XB.B.B.B.B.B.B.c.B.B.B.B.N.N.B.N.B.B.N.N.N.N.M.N.M.N.M.c.N.N.M.N.M.M.v.M.M.M.m.M.M.m.M.M.m.N.m.N.B.s.            > bXjXFXKXT.` #XI.E h P !.gX XI &.N S ].].8XfXNX3XJ d P ].}.[.[.NXFXW.Q h Q #XgXLXDXvXvXDXbXnXbXAXLXsXK A.SXwXY I.G.i i 6.6.&./.nXW.! d *.'.{.{.fXLXJXmXHXlXQ Y sXaXU Z.T.b a %.*.*.I.gX+X-.n m *.%.&.8XfXW.p h ].].].-XVXIXUXGXLX+XH Y.AXoX` | P n *.*.*.*.eX3XH.g m 6.*.;.'.UXPXUXGXDX XY .XAXbXmXmXDXGX=XQ -XoXL b S.oXNX8XZ.;.v n =.$.6.U.xX*XN e =.*.t.P.>XKXNX[.&.v %.P.xXJXvXT.| 1X$X*X$X$X*XP n m L *.n ;.sX>X>X4X>X4XaXhXoX` Z.oX XZ.&.-.S.Y. XL.F.+X:XA.F.W.[.R.G.).aXdX3XsXvX[.G ;.[.G.Q Y W !.XXH.Q A.$X).z | XX#X-.J R.>XE x H.;X).~ R.5XbXDXDXIXwX-.-.&X+X-.G G -.:X@XE A.+XdXW K R.%X~.E (.4XHXHXIXPXaXU Z.3XkXnXFXIXPXIX",
"m.m.m.9Xm.k.z.m.z.m.9Xm.m.9Xk.9X9Xm.z.z.m.9X9Xk.m.9X9Xm.N.9X9X9XN.9X9XB.B.9X9XB.B.9X9X9X9X9X0X9X0Xu.#.u.0X0XtX9XtXb.:.w ) ) ' ' ] ] ] w [ w l l w [ w [ l w ) e.e.B w i.) ] B w w B ) B B B ) ) ) V B r r w B Z t <.,.y ' e.e.O.e.[ ] ] [ 1 O.@.[ @.@.O.!.rX0XtXtXtXtX0XtX9X9XtXtX9XB.tXtXB.tXB.9XB.tXB.B.B.B.9XB.9XB.tXB.B.B.B.N.N.N.9X9XN.N.m.N.z.N.c.N.v.v.N.v.N.N.z.M.z.z.M.z.m.z.z.c.M.N.m.m.m.m.m.9Xr.            * FXkXGXKXT.| #XE.G i D G.hX XI P n n 6.P.P.T.%X3XH u H P.I.'.;.NXFX[.Q i P /.sXLXAXAXZXZXcXmXmXmXLXhXY -.SXhXY D.A.d i U 3.Y K.ZX,XP d &.|.'.!.fXLXIXJXHXlX-.U gXaXZ.;.&.d m ;.;.-.[.gX@Xm a &.;.;.-.&XsXK.h G }.8X-X-XVXPXIXKXPX=XP ^.SXoXY } L n *.].].P.*X3XH.h &.oX8X-X=XSXLXGXGXUX.XP XXZXmXmXnXbXJX=X` -XY.D D W.=XNX-XZ.3.n %.*.6.}.#XvX1XN v 6.t.8X-XaXIXgX[.P L *.'.xXJXVXT.T.3X$X*X*X>X>XY D P m G m A.lXcXvXcXbXZXAXAX=XD.oXMX=X| Z.;.P L Z.3.Z.8XfX@X;.P ;.I.A.Y.dXAXdXsXaXW.A.).>XY.A.G.D.F.G.I.;.Y.wXwXG.Y.I.'.I.S..X3XE.R.E.oX[.J.Y.3XgX3X>XhX+X&.-..XK.! P ! ;.[.'.-.;.'.wXW A.Q./.R.} K.>XjXsX3XxX=XY Y W.>X>XsXsXsXgX",
"k.m.k.k.9Xz.k.9Xk.9Xk.z.9Xk.9Xz.z.z.z.9X9Xk.9X9X9Xm.9Xm.N.N.m.7X9XB.B.9X9X9X9XB.0XtX9X9X0X7X9X9X0X7X$.7XrX0XtXtXtXv.t w w ] ' O.e.] ] [ k [ l l w [ B B l l ' ( ' B w e.e.B w w w B w l w B B l M M k k r w r Z :.<.:.0 ) e.] e.e.O.O.] O.[ O.@.@.@.@.<X_.2X0X0X0X0X0XtXtXtX0XtX9XtXtX9X0XtX9X9X9X9X9X9X9XtX9XB.9X9XB.B.B.B.B.7X9XN.9XN.9XN.9Xz.9Xz.9XN.z.z.9Xz.N.c.z.N.c.N.c.c.c.z.M.z.z.9Xz.N.m.m.M.V.B.r.  .         : LXZXIXIXY.` =XI.F j 4 ..dXoXU P d d E ! ! J (.3XK i D -.! ~ ;.gXFXW.J j G ..5XJXJXAXAXZXnXmXbXJXLXsXH | SXaXY A.J u : p l d } zX@Xx i z W K K OXJXJXmXHXgX-.-.gXfXA.S.&.f i m &.m ;.dX[.m 8 i G x D +XaXH.h j P.&.2.Y.VXPXVXSXPX=XP U.ZXXX` F.m 8 L &.P I %X3X~ i F I.I.;./.UXLXGXJXGX XP oXZXbXbXDXcXGX=XU !.P.m m H.@XlX-X&.&.v L P.P.I.| 4X3Xh b *.P.'.P.@XKXNX[.m b P.Y.lXGXvXS.} 3X3X3X*X>X>X! P P E ! P K.ZXFXcXDXFXGXHXLXaX` ^.SX=XD.I.S.d v %.&.L -XgX[.&.a m *.L Z.gXLXLXIXGXoXF.>XNX.XS.Y.P 6 b P %.L NXgXP.d q %.P L [.NX&XF.d b %.I 3.hXIXAXUXSX=XI.[.lX-XZ.} ;.m m ;.&.L [.NX.XG.D P -.U A.aXDXdXsXaXoXZ.Y.8X>X4X>XwXwXwX",
"m.k.9Xk.m.9Xz.m.9Xk.9Xk.9X9Xk.9XN.m.9Xm.9X9X9Xm.9X9X9Xk.N.N.9X9XN.N.9X9X9X9X9X9X9X9X9X9X0X9X0X9XtXb.#.s.rX9X0XtXtX0Xt.t w H ..X.O.] ] [ w [ ) ] ) ,.' ] ) ] ( ,._ B w q.( ) _ _ _ 7._ e.4.2.4.5.e.5.5.4.4.9.>.t :.8.$.q ) _ ' !.] ] [ [ e.[ O.@.[ 6X6X2X2X7XrX0X0X0X0X0XtXtX0X0X9XtXtX0X9XtXB.9X9X9X9X9X9X9X9X9X9Xm.9X9X9X9X9Xk.9X9Xk.9X9X9X9X9Xk.9X9X9Xk.k.9X9Xz.m.9Xm.9Xm.N.m.9Xz.z.9X9Xz.z.z.9Xm.9Xk.B.r.. .     .   * LXbXHXGXS.U =X-.E o.O.Q.dXOX` P m E ;.Q.~ Q.,X,X~ ! L.L. . .R.zXDXH.E R.Q.R.5XJXJXnXDXDXnXnXDXDXLXaXG | UX3XY | F h G | ..} (.nXR.x ~ o.X.....5XLXJXJXLXgX` U gXaX-.-.P h F -.-.~ ;XzXW.m E ~ R E ~ aXsX! R E ! F : p 4XLXJXKXPX=XL Y.ZX&X-.} z p G E G ! >X4X! j G x G j X.GXJXGXGXUX XL  XSXDXFXFXZXIX=X&.[.G.m g x R.lX-XZ.&.v m P D c K 4X,Xm d ! P F K _.IXgXY.F i D ..xXJXAXY.T.5X1X1X3X1X5X! P P P W m Y.ZXFXZXDXFXFXGXLX3X`  XVX>XS.U.I.b v *.%.%.[.fXoX&.a n *.n ;.gXIXKXLXIXoXH OXVX^.Z.'.&.8 m L %.n NXfXP.n a $.*.C Y.gX-X&.a n %.b I fXPXKXKXIXsXA.W.SX=X} J.P.v 6 $.*.a I.AX'.&.a b n m P wXIXFXIXLXaX3.I.gXvXvXbXHXGXUX",
"9Xk.m.m.m.N.z.m.m.7Xz.9Xm.m.9Xm.N.N.m.9X9Xm.9Xm.m.9X9X9X9X9XN.N.9XN.9X9X9X9X9X9X9X9X9X0X9X9X9X9X0X7X=.x.0XrXtXtXtXtXrXu.2.5.2X!.e.] ] ] [ B w B [ B w l w w e.' ' B w _ _ ( ( ) ( e.( ( _ A _ _ 9.4.2.0.Z %.A B $.8.:.1 ) ' ' _.) [ [ ] [ [ O.@.@.@.O.O.eX8XtXrX0X0X0X0X9XtXtX0XtX9XtX9X0X9X0X9X9X9X9X9X9X9X9X9X9X9X9X9Xk.9X9X9X9X9X9X9Xk.9X9Xk.k.9Xk.9X9X9X9Xk.9Xz.7Xm.z.9XN.N.m.9Xz.z.z.N.9Xz.m.m.m.m.B.r.            * LXFXHXHXT.` =X! ~ ~.~.Q.4XXXY G ! Q.Q.Q.o.Q.).,X~ Q.Q.X.Q.X.R.jXnXK.E ~.X.X.5XbXJXnXnXnXnXnXnXDXHXaXK Y SXaXY W G | L. .o.~ Q.kXo.x X.X.o.X.o.;XmXJXJXPXgXU U hXaX-.&.P F ~ R.Q.~ Q.4XH.E -.Q.o.o.Q.,X,X~ ~ o.o.~ j c 5XLXbXJXIXoXD [.SXoXP Y z E ~  . . .4X>X! ~  .o.X. .R.mXLXmXGXDX^.P  XSXZXFXFXFXPX=XD.oX-.E H. .Q.vX+X&.L P oXXX ...~.zX:XE ~ ;.| ....1XLXNXI.! } L._.mXLXDXY.A.1X1X%X%X%X%XP L P G P m I.FXFXZXZXDXGXHXGX*X` Y.ZX8XS.J.D.b v %.L m 8XfXW.I v $.*.%.;.NXLXKXIXHX^.K $XvX^.F.'.P 8 n m n n CXhXI.C 6 n C b '.xX.X-.a n n N I aXLXFXFXIXfX-.[.NX=XS.I.P.v v $.$.a P.SXW.3.a n *.m &.wXLXFXUXIXfX3.G.dXAXAXGXZXUXFX",
"m.m.m.9Xm.m.v.v.m.N.m.m.k.9Xk.m.m.N.N.N.m.9X9X9Xm.z.9Xk.9Xz.z.9XN.9X9XN.9X9X9X9X9X9X9X9X9X9X9X0X9XtXg.9XrX0X0XtXtXtXrX7Xy.w.e.5.e.] ) [ [ B B [ w 1 1 k ] ) 2Xe.e.( w ( e.( ) ) ( q q ) _ ( 2.A $.q = A $.B B B Z 4.Z 0 w.!.' !.< [ e.[ [ [ [ 2X2X' e.2X0X0XtXtX0XtX0XtXtXtXtX9X0X0X9X0X0X9XB.9X9X9X9X9X9X9X9X9X9X9X9Xk.9X9X9X9X9Xk.m.9X9X9X9X9X9Xk.9X9X9X9X9Xm.k.9X9X9X9Xz.m.m.z.9X9Xz.z.z.z.z.m.m.9Xz.B.s.            > JXzXFXGXT.` #X! ~ ;X~.;XdXXXY G ~ Q.Q.o.<XQ.,X,XQ.~.;XX.<X<X~.zXZXR.~ R.X.~.5XJXJXnXnXnXnXZXcXAXIXhXH ` SXhX| Q F  .%X~.<X~.:XzXR.~ ,X<XX.<X~.;XJXJXJXLXgXQ Z.hXaX| -.E ! ~.Q.<XQ.,X,XR.-.;X~.Q.<XX.,X4X~ o.<X~.<X;X~.5XJXmXbXKXoXD '.UX+XU Q ! H.~.<X~.X.:X:X! Q.~.Q.~.X.X.4XLXAXGXUX^.P  XNXZXFXFXFXPX&X-.+X}  .~.Q.).zX+XU L b G.:XQ.X.| 5X@X~ Q.Q.X.Q.X.;XHXNXA.} )._.:XjXLXKXI.| %XXX%X_.XX_.` P &.P Q m Y.FXKXDXDXDXHXLXKX3X3.^.gX=X3.S.D.b L &.&.P &XwXY.L b %.*.%.;.gXLXKXIXGX(.` #XSX^.D.Y.Y a m P L L NXwX;.C n *.L D  XxX/.U v n %.L U sXPXFXFXHXsX-.W.SX=XF.U.P.v a *.n a G.GX[.Q a n m *.U fXPXGXUXIXgXS.J.gXAXDXFXZXFXIX",
"k.m.k.k.l.z.c.v.m.m.m.m.m.m.m.z.z.m.z.N.k.m.m.m.9X9Xz.9XN.N.9Xz.9XN.9X9X9X9X9X9X9X9X9X9X9X9X9X9X9X0X9X0X9X0XtX0XtXtXrXrX7XB k 8.e.e.,.) w [ B w 1 1 1 1 w ) ] e.y.' ( 4.i.( ' w < < $ 1 9 ( 5.w y # # = 0 Z Z B ) >.>.0.q.{.' w 1 [ [ [ [ [ O.O.' ( 2XrXrX0XtX0XtXtXtX0X9XtX0XtXtX9XtX9X9X0X9X9X9X9X9X9X0X9X9X9X9X9X9X9X9X9Xk.9X9X9X9X9Xk.9X9Xk.9X9X9Xm.k.k.9X9X9X9Xk.m.z.9X9X7Xz.z.9Xz.9Xz.z.9X9X9Xm.z.0Xr.        .   & bXdXmXHXJ.` 3XF.E  .o.~.jX.XJ G E ~ ~ ~ ~ ~ ;X,X-.Q.Q.X.X.X.~.jXnXH.E X.O.~.4XJXbXnXnXnXnXZXZXDXIXsXY ` ZXsXZ.| x W L...~ X.%XvX~...;XX.X.X.;X5XmXLXGXIXfX3.D.dX5XQ J z ~ X.o.o.Q.,X4XQ.~ Q.X.~ Q.~.4X4X~ Q.@Xo.X.~.Q.jXJXmXJXIX+XD W.ZXXXY Y ! Q.~.o.R.R.4X>X! Q.Q.~.;X;X;XjXLXmXGXUX'.P oXSXNXZXZXFXIX#XU oXW X.~.;X,XzXXX&.I s F R.;X_.~.dX:X~ ;X<X;X;X_.5XHXNXF. .,X;X,XmXLXUXI.D.5X%X1X1X1X1X| I &.&.-.P '.SXUXGXFXHXHXHXIX*XI  XSX-X| I.-.i u d d h @XsXW.l u b m b ! sXHXGXIXKX/.Y $XxX!.A.Y.P 8 n L m m lXwX-.n a L L D T.xXXXP a L &.D Y 4XJXFXFXHXaXQ '.SX=XT.I.;.a v &.P h K.zXK.P n %.*.m I 3XPXKXKXIXgXZ.S.gXDXAXFXFXKXIX",
"m.k.l.n.l.k.l.l.l.l.l.l.z.l.l.z.m.m.M.m.m.N.N.m.z.z.z.z.9Xz.9X9XN.9XN.9X9X9X9X9X9X9X0XB.9X9X9XB.0X9X9X0XtX9X9XtXtXtXtXtXB.$.y Z i.e.' ) l ] B w < # # 9 ) k 1 q 9.5.4.9.5.A I 0 < 1 # # = V 2.q = = # # # t ( B ) ,.4.i.!.|.' 3 < [ [ [ [ ] ] ' ' q.7XtXrXtXrX0X0XtXtXtX0XtXtX0XtX9X0XtX0XtXB.9X9X9X9X0X9X9X9X9X9Xk.k.9X9X9Xm.9X9X9X9X9X9Xk.9X9Xk.9X9X9X9X9Xk.9Xm.9X9X9Xm.7X9Xm.9Xz.9Xz.9Xz.N.z.z.9Xm.9X9X=.  .         < JXzXJXIXJ.| *XA. .H...K.dXXXJ G Y ! ! ;.H.! ).,XK.H.X.L.K.L.X.4XcXR.E ....X.4XHXFXZXcXnXvXZXDXDXIXaXY Z.AXhXW W F W } H.H.H.(.kXR. .~.o. .X.Q.:XDXHXFXLXgX-.-.sX3XW J F E  .! ;.;.<XzXR.~ R.H. . .L.4X,X~ R.R.~ H.~  .4XJXmXAXIX.Xm W.ZX^.Y Y E H.o.o.X.R.4X1X| R. .~ ..o.~.jXLXbXUXAX^.G  XxXvXcXDXZXIX&XP .XE  .o.o.,XzXOXY %.U K.R.o..._.4X). .Q.X.X.X.~.5XHXlX! ..X.X.;XmXLXZXA.Z.1X#X%X%X$X$X;.%.&.&.&.P '.FXAXDXHXJXGXGXJX1X| oXVX=XS.I.P d z F j J $X4XL.F g h D z F.jXLXKXKXHX XJ =XcXE.-.D.m 8 i d i R zX4X! a 8 n i p ..xX/.m 8 8 j i c :XLXGXUXIX8XU '.ZX*XA.I.;.a 6 d d 8 } lXW.F a d m d D #XLXLXDXLXfX;.S.xXAXvXZXDXKXIX",
"k.n.h.l.l.l.l.h.h.l.h.h.k.l.l.z.z.z.M.v.m.m.N.N.z.9X9Xz.z.9Xm.9X9XN.9XN.9Xm.9X9X9XB.B.9X9X9XB.9XB.tXtX9X9X0X0X0XtX9XtXtXv.$.7 r ( ) ( ) ) B w [ ] + < ' [ k l < N 9._ 4.5.2.A A V 1 - 0 I ( _ I A 9 - s A $.$.S B q.( ( !.' ..] [ O.[ [ O.] ] e.( ,.7XtXrXtXrXtX0X0X9XtXtX9XtX9XtXtX9X9X9X9XB.0X9X9X9X9X9X9X9X9X9X9X9X9X9X9X9X9Xk.9Xm.9X9X9Xm.9X9X9Xk.9X9Xm.k.9X9Xm.k.9XN.9Xm.9X9Xm.m.z.9Xz.z.z.9Xk.9Xk.9Xs.            > LXvXJXIXJ.` *XK. .x h A.dX+XP P L n L &.;.&.oX3X! h D &.D.D.J.dXFX^.| | K ' 3XLXGXDXvXvXcXDXDXDXLXaXK Z.AXhXQ A.! W W Q &.P F.dX^.|  ... .A.Q oXFXHXDXIXsXY ! sXwXW E ' J ~ ! ;.~ ;.,XW.} I.G.J.S.! >X,XH.H.H.H.K.} F.xXLXvXGXLX+XP [.AXoX` I P  . . .....1X$XK L.H.H. .o. .sXLXbXGXUX'.K oXvXlXcXZXxXIX>X! [.Q  . .| ).jX#XY P G./.L.X.L.| 5X:X .R.~ X.L. ._.FXgX~ o.X...~.mXJXbX-.| 1X1X$X1X1X$X-.Y &.&.&.%.'.UXGXDXHXGXDXJXIX1X3. XNX=XS.D.P Q Q.Q.R.R.5X5X| ' L.E.R.K./.vXHXHXKXGXW.K *XvXK.A.S.P ! ;.-.! ;.ZXwXE ~ ;.-.-..._.jX/.! ! ~ ~ E ..dXLXFXKXIX=X&.[.SX+X-.;.&.d a m z z E.ZXE.G m m G D | 4XLXGXUXPXgX;.T.xXAXAXFXAXIXIX",
"n.n.k.h.h.l.l.l.l.l.l.l.h.l.l.l.l.m.z.m.m.N.9Xm.m.z.9Xz.9Xz.9Xz.N.N.9XN.9X9X9X9X9X9XB.B.9XB.9XB.9XB.9X9X0X9XtXtX9XtXB.tXB.1.7 r ) ) ' ) ] ] w l ] ) l l l l l w k 4.2.7.4.2.A V V 0 q C A B A A I s 9 v B S B S ) 4.( ' e.] O.O.e.[ [ [ ] [ ] ' _ >.7XtXtXtXrXtX0X9X0X0XtXtXtXtX0X9X0X9X9X9X9X9X9X9X9X9X9X9X9X9X9X9Xm.9Xk.9X9X9X9X9X9X9X9Xm.9X9X9Xm.9Xk.9Xk.9X9X9X9Xk.9X9Xm.9Xm.9Xz.z.9Xz.9Xz.9Xm.m.9X9X9Xt.            * LXbXGXIXI.Q +XG.K u b I.hX+XZ.Z.L n *.6.;.].8XsX| f s %.*.6.S.VXGX^.| h f U wXLXFXAXAXAXvXDXJXDXHXaXP Z.ZXsXQ H.} m i *.t.L G.vX/.J d N 3.6.&.=XIXHXJXFXsX-.-.sXwXW W W z i P *.n ;.zXXXG z D &.I L =XdXH.G s L &.L S.xXLXAXGXIXoXG  XAX#X| Z.P h D I V I 1X>X .E W Z.&.&.I.SXLXmXGXAX'.Y #XAXZXAXDXvXFX&XP [.| J x g L.dX1X3.&.m G &.S.` J aX*XQ H Y Z.S.Q ).IXlXH.....W F.jXLXSXS.J.dX5XsXaX4X3XP.&.&.-.&.P .XFXHXDXDXDXGXLXGX=XU  XgX=XA.-.-.I.Q.Q.~.;X5X5X..} ).;X_.~.~.dXJXJXHXGXY.K &XNXY.A.! E Q.Q.Q.o.Q.zX4X~ ;.Q.+.<XX.%XdXR.! W.Q.Q.R.Q.5XJXDXGXLXwX-.W.NX+XD.;.Y W L.K.R.L.@XZXK.! ).,X:X&X%XjXJXbXFXIXgX;.S.aXvXGXDXFXKXKX",
"k.n.k.k.l.h.l.g.l.l.l.l.z.l.z.l.z.m.z.k.9Xm.m.k.m.9Xz.9Xz.9XN.9X9XN.N.9Xm.9X9Xm.9XB.tX9XB.B.9X9XB.B.tX9XB.tXB.tXtXB.tXtX7X:.7 y ) ) i.] w ) B l w ] V ] ] l c l V _ ( 4.4.2.B w M M M M M k N M k M M M M 0 r Z $.>.( ( O._._._.@._.O.] ] w [ e._ ,.u.rXtXtXtXtX0X0X9X0X0X9X9X0XtX9X9XtX9X0XB.0X9X9X9X9X9X9X9X9X9X9X9X9X9X9Xk.9X9Xk.9Xk.k.9X9Xk.m.9Xm.9Xm.9X9Xm.k.9X9X9Xm.9Xm.9Xz.9X9Xz.9Xz.9Xz.7Xm.m.k.9Xr.  .         : LXnXGXIXI.-.+XY.Y s P  XNX=XS.P.C #.t.qXs.].eXaX3.b %.*.t.6.P.NXUX XZ.l d D.aXLXDXcXZXAXvXnXDXFXLX3XH Z.SXhXU ;.G.h i t.qX6. XAX.XK f C }.].`.fXPXHXJXHXzX-.;.sX>XW Q | f a *.*.*.[.NX XD a %.t.].;.fXkXI.h a *.t.*.P.AXLXDXJXJX^.D .XAX.XW  .D a %.*.$.%.gX>X .j D `.*.*.U.AXLXDXJXAX[.Y &XDXAXDXGXvXIX&XP @XS.z i l Y.xX&XS.&.a %.].].0.3.gX=XD s L *.*.%.&XPXgXF.c 2 D J.vXLXcXA.G.aX3X3X3X3X3X-.Y Q &.Q P [.GXDXDXDXHXJXIXGX*X` oXSX-XA.-.-.[.,X,X4X5X4X5X .(.5X5X6X6X5XjXJXmXJXDX^.P +XNXI.-.J  .,X,X;X<X@XzX,X;.,X,X;X;X~.,XdXR.W.,X~.~.~.~.5XJXDXFXLXaX;.[.ZX-XD.;.Q E.).~.).).:XZXH.! ,X~.;X:X%X5XmXJXFXIXgX;.S.gXvXcXGXFXFXKX",
"h.l.h.h.l.k.k.l.l.b.x.z.l.z.z.l.k.m.N.m.9Xk.k.9Xz.9Xz.9Xz.z.N.9XN.9XN.9XB.9XN.9XB.9X9X9XB.B.9X9XtXB.B.tXB.tXB.tXtXB.tXtXB.:.y w ) ) _ l w ] ) ' ) ] V V H I H N A 4.V ( 4.( B S C $.%.$.A A %.%.2.2.%.$.A A S Z Z >.4._ ` ] ] ..] ] ] ) [ w B e.' %.|.rX0XtXtXtX0XtXtXtX0X9X0X9X9X0X9X0XB.9XtX9X9X9X9X9X9Xm.9Xm.9X9XB.9X9XN.N.9Xm.9X9Xk.k.9X9Xk.9Xm.9Xm.9Xm.9X9X9XN.N.N.N.N.N.N.9XB.9XB.c.c.B.c.9XN.N.9XB.s.  .     .   * LXnXGXIXY.Q &XW.` a b P.NX*X .Z.n #.=.t.t.t.8XeX3.s n t.=.=.].NXKX-X;.d s D.aXHXbXnXbXAXbXmXJXJXJX3XK Z.AXhXQ A.I.m i s.s.*.[.NX[.` s S ].t.t.8XIXIXHXIXgXZ.A.sXwXW -.Z.s v t.qX=.8XgX[.! a =.p.s.].fXsXK.m a s.qXt.'.SXLXvXFXHX.XG -XZXW.W A.P v %.t.6.6.hXaXH.g P }.*.;.'.ZXPXJXJXSX[.Y &XGXDXDXDXDXIX>XY +XI.D d L [.SX=XP.&.n *.7Xt.r.*.gX&Xm n *.t.=.;.>XIXgXW.Y d &.'.vXLXmXZ.F.sX3X3X3X3X3XY.A.H.A.G.! @XJXJXJXHXFXJXGXGX1X` oXNXoX3.&.U G.R.Q.).~.4X>X! Q.~ <X;X;X;XkXLXmXJXGXXXP -XVXY.G.Q E Q.W.).Q.,XFX,X~ ,X).).,X~.>XdX(.Q.).Q.;X,X).5XJXHXHXIXwX;.[.ZX+X;.-.P Q.,X5X,X4XsXlXA.H.sX;X~.:XdX5XbXDXZXIXsX&.F.gXvXvXvXvXKXKX",
"h.h.l.l.l.l.z.l.l.l.l.z.z.l.z.z.7Xm.m.m.k.9X9Xk.m.c.N.N.9X9XN.N.9XN.9XB.9XB.9XB.9XB.9X9X9X9X9XB.B.B.tXB.tXB.tXB.tXtXB.tXB.:.y y ) ( _ ) w l ) k w w 1 - - - - - * 2.( 4.7.( 2.2.M q q 7 6 6 7 6 6 9 9 0 B ( A M M ( >.I ' < = u B [ ] ] [ w [ O...2.u.rXtXtXtX9XtXtX9X9X9X0X9X9XtXB.9XtX0XB.9X9X9X9XB.9X9X9X9X9Xm.m.9XN.N.9XN.N.9X9Xm.9X9X9Xm.9Xk.9Xm.9Xm.9X9Xk.N.N.N.N.N.9XN.N.c.c.c.c.B.B.7X9XN.N.9XN.B.t.            * HXcXGXHXY.Q @XK.Z.s v P.NX>X| | n n =.=.r.t.8XaXZ.s S =.s.;.].NXKX+XA.b v P.aXHXnXbXDXDXbXbXJXDXGXaXY Z.SXhX&.G.Y.m 8 r.=.=.'.NX[.I v #.t.=.0.eXIXKXHXIXgXD.D.sX3X! -.A.s s =.=.=.}.NX@XP a =.t.=.*.fXsXK.m a =.s.=.'.SXLXcXGXGXoXP oXNX[.Q A.L a %.t.t.0.eXaXL.d I ].*.*.'.NXLXGXIXSXY.Y &XDXDXAXcXDXPX8XY oXY.L s I '.SX-X;.&.v *.s.r.t.].gX:Xm v *.*.=.*.8XIXgXY.U b %.'.SXLXAXD.J.sXaX3XaX3XaXY.G.I.I.Y.-.+XDXJXDXJXDXDXIXGX=X` oXNX-XS.S.S.I.Y.R.R.H.>X>XI.Q.;.;.).Q.W.sXHXAXJXIXoXY -XZXY.S.Q Y R.E.Q.H.W.sX>X! Q.R.Q.).Q.:XdXL. .(.R.).@X).5XJXHXKXLXsX-.[.SX-XP.&.m ! R.Q.X.).sXZXF.} Q.X.R.@X:X5XJXGXFXIXfX&.D.dXxXgXxXcXFXIX",
"l.l.h.M.m.z.l.k.l.l.l.l.z.z.z.m.k.m.m.m.m.m.9X9XN.z.9Xz.z.9X9XN.N.9X9XB.N.9XN.9XB.9X9XB.9X9X9X9XB.tXB.B.B.tXB.tXB.tXB.tXtX:.y y ) ' e.) q ) l ) ) w 1 o o o o o # 2.( 2.7._ 2.2.q # # - # # # # # 7 = # M A B B B ( 2._ _ < # l w B ] B ) l 5 e.!.] t.rXtX0XtXtXtX9XB.tXtXtX0X0X9XB.0X9X9X9X9X9X9X9X9X9X9X9Xm.m.9Xm.9X9XN.N.N.N.m.9Xm.9Xm.9X9Xm.9Xm.9Xm.9Xm.k.9XN.M.N.N.N.N.N.9Xc.9Xc.9Xc.B.B.c.z.9XN.N.9Xs.            * JXnXDXHXY.W /.L.` s %.'.VX>X| Q N S t.x.].`.eXfX3.b %.qXt.qXqXSXSX.X| d m '.gXLXFXDXnXDXDXDXFXGXIXhX` D.NXfXZ.D.S.b d s.t.*.'.ZX^.H v C t.t.].8XPXHXDXKXxXD.F.gX>X! Q &.d b t.t.=.[.gX@XD v *.t.=.6.fXaXI.m b ].s.*.].SXPXZXGXFX.XP  XZX.XZ.P.C v *.t.=.%.hXaXF.d L `.*.*.I.SXIXKXIXSX[.Y $XDXbXbXDXDXLX*XU -XY.L v L '.SX=XU.-.a *.t.=.t.].gX:Xm v =.=.t.*.8XIXgXY.J b *.}.SXLXxX` J.dXdXsX3XsX4XI.;.;.I.;.;.[.DXDXDXDXHXFXHXKX#X| -XxX-XI.Y.D.Y Y ;.-.Y =XgX@XI.-.;.Y.-.H.lXLXFXKXIX XP -XAXY.&.A.T.F.S.D.G.;.wXwX! H.H.R.Y.I.[.sXW.L.^.Y.W.^.W.4XGXIXFXIXaX-.Y.VX#X;.-.E ! H.R.Q.-.XXlXJ.F.K.H.I.W.W.$XDXGXKXIXhXZ.T.dXxXgXlXZXIXIX",
"l.h.l.l.m.l.z.m.l.l.z.l.k.m.k.z.9Xm.m.m.9Xk.m.m.N.z.z.z.c.z.z.9X9XN.N.9XN.B.N.9X9XB.B.9XB.9XB.9XB.tXtXtXtXB.tXB.B.B.9XtXB.1.y y w ' ' w 1 ] ) B k ) < o - - - o # 2.( ( 7.A A A 0 6 6 6 7 = 6 6 6 * 7 = M A A r r >.2.>._ < + k [ B B ] ] < < @._.' {.tXtX0XtX9XtXtXtXtXtXB.9X9X9X0XB.9X9X9XB.B.B.B.B.B.m.9X9XB.9X9Xm.9Xm.9X9XN.9Xk.9Xk.9Xm.m.9Xk.9Xk.9Xm.9Xm.m.N.N.N.N.m.N.N.N.c.c.c.c.9Xc.c.B.N.N.N.N.0Xr.            : LXbXJXJXY.Y /.K.` u D Y.gX*XA.Q b v 6.].t.6.eXfX&.v *.}.'.'.[.NXSX^.Z.m m Y.gXLXGXnXZXDXDXHXHXGXIXaXY D.VXfX3.S.-.m d t.qX].[.lX XK s L ].].].eXPXHXmXJXdXZ.D.sX3XA.Z.U d b `.].t.-XgX.XG b *.].t.].fX>XI.m n ].qXt.U.VXPXAXHXKX[.P .XNX+X3.D.D b 6.t.t.6.fX>XF.p P -X].;.[.SXLXFXIXSX[.Y $XDXDXbXDXDXPX*X| -X'.L N &.}.SX-XI.Y v *.=.b.].P.fX+XL n 0.t.s.P.>XIXNXY.P m *.-XAXLXvXU J.xX4XhXdXdXdX;.&.;.-.;.P [.FXZXnXDXDXHXLXUXoXY oXgX-XI.Y.-.a b &.P L wXgX+Xm 8 m &.L I.lXPXFXIXIXoXP &XUXY.3.Y.-.9 b &.L ! fXsX;.J s P P L Y.gXoX} H L &.U Z.aXLXKXKXIXaXZ. XSX-XI.'.I.P Q ! ;.m I.NX[.S.Q Q ;.;.| 1XIXIXKXIXhXS.J.gXAXZXSXFXIXIX",
"l.l.l.v.m.l.l.l.k.z.m.k.m.z.k.m.9Xk.m.7Xz.m.z.z.N.z.N.z.z.9Xz.c.N.9Xm.9X9Xm.9X9X9XN.B.9X9X9X9X9XB.tXB.B.tXB.B.tXtXtXB.B.B.i.y y ) _ 5.( 0 ] B l S S 7 o o - - - q 5.B ( 7.( A _ 0 6 6 6 6 6 6 6 6 6 6 = M B S r r >.2.( ( l < 2 w l ] B ] 3 5 _._._.2XtX9X9XtXtX9XtXtXB.0X9X9X9X9X9X9X9X9X9XB.B.B.B.9X9X9XB.9Xm.m.m.9Xm.N.N.N.N.k.9Xk.9X9Xm.m.k.9Xk.k.9Xm.9Xm.m.M.M.M.M.M.M.N.M.N.c.N.c.v.c.c.c.z.z.9Xz.0Xr.            * LXDXFXAXI.U +X-.Q h u ! lX*XD.Y d s L L L L =XaXY s b L N L S.gXSX^.| D u W aXLXJXbXbXJXJXbXJXDXGXaXY Z.SXhXU -.Z.D 6 L %.m Y.kX(.Y d s &.&.U 8XLXHXbXJXxX| | xX3XD.Z.U d f I *.&.^.dXW.F f N 9.*.Y aX4XI.F a *.`.3.P.vXPXHXLXUX.XP [.NX-X;.D.D f L P.P.6.aX3X..p h '.'.;. XAXLXHXIXUX.XP $XbXvXnXDXDXLX&X| -XU.N b Z.-XVX-XS.Y a *.t.t.t.P.aX+Xd n t.t.].6.3XPXhXL.F m P.-XSXPXSXZ.J.xX5XxX5XhX5XY.;.;.I.P.;.-XFXZXZXGXHXGXLXGX#X` -XVX+XG.'.;.a a %.L C wXgXoX&.v $.*.C P.cXLXFXIXIX XY =XSX[.P.}.6.* n *.m &.fXwX;.b 6 L L D '.NX XP a n L L P fXIXKXKXIXfXZ. XSX=XY.'.P.a a L &.b Y.SX[.&.a b L P I 3XLXKXUXPXhXD.J.xXDXDXFXDXGXKX",
"v.h.h.l.z.l.z.l.m.z.z.z.z.z.z.z.m.m.z.m.m.z.m.9Xz.z.z.9Xz.9Xz.9Xm.9X9Xm.9Xm.9XN.N.9XB.B.B.B.9XB.tXB.B.tXB.tXB.tXB.B.B.B.B.:.r y ) ' ' ( k l ) ) B S 7 o - - - - v U.B ( 5.( A 3.v y 6 9 8 8 8 6 6 6 6 # M A A t M >.4.( V ' < < ] l ] ] ' l [ ] _.!.u.2XtXtXtXtXtXB.B.tX9X9X0X9X9X0X9X9X9X9XB.B.B.N.m.B.V.9Xm.B.m.9Xm.9XN.N.m.N.m.m.m.k.k.9Xk.9Xk.9Xk.m.m.m.m.m.v.v.v.v.M.z.v.v.v.c.c.z.v.v.v.v.z.9Xz.z.9Xr.  .         & LXbXFXGXG.| oX! G G F.$XcX>XU D z H Y ;.'.J.3X3XY D D Y J.W.W.lXlXJ.F c K (.4XJXbXbXbXbXnXbXbXDXJXaX` D.SXaX3.U D D F G W Q /.jXK.K J F K U H.sXHXJXJXLXhX3.T.dXaX} | Y z d D P U :X4X .x h h D h J jX>X~ G F I _ Y W.cXLXJXHXKXoXP -XSXoX&.&.D p m D z Y sX:X..x j D L P Y.AXLXGXIXFX.XW :XnXvXnXbXcXLX*XU oXT.D f z XXAXoX` Y a L *.0.%.3.gXoXb v %.L $.L :XPXgXF.K p D W.bXLXSXU T.xX1X5X1XhX5XP.;.;.;.;.;.oXDXZXFXHXHXJXIXGXXX` =XNX-XS.Y.H.a n %.C C wXgX+XL a $.$.n Y.AXIXSXIXKX XK =XZX'.D.[.&.6 n $.n m NXgX;.C 6 C L C '.gXoXY b n %.L P aXIXIXIXIXsXZ. XSX=XJ.U.P.v a C L a '.UX-XZ.v n %.n I eXIXUXUXPXgXP.I.gXGXbXbXDXUXKX",
"l.h.v.l.m.l.k.z.z.z.m.z.k.z.z.m.m.m.k.9X7Xm.N.m.z.z.z.z.N.z.c.z.z.z.9Xz.N.9X9XN.B.9X9XB.9XB.B.9XB.B.tXB.B.tXB.B.B.B.tXtXB.i.y y B ' _ B k ) ( V V k 7 - o - o - = 9._ ( 4.( A _ s 6 9 6 6 a 8 8 6 6 6 = s Z ) B t ,.e.B ( ' < 3 ] l ] O.] ] 3 ] ' 5.u.rXtXc.9XtXB.tXtXB.9X9X9X9X9X9X9XN.N.9XB.B.m.9X9Xm.9Xm.m.B.m.9Xm.9XN.z.M.m.m.m.m.9Xk.m.m.m.m.m.k.k.k.m.m.m.l.M.l.M.z.z.M.z.z.z.z.z.v.v.v.v.z.N.N.z.9Xs.        .   : nXkXDXGXG.Q +X.XK.W R.3XdX#XW J L.R.! W.>XOX%X>XE.K. . .;X5X%XsX4XF.} ....5X5XmXmXbXmXmXnXnXbXmXLXsXY D.xXaX| U D | Y ~ 5X4X,XjXK.E ~ F.).3X>XdXDXJXmXDXdXT.` hX3XF.P F K ' L.=X>X5X5XX.R x Y OX3X;XdX:XR ~ ! } $X3X:XvXJXbXJXGX-XP oXSXoX` Y h G E I..XXXdX:Xx x E F.[.W.$XmXLXJXLXZX[.Y :XDXnXcXnXvXHX>X| .X| z z T.4XxX+XY m d m Y I.J.(.dX/.z z P A.S.| 5XPXhXW E G F.>XnXLXSX&.J.xX5X5XxX5XxXT.3.;.P.;.;.oXDXJXDXHXHXGXJXGXoX` -XNX-XI.Y.;.b m *.%.L fXgXW.m v %.%.L Y.vXHXGXLXGXE.Y =XUX[.P.'.%.6 *.*.m -.fXfX;.N a C C N '.gXoXI v n L D U aXLXHXHXLXwX-. XSXwXS.U.U.a e %.n a Y.ZX+X;.a n $.n %.eXPXUXGXPXgXS.I.VXGXbXJXDXFXKX",
"l.l.l.h.z.l.m.z.m.k.k.z.z.z.k.z.m.7Xk.m.m.m.z.z.z.z.9Xz.z.z.9XN.m.9Xz.9XN.N.N.9XN.N.B.B.B.B.B.B.B.B.B.B.B.B.B.B.tXB.B.B.V.r.r y ) ) ) k k V ( V V V 7 - - - o - - 2._ ( 7._ _ 2.k < 9 9 u 6 u 6 8 6 6 = k A A M r >.4.( 5.l # f l ) ] ] ' [ 5 ' ' e.q.tXtX7X9X9XB.9XB.B.B.9XN.B.B.B.N.9XN.N.B.B.9Xm.m.9Xm.m.k.9Xm.m.m.k.m.v.z.m.m.m.m.k.k.9Xm.k.9Xk.9Xm.m.k.9Xm.m.M.m.z.m.m.h.M.m.M.m.m.h.v.v.v.m.m.m.l.B.r.            % nXjXFXGXF.! >XK.@XsXE.R.4X:X! K X.%X;XW.R.R.;X;XQ.).,X).X.X.~.4XsXR.Q.%X~.X.,XbXbXmXmXjXvXmXzXvXJX3XK U xX3XY J J J./.X.~.).,XsXQ.E.@XR.R.:X%X4XGXHXvXGXgX3.` hX3XQ J W X.R.X.OX%X,X5X~.R.).X.L.:X@X5X,X .).W...;X5X;XjXJXbXFXUXoXI oXSX[.U J W H. .Q.:X:X5X).R.Q.~ ! >X3X:XjXJXJXHXGXW.E @XcXvXnXFXmXJX*XQ XXY.X...%X4XxX^.U F.H.E E ;X5X).3X%XR.L.W _.3X%X:XDXkX(... .:XjXlXLXSXU A.5X1X1X1X1X1X!.T.I.P.I.;.+XbXmXDXFXHXGXJXGXoXY =XSX-XA.I.P i a m b b >XsXW.h a L L d A.vXLXHXLXKX^.H =XUX'.S.[.&.8 n *.m P gXwX;.b a L P L [.gX[.Y b L P L U sXLXHXHXLXsX-. XSX=XY.Y.P.n n *.L m W.nX.X-.a C *.L 3.fXIXGXKXPXgXP.Y.gXHXDXDXAXKXKX",
"l.l.l.l.h.l.l.l.m.z.z.z.k.z.7Xk.m.m.m.7Xm.9Xk.k.z.z.z.z.z.z.z.z.9X9X9Xz.9Xz.9Xz.m.9X9X9Xm.9Xm.9XN.N.N.B.9XB.9X9X9XB.B.B.tXr.e y ) ) ) k ) ] ) B B C 9 - o o - - 7 $.A %.7.>.( _ M 9 u 9 6 u 6 u 8 u 6 = s A A r r >.7.A I A $ f ] l ] ] ' ' [ ) 5.2.t.rX7X9X9X9XtXB.9XB.B.B.9XB.9XN.9X9XN.N.m.9Xm.9X9Xm.9X9Xk.9Xm.N.v.z.M.z.v.v.9Xk.m.z.z.z.m.z.l.z.l.z.l.z.m.m.m.m.l.m.l.m.h.M.v.V.h.V.h.v.h.V.z.m.v.l.M.r.            : HXnXHXHXG.J %XJ ~ sX_. .vX5X| z 4 ..4X,XH.(.,X,X..X.,X,XX.X.~.4XcX;.~ ,X,X..5XJXJXbXDXnXmXnXmXnXbX3XK | xXaXY Y z z #XjXX.Q.:X4XL.E 4XsX,XQ.@X4XDXLXDXHXhXQ Z.sXwX;.W x J %X3XL._.5X4XH. .,X4X).X.~.4X:XE @X>X4X_.~.,XjXLXcXDXAX XH -XNX[.Y F K Q.,X~.Q.).sX@X~ ,X5X@X.._.;XjXJXbXFXNXR.F ).jXjXvXvXvXJX#XJ [.R.%X5XR.;XxX^.H } ;X4X;X~._._.5X).).,X,XW.W.%X;XbXdXQ.%X#XOX5XxXLXZXP -.aX>X3X>XwX>XI.S.I.S.I.-.XXmXmXmXDXHXDXLXUXoX` 1XcXoXS.Y.P f i m j m >XzXR.m i d d i  .gXHXGXIXKX[.m &XKXW.;.Y.m 6 8 a 8 h >XwX-.a 6 a a a G.gX+XP 8 a m i m >XHXKXKXIXaXZ. XZX#XI.[.;.a a m m h K.lXW.P a b L D K >XPXGXKXIXgXS.I.gXKXAXDXDXKXKX",
"l.l.l.l.l.l.v.l.k.z.z.m.z.z.m.m.7Xm.m.m.m.m.k.9Xz.z.9Xz.z.9X9Xc.9Xz.z.9Xz.9Xz.9X9X9X9Xm.m.9X9X9XN.9X9XB.B.9X9XN.B.B.tXB.B.u.#.y ) ( l w l ) ( V V V q o o - - - o e A A e.( A _ k 9 9 u 9 u u u u 6 9 = s A ) M r :.7.A 2.N < < l ] ] ] ] O.[ < H A u.9X9X9X9XtX9XB.B.9X9XB.9XB.N.N.N.N.m.9X9X9X9Xk.k.9Xk.m.m.m.M.M.N.z.v.M.v.M.m.m.l.z.m.z.m.k.z.l.z.l.z.m.m.m.m.k.l.n.h.l.h.h.h.h.v.h.v.h.v.h.h.l.l.h.B.r.  .         * nXsXlXHXG.z } F h ). .J 5X(.K z z K _.R.E ~ )._.x x L._.~ O. .4XlX;.j R.~.x %XDXFXbXAXJXmXbXJXJXLXdX` Y *X*X| U g z (.5XE ~ /.jXL.z Q.4X>XA.OXsXDXHXFXLXgXP.| .X>XI.-.z c _.5X.. .3XdX! E @X4X~.o.~.jX>XF H.:XzXR.~.4XvXLXHXGXFX XY Y.sX@X-.L d  .4XQ.Q.@XdX,Xx Q.5XdX!.X.%XjXJXDXFXZXW.W $XvXnXbXAXmXLX:X! .X! R.4XX._.mXOXY z E 5XnXX.R.1X5X/.R.,XsX@X).5X;XHXsX..).xX_._.mXLXZX&.S.dXaXaXaXsXaXG.-.S.;.A.&._.zXmXmXFXDXDXLXGX^.` =XVXoXP.S.P -.W.[.W.Q.dX4X~ H.W.Q.~.R.%XGXLXUXPXKXI.P wXIX[.;.I.D m P J ! L.mX4XE m G ~ E E Q.dX[.E m j E G ~ aXLXKXUXIXaX3.[.SX-X;.;.&.8 a m m i F.cXQ.x i p p i z $XHXLXKXPXgXP.U.gXAXZXGXDXAXKX",
"l.l.l.l.b.v.l.l.m.z.z.z.m.z.m.k.k.m.9X7Xz.m.9Xk.z.9Xc.c.z.c.N.z.z.z.9X9Xz.9Xm.9X9Xk.9Xm.9Xm.9Xm.9XN.9XN.9XB.9XB.B.B.9XB.tXu.t y ) ( V k ( V V ] V S q o - - - - o 7 $.%.9.( A _ k 9 9 u u 9 a 9 u 9 u = s V A B w Z 0.2.2.# X f l l [ ' O.] [ w ' >.u.7X0X9X9X9X9XtXB.B.B.9XB.B.9X9Xm.9X9X9X9Xk.m.9Xm.k.k.9X9Xk.M.M.M.M.z.M.M.v.m.m.z.m.m.k.z.z.z.l.l.z.k.z.m.m.m.m.k.l.l.l.n.v.h.v.h.v.h.h.v.v.h.h.h.h.B.r.            % >X;X,XsXL.W F.!  ./. ...%XK.Y Y } E. XW.S.H.OXR.E ! K.W.F. .! :X>X-.G K.L.E ).sX>X*X>X3X:X,X,X5XdX%XJ K Y.Y.Y G m ! +X+XA.! E.5X| x } XX[.-.-.=XlXdX5XkX*XY z ! I.;.m D ! OX_.` K /.3X-.E R.;XX.R ..:XOXD ! XX5X! ! ).sXHXcXZXAX^.D W [.[.&.D z H.:XE.E ;.4X).j ~ _.%X..` %XdXJXmXFXZX[.P G.sXAXDXmXmXGX+XG -.F E ;X| X.4XE.Y D j R.5XK Y (.,XL.E R.>XR.' ..:XHXsXc ~ 5XX.R.mXLXmXA.U G.G.T.F.G.G.I.J.J.I.Y.S.%XmXvXbXDXDXAXLXAX XY =XlX[.Z.Q U Y.Q.Q.Q.Q.,X>X! H.).~.Q.~.).vXPXUXPXKX[.-.>XSX[.I.-.! H.(.Q.(.).dXwX~ -.;XQ.Q.Q._.sXH.Q W._._.Q./.dXJXGXKXIXeX&.Y.NX-X;.P.-.P ;.;.I.K.:XcXR.E ~  .o...R.dXLXHXSXIXgXI.Y.NXUXFXGXDXUXKX",
"l.l.l.h.v.h.l.l.k.z.z.m.z.m.7Xm.m.m.k.k.z.z.m.7Xz.z.z.z.z.c.9Xz.z.9Xz.m.9Xz.z.9X9Xm.9X9X9X9X9X9X9XN.9X9X9X9X9X9XtX9X9X9X9Xr.e 7 B ( ) B V V ( B Z S q - o - - - - 7 $.%.4.>.A _ N q 9 9 8 u 8 u 6 u 9 6 0 V A B r ) 4.2.I = o < ) l ] ] ' ] ) [ M ,.t.tX7XtX7XtX9XB.B.B.B.B.B.9Xm.9X9X9X9Xm.m.9X9Xk.m.9Xm.k.9Xm.m.z.l.v.l.l.v.l.z.z.l.z.m.z.z.k.x.z.l.x.k.m.m.k.m.k.m.l.l.l.n.h.v.h.v.h.v.h.h.h.h.l.v.h.V.r.            : HXcXcXbXE.Y.3X/.H.J ! /.dX/.-.3.Y D ` P.P.W.=X$X-.P -.S.'.@X>XgXlX@XI.G.} G.>XvXdXsXdXdXdXjXzX4XkX$XJ S.gX*XA.Q Q Q -.P.P.P.XX3XE.` K D P &.;.#XlXdX5XdXOXJ A.,X[.-.Q ! F.L._.T.| oX=XI.;.Y.^.^.(.L.$X/.| G Y D.&.P A.sXjX:X:X3XH.E K.@XG.W E Q W.[.'.I.I.>X).~ R.(.XXT.T.XX4XjX5XsXaX;.Q K././.%X%X3X&XH.Q A.W ^.*XL.L.1XT.K Y H.F.W.I.| R.). .~ W.+X^.| ..%XcX@Xx R.%XJ.X.5XdX3XP F J Y Y P G K Y.W.W.W.W.I.%XmXvXDXbXDXAXHXAX XY =XVX XZ.&.Z.:X,X;X;X;XzX,XQ.4X4X,X;X,X:XmXLXGXHXKX[.P 8XFXW.;.! -.,X,X,X,X:X4X>X-.,X,X;X,X_.3X4XH.I.:X;X;X).Q.4XDXJXGXLX3X-.Y.SX-XZ.&.Q I.Q.Q.Q.W.@XkXH.~ Q.~.~.X.~.5XHXKXUXPXgXS.J.gXSXKXGXGXKXPX",
"l.l.l.l.v.h.l.l.z.z.l.z.z.m.z.z.m.m.m.z.z.z.z.z.z.z.z.z.c.z.z.9Xz.N.z.9Xz.z.9Xz.k.9X9X9X9X9Xk.9X9X9X9X9X9X9X9X9X9X9XB.9XB.u.e 7 ) ) B k ] l ( ] V B 9 - - - - - o # s 2.4.2.( _ M 9 u u 9 u 6 u 8 9 9 = 0 B I B r ) 2.7.w - X < ] k ] ] O.e.] ] l >.u.9X9X9X9X9X9X9XN.9XB.B.B.9X9X9Xm.9X9X9X9Xm.m.m.9Xm.m.m.m.9Xm.z.l.v.v.h.v.v.M.v.l.z.z.k.m.z.l.l.l.z.l.l.v.l.v.n.l.h.h.l.h.h.h.h.h.h.h.h.h.V.l.h.n.g.V.r..           : JXjXJXLXJ.U *XJ.Q h A.3XDX+XU 3.D s %.6.&.&.+X>XU d *.-X8XgXSXIXAX#XT.m i Q 3XLXHXbXnXbXbXbXJXJXHX4XY Y.AXaX-.G.G.d i *.*.I P.dX(.H 3 a &.%.&.=XLXJXJXJX4X} Y.lX>X-.I.;.i d &.6.I oXdXW.P d n =.*.%.hX3XF.m u $.L L S.vXJXmXmXnX). .3XNXoX-.A.G L P.}.}.-XlX>XK.E F 3.2.Z.-XcXmXvXmXlX[.;.4XlXkXdXdXxXkX#XY.#XY.F.Y.G.+XgXW.A.-.P &.P.`.=X3XjX).! &.P. X|./.dXIX>XI./._.^.%XjXmX3XY +XcXxXvXgXxXvXY.I.Y.I.Y.I.&XZXmXDXDXGXAXLXUX^.` =XNX^.3.Y ;.Q.;.Q.).;XzX,Xo.,X).;XQ.:X>XnXLXGXIXIX[.P 8XKX[.D.G ! @X,X,X>X>XzX,X! ,X,X).;X:X5XsXR.(.,X5X5X5X5X4XmXJXJXPX3X3.Y.SX-X;.&.F.$X:X@X,X>X4XlXE.Q.4X<X;X5X5X4XJXAXGXPXgXS.S.gXGXSXFXHXKXPX",
"l.h.l.l.l.l.l.v.l.z.z.k.z.z.z.z.z.m.7Xz.z.z.m.7Xz.z.z.9XN.z.z.N.9Xz.9Xz.9Xz.z.9X9X9Xk.9Xm.9X9X9XN.9XN.9X9X9X9X9X9XB.0XB.tXr.t 7 ) ( B w ) ( ( B V N q - o - - - o o q 2.4.( A _ N q 9 9 6 8 6 * * 8 6 = 9 V A Z r A >.t.q . X < w ] ] ] ] O.] ] k %.t.7X9X9X9X9XN.N.9XN.B.9XN.N.9Xk.9Xk.k.9Xk.9X9X9Xk.k.9Xk.m.k.M.l.v.l.l.v.l.l.l.l.l.l.z.z.k.z.l.l.l.l.l.l.v.h.h.v.h.v.n.l.n.h.h.h.h.v.h.h.j.h.h.h.h.g.B.r.        .   & JXmXAXJXF.` &XY.A.h Z.8XSX=XS.S.L N *.*.*.%.-XaXS.n &.7X8XMXNXUXmXXX| D d A.aXLXJXbXnXvXnXnXnXDXGX3XY S.lX=XU A.G.h i 6.=.%.Y.xX^.Y N $.;.*.&.8XLXJXJXLXaX` D.hXwXZ.I.-.a v 6.*.L  XgXQ.G 8 *.t.*.%.fX>XA.D u ].*.*.I.AXLXJXmXbX(.J $XSX X-.I.D L qX8X8X8XSXsX-.d b %.%.L Y.AXLXGXLXSXI.-.>XZXvXAXJXbXDX*X` +XY.D d L -XNXI.-.Q a ].}.}.MXAXkX).b v *.%.%.P 3XIXgXI.E D Y $XmXLXcXD !.DXxXvXvXvXxX XY.[.Y.Y.I.>XFXbXbXJXJXJXIXKXoXI 1XVX XZ.3.I.I.Q.Q.Q.;.wX,X~ _.Q.E.W.).).kXLXUXIXKX[.&.=XFXY.S.Y G H.H.W.Q.[.zX4X~ Q.Q.;.Q._.:XsXQ.K.R.X.X.X._.dXJXJXGXLX1XU Y.SX-XP.&.A.W.R.:X).:XsXZXK.Q.,XQ.X.,X5XdXGXJXKXPXgXP.I.gXAXZXDXHXKXPX",
"l.l.v.l.l.l.v.l.z.k.l.k.k.z.z.z.z.7Xz.z.7X9Xm.9Xz.z.z.9Xc.z.9Xz.z.9Xz.N.9Xz.N.9X9Xm.9X9X9X9X9X9X9X9X9X9X9X9X9X9XB.tXtXB.tXs.t 7 ) >.B w V ( V V S M 7 - - - o - - - 0 2.4.>.A _ B 9 9 8 : 6 * 6 6 * 6 = 9 A A Z t :.>.e.0 . o < k [ ] ] ] O.] ] V 2.t.qX9XqX9XqX9XN.m.N.N.9X9XN.9X9X9Xk.9Xk.9Xm.z.m.m.9Xm.m.m.7XM.l.v.l.v.h.v.v.v.l.l.l.l.l.l.l.z.l.l.l.l.h.v.v.v.h.h.l.l.h.h.h.h.h.h.h.h.h.V.j.g.h.n.f.V.r.  .     .   * JXmXbXJX!.` *XY.-.d P [.NX=XI.G.D v *.=.6.].aXsXS.b *.t.qX8XeXVXvX#X| h d A.aXLXbXbXmXjXkXvXDXDXLXaXY S.cX=X| I.F.g 8 =.=.C P.gX XH v $.*.*.6.eXHXGXJXHXaX| D.hXwXA.S.&.a v *.=.L [.gXW.m a $.6.$.%.hXaXS.D a *.*.$.].VXIXVXJXAX(.G =XVXW.Z.U.L n ].7XqXqXSXwX;.m n *.*.%.'.AXLXGXLXSX[.-.4XZXlXvXAXvXJX$X` oXU.D b P 8XNX[.A.P v ].qX7XhXlXkX/.b C =.t.t.&.>XIXgX[.P b P -XAXLXgXH T.mXxXdXxXxXdX XJ.Y.Y.Y.I.&XDXAXAXGXGXGXIXKXY.Y eXVX XS.T.I.-.;.[.H.-.sX>XF.K.F.I.I.G.K.ZXPXUXIXKX XP 8XZXY.P.S.I.I.Y.[.;.W.sX>XH.,X[.I.[.W.&XsXG.A.K.L. .L.!.sXFXmXGXJX1XY Y.SX-XD.&.-.E.K.XXW.Y.*XvXY.L.).Q.Q.@X%X3XGXIXKXPXgXS.I.xXGXbXFXGXIXLX",
"z.l.v.b.v.h.v.l.l.l.z.z.k.z.b.z.m.m.m.k.m.m.k.m.z.z.z.z.N.c.z.z.N.z.9Xz.z.9Xz.z.9X9Xk.k.9X9Xk.9X9Xm.B.9X9X9X9X9XtXB.B.B.B.u.t 7 ) ,.B w ' ( V ] C n 7 - - o o o - o q 2.4.>.A _ N 9 9 u < 9 6 9 6 9 9 = 9 V B S t ) ( 4.w o X 1 3 l [ O.O.O.] ] l %.t.9X0X0X9X9X9X9X9X9X9Xm.9Xm.m.9Xm.9Xm.9Xm.m.9Xm.m.m.m.m.m.k.l.v.l.m.v.v.l.l.M.h.m.l.l.l.l.l.h.l.h.h.l.h.h.h.n.n.h.h.h.h.v.h.h.v.h.h.h.h.j.V.h.h.n.n.V.r.            < JXmXbXJXL.` *X'.-.b Z.-XNX=XS.S.b n ].qX8XhXUXaX-.b *.qX8XMXSXVXvX%X .D Y #XdXLXJXmXmXnXvXvXmXFXHX3XY D.gXaXZ.G.} d i $.=.L P.hXXXP b &.}.`.}.hXIXGXDXHXaX` D.hX3XZ.D.&.v $.t.t.6.8XgXI.m a n $.S C eX=XS.d a =.*.$.;.VXPXAXGXAX^.Y =XSX X` T.C S t.].`.{.VX3XH.d v =.$.%.!.UXLXAXKXNXW.! wXFXbXAXDXbXJX$X| oXY.N v N -XNX'.I.P v 0.t.t.}.eXgX Xb $.t.t.t.P.aXPXfX'.m b %.-XGXLXgXH L.dXhX4XdXdXdXY.J.Y.I.Y.P.#XGXmXGXDXJXGXLXKX^.U aXSX XT.Y.Z.a m ;.-.P sXsXJ.D a ;.;.%.I.SXPXUXIXKX[.U 8XSXY.T.I.&.b &.;.&.;.sXwX;.! ! ;.;.;.-XsXW.S.U ` S.T...aXIXGXUXLXaXU '.SX-XS.Z.Z.G.S.U.I.U Y.vX/.K.I.Q.[.;.^.aXIXIXUXLXMXD.P.NXDXmXJXDXGXPX",
"z.z.z.b.v.v.l.z.l.l.l.z.z.x.z.x.m.k.z.z.z.z.z.z.z.z.c.c.c.N.9X9Xz.9Xz.z.z.z.9Xz.9X9XN.9X9Xk.9X9X9Xm.9X9X9X9X9X9X9X9X9X9XtXu.e 7 ) ,.B w ( ' V V k f 1 o o o o - o - 7 =.4._ A _ V 0 9 2 2 9 u u u u 9 = 9 M B B t ) ( 5.w o o # 3 5 [ [ [ @.[ [ [ ,.i.2X9X9XqX9X9X9X9X9X9Xk.9Xm.9X9Xk.9Xm.9Xk.9Xz.N.m.z.v.v.v.l.v.l.v.v.v.v.h.v.l.l.n.v.h.v.b.h.v.v.h.h.v.h.h.h.h.h.h.h.h.h.h.h.h.h.h.h.V.j.h.j.h.h.h.f.V.r..       .   & LXbXJXIXE.` *XK.J d D.OXSX#X3.Z.C L }.8X-X8XfXaX3.l P.-X8X8XaXxXvXXX| F ` $XdXLXJXmXmXvXvXvXvXDXJXaXY T.gXaXQ S.Q p h ;.*.&.'.lXW.D m I.8X-X=XNXIXUXJXHXaX&.D.hX1XZ.Z.I b *.yX8X8XhXgXI.G v ;.`.6.P.hXwX-.i m }.qX].-XUXPXUXGXvX^.` #XSX'.| 5.N C }.7X7X-XUX>X! b L 6.*.&. XUXJXUXIXSXY.` aXDXvXAXDXmXHX$XA.[.I.N m L 8XNX[.P.P n ].}.}.uXxXgX^.N *.qX7XBXgXdXIXgX'.P ;.;.aXKXLXgXP Y.xXdXdXdXxXdX X!.^. XY.Y.>XHXbXJXJXJXGXIXIX XY aXSXY.P.^.3.a m *.*.P gXfX;.m 8 *.*.*.I.AXPXKXIXIX^.Y 1XSXU.U.'.L 8 m *.*.*.gXhX-.a a m m *.&XNX@X&.a a &.m P wXIXKXGXPXaX` !.UX-XS.Y.-.b b %.P m Y.UXXXZ.l L P %.&.eXIXGXUXPXgXP.S.gXbXbXbXbXHXLX",
"z.l.v.v.v.b.v.l.z.l.b.z.z.z.z.z.k.9Xz.9Xz.z.c.c.c.z.N.z.c.z.z.z.9Xz.9XN.9Xz.z.9XN.N.9Xz.9X9X9X9X9X9X9X9X9X9X9Xk.9X9Xk.9XtXs.#.7 Z 2.B w V _ l ' l k < - o o o o - o 9 =.4.>.B A C 9 9 9 9 9 9 9 9 6 6 = q v V B r V >.5.w o o & 3 [ [ @.[ @.[ [ ] i.i.tX9X9X0X9X9X9X9X9X9X9Xm.9Xk.9Xm.m.9Xm.m.m.m.m.N.m.l.v.v.l.l.n.l.v.n.v.h.l.h.l.h.h.l.h.h.h.b.h.v.h.h.h.h.h.h.h.g.h.h.j.h.f.h.f.h.f.h.j.j.V.h.f.f.h.V.r.            & LXJXHXLXY.` *XK.J i z J.xX*XT.Z.m b P P P Y oX3XU d Y ;.;.;.G.hXvXOX' p h  .3XJXmXmXmXmXzXnXbXDXLXaX` G.gXaXA.I.! i i P &.m I.gX.XF i F A.A.I.fXIXKXDXIXaX| D.hXaXA.;.Y v L `.].].=XgXY.h 8 ;. X'.!.gXsX;.i m -X[.'.+XUXIXAXHXAX^.Y =XNX XD.| b N `.}. XU.lX>X! i L 6.Z.Y (.bXLXGXIXSXY.Y 3XDXvXAXAXmXHX#X-.+XS.d D P >XNXW.I.P v ].}.|.eXaXhXW.b &.}.8XMXeXdXIXsXI.D ;.8XhXJXPXgXY ^.mXxXxXxXxXxX XJ.Y.Y.Y.G.*XHXDXbXmXGXGXLXKX^.P eXVX XS.Y.Z.a m %.m %.gXfX[.*.8 *.*.m I.HXPXFXIXKX^.Y =XVXY.P.'.*.6 n n n ;.gXaXZ.n n *.*.n ;.NX&X;.a n L n &.fXIXGXHXLXaXQ ^.SX=XG.W.P.v v $.%.C U.AX(.3.a b *.*.&.eXPXIXUXPXgXT.T.gXJXmXJXbXGXIX",
"l.z.z.l.z.l.l.v.z.l.v.v.z.z.z.z.z.z.z.z.c.N.z.9X9Xz.z.z.z.z.z.9Xz.9Xz.z.z.9Xz.9XN.9XN.N.k.9Xm.9X9X9Xk.9X9X9X9X9X9X9X9X9XtXu.t 7 ) _ k w ) ] l V ] f < 1 o . . . o . 6 0.4._ B A V s < < * 9 9 9 9 = # = 0 M B w r B 2.5.l o # < [ [ { [ [ @.O.[ ] _ q.7X9X9X9X9X9X9Xm.9X9Xk.m.9X9Xm.9Xk.m.9X9Xm.M.M.m.v.v.v.v.n.l.M.M.h.v.v.h.h.h.h.h.l.h.h.h.h.h.j.h.h.h.h.h.h.h.h.h.f.h.g.h.h.f.h.h.f.h.h.h.j.h.j.h.h.V.r.            * JXnXJXLXY.W *XF.` ....$XAX&XS.-.D J  .} R.(.dX3XE E  .~ !  .).vXmX(.J E | X.4XJXmXvXnXnXnXbXDXGXGX3XY S.gX3XQ F.Y p F ! ~ ! @XlXR.x x R E ~ ~ 3XIXKXDXJXaX-.Z.gXwX-.-.U s d P Y J $XgXK.F m G P F Y aX>X! R R -.-.! K.vXLXJXHXZX XU *XNX[.Z.-.h d P Y H Y kX5X~ p h P P G E.mXLXAXKXSXY.Y 3XAXcXAXAXAXLX+X-.&XA.d p h @XlXY.;.P a P 6.3.` Y.dXY.p D Q -.S.Y :XPXfXT.z m -.>XmXLXgXD !.mXxXxXxXxXxX(.U.Y.Y.Y.S.*XFXDXJXJXJXGXIXKXY.Y 1XUX XP.Y.Y a L *.*.P gXwX;.P n &.*.m ;.HXIXFXIXIX^.Y *XUX{.3.'.%.n n %.n &.gXaXZ.a a *.n *.[.fX[.&.a n n m &.fXPXKXGXLXaXZ.Y.SX-XA.Y.I.v a $.n v Y.SX-XZ.v n %.L %.eXPXUXGXIXgXT.I.gXAXmXJXFXIXPX",
"l.z.z.z.z.z.v.l.l.v.v.v.z.z.z.c.9Xz.z.x.z.z.z.z.z.z.z.9X9Xz.N.z.N.z.9Xz.N.c.z.z.N.z.9X9X9X9X9X9Xk.9X9X9X9X9X9Xk.9Xm.9X9X9Xs.t 7 B ( B w V ' ( l ) l 0 < # o o . . - M 2.2.4.A V V M 9 = = = * = # # = < 0 B 0 B M S %.5.l - 1 5 [ [ @.@.@.[ @.O.l 4.u.2XqX9X9X9X9X9Xk.9X9Xm.9Xm.k.9Xk.9Xk.9Xk.m.v.m.z.z.v.l.l.l.h.l.v.l.n.l.l.l.l.l.h.h.h.h.h.h.h.b.h.j.h.j.h.h.f.g.h.h.h.f.h.j.h.f.h.h.j.V.j.h.f.h.h.j.V.r.        .   > JXnXJXLXY.Z.aXJ.| ...._.vX*XS.Y J H.H.~ x E %X:X!  .R.Q.o.o.Q.dXvXK.W  .X.~.4XJXmXmXmXnXbXbXbXDXKX3XY D.cXaX-.! J F ! H.X.H.;XdXH.R X.X.o.X.Q.3XHXGXJXJX3XQ S.hXwX;.;.P x ! R.K. .:XsX! E H.X.X. . .gX>XF ~ -.~ Q. .).kXJXJXLXAXW.U >XNXW.U Q F W H.H.| | kX>XE ! ~ o. . .).mXJXAXKXSXY.` aXAXvXDXGXDXGX-X;.+X-.J  . .>XZX[.-.P m -.D.D.T.XXdXL.E  .E ! ;.H.dXIXsX} E ~ K.4XJXLXgXY Y.xXdXjXxXjXxX_.E.^. X.XY.3XHXDXDXAXJXDXLXUXJ.P aXAX XS.Y.G a m Y m m sXsX[.m a -.;.m ;.FXIXFXIXKXY.Y eXSX XU.'.I 8 *.&.%.;.gXaX-.b n *.n m [.NX&X&.n C %.L ;.sXIXGXDXLXaXZ.Y.VX#X .Y.P.a v *.C b '.NXoXZ.b n n L &.aXLXGXIXIXgXU.T.gXbXmXbXFXLXLX",
"z.z.l.z.z.l.l.v.l.v.l.v.z.c.z.z.x.z.z.z.c.c.c.N.z.c.z.z.c.N.9Xz.N.9Xz.z.9Xz.z.N.9Xz.9XN.9Xz.7Xm.9X9X9X9X9X9X9X9X9Xm.m.9X0Xp.$.y t ( B k ( ' _ l l ] B k < < < < 7 s N 2.4.2.B A B B M 9 = = - # = < 9 w k w M ) r B 2.5._ ] ] O.@.@.@.[ @.@.[ [ ] _ 9.7X9X7XqX9X9X9Xk.9X9Xk.k.9X9Xm.k.m.9Xm.9Xk.v.z.l.v.v.l.l.l.v.h.l.v.v.h.l.v.h.l.h.h.h.h.h.h.h.j.j.h.h.h.h.j.g.h.h.f.h.h.h.g.h.j.h.f.h.f.h.j.h.f.j.h.V.r.            * HXmXJXLXJ.;.>XG. ...3 x sX*XD.U  .).;X;X~...R./. .Q.~.~.<X<X;XzXkXL.~ ;X;X<X5XbXGXDXbXnXnXDXcXFXHX1XY D.gXaXD.-.G F.).<XQ.Q.;XsXQ.~ <X<X~.Q.Q.3XGXJXmXJX3X` G.fXwX;.! ~  .Q.Q.Q.H.;XsXA.! ).X.X.~. .4X>XG Q.Q.o.~.Q.~.zXJXHXHXcXY.U wXNXI.-.U ~ Q.Q.Q.R.X.xX%XE W.Q.X.~.X.;XzXJXJXHXZX'.U aXmXvXbXmXvXFX+X;.[.-.H.). .:XkXW.-.-.} W.R.Q.R./.4XX...X.o.o.O.X.4XIXsX-.o.~.~.,XnXPXSX&.Y.xXjXjXdXjXxXXXY.^.^. XY.wXIXFXDXDXDXFXLXUXI.P aXUXI.S.Y.D * u f : h sXsX;.p 8 d p i -.FXIXFXIXKX^.Y eXSX[.I.;.m 6 a m m G sX4X-.v a C b m Q.lX[.P a v m b F aXIXGXFXPXaXY Y.vX*XF.I.Z.a n C %.m Y.SX X-.b D Y Y Z.aXLXHXGXPXgXT.T.gXDXbXJXDXHXLX",
"b.l.c.c.z.z.l.v.z.l.v.c.z.z.c.z.z.z.z.c.c.z.z.c.c.z.9XN.9Xz.N.c.z.z.9Xz.N.9X9Xz.9X9XN.9X9X9X9X9X9X9X9X9X9X9X9X9X9X9X9X9X0Xx.#.y Z ( k V ( ' ' l l ( ] l ' c ' M A V B 2.4.>.M A A A A V B ( k k A S M B M w A ( r B _ 4..._.O.] [ [ [ [ @.@.[ w ] 5.9.qX9X9X9X9Xk.qX9X9X9X9X9Xm.9Xm.9Xk.k.9Xm.m.M.z.v.l.v.M.l.l.l.l.h.l.l.h.l.n.l.h.h.h.l.h.h.h.h.h.h.h.j.h.h.j.g.f.h.h.h.f.h.h.h.h.j.h.h.h.f.h.h.h.h.h.V.r.            * LXmXmXbXZ.&.aXQ ..X.c X.jXoXU Y } ..| ..R.Q.:X:XH.Q.X.o.o.~.;XzXkXY.~ Q.Q.;X4XJXmXmXnXnXnXbXDXGXHXaXG Z.hX*X| ! F ! /.Q.Q.).,XzXQ.~ Q.Q.<XQ.<X5XmXJXmXJX1XQ I.gXwX;.! x ~ Q.~.<XQ.,XzXF.H.).Q.X.%X_.dX>XG ).~.;X<X;X;XmXLXFXHXZXW.Q 8XgX'.&.P -.Q.~.<X~._.DX3XQ ,X;X;X6X<X;XmXJXJXIXSXY.Y aXmXvXAXcXmXFX+X-..XF.R.;X;XjXvXY.U -._.).;X;X).,X4XR.~.;X;X<X<XX.3XLXwX .Q.<X;X6XJXPXgXP K.mXxXxXjXxXdX.XY.Y.Y.W.J.>XIXDXDXbXGXFXIXKXY.J hXSXI.S.I.I | (.L.o.L.kX3X! -.K.K. . .:XFXIXKXIXKXY.U >XUX[.;.;.E a m E m F.jX3XJ m b h h j ;.sX[.L f p g p F sXGXFXFXLX1XY Y.AX=XF.Y.-.a 6 a u * I.AXoXP 8 u f p p %XLXHXHXPXgXP.T.gXAXDXbXDXFXFX",
"c.z.z.c.z.z.z.v.l.b.v.v.z.z.z.z.z.z.z.z.z.z.z.z.N.N.9Xc.z.z.z.N.9X9Xz.9XN.z.9X9XN.9Xz.N.m.z.9Xm.9X9X9X9X9X9X9X9X9XB.9X9X0Xb.$.7 t ,.V k ( ] _ ' l l l ) V H l l V M A >.4.4.B ( A V _ V ( _ 2.2._ _ ( A B w ( ) w r _ ' ' ] O.O.[ [ [ @.@.@.[ [ l 5.9.7X7X9X9X7X9X9Xk.k.9Xm.9X9Xm.9Xk.9Xm.9Xm.k.M.z.z.z.z.l.l.l.l.h.l.h.h.h.l.l.h.b.n.h.h.h.h.h.h.h.j.h.h.h.j.h.f.h.f.f.f.h.g.j.f.h.h.h.h.h.f.j.j.j.h.j.V.r.  .         * LXjXmXmX` Y wX! | o.O.R.xX#XU Y } J x x z J %X@XF.R.H.~ X.o.Q.dXvXJ.E o.Q.~.jXJXAXmXmXbXbXnXcXDXHX3XY Z.gX*XY P F E Q.;.~ Q.,XsXH.~ Q.~ o.K.Q.5XDXmXmXGX3X-.P.gX=X-.P G ! Q.H.Q.Q.:XsXA.A.X.o.O.X.L.gXaX! Q.~ o.X.~.;XnXJXZXHXUX[.Q wXgXY.&.P ! Q.o.~ ..Q.AX>X~ Q.~.X.X.X.,XmXHXZXKXNXY.Y aXbXkXcXnXzXbX@XH.).H.X.X.Q.4XzXG.P Y L. .Q.Q.).1X4XR._.R.X.X.X.;X4XIXwX....Q.;X6XJXLXMXP E.mXdXdXjXjXdX XY.'.W.'.J.3XPXAXbXcXDXFXLXIXW.Y sXSXG.Z.Z.S.XX_._.~.~.zX4X! W.(.~.Q._.,XSXIXKXIXKX'.U wXNX[.;.~ ~ ;.Q.;.;.(.dX$XY H.E.R.X. .,XzXI.Y J.R.L.L._.vXLXDXDXLXwXU Y.UX&X-.I.Y h J } W J @XZXW.G z J J c E 5XLXHXIXPXgXS.T.dXDXDXFXZXSXKX",
"z.l.l.b.l.z.z.b.v.z.v.v.z.z.z.z.z.c.c.z.z.9Xz.c.z.c.z.z.z.9X9Xz.z.N.c.N.c.9Xz.N.z.9XN.9X9X9X9X9Xk.9X9X9X9X9X9X9X9X9X9XB.0Xb.$.7 M ( B w l ( ( ' l l l ] l ( ] B M M A 4.4.4.B B _ M B A V V ( ( ( ( A B B r ( B r B _ _ ' ] ..@.[ @.{ @.@.[ [ [ l ' 9.qX9X9X9X9X9X9X9X9Xk.9X9Xk.9Xk.9Xm.9Xk.m.9XM.m.M.M.M.M.M.M.v.h.l.h.l.l.l.l.l.h.l.l.h.h.h.h.h.h.v.j.h.h.h.j.h.g.h.g.h.f.g.g.h.j.j.j.j.f.h.h.h.j.j.j.V.r.            * LXmXmXGX` &.=X}  ...c ..jX>XD.3.` G Y Q } Q .X>XY.F.| } K.R.Q.sXvXY.} Q.~ ! >XJXmXAXAXDXnXnXnXFXJXaXH Z.gXaXZ.Q ! ! ~ ;.;.-.W.4XQ.! Q.;.H.I.K.3XDXmXmXJX3XQ I.gX8XA.&.P E ! o.-.H.).aXA.G. .~ o...W aXwX-.Q.H. .R. ._.jXLXDXHXZXW.Y =XgXY.Y J ! ~ R.! -.A.jX).E Q.R.X.Q.~.;XnXJXSXIXgXT.Y 3XmXkXDXlXvXbX$XH..XK.K.R.R.jXvXG.Y } L.! }  . ._.5XE.X.....Q.R._.4XIX>X . .Q.).jXJXPXNXH L.xX5XdXdXxX4X XY.'.Y.'.U.8XPXZXbXbXDXFXIXFXY.P fXSXS.Z.Q S.4X5X;X;X_.zX>X;.>X3X).;X:X>XFXIXKXIXSXY.Q wXZXW.-.;.;.Q.Q.).<X(.4X$X} R.Q.Q.~.o.;XsXI.} (.~.(.~._.5XDXJXFXLX>XY Y.SX-X;.-.P E Q.R.X. .OXlXJ.J R.E.R.Q.).jXHXIXIXPXgXT.T.gXHXDXFXFXKXIX",
"c.b.z.l.b.z.z.z.z.z.l.z.z.z.z.z.c.z.c.v.v.c.c.B.z.z.z.N.N.z.z.z.9Xz.N.z.9Xz.N.z.m.7Xm.9X9Xm.9X9Xm.9X9X9X9X9X9X9X9XB.B.9XtXz.:.y w _ V 0 V ) l _ ] l l ] l ' V B B B S 4.4.2.B B ( V V V B ( ( ( ( ) V ) k B ( B t B _ e.' ' O.O.@.{ [ { @.[ [ l l 5.5.b.7X9X9X9X9X9X9XB.N.N.9XN.N.z.9Xz.9Xz.N.M.M.M.M.m.M.m.m.l.h.v.h.v.v.h.h.v.v.h.h.h.j.h.v.h.h.h.h.h.h.g.h.g.h.g.f.f.f.h.h.f.h.j.g.g.f.h.f.h.f.n.C.n.V.r.        .   * HXnXnXFXZ.P wXJ...3 x 3XAX*XD.3.H v L &.&.&.=XaXD.l P I.}.=XaXSXvX#X| G h Y >XHXDXDXcXbXbXnXcXDXHX3XK D.gXaX| ! -.G G P.'.;.oXgX/.Q F P ;.-.;.>XHXHXDXGX3XU P.gXeXD.Z.` F G &.&.P W.gXY.K H P.].6.&.gX>X} ! Y U.U.U.W.vXHXDXJXbXW.Y =XgXU.` | W J -.-.-.Q sX&X! H.! Z.G.! W.ZXLXGXPXgXS.Y aXmXkXvXvXmXcX@XG.[.G.Q Y G =XZXW.;.! Q &.-.A.-.W.4XE.W ' 3.D.I.F.5XIXwXH. . .~ ,XDXPXNXL Y.mXxXxXxXxXjX'.U.'.'.U.U.8XIXSXbXvXDXDXHXSXA.D aXSXA.D.P Y @X).~.)._.mX4X-.sX4X,X5X4X3XDXLXGXIXAXY.Z.aXcXJ.Q W  .4X4X4X5X5X4X%XL.3X_.;X;X;X4X4XQ.@XzX,XzX4X,XzXFXFXFXIX>XQ Y.SX-X&.;.! W.;X;X;XQ.@XlXK.H.:X%X_.;X%X5XJXHXIXPXgXS.D.gXDXbXbXDXGXKX",
"c.l.l.c.c.z.z.z.z.z.z.z.z.z.z.z.z.v.z.z.v.v.v.c.v.z.9Xc.c.z.9X9Xz.z.9X9Xz.9Xz.9XN.z.9Xz.7X9Xz.z.9X9X9Xk.9X9X9X9XB.tXc.B.tXn.$.0 w ( ( w B B k ( ( l l l l l l ' M B A 2.4.4.A B ( ( A A ( ( V V V A ( B w ( ) w r B 4._ ' ' ] O.@.[ [ @.@.[ l ) c ` 9.b.9X9Xz.9XN.9XN.B.9X9XN.N.9X9Xz.z.z.z.9XM.M.N.m.N.M.M.l.z.h.h.v.h.h.h.v.h.h.v.v.v.v.v.h.h.h.h.h.h.h.h.g.h.h.h.h.f.h.h.n.h.h.h.g.f.g.f.h.f.f.f.n.f.V.r.  .         & HXnXFXGXD.P 8XW.W 3 W GXIX=X3.Z.N n *.6.6.%.8XfX` d P.8XeXSXIXIXAX#XF.h d A.aXLXDXmXvXcXcXbXDXGXKX1XY T.gXeX| I.H.j D qX8X8XfXgX[.G a &.8X8X8XgXIXHXHXHXaX&.S.hX#XU | Y u v *.*.$.[.gXY.D s `.7X8X8XUXaXQ h b }.8X-XeXUXIXDXGXZXY.Y aXxXJ.| F.D b ;.'.;.'.NX>XP m L P.P.S.&XFXHXFXIXSXY.Y sXbXjXmXvXAXDXXXS.XXG.b s D 8XSXW.I.Q a &.`.|.=XgXkXY.d s C %.&.| dXIXwX;.G E I.wXKXPXgXP ^.mXmXxXxXxXmX|.U.'.U.`.P.eXIXZXbXcXZXZXGXZX-.G hXSXS.Z.U P..X~ ! ~.L.jX3X! :X).).%X:X$XvXLXGXIXAXY.Q 8XlXS.Q K K E.(.E.).1X4X_.X._... .Q.).,X4XQ.@X,X,X,X4X4XsXFXFXFXIX>XP '.SX-X&.&.! ).Q.Q.,X;X4XZXI.$XjX:X).3X5XmXHXHXGXPXhXZ.` aXbXvXmXcXFXKX",
"l.l.l.b.z.z.z.l.z.z.z.z.z.b.l.v.v.v.v.c.v.c.c.v.N.z.9Xz.9Xz.z.c.N.9XN.z.N.z.9Xz.N.N.9X9Xm.N.9X9X9Xk.9X9Xm.9Xz.9X9Xc.9Xc.B.z.$.y w ( ) w V ( k ] ' k f k l l k 0 k B B 2.8.2.A B V _ V w M B B r B B r 0 B 2.B w ) k 4.e.' ....O.[ O.[ @.@.[ ] ] l ' 5.|.9X9X9X9X9X9XB.9XN.9X9XN.N.9XN.9X9Xz.9Xz.N.M.M.m.M.M.M.M.v.v.V.v.v.v.v.v.v.v.n.h.h.h.h.h.h.h.h.h.h.h.n.h.n.h.h.h.h.h.h.h.h.f.h.h.h.f.f.h.f.n.n.f.V.r.            % HXZXFXLXI.Y wXY.} u W gXKX&X| D.C n =.=.6.6.-XaXZ.s %.].7XeXfXVXvX#X` b a -.wXLXDXmXvXbXbXcXbXGXHX1XY T.xX>X| K.I.m m qXqX}.wXgX[.P L 6.7X7X8XNXIXIXHXIXaXQ Y.NX=XY U ` a v *.*.*.8XgXY.N s }.8X8X8XUXaXA.D D 8X7X8XeXUXIXUXIXSXY.P 3XgXY.D.I.m C 8XrX8X8XKXwX-.b 6.7X8X8XfXIXDXAXPXgXY.U dXbXvXmXmXGXFX+XG.+XP.b 6.-XNXSXI.I.&.v ].7XeXBXIXgX XM S *.0.*.&.sXIXfXG.P Y.wXNXIXPXMXP XXmXxXmXxXmXxX!.U.Y.Y.Y.P.wXLXcXcXbXDXAXLXUXY.P hXSXP.D.S.I.Y.H.H.H.! dX>X-.@XI.[.(.K.(.vXLXFXLXUXY.3.aXgXS.Y Y | K.K.K.K.^.3X%XL.).E.E.[.W.>X4XQ.Q.Q.Q.[.@X,X4XFXKXHXIXwXP Y.SX-X;.&.G Q. ...Q.R.:XlXY.XX>XE.K.%X:X3XFXDXDXLXhX` ` aXvXjXzXlXKXIX",
"z.z.l.z.l.z.z.z.b.z.z.z.z.v.z.z.z.z.v.l.z.v.v.v.v.v.z.N.z.z.9Xz.z.z.z.9Xz.9Xz.N.m.9Xm.N.N.N.m.9X9X9X9Xm.9X9X9X9X9X9XB.B.7Xc.$.y 0 _ B w M ' l ) ' l l H V V l k V V w >.0.4.) M k ( ( w w M M M M w w 0 B ( w q B B _ ' !.' ..O.O.[ [ @.O.l ) ] ] ' 5.{.9X7X9X9X9X9X9X9X9XN.N.9X9Xc.9XN.c.9XN.N.M.N.m.M.M.m.m.M.v.v.v.v.v.v.v.V.v.l.v.v.v.V.v.h.v.l.l.l.l.n.h.h.n.h.n.h.h.h.h.h.h.h.f.h.h.h.h.h.f.h.n.n.V.r.            * FXZXFXPXY.U &XI.A.i d G.VX$X` D.C n =.=.=.*.=XaXZ.b %.].qXeXfXVXVX^.| D m P.aXLXJXvXmXmXbXDXZXGXIX3XY F.dX3X| H.;.d m ].s.].-XsX[.! b %.t.0.].fXIXFXHXLXaXG.8XAX-XY Z.U a M 0.t.*.8XfXY.D q 6.t.6.].VXaXS.D b t.t.u.|.VXIXUXKXSXY.P aXgXJ.A.Y.L n t.].t.}.NX+X-.n *.qXqX}.fXKXJXGXLXSXI.Q gXbXvXmXmXUXKX+XI.[.P.b 3.'.MXSXI.Y.&.n t.}.t.7XfXgX'.v r $.%.*.3.hXIXwXI.D ;.}.gXIXPXgXH ^.mXxXxXxXxXmX(.J.Y.Y.Y.G.>XLXcXcXDXGXGXLXIXY.Y aXUXY.D.I.D.d L ;.U Y lXgXH.P m -.Z.U (.DXLXKXLXAXY.| eXgXT.Z.U.Z.Y U -.&.T.3X#X} J.S.Y.Y.;.&XsXW.;.Q.;.;.;.;.sXFXFXKXIX>XY Y.UX=X;.&.-.W.L.H.H.F.[.lXW.[.+XI.Y.oXoXaXHXHXUXIXgXZ.` aXvXmXmXFXIXKX",
"z.v.c.z.z.z.z.z.v.z.z.z.z.z.z.z.l.v.l.v.l.z.z.v.z.c.v.c.z.c.z.N.z.z.N.9Xz.z.9Xz.9X9Xk.9X9Xz.9Xz.9X9X9X9X9XN.9X9X9XB.B.c.9Xc.>.y q ( ) k V ( l q ' ' k V l V A V A B r >.8.5.A B k _ 2.V A ( ( ( A ( ( B ( A M B B B _ 5.3.` ' c [ [ [ O.O.[ ] ] ] ..' {.c.9X9X9X9XB.9XB.N.9XB.N.N.9Xz.9X9Xz.z.M.M.N.M.M.M.m.M.M.v.v.M.M.v.h.v.v.v.v.v.n.v.n.v.v.v.h.v.h.h.h.n.m.h.n.h.h.h.h.n.h.h.h.h.h.h.h.h.h.n.h.h.h.V.r..           % FXlXFXIXY.U +X-.Q i G G.cXoX3.P.n C 6.].P.P.=XaX3.N t.rXfXMXMXUXxX!.U D &.8XlXLXDXbXmXDXDXDXDXGXIX3XY T.dX3XT.L.| d P qXqX}.eXgX[.G m P.8X{.-XVXIXGXGXDXoXP oXNX8X;.S.U v %.7XqX].fXBX^.N s `.}.}.}.SXfXZ.d L }.}.}.eXUXIXUXIXUXY.Y aXgXJ.| F.m n qXt.qX}.SX&XQ b *.qXqX].fXKXIXGXIXxXI.U dXDXvXmXAXGXKX+XI.[.P.b L Z.fXUXI.S.&.n *.t.u.8XfXhXY.v S 0.u.7X2XSXPXfXY.m L `.hXIXPXhXY _.mXxXxXxXxXvXW.Y.W.W.W.I.>XLXcXnXDXDXDXLXGXJ.H aXSXY.P. X;.8 m ;.L P NXgXU.D a *.%.L Y.AXLXGXLXSX^.Z.eXxX XP.U.L 9 b m $.;.wX=XI a a m %.P -XfX[.! m m ;.L -.gXIXFXKXPX3XY Y.SXwXI.I.I.L D &.U G [.NXW.S.&.&.;.;.P.fXIXGXGXGXgX5.D.dXJXnXJXJXHXLX",
"l.b.z.z.l.z.z.z.v.c.z.z.c.z.z.z.l.l.l.l.l.l.h.b.l.l.z.c.z.z.c.z.z.9Xz.z.9Xz.z.9Xm.9Xz.z.z.N.N.9Xk.9Xk.9XN.9X9X9X9X7X9XB.c.9X:.y q ( ) w k ( k < l _ k f s V 0 q ( M 0 :.8.2.A M 0 ( 2.( k y 0 ( w q w M 2.( q r B k ( _ 5.' ' l ] w [ @.[ 5 ' ] ..c 5.|.7X9Xc.9XB.9X9X9X9XN.N.9XN.N.c.z.c.N.N.z.m.M.m.m.M.l.m.m.v.v.M.v.v.v.v.v.n.v.l.h.n.v.h.h.h.h.h.h.h.h.n.h.n.h.n.h.h.h.h.h.h.n.n.n.h.h.h.h.h.h.h.h.V.r.            > nXZXFXIXY.P oXA.Y u h G.nX&XP.;.n n *.6.&.Y -XaX&.s &.}.}.-X-XgXgX^.Y m P [.kXLXJXmXbXbXbXDXcXGXIXaXY J.dX3XA.G.Q p P -X'.U.-XlX[.G D P.-X-X}.hXUXUXGXGXoXP U.gXwXZ.D.I s 3.}.qX XaXgXU.d s |.8X-XoXNXaX| d P }.}.oX=XUXIXAXIXNXY.P wXgXT.W F.m %.8X8X8X=XSX:X! b *.8X8X8XfXGXJXAXLXMXA.U gXDXvXbXJXGXUXoXY.-XS.m T. XgXNXI.I.P n }.qX8XMXNXgXP.b P.7X8XVXxXxXKXwXG.D U.oXMXKXHXhX_ _.xXxXxXxXxXjX&X@X@X+X@X@XdXFXnXFXGXJXGXPXKX!.U aXSXY.D.Y.&.8 %.%.C &.gXhXI.C 8 *.*.L  XKXLXHXPXZXY.3.aXVX'.P.'.%.a n *.n *.fX=X&.n a *.*.m oXgX-X*.a n P m &.NXIXFXKXLX3XY Y.KX*X-.[.S.6 8 L L b [.SX'.P a n *.C &.eXKXUXUXKXhXT.T.kXFXFXFXDXKXIX",
"z.z.z.z.c.v.z.z.v.b.z.z.c.z.c.b.b.l.z.l.l.v.v.l.z.z.c.c.z.9Xz.z.c.z.9Xz.z.9Xz.9Xz.9X9Xz.z.9X9XN.9Xm.9X9XtXB.c.9X9X9X9Xc.tX7X$.y w ( ] w k ) B < l ' l q N k 0 M ( r 0 :.0.>.A M q V _ 2.B w B B V w 0 B _ ( w k B M A 2.5._ ' k [ w [ 2XO.l ] O.O...T.}.7Xc.c.9X9X9Xm.9X9XN.N.9XN.N.z.N.c.c.z.v.m.m.m.m.l.M.M.M.v.v.M.v.v.h.v.V.l.l.l.l.h.h.v.h.h.V.h.h.h.h.h.n.h.n.g.h.h.h.h.h.h.h.h.h.f.h.h.f.h.h.f.f.V.r.        .   * FXnXFXHXY.G =XG.G p h ! dX@X;.;.b b P Y Y J *XsXW d D P U &.A.dXxXW.G R R ;.4XJXbXbXbXbXbXbXDXHXLXaX` J.xX3XA.G.Y i d Y P G W.dX^.F p h F F ` 1XUXGXJXIXaX3.I.NX8X;.S.P u d U H F oXgXT.d u D D D E sXaX! p g 3.U J E.vXHXAXHXZXY.Y 3XgXY.~ H.d a &.&.&.Z.gX:XE i P ;.&.;.&XAXFXSXLXhX-.Y dXJXvXmXDXHXZXoXW.+X;.d J F.dXZXS.P.P d P.`.'.U.@XdXK.d 6.'.{.|.^.dXKXwX-.D P.}.gXGXJXdXH X.xX5X5X5X5X5XOX.X.X.X.XW.sXHXZXHXHXHXGXLXGX!.Y hXSXS.;.I.P a C L L &.NXhXP.L v *.*.m -XKXLXGXLXZXY.U eXSX`.D.].P a v $.n ;.fX=X-.n a n n n -XNX[.P a n C n ;.gXPXIXHXLX*XK K.GX&X .W.'.a a C C v I.SX[.;.a n C C L eXPXUXUXIXhX5.T.gXFXFXFXZXFXIX",
"l.x.z.z.v.v.b.z.z.z.z.z.z.z.z.z.v.z.z.z.l.z.c.v.z.z.z.N.N.c.c.N.N.z.9Xz.z.9Xz.9Xm.z.9Xz.9Xz.z.9X7X9Xm.9Xc.c.9X9Xc.9XB.9Xc.tXt 7 0 ' ( B k V l k 0 V ' f M k w Z A 0 y A 2.4.( M w S B _ A M M w B B w _ ( V Z w w M _ 2.5._ ` l w [ O.@...[ ' O.O...D.`.7Xc.9X9X9Xm.9Xm.N.N.M.M.N.N.N.m.m.M.m.M.N.M.m.m.M.M.h.M.h.v.n.h.v.h.h.V.h.h.h.h.v.h.n.h.h.h.b.h.h.h.h.h.h.n.g.h.h.g.h.f.h.f.h.g.h.h.h.h.h.h.f.h.V.r.            > FXcXHXLX!.Y aX;.! R.H.W.jX:XS.Q m E ! ~  . .,X,X~  .Q.R.~ ! R.kXgXD.E ;.;.~.zXJXDXbXDXbXbXDXDXGXIX3XY T.gX3XZ.A.K h G ! ! L.$XjXR.x  .Q.R. .E.aXJXKXJXJXaXZ.J.gXwXG.A.F d J ! ~ E %XdXF.F K E W E E sX4XJ E ~  .}  .).vXLXFXHXZXY.Y 8XNXW.H.-.x m E W G } vX:XR m ! ! P Y $XJXJXFXPXgXZ.U dXbXnXJXDXJXSX+XY.-X} h x x 3XSX-.3.H h &.&.I P ).4XH.h P &.Y H ..dXIX&XE h z Y 1XGXIXhXI _.xXxXxXxXxXxX XY.W.W.[.I.>XIXDXDXDXDXAXLXGXJ.Y fXSXI.S.I.&.a &.-.P P gXaXZ.b n ;.*.&.[.FXIXFXHXNXJ.U 3XVX'.6.P.C n %.*.m ;.fX-X&.n n %.L L -XgX[.P v C L L ;.VXKXGXHXLX*XK Y.AX+XA.Y.;.6 a $.C b [.ZX/.-.a n $.C %.fXPXUXAXKXxX5.T.gXFXFXDXZXFXIX",
"b.c.z.z.b.z.z.z.b.c.c.z.z.z.z.c.c.c.z.b.c.z.z.z.7Xm.m.z.z.c.c.N.c.9X9Xz.N.z.N.z.c.N.9X9Xz.N.z.N.m.N.m.9X9X9XN.9XB.9X9X9X7X9X#.7 y _ ] V ) ( V V k V Y l k q w A B 0 q ) 4.2.A w B B k ( _ A B w B k B _ V B A M 0 w 2.2.5.' ` ] 5 [ @.e.] ] ] O.O.] !.|.7X9Xc.c.m.9X9Xm.m.B.m.B.N.N.M.m.m.m.m.m.m.M.M.n.v.v.n.n.v.h.h.h.h.h.h.b.h.h.b.n.n.n.n.n.n.h.g.h.g.h.h.h.g.h.g.h.h.h.h.f.h.g.g.h.h.h.h.h.h.f.f.h.V.r.            * HXlXZXHXJ.Y 1XW W /.R.).zX>XH.! ! Q.Q.Q.<Xo.,X,XE ~ Q.X.+.Q.R.dXkXG.! Q.<X<X4XFXFXDXnXnXnXDXnXFXGX*XP J.gX3XA.A.J J H.Q.Q.W.@XsXR.R Q.~.Q.o.Q.,XJXJXJXHX3X&.I.lX8XS.! x E  .o.o.~ ,XjX| J H.L.o.~ E sX4X~ ~ o.H.X.R.;XmXJXbXHXZXY.P eXxX^.D.Y z  .H.o...L.dX@XE Q.Q.o. . .;XbXFXDXIXMXA.U gXJXlXFXFXJXDX.XI.oX-.! R.o.zXlX-.&.Y E R.H.~  .;X4X .! R.}  .X.X.6XbXOXE  .o.o.5XLXIXhXI #XDXAXvXAXvXvX+X X.XoXoX[.aXUXlXnXDXDXAXGXAXY.` aXVXY.S.I.P = 9 f f H dXaX| d 6 b m m ;.FXIXHXIXZXI.| aXgX!.T.S.D a m D d ` 4XOXK a m %.m b XXsX.XP v m %.m ;.gXPXKXHXPXwX! Y.FX+X&.'.P.9 n %.%.L [.kXW.U d m *.I 3.fXPXJXUXIXgXT.D.gXGXDXHXJXHXIX",
"z.c.z.z.c.z.b.z.l.z.z.z.z.z.z.z.z.v.z.z.c.z.z.c.z.z.z.9XN.c.z.z.z.z.z.N.c.9Xz.9Xz.9Xz.z.z.9X9Xz.m.9X9X9Xm.9X9Xz.9XN.B.N.tX7X1.y q ( ) ( V V ( H q N ' M q < 0 ( B r M A _ _ B C ) w ( ( _ ( r 0 w w A I V k M V M 0 A 5.5.3.' ] 5 [ @.O.[ ) ) ] 3 c T.{.7X7Xc.7X9Xm.m.m.9Xm.B.m.N.N.N.V.M.m.z.m.M.m.n.M.n.n.l.l.h.h.V.v.h.v.h.h.h.h.h.h.n.h.h.h.h.n.h.n.h.h.h.f.g.h.h.h.f.h.h.h.f.h.h.f.h.f.h.h.f.h.h.f.V.r.            * FXkXvXUX| D OXK  .@X;X,XnX,X-.! ! ;XQ.Q.~.Q.,X,Xo.Q.;XX.~.;X;XkXgXK.! Q.<X,XzXFXFXDXDXDXnXnXDXHXFX3XY U.gXaX-.U G K.).Q.;X;X,XzXX. .;X,X<X,X,X5XJXJXDXLXaXZ.I.gX=XZ.Y F  .~.Q.<X~.,XjX~  .:X~.~.<XK.sX,X-.Q.~ Q.R.X.;XmXJXbXHXZXY.Y wXgXY.3.Y E ;X~.<X;XR.dX@XE ).).~.;XQ.;XnXHXKXIXNXS.U dXbXnXFXFXJXAX.XY.Q.~ o.~.Q.4XkX-.&.&.Q.~.~.~.o.;X4X .Q.;XQ.Q.;XX.5XnX/.} Q.~.X.4XHXPXhXG OXmXxXvXvXvXvX=XoX-X-X-X[.hXPXZXnXGXDXGXIXUXT.` hXSXY.S.S.P P } | K  .dX3XU D z x m z .XFXIXFXIXNXJ.Z.fXxXY.| D.d * u f u H 3X%XY 8 8 d 8 : W.sX[.m 8 i j i F sXLXIXKXPXwXP W.SX+X;.'.&.a 9 s d a W.NX[.J i p m m H *XIXJXGXPXxXT.3.hXmXbXJXDXKXIX",
"z.z.z.z.z.z.v.z.z.z.b.z.z.z.z.z.z.z.z.z.z.z.z.7Xz.z.z.9Xz.z.z.9XN.z.z.c.9XN.9Xz.z.N.9XN.c.z.N.9X9X9Xm.k.9XN.N.9X9XB.9X9X9X7X:.0 w r ) w w B _ k 1 9 ' _ k < B ( r w B _ _ V A A w < w B _ A k q q w _ _ B q k V M M V _ ` T.' ..[ [ @.O.l w ) [ l l U.}.7X9Xc.c.m.9Xm.9X9Xm.m.m.M.m.M.M.m.m.m.m.V.m.h.h.n.h.l.h.h.h.v.h.h.h.h.V.h.h.l.h.h.h.h.h.h.f.h.h.f.f.h.h.h.f.h.h.f.h.f.h.h.f.f.h.f.g.h.j.h.h.h.j.V.r.            & FXcXcXGX` F %X! ~ H.H.Q.zX>XD.G ~ Q.o.o.o.o.,X,XH.Q.o...o.X.~.jXgXJ.! ;.Q.<XzXJXFXnXnXnXnXbXbXHXJX3XQ I.gX8XQ G G ..L.~ Q.).,XjXE. .~.Q.Q.Q.,XsXJXDXJXHXaXQ I.NX=X-.Q F ~  .~ X.X.,XkX-.H.).Q.o.~.@XzXwX;.@X-.Q.Q.Q.,XzXJXJXHXxXY.P aXgXT.3.Y G Q.o.Q._.3XlX@X~ ).Q.Q.;X;X5XbXHXFXLXMXD.Y xXJXcXFXAXUXvX XW.(.o.Q.;X;XzXzXA.&.Q ~.;Xo.~.<X,X5XQ.%X,X~.;X;X~.4XbX). .).;X;XjXLXLXaXH %XmXxXvXxXvXvX&X-X-X+X-XoXfXPXFXDXDXDXGXLXAXJ.` hXSXJ.D.-.Q ^.)._._._.dX:XJ } %X).).@XsXHXIXKXKXvXT.| 3XxXJ.` | K ! K.R.L.(.jX_.] ~ ~ ~ ~ ~ sXgXY.P E E E E F.kXLXGXGXLXaX-.Y.KX-X-.Y.&.u p h p p /.FXW.G p g p p z >XLXDXGXLXhX3.` aXvXvXDXZXFXKX",
"c.z.z.z.z.z.z.z.z.c.v.z.z.c.c.z.z.z.z.z.z.z.z.m.z.z.z.z.z.9Xz.z.z.9X9Xz.z.z.z.9X9Xz.z.z.N.9X9Xz.m.9X9X9XN.N.9Xc.N.9XB.N.9Xb.$.r 0 ) ( k w B 2.k q 0 I ' k < ( ( r q k A A M A V w q w ] _ _ V 0 q B ( ( k 0 s k M M N V _ ' c ] [ [ 2X[ < ] B w V ` 5.{.c.9Xc.c.9Xk.m.m.m.m.B.m.N.M.M.M.m.m.m.m.m.l.n.v.v.n.v.h.h.V.b.h.h.v.b.V.h.h.h.h.h.h.h.n.h.n.g.g.n.h.h.g.f.h.h.f.h.h.g.h.g.g.h.f.h.f.g.g.f.f.f.h.V.r.            & HXZXDXGXY.K 1XH.~ -.~ H.zX,X&.Y -.H.~ ~ H.! ).%XL. .W  .R. .R.dXdXF.E Q.Q.Q.4XJXDXZXZXnXvXvXbXHXHX1XU Y.gX>XQ Y K |  .H.W.R.@XsXE. .E.Q.~ Q.).4XFXJXGXLX3X-.I.NX-X&.&.D E  .~ R ..;XzXH.;.Q. .~ o.H.sXzX;.W.~  .o.Q.,XmXJXmXJXVXY.P aXgXT.&.D m !  .~ E R.gX@XQ Q.Q.o.Q.~.,XbXFXFXIXNXD.' jXJXbXFXDXDXvX XW.W. .H.o.).zXnX;.&.Q R.Q.Q.R.X.5X5XX.).Q.X.Q.~.~.jXnX(. .R...X.jXLXIXaXK /.jXxX4XdXdXdX=X+X-X=X&X+XhXIXFXDXDXDXDXLXAXS.U hXgXP.D.Z.I.>X:X_._.~.5X:X .).:X~.;X:X,XDXLXGXIXkX .} hXxXY.` K K  .Q.R._._.4XE.K ~ Q.Q.Q.Q.5XdXH.! Q.~.Q.K.Q.dXHXFXGXPXaXQ Y.SXoXS.I.P F L.X..._.sXlXY.-.R.X. .W.:XvXHXHXHXPXdXZ.S.hXJXmXbXZXFXKX",
"z.v.c.z.z.v.c.c.z.z.c.z.c.z.c.z.z.z.z.z.z.z.z.z.z.z.c.c.c.c.z.c.z.c.9Xc.z.N.9Xz.z.N.9X9Xc.N.c.9XN.N.c.c.N.9XN.N.9Xc.9XN.B.u.e e r 2._ A M B V 0 q < q _ s 0 _ ( A w s A V N M V l w w < B _ A 0 q ( ( V M k 9 < N M V A _ ' ] ] e.O._.5 1 k l B ` _ _ w.qX7X9X9Xm.m.m.B.m.m.m.B.M.M.M.M.v.v.v.n.h.M.h.M.n.v.h.h.h.h.v.h.h.h.h.h.h.h.h.h.v.h.h.h.h.h.h.n.g.h.n.h.h.h.g.h.h.h.h.h.h.h.f.h.f.h.g.f.f.h.h.f.V.r.  .         & HXGXGXIXY.K XXY.K.! x ~ zX&X-.-.D m P Q -.Y +X3XF.D K A.J.G.Y.xXxX^.} ~ E  .>XJXJXvXDXZXnXvXbXHXGX1XU U.gXwX;.Q Q W | A.;.Q [.sX^.D.L.H.R.H.H.3XGXIXGXJX3XY I.lX8X-.&.U -.A.} U c @XdXH.H.H.I.P.P.-.aX,X-.;.-.;.Q.H.W.vXLXDXIXvXI.U aXlXY.Z.I Q A.H.-. .F.aX.X! W.R.K.R.R.>XbXHXHXPXNXT.` xXJXmXDXDXGXVX XY.^.-.Q.H.~ sXZX-.&.Z.J.} L.R.} ).5X .R. .H.X. .X.5XbX@X}  .....3XPXIXaXU $XmXvXvXxXvXxX&X+X&X@X&X[.dXLXDXDXAXDXAXIXvXD.Y hXgXS.D.-.J.3X:X5X5X,X4X%XJ.sX4X4X4X4XjXHXIXGXLXxX| T.hXhXT.| W E.4X,X,X>X:XdX_...).~.Q.).).,X4XR._.,X;X;X;X;X4XJXJXJXLXaXY Y.UX-X;.S.P H.).X.O._.%XsXI.-.).X.Q.W.).4XJXHXJXPXgXD.T.hXAXvXnXDXHXIX",
"c.c.z.z.b.c.c.z.c.c.z.c.z.c.z.c.z.z.z.z.z.z.z.z.z.c.c.c.c.c.c.z.c.c.z.z.N.c.z.9X9Xc.z.z.9XN.N.c.9Xc.9X9X9XN.c.9XB.9X9XB.9Xx.:.t B ,.A >.A B A w y 1 9 _ k k 2.( w 0 0 I A A A B k w w 1 k ` _ k k 2.>.A w k # # V M A ( e.' ) ' ] @._.3 < [ ) ] 2.V $.$.x.9Xk.m.9X9XB.m.m.9Xm.m.B.M.M.m.M.v.v.v.M.h.M.h.v.n.v.h.h.h.h.v.v.h.h.h.h.h.h.h.h.h.h.V.h.h.h.h.h.h.h.f.f.f.h.f.h.f.h.g.f.h.h.g.h.g.g.n.h.f.h.f.V.r.        .   & HXmXDXJXY.H oXW.;.d d ;.ZX>X-.I.b d *.;.;.-.>XaX| s N *.&.&.Y.VXvXOX} F h A.3XLXJXvXcXcXvXnXbXJXKX3XU Y.NXwXP.G.| g p L P L '.gXoXP d D U J ! 1XIXGXHXIXeXU J.gX*XA.F.A.d b %.=.m +XzX .J l %.%.%.&.sX4X~ ~ ~ [.I.I.&XvXHXFXIXlXY.-.sXlXW.I.D.P m m P D -.gX&XQ J D U P Y oXGXLXGXPXNXF.Y xXJXnXJXJXHXAXoXU. XI.P F F sXSXI.P.I D I U S.I.#X4XJ.Y G Q A.F.L.dXKX*XF.Y K K >XIXPXfXU >XGXmXAXAXAXbX$X@X@X@X:X@X4XJXZXFXJXDXAXLXSXS.` hXgXU.Z.&.J.L.| E ../.dX$XS.3X:X@X:X4XdXJXHXFXHXdX} | hXhXU.` Y H.,X,X,X>X4XkX(...).).).,X,XsX4XR.,XjX5XjXjX5XvXLXJXDXLX3XI Y.UX=XA.A.! @X5X;X;X:X4XkX[..X,X;X;X:X:XkXJXDXDXLXgXT.T.dXmXkXjXvXKXIX",
"z.c.c.z.z.c.c.c.v.c.N.7Xc.z.c.z.z.z.7Xv.z.z.z.9Xz.z.z.c.c.z.z.c.c.c.9Xz.z.N.c.9Xz.N.z.9Xz.N.9XN.c.N.N.B.c.9X9XN.9Xc.B.B.B.9Xr.t Z A Z ) ( A ) M y = B !.l ( 2.A r 0 0 V _ _ _ V ) w k w 0 ' ( A A 2.>.B w k 0 $ l V ( ) e._ ' ' O._.@.1 < l ] ( _ 2.0.$.b.9X9X9X9Xm.B.B.9Xm.B.m.B.M.M.M.M.n.v.V.h.M.h.M.n.v.n.h.h.v.v.h.h.h.h.h.h.h.h.h.V.h.h.h.n.h.n.h.n.h.n.h.h.f.f.h.f.h.h.f.h.f.h.f.g.h.f.f.h.f.n.C.V.r.            & FXvXAXIX!.P =X.X;.i m I.SX=XD.U.L n ].P.*.3.8XaX3.d A t.6.*.U.gXVXXXT.D h G.sXHXbXcXDXAXmXbXbXHXGX*XU U.NX8XS.Y.F.h a *.0.%.[.gX/.K s C 0.0.6.fXIXHXKXLX8XY J.gX3XA.S.Z.a s $.*.L +XNXL.z u 6.qX].[.NXsX;.m m 8X}.-XfXKXKXFXIXNXI.Q sXlXW.J.[.N 9 *.&.%.;.lXwXQ f b P.6.;.=XKXHXFXLXNXS.` dXmXmXbXJXHXSX X'.oXP.d h m sXSXD.P.I v 6.6.[.fXSXgXS.s b I %.U T.vXKXwXI.d g D fXPXIXwXY &XDXvXSXvXmXmX&X).:X@X@X[.4XJXbXFXDXJXDXIXvXY.3.hXgXY.Z.Z.D.T.} A.} J.3X*XF.#X@X[.XX.X>XDXLXDXJXxXT.| hXgX^.D.P ;.@X[.@X:X>XsXQ.X.Q.H.H.Q.Q.4X4XK.@X:XQ.).5X3XjXHXGXGXPX3X` Y.UX3XI.A.G R.).Q.Q._.&XgXW.K.).R.Q..X:XzXHXbXmXIXdXT.T.dXmXjXlXlXZXUX",
"b.c.c.b.z.z.c.z.c.c.v.b.c.z.z.c.z.z.b.z.z.z.z.z.z.c.c.z.M.7Xc.c.z.9Xz.9Xz.z.N.z.z.9Xc.N.N.c.v.N.N.v.N.N.N.N.B.c.c.9XB.7Xc.0Xt.e t 1.,.) ( >.( M q = U.|.V ( 2.B 0 0 0 H ` _ 2.>.w w l 3 < < ' ' ( ( A w k N V + 0 ( ( ) ) y.e.B O.e.] < < w ( ( y.7X9X9X9XN.m.9Xm.9Xm.9XV.9XV.B.M.M.M.M.M.v.M.v.V.v.v.h.v.h.v.h.h.h.h.v.h.h.V.b.b.h.h.h.h.h.h.h.f.h.f.h.h.g.g.h.h.h.n.g.h.n.f.h.g.n.f.h.h.f.n.a.f.h.f.n.V.r.  .         & DXvXmXUXT.L wX+X;.a b D.SX8X| S.C n *.*.*.&.-XaXD.a C =.0.*.P.BXvXXX| D d ;.sXLXJXDXAXAXcXbXDXGXGX3XY I.gX>XA.S.A.p a =.=.%.[.gXXXY s N *.%.&.8XIXHXLXLXwX&.J.lX>XI.I.;.a n %.=.C +XNXY.D a 6.}.}.}.NXaXI.m m qX].}.8XUXIXHXLXNXW.-.aXgXG.F.[.b a t.t.*.;.NX>X-.b %.}.}.}.fXIXKXFXIXNXZ.Y vXAXjXmXnXFXSX X'.oXI.d L -.fXSXS.P.%.S t.qXqXpXVXhXP.v C *.%.%.Z.gXIXwXI.m H H hXPXPXwXU =XGXAXvXSXAXAX$X%X@X@X,X).4XLXDXDXDXJXGXHXVXJ.| hXNXY.P.Y.D.D Y P.-.Z.aX3XK.A.Y ;.I.;.@XDXLXFXLXgXT.| hXxX!.P.D.P.;.[.[.[..XsX/.-.I.W.W.G.G.:X3XE.@X.XW.XXOXOXdXLXJXGXLXaXQ Y.UX8XZ.Q Q R.).R.(.J.W.sXY.W.@XR.[.W..XsXFXJXAXJXhX| T.dXbXkXvXZXZXFX",
"c.c.z.z.z.b.c.z.z.c.b.c.z.z.z.z.z.b.c.c.z.z.c.z.z.b.c.c.c.c.z.c.z.v.v.c.z.z.9Xz.z.N.9Xz.z.N.v.N.M.N.c.B.N.N.B.c.c.B.7XB.9X9XqX$.t.u.:.t Z Z A A q q }.9.( 2.( M w 0 3 l ' T.5.2.r k l 5 5 l ' ( A 3.A M M l ' & f 4.( >.$.9.|.k ' !.' < l k >.0.u.c.z.v.B.B.V.B.m.m.m.9XB.m.B.B.V.m.m.V.m.M.n.M.h.v.h.h.v.h.v.h.v.h.v.j.h.h.h.h.l.v.h.h.h.h.h.h.h.h.h.h.h.h.f.n.f.n.f.n.f.n.n.a.n.n.n.a.a.n.n.n.n.f.h.f.V.r.        .   & JXcXDXUX` N aX XP.d m ;.SX8XZ.P.C n *.*.;.;.8XaXZ.v $.*.=.6.'.gXlX/.| N D P.sXHXFXDXbXDXAXAXDXGXIXaX3.Y.gX=XD.I.A.d d =.*.C ^.dX/.K s n %.%.%.eXJXLXLXIXwX;.K.vX*XI.I.&.a n 6.*.%.8XNXY.L a *.].*.'.MXfXI.m n ].].].8XSXLXGXIXNXW.-.sXgXJ.F.G.b v =.=.*.P.NX&XP b %.t.*.P.eXIXGXDXIXNX| ` vXmXzXZXZXFXlX'.U. XP.b m m gXSXI.P.%.e =.=.].qX8XMXP.a $.$.*.*.9.gXKX8XI.b N I hXPXIXwXU >XUXAXAXAXDXAX>X+X@X@X&X.XsXHXFXFXFXHXGXLXvXJ.` aXcXY.U.^.Q a n *.n &.wXwXT.h a L %.L [.GXLXGXLXlXG.-.hXgX'.P.I.&.m &.*.m ;.fX[.;.N m &.&.P #XdX^.A.Y ;.;.;.;.sXIXLXHXLXwXU Y.KX=XA.H.;.-.! ;.;.;.[.kXI.W.Y.;.;.[.[.aXHXHXGXLXdX5.| dXAXmXbXZXHXIX",
"z.z.c.b.x.z.c.z.z.z.z.z.z.z.z.z.z.z.c.c.z.z.z.z.z.c.c.c.c.c.c.c.c.7Xc.N.c.z.z.z.z.9XN.z.N.N.c.N.N.c.N.N.N.B.B.c.9Xc.9Xc.9X9X9Xr.c.u.:.:.:.Z A Z S y M }.5.>.A r k 0 w l ..' 9.0.e l l c g 5 ..( _ _ k N k l ' f c ( V ( ( 2.y.k ' T.' < k V A 1.u.B.v.M.m.B.9Xm.9Xm.m.m.m.B.n.n.m.m.m.m.m.m.v.h.v.h.h.v.v.h.h.h.h.v.v.V.h.V.h.h.h.n.h.h.h.h.h.h.h.h.n.f.h.h.f.n.n.n.n.g.n.a.n.a.n.a.n.n.n.f.a.n.f.n.h.g.V.r.  .         & FXbXFXGXI.L 8XY.A.h F J.ZX=XT.U.N C 6.].].;.wXaX-.b %.6.].P.'.NXlXXXA.F Y XXgXHXFXbXDXDXmXbXDXGXIXaX` Y.NX=XZ.T.Q d D ].6.3.XXdX^.P d &.'.P.U.aXGXHXHXIXaX;.Y.ZX=X;.P.P.d %.].].P.wXNXI.m a '.-X}.'.NXfX;.m P qXqX}.8XKXLXDXLXlX[.-.sXNXY.H.S.v n ].t.].'.NX>X! b *.].qX}.gXKXKXKXPXNXD.| xXJXnXFXFXKXSX X'.oXP.b D D fXSX;.P.%.n t.t.7XeXNXlXI.a *.*.6.6.'.ZXIX>XS.b L %.hXPXPXaXY $XmXvXvXvXvXvX&X&X&X&X&X@XaXFXNXDXFXJXGXLXSXU.Z.hXMXY.I.'.&.a n *.n &.fX>X} m a $.%.L '.FXLXHXIXgXS.S.hXgX'.I.'.m 8 m *.n ;.fX[.-.a v C b N -XxXXXG a m L m -.fXIXIXIXLX>XU Y.KX>XS.[.I.n 8 *.*.m I.gXY.Q m m ;.P &.wXLXHXHXLXdXT.T.gXGXbXDXGXIXPX",
"z.z.l.l.z.z.v.b.b.z.z.z.z.z.z.z.z.z.v.b.z.z.z.c.z.z.c.c.c.c.c.c.z.9Xc.9X9Xz.z.z.c.N.N.9XN.c.M.N.N.N.N.N.N.B.c.c.c.B.c.c.9X9Xm.qXB.i.#.#.:.:.) ) A 0 q w.y.A ( w w w l < ' ' 5.7.w p c 5 c 3 ..' 5.l q M k k ' l V ( ( B ( k 1 9 ' H f < H ( A 1.u.9Xv.B.V.N.m.N.B.m.m.B.N.m.m.m.V.m.m.n.n.h.h.n.h.h.h.h.h.h.h.h.h.h.h.h.h.b.h.v.b.h.h.h.h.h.h.h.h.h.h.h.h.h.n.h.n.f.g.n.n.f.n.n.n.a.a.n.n.n.f.n.f.h.f.g.V.r.            % nXJXbXLX XP fX[.E 8 g W kX1XS.P.b a L P P m @XsX! f l I &.P Z.hXcX$X| h z L.4XHXJXbXnXmXAXAXDXLXIXaXZ.U.gX=XA.G.Q i d -.Z.U (.4X_.H p D I.;.G.3XJXLXHXIXaXZ.Y.vX8XD.S.&.a m Z.;.&.wXNXI.b a ;.'.I.I.gXaX-.h D '.'.T.#XFXLXJXHXZXW.-.hXNXJ.H.H.s n ].`.P.'.lX>X! a ;.-X[.'.aXIXHXKXIXNX&.` vXbXZXFXFXKXSX[.[.-X;.m P Q gXSXP.3.L C }.}.8X8XfXdX;.d *.*.t.`.'.SXIXwX-.b &.3.hXPXLXwXY $XvXvXvXvXvXvXwX=XwX>XwX-XgXKXcXDXDXHXJXLXxXY.Z.fXgXY.I.Y.P a n n n %.fXaXF.m a C $.n oXIXHXHXLXgXS.S.gXMX[.I.I.%.a n n n P.fX>X;.a v $.C b -XgX^.Y v $.%.n &.gXIXHXHXLX3XW Y.KX8XZ.'.].n a =.*.$.'.gXW.P a n *.n *.fXPXIXHXIXgXS.S.gXDXvXZXFXKXIX",
"l.l.c.b.z.z.z.z.v.z.z.z.z.z.z.b.z.z.c.z.z.z.z.b.z.z.z.z.z.z.c.c.c.c.z.z.z.z.9Xz.c.z.z.c.c.N.v.N.c.N.M.N.B.c.B.v.c.c.c.tXm.9X9X9X9Xa.:.t Z :.) B A A q r A B B 0 w k l 3 ' ` 2.7.) k l c T j  .H H k s M k w e.) B ) ( ) B q # < f ' ' l ' A A $.i.9XM.M.B.B.B.B.m.B.m.m.m.m.n.m.m.V.m.m.v.v.n.v.v.h.v.v.h.v.v.h.h.h.h.v.h.h.h.j.V.h.h.h.j.h.h.h.h.h.h.h.h.h.n.f.n.f.n.f.a.n.a.n.n.n.n.a.a.n.f.f.h.h.g.g.V.r.  .     .   % nXmXbXPX[.P wXY.P G E L.vX3XZ.Q D h E ! E ~ 4XsX~ z Y Q J E W.lXcX/.Y J ' X.4XLXJXvXvXJXAXDXDXGXGXaX` ^.VX=XA.A.P p h K x K ).4XE.x z G E F | 5XLXJXHXIXaX3.J.xX=XA.I.E i p F G D :XZX;.h h m x F J sXsX! j m P G K E.vXHXDXLXgXY.Y hXgXD.H.-.d a L d d ! dX>XE p G ! G E :XHXHXFXIXMXU ` kXFXZXFXFXKXNXW.W..XQ i D P gXNXP.P.L f %.*.*.P :XsX~ 8 m &.I I T.xXKX-X&.f z F 3XPXIX8X&.wXGXSXSXSXAXSXwX=X=X8XwX&XgXIXDXDXFXDXGXLXxXJ.D.hXgXY.P.I.P v $.$.S %.sX>X-.b a $.$.L -XIXHXHXLXgXT.J.gXNXY.;.P.L a n n n *.gX=XP a v n n N *XaXW.P a n n n &.NXIXGXHXLXaXW Y.KX>XZ.I.;.n 6 n n n ;.gX'.&.v n *.$.%.8XPXHXHXPXgXS.S.hXAXvXbXZXKXPX",
"x.z.x.b.c.l.x.z.z.z.l.z.z.z.x.z.c.z.z.z.z.z.z.z.z.z.z.l.z.z.z.c.z.c.z.9Xz.z.9Xz.N.c.z.z.N.c.N.N.N.M.N.N.N.N.N.N.v.v.N.9X9X9X9X9X9X7X7Xu.<.:.:.B B >.Z 0 S 2.S k k l l < H | _ q._ w l [ 5 O...f u V k B r q w ) ) ) ( ) M < w l H T.|.|.0.S Z $.t.N.z.9XN.M.B.M.m.B.m.9Xm.m.m.m.v.l.h.V.n.n.v.n.v.h.v.h.h.v.h.v.h.h.h.h.h.h.h.h.h.h.h.h.h.h.h.j.h.h.h.h.h.f.n.h.n.g.n.n.f.h.f.h.a.n.n.f.n.a.a.n.f.h.g.f.V.r.        .   & nXvXvXLX XY wXG.W E.~.E.jX4XA.! F ~ R.Q.o.o.,X,X....o. .o.X.~.zXgXK.! R.R.Q.dXJXJXDXvXnXbXDXDXHXHX3XY Y.gX*XS.A.D F H.X.X.o.).jXR.x ..X.X.X._.dXGXGXGXIXaX3.T.vX$X-.;.F x ! X.}  .,XlX! m ! R.o. .Q.kX>XE ~ ~  .o.X.5XmXJXFXLXNXU.U hXgX-.-.Q m G H.R.H.).nX).E ~ ~ ~  .Q.dXJXHXIXIXNX` ` vXmXnXFXFXKXNXK.W..X! ~ -.! NXNXI.&.F h ! -.! ~ >XsXE ~ -.~ ....R.vXKX-X-.G E ..4XLXKX8X&.wXKXZXAXFXAXAXwX-X>X&X=X&XhXIXDXHXDXGXGXLXgXY.D.aXgXY.P.I.L a b %.L 3.hX1X' d a L m P [.KXLXDXLXgXS.P.gXgXY.P.I.L a n %.$.`.hX@XU s n $.n L eXsX^.P n $.C m -.lXIXGXJXLX3XU Y.UX=XP.P.P.v v C n n ].NX'.;.s v $.n &.fXPXHXFXLXgXD.F.hXDXmXDXAXKXIX",
"z.x.l.x.x.z.z.l.x.x.z.z.z.x.z.x.x.l.l.l.l.x.z.z.z.z.z.l.x.z.c.z.N.c.z.N.N.z.z.z.z.z.z.9Xc.N.N.M.c.N.c.N.N.N.m.N.M.B.N.N.N.N.9Xk.N.M.9X7Xr.$.1.:.>.$.<.( C 7.2.k k B l 2 g ' _ w.i.] l [ T c X...' | k V w q r e.( ) ) ) k < w ] _ 4.8.qX7Xu.=.$.r.N.N.N.N.M.M.M.m.m.V.m.m.m.V.m.V.V.v.v.v.n.n.l.h.h.h.V.v.h.h.h.h.h.h.v.v.h.h.h.h.h.h.h.h.h.h.h.n.g.h.h.f.n.f.n.f.n.f.f.n.f.h.h.n.a.a.n.a.n.n.f.n.f.h.f.V.r.            = nXvXvXLXoXI aXS.} ).).).jX>XA.! ! Q.;X~.<Xo.;X,XX.).,X).;X ...dXkXG. .).;X).4XJXAXDXbXbXbXbXDXHXHX3XY ^.NX>XG.! J K.(.X.Q.Q.:X4XH.~ ;X;X~.<X~.5XJXJXUXIX1X` T.xX&X-.Q ! ~ R.X.X.o.;XlXE Q Q.o.X.o. .4X>X~ H.Q.X.Q.X.;XmXJXJXPXgXY.Y sXzX-.-.Q ! H.o.X.X.Q.4X@XE Q.Q.Q.Q.Q.5XJXFXFXIXgXP K dXmXcXDXFXKXNX'.[.W.! H.~.Q.dXlXI.-.W  .X.o.o.Q.4X4X! ;.Q.~ o.X.R.jXFXoX! Q._.X.jXLXIX=X-.wXGXZXZXSXAXZX3X=X>X8X*X&XdXLXDXJXHXGXGXLXgXT.D.hXgXY.3.S.P u 9 a f I 3X%X| z u d m m W.FXIXFXIXgXD.D.gXgXY.G.J.N 8 n $.n ;.sX/.U a v C m l #X3X^.F a m P m P dXHXmXAXLX=XP Y.IX=XP '.S.a a L C n '.gXI.P a b %.L *.wXLXHXHXLXdXZ.Z.sXDXbXDXmXSXKX",
"x.l.b.x.x.x.z.z.z.x.x.z.x.z.z.x.x.z.z.l.l.z.l.z.b.v.l.z.z.l.l.c.z.z.z.z.z.z.z.z.z.c.z.z.N.N.c.N.N.M.N.N.z.M.z.N.B.N.N.N.m.k.9X7X9X9Xz.z.b.u.b.|.u.1.1.0.S A :.s l l l < p ] T.w.{.( c O.c T <X~._.R.l l 0 w ' _ ' ] l ] B ] B M $.1.b.9Xc.7Xx.b.c.N.N.M.M.M.m.m.m.m.m.9XB.m.m.V.l.V.v.h.V.l.v.n.h.v.v.h.h.h.h.h.h.v.h.h.h.h.h.h.h.b.V.h.h.h.h.h.h.f.h.f.h.f.h.n.f.n.f.h.f.f.h.f.a.a.n.f.n.n.f.n.f.n.f.g.V.r.            % nXvXvXGXXXQ aXH.! L.L.%XmX>XH.! ! Q.o.o.o.X.5X:XR.).Q.X.~.X.o.sXgXK. .).;X_.jXJXJXDXbXbXbXbXbXHXHX3XY Y.xX>XA.U E E.).;X;X;X5XsXR.R.;X<X~.;X,XdXJXGXAXKXeX` T.xX=XS.-.E R.).;X;X~.,XzXE W.@XQ.X.~.~.zX,X! ;X;X<X;X;X:XmXJXAXIXNXI.Y gXzX;.&.P H.,X;X;X<X~.sX@X .,X;X~.,X<X4XnXGXSXPXgXY ` dXmXzXnXvXAXlX[.[.I.~ Q.;XQ.jXkXD.&. .;X,X;X,XQ.,XzX-.,X,X<X;X;X).zXFX[.-.).;X;XjXJXIX>XY >XDXZXZXZXvXZX3X*X>X>X&X$XdXLXDXFXFXHXGXLXgXS.T.hXgXY.Z.-.U D p u i W.mXXX] } z 2 > x ,XFXHXAXIXgX3.D.gXhXJ.D.S.I a 6 9 u I.dX(.| d & u 3 i ).4XJ.P 8 u d f c sXLXGXGXPXwX&.Y.KX=X-.P.S.a * v m d S.dXI.G u a L N P &XHXFXFXLXsX| F.dXJXmXbXvXKXKX",
"l.l.l.z.z.l.x.l.z.l.l.x.z.x.z.z.l.z.x.l.z.x.z.l.l.v.l.c.c.z.z.x.z.l.z.z.z.N.N.N.z.N.m.z.z.z.z.M.N.m.z.m.z.N.m.m.B.N.N.N.9X9X9X9Xz.N.9Xz.B.c.c.9X9Xb.r.1.>.$.>.B l V c 3 5 c | e.y.' [ ] [ ^ @.~.O.R.l l ) k ' e.' X.] ] V l w r $.u.7XB.M.v.M.9XB.N.M.B.M.B.M.M.V.B.m.m.n.m.m.m.v.l.v.h.l.v.n.v.v.h.V.h.v.h.h.v.v.h.h.v.h.h.b.h.h.h.j.h.h.h.h.h.h.h.f.h.g.n.f.f.n.g.n.f.n.f.h.f.n.n.a.n.n.C.f.f.f.f.f.g.V.r.            % JXvXvXLX.XU aXH.}  .~ R.vX3X-.! ! Q.o...o.o.%X%XL.(.| E H.Q.Q.jXkXW.! X..._.dXLXGXcXvXnXnXbXJXHXLX3XU Y.gX#XA.W G ! ~ x ~ E.>XsXH. .~...o._._.4XJXGXJXGXeX` Y.VX=XS.;.P E  .X.Q.X.4XzX-.Q.H.~ o.o.Q.sX>X! Q.Q.X.Q.X.,XmXJXZXIXlX;.! gXgXS.&.P J K.o.Q.).@XzX@X-.~.o.o.Q.Q.4XJXHXUXIXxX3.| jXbXnXnXnXDXgX[.[.G.~ o.Q.;XnXlXS.U  ._.~.R.).Q.zX4X~ ,X;XQ.X.~.;XnXZX[.H.Q.X.;XzXLXKX:XQ >XZXlXvXlXlXvX3X*X>X>X>X%XdXJXbXDXHXJXHXLXgXT.D.hXgXY.&.Y U A.Y.1X3XsXgX).J  .R.X.~.;XjXFXKXUXPXgXI.S.gXgXY.-.W U U G z | 4XZXY.Y } W l p ..dXaX| ! ! z 2 z R.mXLXGXKXPXaX&.'.IX8XS.S.D.G f 8 8 a W.gXG.! D u u a m >XLXHXHXLXgXJ.T.dXDXnXJXDXKXIX",
"b.l.x.z.z.x.x.z.x.l.x.z.x.l.z.x.z.l.x.l.x.z.l.l.z.x.x.z.x.z.z.z.x.z.z.z.k.z.k.z.z.z.m.z.m.m.z.m.m.9Xk.m.m.9Xk.9X9X9Xm.9XN.9XN.9XN.N.N.N.N.m.m.9X9X7Xu.r.<.<.:.r l H c 4 c 5 K T.w.5.c R ^ R +.X.O.X.l k ) ) ' ..] O.] ] ) w w ) :.t.9XB.B.N.N.M.M.B.B.M.V.B.M.M.v.V.n.v.V.v.V.v.V.l.v.V.h.l.v.h.v.h.h.v.h.V.h.h.l.h.n.m.h.h.g.h.n.h.n.h.n.h.g.h.h.g.h.f.h.f.h.h.f.h.h.h.f.h.h.g.f.n.n.g.n.g.f.n.C.n.f.n.V.r.  .         * HXbXDXLXoXY =XJ.}  .E ! kXaXD.A.-.-.;. .K.| /.=XY.F.-.Q S. . .sXlXW.H.K.} H.3XHXFXvXnXbXnXnXbXHXJX3XY Y.gX>XF.} ! K.A.E ;.G.OX3XL..._.Q.R.L.R.sXHXHXHXIXeXY J.VX=X;.;.L ! H.H.L. .;XdX! K.E.~ H.R.R.aX$X..R.R.R.E.R.%XmXJXcXHXgXG.Y hXhXZ.P.&.! K.H.Q.;.Q.zX[.~ H. .~ -.;.>XJXJXDXPXgX` | gXJXnXnXnXDXlXI.[.I. .X.X.~.kXlXS.U | L. . .L. .,X5X .;X).Q.X.X.(.zXZX/.H.Q.X.;XjXLXJX$XW >XNXlXkXgXlXkX4X4X4X3X4X5XjXJXnXFXDXGXGXLXgXS.T.hXgXY.U Z.Y.^.E.5XdX3X4XXXE./.H.,XnX6X6XJXJXGXIXgXI.I.gXfX[.P Q } F.XXdXdX4XxX(.| | L.%X4X5XjX5X .! L.(.%X5X5XxXJXmXGXPXaXQ J.GX*XA.Q G U } } A./.dXvX .J L.| Y | /.kXHXJXJXLXxXL.T.dXJXmXbXDXGXIX",
"l.x.l.x.x.x.z.x.z.x.x.z.l.x.x.l.x.l.l.l.x.l.l.l.x.l.l.l.z.l.z.z.z.l.z.z.z.z.m.z.z.m.z.m.z.z.k.9Xm.z.z.z.m.k.9Xk.k.m.9Xm.N.N.N.N.B.N.N.B.9X9X9X9Xc.9XB.i.:.:.:.M N c c 3 j c | U.{.' c O.O.O.+.@.O.X.5 ] k ' ' X.!.O.] ] [ w ) q.1.s.9XB.B.B.B.N.B.N.N.N.M.B.M.M.M.M.M.M.v.v.n.V.v.V.h.v.v.V.l.V.h.v.h.h.v.h.h.h.h.n.m.n.n.n.n.h.h.h.h.g.h.n.h.h.h.h.h.h.h.h.g.h.h.h.h.f.h.g.f.h.g.f.f.f.f.f.n.f.n.f.n.C.V.r.            & HXJXbXHXXXK =XI.A.h h S.SXfXD.S.P h m L &.3.-XeXT.D m %.P.-.G.gXcX/.A.U F | sXHXJXcXbXbXmXbXnXJXGX3XW ^.gX*XF.G.H.W G &.;.Y ^.1XE.| ' E } Q A.aXLXJXHXLX=X` T.SX=X-.-.-.E Q S.;.! [.NX} Q Q -.;.-.-.4X>X . .! G.G.A.XXmXJXDXIXlXS.U gXgXA.Q ! H.-.;.-.;.;.sX@XH. .~ ;.;.Q.>XHXHXFXPXNX3.3.gXDXzXnXvXDXgXI.[.W. . .! ! aXNXD.&.Z.Q Y D.G.Q :X4X~ Q ! -.F.} R.kXDX[.K.I.L.T.4XLXJX$XQ wXAXZXZXSXSXZX4X4X4X3X4X3XjXDXlXnXbXbXZXKXgXS.D.gXaXI.&.U ^.3X%X).R.%XdXXXE.,X,X).:X,X4XmXJXGXJXgXI.I.gXfXI.P Y E.(.L.1X%X3XjX_.#X#XL.%X4X5XjX3XR.@XR.L.5XxX5XjXJXJXJXPXeX` J.GX3XF.Q Q H.} /.jXjX5XdXE. .R.(.4XvXdXkXJXJXJXHXgXT.T.dXFXbXJXDXKXPX",
"x.h.x.l.l.x.k.k.x.x.z.l.z.x.l.x.x.l.x.l.x.x.l.x.l.x.x.l.x.l.l.l.l.z.z.z.z.l.z.l.k.m.z.z.z.z.z.k.m.z.z.m.9X9Xz.9Xk.9Xm.9XN.N.B.N.m.9XB.B.N.B.B.m.9X9X7X7X1.<.:.S V V z 3 g c H 9.w.9.' ] O.O.O.X.O.' k l ] ( | 2X_._.] ] ) ( y.2X1.r.B.N.M.B.B.B.B.N.N.M.B.M.M.M.M.V.n.M.M.n.v.h.h.v.V.v.v.n.v.h.V.v.h.h.v.h.h.h.v.h.h.h.h.n.n.h.h.n.h.h.h.h.g.n.h.n.g.f.h.h.h.h.h.g.h.h.f.h.h.g.f.n.f.n.f.n.f.n.n.n.n.f.V.=.            & FXnXbXHX.XP $XW.A.u G &XUXfX` D.C a *.6.6.U.eXaX5.s C *.t.;.'.NXvX$XJ.d f ;.sXLXFXnXbXAXvXnXnXJXJX*XY Y.dX$XF.K.} g s ].].6.8XhX^.J p N %.%.;.fXIXJXJXJXeX3.I.ZX>XG.G.E : a *.*.m +XFXI.G a m %.L &.hX3X} h m &.%.Y  XGXLXGXLXNXY.-.NXMXQ ! L.G a L L ! ;.gX,X~ m m &.-.&.wXIXHXDXPXgXZ.Z.dXmXzXnXzXDXNXI.[.[.! p h P fXgXP.P.L v C *.%.&.aXgXQ i v P &.-.I.SXFX+XI.P ` P.hXLXGX=X&.hXGXAXKXAXSXFXsX>X3X4X4X>XjXJXFXHXHXGXGXLXgXD.S.gXaXS.| Y T.4XjX%X).4XdX@X! :XzX4X).;X5XbXHXFXGXdXA.I.NXfXG.! P K.4X4X5X~.%XjXE...4X4X%X_._.jX:X..%XjX%X_._.5XjXJXbXAXLX3XY T.DX>X-.! A.:X(.X.5X%X5XdX(.).3X_.%X4X4XdXJXJXHXLXgXF.` sXAXAXFXFXKXIX",
"x.l.z.x.l.x.l.k.l.l.x.l.x.l.x.l.l.x.l.x.l.l.l.x.l.l.l.l.x.l.k.l.z.k.m.k.z.l.l.l.z.k.z.l.z.z.m.z.m.z.z.z.k.m.z.m.m.m.N.m.N.m.N.M.B.m.B.B.m.B.B.m.c.c.c.c.u.#.0.,.Z V V N ] N V 7.y.w._ ' c J ] ' ' ' l ) ) e.5.' e.[ ] ] ' i.u.v.s.j.B.M.M.N.M.M.N.M.N.m.N.V.m.M.M.v.v.V.M.v.v.l.v.h.h.h.n.v.n.h.h.v.h.v.h.v.h.v.n.h.h.n.h.h.g.n.n.g.n.g.h.n.h.h.h.f.h.h.f.g.n.f.h.h.f.f.g.f.f.g.g.f.f.n.g.f.n.f.n.C.n.f.V.r.            & DXnXJXHX.XY 8XY.G.d P -XVXfX` T.C $.qX7X7X}.MXhX3.a $.*.*.*.Y.gXcX$XJ.D b I.gXHXFXnXvXnXmXnXDXHXHX>XQ Y.gX=XZ.J.S.h L 0XrX7XuXVX XY d N 0.*.*.eXLXJXHXGXeXZ.Y.AX*XI.W.;.8 b *.=.*.8XNXY.m a *.6.*.&.aXaX| h n *.*.*.-XSXPXKXIXNXY.D.gXgX| X.E.b a *.t.&.;.sX:XE d *.].&.*.8XIXHXFXPXgX` ` xXmXmXnXmXGXNXI.[.[.-.i Q Y.NXNX'.;.L C t.*.0.6.fXgX;.v C 0.6.*.'.FXSX=XI.m -X-XVXLXGX+X&.fXGXSXSXSXSXSXsXaXsXaXsX>XkXFXnXZXFXGXKXLXgXS.I.gXhXS.Z.Y Y %X4X_.$X4XkX/.E H.,X4X,X,XdXJXIXKXLXhX;.I.NXsXI.-.J W 1XdX5X_.5XjXR.K _.dX5X_.:X4X5XE X.5X4X3X;X:XjXJXDXAXPX*XJ Y.HX>X! A.E [.dX3XX.~.5XdX . .4X4X:X).,X4XJXDXDXLXgXT.F.hXDXbXDXAXKXPX",
"x.x.x.x.x.x.k.x.x.l.x.l.l.l.l.x.l.x.l.l.l.x.x.l.x.x.l.x.k.l.k.l.l.l.k.m.m.l.l.z.m.k.z.l.k.z.z.m.z.k.m.z.z.m.z.N.m.k.m.m.M.N.N.M.m.N.B.B.M.B.B.B.B.c.c.tXd.#.:.<.>.B A B A A V ,.q.7.4.' ] ( ] ' ' ' ) ) ,.8.2.' ( ] ] B ( ,.b.B.B.V.B.B.M.B.M.B.N.M.N.M.M.M.M.V.M.M.n.M.v.n.v.n.h.n.v.h.v.v.h.h.v.h.h.v.h.h.v.n.n.h.h.h.h.h.h.h.h.h.h.n.g.n.h.n.h.h.h.h.n.h.h.h.h.h.f.h.h.f.f.h.f.f.g.n.f.n.f.n.n.C.n.C.V.=.. .         & FXFXDXHX.XY wXI.S.d m ].SXfX3.U.C n t.qXqX}.fXfXP.s C 6.t.t.'.MXZX#XS.N C U.fXHXDXbXZXvXbXDXFXLXLXaXZ.^.gX=XS.J.A.p N t.qX].eXMX XG s C t.=.t.hXLXHXHXIXeXZ.Y.mX=XD.U.;.8 n =.=.n 8XNXY.L 6 $.$.$.%.aXhXD.d n =.=.*.}.UXLXKXLXNXG.Q cXVX .X.K.m v 0.=.*.P.sX:XU b $.*.=.*.eXPXHXFXPXgX` D.xXmXnXbXDXKXNX[.[.8X;.i P.[.MXNX'.P.%.$.b.b.7X}.NXhX&.v $.0.=.*.].NXFX8X;.b |.-XMXIXAX#X3.fXZXSXgXlXNXNXsXsXsXsXsXaXgXFXFXFXHXHXIXIXgXH.I.hXhX^.J.Y z  .:XL.J ).sXR.x G ).,XR.Q.5XJXHXKXIXgXG.I.NXfXJ.Z.F F _.3XE.R.5XjXL.c ..5X:XR.%XjX5XJ c _.4X_.:X5XmXJXHXHXPX>XY [.IX8X-.-.E H.3X4XR.;X4XxXL.` ).jX5X%X5X4XDXLXKXIXkXJ.F.gXGXZXFXSXIXIX",
"h.h.k.g.d.x.x.k.x.x.x.x.x.x.x.l.x.l.x.l.l.l.l.l.l.l.l.l.l.k.l.k.k.l.k.m.k.l.z.k.z.z.k.z.m.m.z.z.z.l.z.N.m.z.N.m.m.9Xz.9Xc.M.M.B.9Xm.N.m.B.B.B.N.c.c.c.9Xx.e #.$.) B A V A V N V ( 4._ H ' ' ' ] ' ' ] ) 4.4._ ' ] ] ) ] ) 4.b.B.V.B.V.M.N.N.M.N.M.N.M.M.M.M.M.V.n.M.V.M.V.v.v.n.v.v.h.h.n.n.v.h.h.n.h.h.h.h.h.h.l.l.h.h.h.h.h.h.n.h.h.h.h.h.h.g.h.h.n.h.h.h.h.f.g.h.h.f.h.g.h.f.g.n.f.f.g.f.h.g.f.n.f.f.V.r.            & FXnXDXJXXXQ wX'.S.i P [.KXfXS.Y.C $.7X0X8XfXNXsXG.b &.7XyXeXuXUXlXXXD.D &.=XgXGXDXAXDXAXbXbXDXHXIX>X| Y.gX3XT.S.| z I 7X7XqX8XgXW.P v `.7X7X8XNXIXHXLXIX=X` Y.AX#XZ.U.*.n =.qXqX].fXNXG.m e $.=.$.&.hXsXA.h $.qXqX].eXIXIXUXIXvXT.Y xXxX ...J.L #.qXqX].8XgX=XY b *.qXqX}.MXPXLXFXIXgXY D.xXmXzXnXZXIXNX[.[.+X;.a &.`.NXMX].P.n $.t.b.7X7XMXgX&.9 =.t.t.}.8XUXNX>X;.v *.U.hXLXJX%X3.eXSXNXZXVXNXNXsXwXaXaXaXaXzXZXlXlXkXkXlXGXfX-.A.wX=XD.J.Z.G | R.} z L.3X).E x ~ @XE j ;XDXLXKXIXgXA.;.sXaXY.G.J h | XX..g R.jXX.g g E._.K E 4X3XJ z | 3X~...X.jXJXLXHXPX>XY Y.KX>XI.[.m G ).5X..X.5XdX| z H.5X5XQ.;XsXHXHXHXIXgXP.S.hXHXFXFXFXFXUX",
"g.l.g.x.d.h.x.x.l.x.x.l.z.x.l.x.l.x.l.x.x.l.z.l.l.x.x.l.k.l.l.l.k.l.k.l.l.l.l.l.l.k.k.k.z.z.m.z.z.z.z.z.z.9Xm.N.z.m.m.N.N.N.N.N.m.B.N.N.N.N.B.B.B.9Xv.7Xb.e t ) Z B V s P l l l V ' ] ] O.O.O.......l k e.T.' ] ] l l H _ 2.u.tXN.v.c.M.N.N.N.N.N.M.M.M.M.m.M.M.M.M.v.M.v.V.v.V.n.v.v.n.n.v.h.h.h.b.h.h.h.h.h.l.l.l.h.h.h.h.h.h.n.h.n.g.h.h.h.h.g.n.n.h.n.h.h.h.h.h.h.f.g.h.g.g.g.f.n.n.f.n.g.n.n.g.n.f.V.r.        .   & DXDXDXLX#X-.wX[.A.2 h W.FXsX-.I.b n ].qX8X8XfXaX-.d 3.-X8X-X1XVXvX&XA.h J +XvXLXDXvXmXDXbXbXDXHXGX*XU ^.xX8XF.J.| p L 0X8X8XfXgX[.G b `.eX7X8XNXIXIXIXIX>X&.!.AX2X` T.*.a ;.8X0X[.fXNXH.m v qX8XqXoXzX>X! m &.yX8X8XeXUXIXJXKXvXJ.Y xXdXL.H.S.b S 8XrX8X8XNX-XP C }.pX8X8XgXLXFXZXPXgX` F.jXnXmXmXbXKXNX[.[.+X;.d ;.-XCXMX;.;.L *.qX9XrX8XgXdX&.n qXyXiXuXfXKXNX>X-.m `.}.xXLXFXOXZ.aXFXSXSXSXDXZXsXwXwXwXaXwXdXZXkXlXkXlXlXDXaX-.I.sX#XY J.XX1XOXH.@X:X3XsX:XQ.@X).[.@X@X4XnXNXNXZXwXP Y =X#XQ G.H.A.} E.J.K R.4X_.| J ..Y.| K 4X>XF.K |  .R.] ..5XJXJXJXLXaXY G.ZX=XG.I.P m F._...g E.dXF.z x _.;X~ ~ 5XJXHXGXIXgXU.P.hXGXZXHXGXFXFX",
"x.x.x.l.l.x.l.x.x.l.x.l.x.l.x.l.l.l.b.l.l.x.b.x.l.l.l.l.l.l.k.l.k.k.l.k.l.l.l.l.z.z.z.z.m.m.z.k.z.x.z.z.z.z.z.z.z.z.N.m.M.v.N.v.N.m.N.N.N.N.N.B.c.c.v.B.v.e t ( A V k u J g c p H ] ] R _.@.O.@.;X@.c l ' ....O.R 3 c V _ 1.u.B.7X9Xc.M.B.B.N.N.M.N.z.M.M.M.m.m.M.M.n.v.v.v.v.v.V.v.V.v.v.n.v.v.v.h.v.l.h.h.h.l.h.h.h.h.h.h.g.h.h.h.h.h.h.n.h.h.h.h.h.h.f.h.h.g.f.h.h.h.h.h.n.g.n.n.n.g.n.h.n.h.n.h.h.h.B.r.            % nXDXJXLX#X&.8XI.E i p ~ lXzX;.I.m v &.%.%.&.8XsX-.d P Z.U Y T.dXAX#XW p g  .4XLXDXvXnXnXbXnXDXLXIX3X| ^.gX=XZ.G.Y u u C L L +XdX[.G i m Y I Z.aXIXHXHXIX8XU Y.VXXXY J.&.8 n ;.;.P wXNX-.h 8 ;.].;.I.sX>XE d m P.3.2.#XVXIXbXLXxXL.J vXdX .R.G.b v `.`.P.[.gX-XP a &.'.`.U.aXIXKXUXIXgX| ..jXmXnXmXbXHXgX;.[.@X! 8 &.'.MXMXP.S.m $.qXqX|.|.aXdXP n |.7X7X8X8XFXFX+XP a ^.XXgXIXGXoX&.hXFXZXFXZXFXZXwX,X>X>X>X,XwXdX4X4XdXgXgXZXaXQ -.&X XP Y (.aX(.G.@X>X$X%XR.,XsX[.[.sXsX>XkXFXNXSX>XJ Z.wX&XQ Q [.gX=XY.*XsX5X3X_.$X4XE.K.3X:XhX>XK.).4XJ.%X%X%X5XJXjXdXJX$XD F.lX.X&.+XY.Y.^..._...OXdX/.H.W K.).H...;XnXJXZXUXNXI.&.&XvXDXZXkXlXNX",
"x.l.x.l.x.l.l.x.x.l.x.x.z.x.l.x.l.x.x.l.b.l.l.b.l.z.b.l.l.l.l.l.l.x.l.l.x.z.l.v.l.l.M.v.z.m.z.k.z.z.z.z.c.z.c.z.z.z.m.z.M.N.c.N.N.N.N.N.m.N.N.N.N.9Xv.c.z.e t ( B A M 2 ] 3 5 p ] ' ] O.@.@.{ @.+.;Xg l ] ] ..O.R 5 l c I >.t.7Xc.c.c.B.B.M.B.v.N.m.N.M.N.m.m.M.M.M.M.M.m.M.z.m.m.v.m.m.m.M.M.m.m.M.z.l.m.h.h.h.h.l.h.v.h.h.h.h.h.h.h.h.v.h.h.h.h.h.h.h.h.h.j.h.h.h.h.h.h.h.h.n.h.h.h.h.h.h.h.h.f.h.h.h.V.r.            % nXbXDXLX#XY 3XG.F  .Q.E.cXsX! -.G P I.I.H.H.>XsX~ E | } ..~ R.dXcX/.| ..~ X.4XJXJXmXmXnXnXbXDXHXHX>XU ^.gX=X} D.Y F J ~ ~ ;.,XzXQ.~ ~ H.~ ~ H.dXHXbXJXIX=XY I.ZX[.-.;.m i x P P E @XzXE x G -.! P  .4X,XE z G ! -.! $XGXHXJXLXxXJ.Y xXdX| G.A.h i x c x J.dX+XG D G H K ' 3XJXJXVXLXgXU G.kXbXcXFXmXGXgXG./.XXY d D &.MXgXP.S.D m &.` Y W gXgXP d Y W | ` _.bXDX$XY 3 p | 5XIXKXoX&.aXFXZXZXZXDXZX>X>X>X>X>X>XwXzXsXdX4X>X3XkX&XA.F.=XoXY.^.J.J P A.S.-.I.).K.} } -.P.I.I.W.5XsXhXgX3X| F J.Y.Q U I.[.I.S.[.XXW.W.H.W.>XI.I.=X+X-XY.J.>XwXH.wXkX,X@XFXmXvXHX>XG -.sX.X! ;.,XZX:XY.3XsXaXsXW.@XsXW.W.sXzXsXzXzXdXAXaX&.Z.aXkXsXsXsXdXgX",
"x.x.l.x.z.x.x.z.x.l.l.l.l.l.z.x.z.x.x.z.l.x.l.l.x.l.l.l.x.z.z.x.k.k.l.l.l.z.l.l.l.v.l.l.m.z.z.z.z.z.z.z.c.c.c.c.z.9XN.N.v.N.N.M.N.N.N.N.B.N.N.B.B.N.N.9Xl.t t ) A V l : [ 5 5 c H ' ] c <X@./ +.+.@.5 l ' K O.O.^ 5 c l I >.b.9XB.c.M.B.M.B.B.B.N.M.N.M.N.M.m.m.M.m.m.M.m.m.m.M.m.M.M.z.z.m.m.z.v.m.m.l.l.l.l.v.h.l.n.h.h.h.h.h.h.h.h.h.h.v.v.h.b.h.V.h.h.h.v.h.h.h.h.h.h.V.h.h.h.h.h.h.h.h.h.h.h.n.h.h.M.r.        .   % nXbXbXLXXXU =XJ.E Q.(.Q.nX>X-.P ! H.).Q.Q.~ >X,X .L.R...Q.X.R.sXvX^.| o.o.X.jXJXbXbXnXbXnXbXDXHXHX&XY Y.gX=XD.} Y | L.Q.Q.Q.,XzX;.~ Q.~.o.o.Q.4XHXJXJXHX=XU Y.FX@X-.-.j ~ o. .H.~ ,XzXG E H.~ H.o.Q.4X:XE ~ H.Q.;. .;XbXJXAXLXxXS.Y lXsX} S.! F ~ o.o.o.~.dX/.Y  .F.X.X.R.6XJXGXAXPXhXU S.kXDXDXHXmXJXdXD.oXY.J  .R.).nXsXI.;.P !  .....o.sXsXU A.L. ...X._.mXcXW.!  ..._.jXLXKXoXU sXKXFXDXGXGXDXkXgXgXgXsXsXNXKXDXDXJXHXHXFXaXY. XlXaX#X*XJ.i a G P P @XvX:XJ i b &.P G.sXlXdXsXdX$X| F.aX+X[.&XI.d b -.G G I.*XOXY g G -.! -.=X*XJ.P P ;.;.I.;.:X4X5X3XvX$XG -.>X[.~ -.;.[.I.Y.W.W.R.W. .R.$XG.I.+X@X@X4XzXkXAXaXP P $XkXkXzXkXdXgX",
"l.x.l.l.x.z.l.l.z.l.z.k.z.z.k.k.x.c.z.l.l.z.b.l.b.l.z.l.x.l.l.l.l.l.k.z.l.z.l.l.l.l.v.l.m.m.z.k.z.z.c.z.c.c.c.c.9Xm.N.m.N.N.N.N.N.N.N.m.N.N.m.9XB.B.N.N.v.t t ) ) k d 2 [ ; 5 5 c ' c [ 6X@.@.+.{ @.5 l ' K O.O.T 5 5 ] V 2.u.9XB.M.B.B.B.v.c.B.M.N.M.B.M.B.m.B.M.M.m.m.m.z.z.m.m.m.M.m.M.M.z.m.M.m.m.l.l.v.M.l.v.M.h.v.v.h.l.h.h.v.v.v.v.h.h.h.h.h.v.h.h.v.v.h.h.h.V.h.h.h.n.n.n.n.l.n.n.h.n.n.n.h.n.h.B.r.            % nXcXcXJXXXU >XH.E ,X).).nX4XU ! H.).~.;X;X;X4X>XH.,X;X~.;X;X;XjXkXR...~.<X,X6XJXJXJXbXbXDXnXDXHXHX=XU Y.gX1XS.| Y K.).<XQ.Q.,X4X;.;.,X<X<X<X;XzXHXJXJXIX*XQ [.KX8X-.! E Q.<XQ.).Q.,XjXE H.,X<X<XQ.Q.4X,X~ ).;XQ.<XQ.,XmXJXJXPXgXP.U SXlXA.;.W ~ ;XX.X.o.Q.dX).H.).~.~.~.~.,XJXFXFXPXfXU F.jXbXnXbXmXDXhX| -X!.} Q.Q.Q.dXdXI.&.G.Q.Q.~.~...,X>X~ ).).Q.X.~._.vXAXE. .).X.X.jXJXGX X` dXHXFXHXGXFXFXgXsXgXgXgXgXNXFXDXFXJXFXGXHXaXA.W.gX1XY./.T.d 8 m &.L +XgX@XY u a %.*.;.sXHXLXHXLXsX| J.gX>X[.=XI.a 8 m L m -XkX$XG * a C n &.fXxXE.f 6 m *.m I.NXzXjX4XlX[.! [.NX.X[.sX;.8 d &.P P +XdX%XK d P -.%.} %X4X4X3XgXaXY Y (.%X:X>X>X>XwX",
"l.x.x.l.l.l.x.z.x.x.k.l.z.x.l.z.l.b.l.z.z.l.c.x.c.l.x.z.z.k.z.l.k.z.l.z.z.l.z.l.M.l.l.z.z.z.m.z.z.c.9Xz.N.c.v.7Xm.N.N.N.N.N.9Xc.N.N.N.9XN.N.N.N.B.9X9XB.c.t e ) l k l @ 3 5 5 5 H _ V c @.@./ { +.@.5 l H H ..^ O.5 c l H $.u.9Xc.B.B.B.N.B.B.B.B.N.N.N.N.M.B.m.M.B.M.M.M.M.m.M.M.m.M.m.m.m.m.M.z.M.h.M.n.l.l.l.l.l.l.n.v.v.h.l.v.h.h.h.h.v.v.h.h.h.h.v.h.h.v.V.h.h.h.V.V.h.v.n.n.n.h.n.n.n.M.h.n.n.n.h.V.r.  .         = cXzXvXGXXXU aXL.E R.X.~.zX,XP P ~ Q.~ ~ o.Q.:X>XR.).~.o.X.X.X.dXlXK.E o.X.;XzXJXDXnXbXDXDXnXnXHXHX>XZ.!.gX*XZ.| Y }  .o.Q.<X,XzXQ.W.;XQ.Q.;X;XzXLXJXJXIX=XP '.FX+X;.! m ;.;XQ.~.<X4XsX! W.<Xo.Q.+.,XzX,X-.@X<X<X<X<X4XbXLXHXLXVXI.` cXgX} ;.P  .Q.X.<X~.5XdX/.R.~.~.;X;X<X6XLXZXZXIXfXY T.dXvXjXbXvXDXaXT.=XY.D.).:X,XcXgX;.&.[.,X;X).;X~.zX4X .;XQ.~.;X;X5XmXZXH.H.,X6X<XjXLXIXY.Y sXFXcXcXZXZXZXlXgXkXdXgXdXZXFXnXnXFXHXHXLXdXF.Y.gX3XE.^.L.d a n m b '.gX3X! 8 a *.n Y >XcXDXJXLXdXA.G.gX3XY.+XI.a 6 *.$.n [.dX@XP 6 v =.L %.fXaX!.d 6 n *.n I.ZXFXJXJXLX>X-.[.FX@X[.sX-.8 a n %.L 8XxX).F * a L m ` dXJXJXbXHXaXD.E.dXbXnXnXcXSXFX",
"z.k.l.k.x.l.x.z.k.k.z.z.k.z.k.z.z.z.z.l.b.z.l.z.z.z.l.z.z.l.z.l.m.z.z.m.l.z.l.z.z.z.z.z.m.z.k.9Xz.c.z.9Xc.9Xc.c.9Xz.m.m.k.9X9Xk.N.m.m.9X9X9XN.9XN.9XN.0X7Xe r A ) k 3 3 5 5 5 < H _ ] c X.@./ +.O.O.4 f ] c R [ { 5 l c l ) u.B.c.M.M.B.N.B.N.N.N.B.N.M.m.N.B.B.B.N.N.M.M.m.M.N.N.m.N.M.M.m.m.M.m.l.M.l.m.m.m.m.l.v.v.n.h.v.h.h.h.h.h.h.h.v.h.l.v.h.v.h.h.v.v.h.n.n.n.n.h.h.V.n.h.V.n.v.n.h.V.V.n.n.n.n.B.r.            = mXAXmXGXXX` *XW.} X...Q.zX3X&.P ! -. .o.H. .Q.:XR.[.R.H.R. .H.sXvXE. .R.o.Q.jXJXJXDXDXFXZXbXnXHXHXaXZ.^.xX*XD.Q Y } G.Q.Q.~ ,X4XI.R.).Q.Q.@X@XdXIXFXHXHX=XU Y.UX[.;.-.d E X. . .Q.5X4XJ R.~.Q.o.Q.).4X@X .~.Q.Q.).@X,XDXHXZXIXNXJ.Q vXdX| -.G ~ ;.~ ~ X.%XkX(.~ R...o.~ X.5XJXDXDXPXfX&.S.gXbXmXbXvXDXaX!.1XJ.S. .K.:XlXgX-.-.I.).Q.R.Q.X.4X4X~ Q.o.X.X._.%XmXNX;.Q.Q.O.%XzXLXGXY.Y aXcXkXvXlXlXlXgXkXkXgXgXgXcXDXmXmXbXJXHXLXdXF.Y.vX3XY./.| f a L $.b Y.gXsXY u v $.n &.wXDXJXJXLXhXA.J.gXaXJ.-XP.a 6 n n n [.gXwX&.6 a $.n L aXgXE.d 6 n n n ;.FXFXmXmXLX*XY W.GX$XI.wX;.8 9 n *.n [.hXXXK 8 v L C I >XmXJXJXLXlXG.F.dXbXnXDXFXGXFX",
"l.z.k.k.z.l.l.x.z.l.l.x.k.l.z.l.z.x.x.z.l.z.z.l.x.x.z.z.l.z.l.z.k.z.z.k.l.z.z.l.l.z.m.m.9Xz.k.9Xc.z.z.c.c.c.c.9Xz.9X9X7X9Xk.9X9XN.7X9X9XN.N.9Xm.N.9X9Xz.1.7 q V B k l l c 3 5 3 l ) l c c [ O.@.T 5 c l B V ] c O.[ 5 c V B :.c.c.N.B.N.B.M.M.B.N.N.B.m.B.B.M.M.m.N.N.M.m.M.M.m.M.M.m.m.m.M.M.M.m.M.l.M.M.l.l.M.n.v.l.h.v.h.v.h.h.h.h.v.v.h.h.h.h.h.h.v.V.h.h.v.n.l.n.n.v.h.n.n.h.v.n.n.n.h.V.h.n.n.n.n.V.C.            % DXbXmXGXXXU *XE.} R j E zXsXS.I.-.P E Q H.! XXwXI.! ! Q I.I.D.sXlX@XR.H. . .4XDXFXFXZXnXDXDXDXHXLX=X| Y.gX*XD.A.A.F.S.;.I.-.Q.4XK.I.Y.;.Q.Q.;.3XLXJXJXIX=XU  XKX[.;.-.! ! I.`.`. .:X4X~ R.Q.W.[.I.Y.4X:X .E.E.I.W.;.@XnXLXZXKXNXJ.` mXdX-.-.P -.Q.Q.;.R.).sXQ. .H.R.W.W.L.,XLXJXAXIXaXY S.dXmXnXbXvXGXhXT.=X!.A.K.H.R.zXfXD.P S.W.I.I.F.| ,X,X .W.A.A. ...(.mXNX[.-.Q.O.X.dXIXKXY.-.gXHXFXGXFXGXFXvXgXgXdXvXdXvXJXbXbXnXDXJXLXgXF.J.lX3XT.K.` u 9 L *.L '.NXsXF 9 n *.*.&.wXDXJXJXLXdXD.I.SXaXD.^.3.u a $.$.n ;.NXsXP 6 e n a L =XAX Xf 6 m C m ;.ZXFXJXJXPX>XY ^.KX+X-.+X-.6 6 $.n $.'.SX4XH 6 a n n I *XJXJXJXLXgXG.F.jXnXnXnXnXZXUX",
"x.l.k.z.l.z.x.l.k.z.z.l.z.k.l.z.l.l.z.z.z.l.z.c.z.l.z.k.z.z.z.k.z.m.l.z.z.z.z.z.m.z.N.m.z.m.9Xm.c.z.z.c.c.z.c.c.9Xk.m.N.9Xk.k.9X9Xm.9Xm.N.9XN.9XB.B.tXr.e 7 y 0 k k f 3 5 3 3 3 l V l c [ R ^ O.5 O.g l k k f c ..c 5 l l B e 1.c.9XN.B.N.N.B.N.M.M.M.B.m.B.B.B.B.m.M.M.M.m.m.N.M.M.M.M.M.M.M.v.M.l.M.l.l.m.l.l.v.n.l.h.n.v.n.h.h.h.h.h.g.h.h.h.h.h.v.h.v.v.h.h.n.l.n.l.n.n.n.n.n.h.n.n.n.h.V.h.m.n.n.n.V.r.            % DXmXJXJX-X` 1X^.} g 2 c kXdXP.'.I a N L %.&.>XkX;.d m Y *.P.P.hXlX:XH.z p P sXFXFXFXFXFXZXDXDXHXHXaXY Y.gX=XJ.K.G.m L ;.;.S.>XdXW.` D ;.qX[.-XgXLXbXJXGX=XU }.SX+XS.K.-.m m *.*.P ).kX~ G m P ;.&.S.aX>X .J F -.-.P oXGXLXDXIXNXG.Y mXzXG.;.;.~ G n &.Y W.jX@X .F z G ;.H.3XPXJXAXIXfXU S.dXvXjXnXvXDXhXZ.=X XS.D.! G.gXhXI.;.&.P &.6.P.P.sX3XA.P I 2.D.T.%XDXSX[.-.J ' ..4XIXKX'.;.gXLXKXKXHXHXGXlXgXgXvXgXvXvXDXbXJXJXJXHXLXsX| J.VX1XJ.^.Z.a u C L L [.ZXaXL 6 n *.%.&.3XmXJXJXLXgXD.I.SX3XT.oX3.u 8 *.*.n [.NXfXm 8 n =.n I #XSX Xa 6 $.&.m I.cXFXJXJXLX1XY '.KX*X-.@XP 8 8 *.*.n '.gXsXD 8 n C n I 3XJXJXJXLXlXS.} dXbXbXHXFXFXIX",
"k.z.z.k.k.k.k.k.m.k.k.k.l.l.k.n.l.l.x.l.x.z.l.b.l.z.l.l.l.k.l.z.k.z.l.l.k.z.z.z.l.m.z.z.m.z.k.z.c.c.z.z.c.9Xc.c.m.9X9Xm.7X9X9X9Xm.9X9Xm.9XN.N.m.B.M.tXd.y e S s q < < < f 3 3 w 9 f l l ..R c T [ O.3 < 0 w k z l l k k V V Z $.u.9XN.M.B.B.B.M.B.N.B.M.N.m.V.B.m.B.M.m.M.M.m.m.z.M.m.m.z.m.M.M.m.m.n.m.M.n.M.n.n.v.v.h.V.h.v.n.h.l.h.h.h.h.h.h.h.h.v.h.h.h.h.V.n.n.n.n.v.n.n.l.n.h.h.h.h.h.h.V.n.n.V.V.V.r.  .         & DXJXmXGXoX` =X XG.g 2 K lXaXD.'.%.e *.=.*.%.8XgXI.a C *.*.*.].MXZX:XI.m f Q sXIXFXFXFXDXbXDXDXHXPX3XZ. XcX8XJ.W.I.h &.0X0X8XMXgX^.K N }.8X8XfXAXLXJXJXJX1XY [.KX+XH.Y.! 8 n 6.$.H oXvX .m 8 L *.C 6.hXaXZ.d s %.P P [.GXHXGXPXZXT.Y AXzX-.Q.;.b * a n a I.gX@XW d L 6.;.'.hXIXmXAXIXfX&.I.lXmXnXbXcXKXgXZ.-XoXA.b Y.wXZXhXY.P.D *.qX8XrXMXUXaXD n 6.}.eXMXAXPXNX&X;.h !.1XmXPXUX[.A.NXHXFXFXGXGXDXvXvXvXxXvXgXmXbXbXDXbXDXHXLXaX` Y.vX*XU.!.&.u 9 a a a I.NX4Xm 6 8 n a H 3XJXJXGXIXhXZ.I.xX3XL.OX` < 6 m n $.;.NXwXm 6 a *.m Y =XvX X8 8 m L L I.ZXFXJXDXLXaXY Y.KX3X;.&X&.6 a n *.n '.lXaXm 8 b %.L L 1XGXJXHXLXNXS.D.dXnXnXDXSXFXIX",
"k.k.k.m.k.k.k.k.m.k.n.k.l.k.l.l.l.x.l.x.l.l.l.x.b.l.l.l.x.l.x.l.x.l.l.l.l.l.z.l.k.z.z.z.z.z.z.c.c.c.9Xz.9Xz.z.9Xz.z.z.9X9Xk.9Xm.9X9X7Xm.9Xm.B.V.9X9X9Xx.y e t q 1 & 1 < 2 < < < l _ k < 3 c 5 5 [ c & & < ] _ V f k 0 k V A S 1.b.c.N.B.N.B.N.B.B.B.B.M.M.M.M.M.M.M.m.M.v.V.n.v.n.v.v.v.v.l.v.v.M.m.m.M.n.m.n.m.n.n.n.n.h.M.n.n.n.h.h.n.h.n.n.n.n.n.n.n.f.n.n.n.l.h.V.h.V.V.j.h.h.h.h.h.h.V.j.h.k.n.g.g.V.r..           = JXbXJXKXoXU *X XJ.p 2 z ZXhXD.U.A n r.t.t.t.8XfX[.n n =.=.*.].MXZX>XE.F i -.wXIXFXFXnXnXbXFXFXLXIXeXZ. XVXaXI.Y.G.z %.7X7X}.gXNX[.Y N ].}.}.8XVXLXDXDXHX1XY ^.IX&XZ.S.-.8 n *.$.C +XxXG.D q =.t.r.`.gXaXS.N C 6.6.6.8XGXLXGXPXNXS.Y bXgXZ.H.G.L v *.;.*.'.gX&XY N }.pXfXfXUXIXGXGXIXaX` J.vXAXnXbXZXLXgXS.-XoXP.m  XfXSXfXS.S.C 6.0X7XeXBXKXfXL S }.0XpXVXFXIXNX-XP.L -XeXSXLXKXY.Z.ZXHXHXFXHXFXHXlXkXjXkXjXjXvXbXbXbXJXDXJXLX4X` J.VXeXT.Y.H < * u a d W.nXaXh 6 6 8 < c 5XJXJXGXJXgXZ.J.xX1XT.XX' < * 6 < = S.vXaXh = 6 a * h *XAX X8 6 a a a ;.nXFXJXJXLX=XY Y.IX*X! oXY * a N n b '.gXaXm 6 v L N H 5XJXJXKXIXNXI.J.xXbXmXmXDXUXIX",
"k.k.k.k.k.k.k.k.k.k.k.m.g.k.k.k.h.l.x.l.x.b.l.l.l.x.x.l.l.b.x.l.l.x.x.l.l.x.l.l.m.l.l.l.l.l.z.c.z.c.z.z.k.9Xz.z.z.9Xz.z.9Xk.m.9X9Xm.9Xm.m.B.V.9X9Xk.9XqXy e e 7 q 1 + < = < < 1 k V < < f < < < 3 & 1 < < y l V k f k l k V A :.u.9XN.N.B.N.m.m.m.m.N.M.M.M.M.M.V.m.m.V.v.l.v.l.v.n.v.n.v.v.l.v.m.n.n.n.n.n.n.n.v.n.M.n.n.h.n.h.h.n.n.g.h.h.h.g.h.g.g.n.n.n.n.n.h.h.h.h.j.V.V.h.h.V.h.h.h.h.h.h.g.n.g.n.B.r.  .         % JXJXbXJXoX&.8XoXT.z < d VXhXY U.$.e s.x.7X7XMXfXI.b n =.t.].}.NXNX+XK.z i ~ gXIXFXFXnXbXbXAXJXLXIX*XU Y.gX=XI.J.Z.h C t.t.].wXgX[.Y s %.].t.}.MXKXnXJXHXeXI '.KX=XZ.T.-.8 n =.$.N -XgXS.D a t.t.t.}.hX1XZ.N L `.t.t.eXKXLXAXPXNXA.` vXxXD.G.I.n e *.=.*.'.gX+XU b %.].;.qXNXIXJXGXIXfXU Y.vXbXbXDXZXHXdXS.-X-XP.m P.-XSXfXP.S.C $.qXs.qX7XNXfXI n ].qXqXpXgXKXNX+XS.C `.8XxXLXGXJ.-.NXHXFXHXHXHXFXlXzXkXkXvXjXzXmXnXDXbXDXDXLXaX| Y.AX3XP. XP f F ` | A.@XcXaXd 8 D D p | 5XmXJXGXIXgXD.Y.AX3XL./.J < : a f u Y.vXsXl * < f * z >XGX X6 = u 2 : ! lXHXbXJXPX*XY Y.UX+XW XXG * = 9 9 u S.NXgXD * 8 a 6 f 1XJXJXFXLXNXI.S.dXmXmXbXGXGXGX",
"m.k.k.k.k.k.k.k.k.n.k.k.k.l.l.k.x.x.h.x.x.l.x.l.x.l.x.l.x.l.l.x.l.l.h.x.x.l.l.l.z.k.l.z.l.l.l.l.z.z.z.m.m.z.m.k.z.9Xz.9Xk.9Xk.9Xm.9Xm.m.9Xm.m.9Xz.z.7X7Xe 0 M r l < 1 - # < s q k B q k l 1 < 3 < $ * V w 0 ] V l l l B k V Z $.u.c.B.N.M.M.m.M.m.M.m.N.B.M.M.M.M.M.M.V.v.V.v.l.h.v.h.v.v.h.v.v.h.n.n.h.m.n.n.n.h.n.h.n.h.n.h.h.h.n.h.n.g.h.g.h.h.h.n.f.n.f.g.n.h.h.h.h.h.h.V.j.h.h.h.h.h.h.j.h.h.g.g.g.V.r.        .   % AXJXJXKX-X&.8XoXZ.p 2 F xXhX` U.C S 7X0X7XyXVXgX-.d 6.8X0X8XpXSXSX*XI.m j -.wXHXFXJXnXbXbXDXDXLXIX1XZ.Y.MX*XS.J.Z.g %.8XqX}.fXgX[.D b U.}.}.8XSXIXHXHXIX1XI ^.KX&X3.S.&.8 L *.$.A -XdX} L C qX7X|.-XxX*X| N 0.qX}.}.hXKXIXDXLXgXA.| vXgXD.I.U.L $.;.].;.8XNX-XP b 6.].].-XNXLXKXGXIXwXQ K.gXmXnXDXZXIXhXA.oX-XD.b P.-XNXfXU.D.b %.t.qX7XeXNXwXI v t.}.7XeXlXLXNXoX3.C 6.-XVXIXAXK.D.ZXIXHXHXFXHXHXkXjXdXkXkXjXvXmXvXbXDXbXDXLX3X` Y.SX*XP. XV h Y._.^.).,XvX>Xd m P.G.' X.6XmXJXJXIXdXZ.Y.vX3XT._.K 2 m ` ' ] ).jX3Xf < z F l W 3XGXY.= i K F g H.zXDXmXJXPX*XI Y.IX+XQ +XH * f p f d [.ZXfXm * u s f l 1XJXJXHXLXgXU.| 4XAXvXbXcXAXUX",
"k.k.k.k.k.n.p.k.k.k.k.n.k.x.g.g.g.h.b.h.x.x.h.x.l.x.l.x.l.x.l.l.x.l.x.l.l.x.l.x.l.k.k.z.k.z.c.x.k.l.z.z.k.9Xk.k.k.m.z.k.9Xm.m.m.7Xm.k.9Xm.m.n.m.9X9X7X$.y e q s l w 0 # # l S 0 r B k V ] k < - = 9 M A ) ) B B k V N k 0 k B $.t.7Xv.M.M.m.M.M.M.V.M.N.M.M.n.n.n.l.m.m.n.v.V.h.h.h.v.h.h.h.h.h.l.h.n.m.n.h.h.h.h.h.h.h.h.h.h.h.n.h.h.h.n.h.n.h.n.g.n.p.n.n.n.g.h.h.h.h.h.h.j.h.h.h.j.h.h.h.h.h.n.h.h.g.V.r.            & mXmXAXLX-X-.8XoXA.i & z dX3X3.`.I n ].8X7X}.hXfX-.d ;.qX8X-X8XNXNX+XH.j 8 R wXHXFXFXFXJXJXJXGXHXGXaXZ. XxX=XD.I.A.h Y 7X}.[.fXgX[.Y d P.-X-X-XNXIXIXHXIX3XY Y.KX+X` I.&.6 %.;.0.I -XdXH.D n t.rX|.-XdX%XU h &.|.7X'.eXJXJXDXLXgX| ` AXgXZ.I.D.n *.8XqX}.wXgX XP N '.8X-X-XgXPXSXFXIXsXQ K.vXAXZXFXFXIXgX-.oX'.%.L }.8XVXaXS.Z.m &.7X0XiX8XNXaXY C }.7XrXeXhXLXlX[.&.L {.eXVXLXJX!.D.lXHXFXGXGXDXDXvXkXvXkXkXgXjXmXvXnXDXDXGXLXaX| J.AX1XS.^.D f ` L.L.).3XvXaXd m U.W.T._.6XmXJXGXIXhX} Y.AX3XT.XXH u Y ^.J.E.3XcXaXf s ` E. .R.4XvX X6 z ..Y.F.,XnXJXJXJXLXeX&. XKX$XF.+Xz u ` ` K ' +XNXaXd u D I H | 5XmXbXDXHXgXJ.D.dXmXxXvXAXFXKX",
"p.k.k.k.k.p.k.k.k.p.k.k.x.g.x.k.x.x.g.l.l.g.x.x.h.x.h.x.h.x.l.x.h.h.x.l.x.l.l.l.l.x.l.l.l.l.x.l.k.m.m.m.k.m.m.9Xz.m.m.9Xk.m.9Xm.k.m.m.9Xk.V.m.m.t.s.=.e 7 y q M q q k < 0 A 0 y q q q l q ] w < q N A N M 0 0 k 0 0 0 q q q r S r.B.m.m.N.m.M.m.m.m.M.M.m.M.M.M.M.h.v.n.v.n.v.v.v.h.v.h.l.h.h.v.h.v.h.n.n.h.h.n.h.h.h.h.h.h.h.g.h.n.h.h.h.n.h.h.g.h.g.h.n.n.g.n.h.h.h.j.h.j.j.V.h.h.h.h.h.j.h.h.f.g.j.j.V.r.            % bXJXJXJX-X` aXW.Q J 2 K JX3X3.Z.%.b C I 3.U.vXdX} z H &.3.I.-XAXSX@XQ m 8 E zXIXZXFXFXDXJXFXDXJXLX=XZ. XNX#XA.J.} F d N N Y 3XgXR.W z z H P Y.MXPXHXHXIX1XY Y.UX X` U.;.d a L I ` 3XdX} G a a A 3.^.dX%X~ F N I &.` 3XJXJXDXPXgXZ.W AXgX| D.Y.D s I ` -.+XlXXXQ m m G.P.Y.dXLXHXKXIXfXQ Y.xXmXbXGXGXLXgX;.-X XZ.b 3.oXSXeXD.-.N L t.|.}.I.gXsXP b 6.}.|.U.-XLXNX'.3.b Z.-XVXLXGXY.S.ZXHXDXGXGXGXGXbXvXvXvXvXcXvXmXbXbXJXDXJXLXaX` J.AX=XZ.^.N f K J E } :XlX>Xf a P J K ..5XJXJXAXIXsXZ.Y.AX=XS. XH 2 D } P ! 1XZXfXb u H Y.| R.4XDX^.< l ..R. .,XmXbXJXmXLX=X3. XUX=XF.XXD u T.E.L.E.>XNXfXb d I. X!.XXdXmXmXmXLXgXT.| sXbXmXbXDXGXIX",
"p.p.k.p.k.p.p.k.k.p.g.d.p.k.g.x.x.g.g.x.k.k.k.g.g.x.h.x.x.x.h.x.b.h.x.x.x.l.x.x.k.l.l.x.l.x.l.l.k.m.m.k.k.m.k.m.m.m.k.k.m.m.m.m.N.m.k.9Xm.m.m.m.r.e e q y r B q 1 1 q q 0 q # # # q N q 1 w V k k N M # q s V B 1 # # # # y e $.r.c.N.M.m.m.m.l.m.m.m.m.m.z.n.M.n.M.n.h.l.h.h.h.n.h.h.h.h.h.h.h.n.h.n.h.n.n.h.g.h.h.h.h.g.h.h.f.f.h.g.h.h.f.h.h.h.g.h.f.f.n.f.g.h.f.h.j.j.V.h.j.h.j.h.j.h.j.j.h.f.h.g.g.V.r.  .         % bXmXJXKX-X&.=XG.K } %X5XvXdX| G Y &.-.!.%X1XjX4XH.! ` J.^.#X3XbXvX/.! ;.Q.,XzXFXFXFXFXDXJXJXFXHXGX*X`  XZX=XA.| P J A.} | ).dXzX .J W W | K.:XlXHXFXHXIX1XY Y.KXoX| ` D P G P D./.xX4Xx G ! G H F.1XvX).F E W Y ...XkXJXJXFXPXNXZ.| AXgXA.} Y Y c F H F.3XzXK.E J J m Y W.vXLXHXKXIXaX| Y.vXmXbXFXGXLXgXI.&XI.J J g /.SXaXZ.P D D I N %.[.ZX>XP L L I I !.3XPXcXY.Z.G D ^.AXLXUXY.J.AXHXHXHXGXGXHXAXvXbXAXAXbXbXbXbXDXbXJXJXLX4X` Y.UX=X3. XH h U ` J W $XZX>Xh b I G z | 4XJXJXGXLXdX| Y.SXaXI.oXD < d b h m oXSXfXv a b z p E 3XGX!.< g K c j E.zXJXJXJXPXaXY  XKX*XQ oXD * H ' ' | &XlXaXD f &.U.D.E.dXmXmXDXIXgXI.| dXJXmXJXvXFXIX",
"k.k.p.p.p.p.k.k.g.g.g.g.g.x.g.x.g.x.k.k.g.k.k.x.x.d.d.d.x.h.x.d.x.d.d.h.l.x.l.l.l.x.x.x.x.l.l.l.m.m.m.m.m.n.m.m.k.m.k.9Xm.m.N.N.m.9Xk.m.m.m.9X9Xv.b.r.$.S A S A _ ( w 0 r M B y 1 A V 0 q k k 0 0 k s 0 k N _ _ A S I A 2.6.t.r.r.l.M.m.M.m.z.m.m.m.m.m.m.h.v.l.M.M.h.v.l.n.l.h.h.h.h.h.h.h.v.h.h.h.h.h.h.h.h.f.f.h.h.g.h.g.g.h.f.h.h.g.f.h.h.g.h.f.f.h.f.g.n.f.f.j.h.h.j.h.j.h.h.j.h.h.j.j.h.j.g.g.f.g.V.r.            = bXbXJXGXoXY +XW.Y.X.:XdXjX5XK P W.@X-.:XjX5X4X>X,X5X..!.5X4X3XkXlX:XW.;.,XzXzXDXnXFXFXFXbXJXJXHXLX3X| Y.gX=XG.W Q K.} %XnX4X4X4XR.R.R.R.,XjX5XjXHXHXHXIX*XP W.LX-XY P | H. .:XjX5X4X4X! Q.-.E.dXdX5X4X/. .L.X.;XnXjX4XmXJXDXPXgXD.` AXgXT.| K ` ..~.5X4X4XsXH.}  ._.5XjX5XjXJXHXLXIXeXZ.^.xXmXDXJXGXLXgXS.>XW.c ..%XjXlXwX-.Q ! A.T.2XsXdXjX,XH.! | ^.5XxXdXAXgXS.W G.%XdXvXLXKXI.G.AXIXHXHXHXHXHXAXvXbXvXvXmXbXDXbXDXJXJXHXLX3X` Y.GX=XD. XU s m Y P Y >XZXaXm d L -.I J.5XJXJXGXLXsXQ I.SXwXY.oXI i l H m ! 8XFXfXn n P I H | 5XJX^.2 z &.I D L.mXbXJXHXPX=XY '.GX%X| XXD < D N d P oXNXwXd u b N D ' 3XJXJXLXIXgXS.T.sXDXbXbXvXSXIX",
"k.p.p.k.g.k.p.g.p.k.g.x.d.g.g.g.g.g.x.g.k.k.g.g.x.g.h.h.x.b.l.h.x.l.x.l.x.l.x.l.x.l.x.l.l.x.l.x.z.z.k.z.k.7Xk.m.m.m.m.m.qXn.m.m.m.m.m.k.m.m.k.m.M.z.9X7X=.:.>.A w ( ) r 1.i.q.4.>.>.4._ _ ( ( ) B ( 4.5.4.( Z %.9.u.u.}.u.7Xc.u.b.v.M.m.m.m.m.m.m.m.m.m.m.m.n.n.n.v.n.h.h.h.V.h.l.h.l.h.h.h.h.h.h.h.h.h.h.h.h.h.f.h.f.h.f.f.h.f.h.h.f.h.g.f.f.h.f.h.g.f.g.f.f.f.f.j.j.h.V.j.V.j.j.h.j.j.j.j.h.j.f.f.g.j.V.r.        .   % DXAXmXGXoXU +XL._.5X_.X.zXdXG x ;.,X,XX.X.;X4X,X ._.5XX._._.5XkXlXW.).,XQ.Q.zXnXnXnXnXlXnXnXzXDXGX*XY ^.gX#XA.W W /.).~.).;X5X4XX.Q.,X~.).5X;XdXHXFXFXIX*XD W.IXoXU G Y :XQ.R.5X_.3X3X-.,X,X~ _.;X5X4X/.H.).Q.X.5X,X6XmXJXDXIXgX` Y vXgXZ.` E R.).X.6X,X4XsXE.%X%X..;XzX;X6XJXHXUXIXeXU J.xXmXmXDXmXIXlX-.K.%X3XR.:X4XdX&XQ -.:X@X..:XjX3XsX,X).:X..R.jX6X5XvXgXoX/.R.5XjXjXIXUXI.Z.vXHXGXGXHXGXGXDXAXAXAXAXDXDXbXnXbXJXJXFXPXaXK Y.UX=XD. X3.a 8 P L P &XFXaXD * v %.H ` dXJXJXGXLXaXQ Y.UXwXS.-XZ.6 u L *.*.[.FXwXm 6 n *.B ' 1XAXXXu s I P D F.vXJXJXGXLX-XU .XGX%X}  XI d &.3.&.&.-XNX>Xb b &.&.%.Z.5XJXJXGXPXgXS.5.dXbXbXFXDXKXLX",
"k.d.g.x.d.k.x.g.p.g.p.g.n.p.p.k.d.g.d.x.k.g.x.k.x.g.k.g.x.x.l.h.h.l.x.l.x.l.x.l.x.x.l.x.x.l.l.l.z.k.k.z.m.k.k.9Xm.k.9Xm.m.m.k.m.9Xm.9Xk.k.9Xm.m.9Xm.9Xm.B.1.#.1.r q r ) :.t t t :.:.) t ) B B ) ( >.>.S w B :.$.4.1.1.b.c.b.z.v.m.m.m.m.V.m.V.M.V.m.m.n.n.n.m.n.n.m.n.n.n.m.l.n.n.n.n.n.h.n.k.n.n.n.h.h.h.h.h.h.f.h.h.f.g.n.g.n.n.f.n.f.f.g.n.f.f.f.g.n.n.f.f.n.V.f.V.f.f.f.f.f.f.f.f.f.f.V.V.f.n.f.n.f.V.r.  .         % bXUXmXGXXX' =XH. .zX,X..mXdX| J j R.zX;X..X.jX5Xg x 4XjXR.R.5XlXnXR.H.sX$XX.dXDXcXnXlXlXnXnXnXDXHX&XJ Y.xX=XA.! h } jX4XX.~.zXjXE x ;XzX<XX.3XdXJXAXDXJX*XH J.KX[.-.-.p ..zX,XX.).4XsXm J ,X6X~.R.:XkXW.x  .4X,X@X:XsXJXJXAXPXgXU Y VXMXZ.Y z  .5X;XX._.5XdXF.! ).4X%X~.;XjXJXFXKXHX8XH J.kXvXnXnXmXJXNXQ d G _.jX~._.xX3X-.P -.>X5X~.H.;XzX:X! /.5X;X;X;X:XmXgXA.$X5XX.;XvXLXZXS.S.FXGXGXDXDXGXGXGXDXGXGXGXGXDXbXbXJXJXDXFXLXaX| Y.KX-XT. X3.u a %.n m -XZXsXP 8 v *.n -.4XJXJXAXJXhX| U.AX1XD.^.Z.9 6 $.n n [.FXdXm 6 a $.a L *XGX+Xa = n L b ;.ZXHXHXFXLX*XU ^.DX%X! W.-.8 a *.m *.-XSXaXD u n L %.&.3XGXHXFXIXNXP.A.dXbXmXDXDXHXPX",
"p.g.d.g.g.g.p.g.g.k.g.k.p.p.k.k.g.x.x.g.g.k.k.g.g.k.k.h.x.l.x.x.x.l.l.x.l.x.l.x.l.h.x.l.l.l.x.l.k.k.z.k.k.k.k.k.k.k.k.m.9Xk.m.m.k.m.k.m.m.m.m.m.k.m.k.m.c.d.:.:.,.) w t :.t :.:.t i.i.) t ) B B A :.Z r t 8.0.>.4.4.0.b.c.l.z.z.z.m.m.m.m.V.n.M.m.V.n.n.n.m.m.n.h.n.n.m.m.n.m.n.n.n.l.n.n.n.n.h.h.h.h.h.f.h.g.h.h.h.g.f.n.f.f.f.n.g.f.n.f.n.f.n.f.n.f.f.f.n.g.g.f.f.f.f.f.V.f.j.f.V.f.f.f.f.f.f.f.f.n.f.V.r.            = mXxXvXGXXX` 3XR.E jX,X..nXdX/.K.3 j ~.~.c c ;X;Xx 3 ~ _...c ..zXDXW.! 4X:XX.jXJXnXnXnXnXnXmXnXHXHX&XY ^.vX&XW.H.m h Q.;XE ~ >X4X! p E ,X~.O.X.4XJXmXGXIX1XP W.FX[.;.I.g R ;X,XR ..:X4Xz g R.5XQ...@XsX/.j x ;X>XH.H.,XJXbXJXLXgX-.Z.vXgXZ.U F x ;X5XX.X.5X4X! g } dX:X..X.jXLXZXZXIX8XP J.vXnXnXJXbXJXlX-.I.! o.mX;X_.vX*XI.! z Q.bX~.~ @XgX+Xh E 5X5XX.~.6XJXlX! E.zX;X_.bXLXFXI.A.lXGXHXHXGXHXDXHXJXHXGXHXHXJXAXbXbXJXDXJXLX3X` ^.GX=X3.!.` 9 6 n %.*.[.NXfXm 6 a L n &.sXJXJXJXLXaXZ.I.UX>X| ^.3.a a n n n [.ZXsXh 6 v $.a m 8XUXXXu 6 n C d ;.ZXHXJXHXPX=XU W.mXOX-.[.&.6 8 n n n }.SXgXP 6 a m C P 1XJXLXIXIXNXP.Z.aXcXvXDXDXGXIX",
"g.k.k.p.d.g.k.d.x.g.n.p.p.k.k.p.d.g.g.x.k.d.g.k.x.g.k.k.h.x.x.l.x.x.x.l.x.l.h.l.l.x.l.x.l.x.l.l.k.k.k.k.m.k.k.k.k.m.k.m.k.k.k.m.k.m.N.m.m.9Xm.m.m.m.l.M.v.c.r.t t :.r ) :.:.:.t t ,.i.) B A ( 2.>.>.B r S >.>.>.8.>.r.b.7Xx.v.z.z.m.m.V.m.n.n.n.m.V.m.n.n.n.n.n.h.h.h.n.n.n.n.n.l.n.l.n.k.n.h.n.n.h.h.h.h.h.g.h.f.f.h.n.f.n.f.n.n.f.f.n.n.g.n.g.g.f.n.f.f.f.f.n.f.V.V.f.f.V.f.V.f.V.f.V.f.f.V.f.n.C.n.C.V.r.            & cXmXbXJX%XQ +XF.E ,X:X .lXkXE.W.E E E L.| E @X:XH.! E } K.E ~ >XZXQ.! ,X$XR.dXJXJXFXFXbXJXJXDXHXLX:XP E.hX*X.XW.E G ~ R.E j Q.4XH.E E -.o.~ ! _.JXJXJXHX*XG Y.NX&X[.[.x g | R.c c @X>X~ z x R...g H.sX/.x x ~ Q.E x ).nXmXJXLXgX-.| gXgX-.Q z j ~ ~.~ j W.>XL.j h L.W.x R sXLXFXZXKXwXY Y.lXnXbXDXnXLXgX-.>XI.E 4X).X.4XaX.X-.p h _.X.R R wX@Xz j ~ ~.c 5 R.JXZXH.K.zX;X_.mXLXGX-.-.lXGXAXAXDXDXAXLXLXLXLXLXLXGXmXDXJXDXDXGXLXaX` Y.UX-XZ. XY 8 a *.*.*.-XSXaXd 6 n *.m -.sXJXJXGXLXaX3.J.UX$X` ^.` 6 a n #.n oXcX4Xh 6 a #.v I 1XDXXXu 6 n n d ;.NXHXHXGXPX=XU  XGX$X! @X*.6 a n n $.[.FXdXG 6 a C v D $XDXHXKXLXNXP.| aXmXvXDXGXKXKX",
"g.d.g.g.p.x.p.g.k.d.p.k.p.k.p.k.k.d.x.g.k.g.d.k.k.k.k.k.b.h.x.x.h.b.h.x.h.b.d.x.b.h.x.l.x.l.x.x.x.z.k.m.k.7Xk.k.m.k.m.m.k.k.k.k.k.m.k.m.m.k.m.m.m.m.m.l.z.v.b.#.t t w t t t t t t t ) ) B ( ( ,.2.:.Z r r B Z 1.0.1.>.b.c.l.l.l.l.z.m.V.n.m.m.n.n.n.m.l.n.n.n.l.h.n.n.m.n.n.n.n.n.n.n.n.n.n.n.n.h.n.h.h.f.h.h.h.n.h.h.h.n.n.f.f.f.f.n.f.f.f.f.f.g.n.g.g.n.C.n.f.f.f.f.f.f.f.V.f.f.f.f.V.f.f.f.f.f.n.n.C.V.r.            $ 4X:X3XgXY.J Q J ! @X).! >X+Xh W W.).! D.Y.Y.W.Y.H.@X/.T.^.@XQ.@X4XH.! ).%XE.:XjXzXjXzX4XzXkXjXvXbX+XW Q $XXX! !  ./.I.I.[.W.W.@XL. .R.;.Q.;.Q.OXvXmXGXJX&XG -.wX[.E ~ S.+X .| Y.^.:X@X! Q.(.| L.!.[.,XQ. .Q.Q.K.Q.R.).zXJXmXLXNX-.K *XaX-.h E X. .L.H.F./.,XH.~ W.F.Y.H.E.,XFXHXIXIXfXU F.5XnXbXbXbXHXgX;.Q.-.E :X).R.4X>XE.K.L.L.| _.;.;.@X,XQ.H. .Q.(..._.xXlXA.I.sX5X_.mXPXUXZ.U sXAXvXZXcXvXZXIXPXLXPXLXPXJXbXJXbXDXHXHXLX4XY ^.UX#XD. XY 6 8 m b C =XSX1Xd 6 b &.m P sXJXJXJXLXaX` Y.AX#X| -X3.6 a n *.n -XcX4Xh 6 v *.a U 1XUX_.i 6 %.%.m I.ZXHXJXDXPXaXY [.GX$X} @X;.8 n n C n '.NXaXP 8 a N b I 1XbXLXIXLXSXI.D.gXAXDXDXDXGXKX",
"d.p.g.x.p.g.k.k.p.p.k.p.k.p.k.k.k.p.p.g.k.d.p.k.h.k.x.x.d.x.x.x.x.h.x.l.x.x.x.h.h.x.x.x.l.x.x.l.k.z.l.z.k.k.m.k.k.k.k.m.k.m.m.9Xm.k.9Xk.m.m.n.m.m.k.m.m.l.v.l.1.t :.t t t t t t r t Z Z Z 2.>.>.>.>.A S B Z >.,.,.1.1.b.l.l.l.l.h.l.l.n.n.m.n.n.m.n.m.n.n.n.n.n.h.h.n.m.n.n.h.l.l.h.n.n.n.n.n.h.n.h.n.h.h.h.f.h.f.n.g.f.f.n.f.n.n.C.n.n.n.g.n.f.n.C.f.n.f.n.n.f.f.f.f.V.f.V.f.f.f.f.f.f.f.f.V.V.n.n.f.f.V.r.            $ wX>X4X5XJ.Q XXI. .R.} P wX#XW.).x z } '.;.'.8X&XY.J Q D.J.H.[.4X,XR.~ H.I.-.@X4X>X,X,X>X>X,X>X>XwXW.P A.$XW.! I.H.~ -.].;.I.[./. ...T.;.[.I.[.+X5X:X5XgX^.P J.=XI.;.;.J ;.Y.;.&.I..X[.H.-.H.Y.'.I.[.[.Q.-.L.R.I.H.Y.).>X4XsXZXwXP E W..X! m -.H.R.I.Y.Y..XW.~ Q..X;.'.[.W.$XsXjXdXNX&XY P K.%X:X>X4XjX@XE P P ~ ).).W.aXW.E L.OX@X! OX[.Q.[.Q.H.W.R.W.XXOXE.>XaXE I.+X.XY.3XZXgX-.G W.>X>X>X>X*X>XKXPXPXLXLXPXLXDXGXGXHXLXKXPXaXY Y.KX#XS.oXP % = 6 * u -XGX3Xf = * 9 < l 6XJXmXJXJXaX` Y.AX#X` XXY * 8 n v a [.ZX4Xh * s N < H 1XmX_.u 6 n I D J.mXJXDXGXPX8X&..XKX&XF.(.H 6 v L L L [.NXwXP u d C L U 3XJXJXJXLXNXU.T.gXDXDXDXFXGXIX",
"g.k.p.g.k.g.p.g.k.k.k.k.k.p.k.p.k.k.k.g.g.g.g.x.d.x.h.g.h.h.h.d.x.l.h.x.l.x.h.x.l.x.h.l.x.l.l.x.l.x.z.x.k.k.9Xk.9Xk.m.k.m.k.m.k.m.m.n.m.l.m.z.l.m.m.m.m.l.h.z.1.t :.y r t t r r r Z 4.$.B ( ( A ( ) B t r ) $.S Z S $.u.b.x.l.l.l.l.n.m.n.n.M.n.m.n.m.n.m.n.k.n.n.h.h.n.n.h.h.n.h.n.h.h.n.n.g.n.h.n.h.n.h.h.h.h.h.g.g.n.n.g.n.g.f.n.n.C.f.f.f.n.C.n.f.n.n.C.f.f.V.f.f.f.f.V.f.f.V.f.f.f.f.f.f.f.f.f.n.f.V.r.            % nXHXHXJX XU >X.X} G h -.SXgX+X:Xz & T.wX;.qXNXfXH.i 8 C =.L I.NXcX,X~ Q P -.gXHXDXFXZXDXnXDXFXFXFX:X! .XgX+XW.>XR.i m ].}.[.hXsX/.c f L *.%.;.gXmXmXvXvX XP 8XNX[.,XwXm * %.P.n &.+X@XQ.m b P.6.*.[.sX,X~ p Y P.P &.aXkXkXlXSXaXQ -.sX>X;.@XI.h D U P &.&XwX;XE h &.;.&.I.aXkXkXkXNX+XU ^.1XOX,X4X4XsX,X;.+X[.I.-.;.[.dX$XW.(.z g Y.P.-.;.sXwX! h &.'.%.&.>XZXwXI.;.I.P.Y.aXgXsX! W.aXwXwXsX3X3X3XKXPXIXPXPXPXLXDXHXGXGXHXHXPXaXY Y.KX-XU.#XF 8 d h d z %XAX3X3 u f l 3 ] 5XJXJXJXLXaXU Y.GX=X| XXY * 6 8 6 u W.vXdXf 6 9 < < g %XJX(.6 * 9 u * E zXJXJXJXIXaX&.[.KX&XF.oXD * 9 f u f [.NXfXm 6 f s d H %XJXJXJXLXNXY.S.gXDXDXFXDXKXIX",
"k.d.k.g.k.p.p.k.p.k.k.d.k.k.p.k.p.k.p.p.d.p.g.g.g.d.g.d.x.d.x.d.x.x.h.x.x.x.g.x.h.h.x.x.l.x.l.l.l.x.k.l.k.9Xk.9Xm.k.m.k.k.k.k.k.m.m.k.m.z.l.m.m.m.k.m.m.v.l.b.#.r t r t r r r t w e Z M 0 w M w r w r r 0 t S Z A $.1.b.c.l.l.l.l.h.h.n.n.M.n.m.m.n.n.n.n.n.n.n.n.h.h.n.h.n.n.g.g.g.h.h.n.p.f.n.h.h.g.h.g.h.f.f.f.h.f.g.n.f.f.n.n.C.C.n.f.f.f.f.n.f.n.f.C.f.f.n.V.f.f.V.f.f.f.f.f.f.f.f.f.f.f.f.n.f.f.j.n.r.  .         % cXFXbXJXXXY #XW.S.m m oXKXhXW./.F < 6.0X0X0XMXaXG.d e =.t.=.].NXcX@X-.m b &.sXLXDXnXFXFXFXFXFXHXIX$XP W.lX$XW.>XH.i m 8XrX8XeX3XXXl < $.].t.8XgXJXJXJXIXoXN oXIX[.W.@X-.6 a t.=.qX-X[./.h v ].qX}.8XhX@X! 2 b ].*.].aXFXLXKXIXsX! ! ZXsX-.[.A.8 u L L %.&XsX).m : n *.C P.gXFXFXFXLX8XY E.vXmXFXJXbXHXfX;.@X'.P b -.-XNX@XW R.i 8 6.%.$.;.NXwXP a $.=.$.%.>XIXgX[.&.&.'.8XUXPXZXA.W.IXIXIXIXIXLXIXPXPXPXPXPXPXHXHXHXGXGXIXGXPXhXK Y.PX-XG.&Xb k T.Y.L.T.3XxX1Xf H T...] L.5XJXGXGXLXfX&.Y.GX1X` 1XH < m m p z %XvXsXi 9 b ) 3 ] :XJX^.6 9 l f u F.mXmXmXJXLX>XU [.KX&XA.+XI * < u 2 p oXFXfXm * 9 a 9 d %XJXJXJXLXSXI.S.gXFXbXDXDXGXIX",
"k.k.k.x.p.k.k.p.k.k.p.k.p.k.k.k.d.k.k.k.k.k.k.d.d.g.d.d.h.h.x.h.h.x.x.x.h.h.x.l.x.l.x.l.x.l.h.x.x.l.x.z.k.k.k.m.k.k.k.9X9Xk.m.k.9Xm.k.m.n.z.l.k.m.m.z.m.v.c.b.r.t e y t :.:.:.:.,.t Z S A >.>.2.>.:.$.t 0 r Z 2.4.:.$.b.7Xl.l.n.l.l.l.l.n.m.n.n.n.n.m.n.n.n.n.n.h.n.g.h.h.n.g.n.n.n.h.h.n.f.n.n.h.h.g.h.g.f.g.h.g.f.n.g.a.n.f.a.n.C.n.g.g.g.g.f.C.f.C.f.f.f.f.f.f.f.f.f.f.f.f.f.f.f.f.f.f.f.f.f.f.f.f.a.n.r.            % nXDXJXGX#XY oXI.P.b b }.UXfXS.^.J 6 $.qXs.].eXgX^.a 0 =.t.t.qXNXcX@XI.m b ;.gXHXDXDXHXHXFXHXHXFXKX>XQ Y.NX&XH.).H.i a t.].}.fXgX$XK 9 $.qXqX8XNXnXbXJXJX=XN Y.IX[.-.@X-.6 n qXqXqX-X=X.Xd n qX7XqX8XgXwX-.u $.qX].qXMXSXIXUXIXgXY Q ZXsX-.W.G.i a *.*.*.8XgX:Xx : %.*.*.].gXFXHXDXHX*X_ !.xXAXbXbXmXLXwX-.&X[.P m P.8XSX&XE  .h v =.$.=.;.NXwX-.n *.qXs.t.@XIXgXW.&.L  XfXSXPXSXY ;.FXIXIXIXIXIXIXIXIXLXLXLXPXLXDXGXGXGXHXLXLXaXY Y.LXoXD.-Xl 2 ..%XE._.4XvX1X2 H !.#X_.%XxXDXGXKXLXaX` Y.AX=XT.#XH 3 Q ;.| ..5XlX>Xu a 3...' X.5XmX!.* k U ` D ).mXJXJXmXLXeXY [.KX#XF.oXH u D ' c K &XFXfXD f l D z ' 5XJXJXHXPXNXU.D.gXGXbXbXvXAXKX",
"p.k.k.k.x.k.p.k.k.k.p.k.k.p.k.p.k.d.k.g.k.d.k.d.d.g.g.k.d.k.k.g.g.k.k.x.k.h.h.k.k.g.k.l.k.l.l.x.x.l.l.l.x.x.l.l.m.9Xk.k.k.9Xm.9Xk.k.m.k.m.k.m.m.l.v.l.v.M.l.7Xt.#.1.t Z Z r r t Z t t Z Z A B Z >.2.:.t :.,.B A Z :.$.b.z.k.n.n.l.l.b.l.v.n.V.M.n.n.n.n.l.n.n.n.n.n.n.n.g.n.n.n.n.f.n.n.f.n.f.f.f.n.f.f.n.f.f.n.h.f.f.f.n.g.f.n.g.f.f.g.f.f.g.f.f.f.f.f.f.f.f.f.f.f.f.f.f.f.f.f.f.f.f.f.f.f.f.f.f.f.f.j.V.r.            % nXFXDXKXoXU +X[.[.d d [.UXgXS. XH = *.qXb.qXeXVXY.a n ].qXqX8XSXSX+XJ.m L '.gXIXJXGXGXDXFXDXnXHXHXwXQ Y.NX#XF.@XH.: a =.].;.8XgX,Xm 8 %.qXt.7XgXFXJXJXIX=XD '.FX[.! [.-.6 n ;.s.].;.8X^.d s 0.t.].-XhXsX! u C t.t.}.uXVXIXGXPXhXY Q ZXfXY K.G.a v ].].].8XgX:Xh a *.].*.}.MXFXKXGXGX=XI T.xXmXvXAXmXLXsX-.8X[.P v &.}.NX8XG.K.d n =.=.=.t.hXgXZ.a *.s.s.t.1XDXgX[.P b 2.-XCXPXVXF Z.KXIXIXKXFXKXKXIXIXPXPXLXPXLXDXDXGXGXKXHXLXaXG !.PXoX| -Xd * Y ` c J *XvX*X< d T. XT._.vXGXKXGXLXaXU U.GX*XT.#Xz < | !.L.X.4XFXsXu s 3. XL.2X4XJX^.6 D ^.^.F.3XmXmXJXbXLXeXY  XJX%XF.oXD f ` X...X.4XlXsXm m F.T.T.R.5XmXJXKXPXNXI.D.hXDXAXFXmXAXUX",
"p.k.x.x.p.k.k.k.p.k.k.p.p.k.p.k.k.k.p.k.g.k.g.k.g.d.d.k.k.g.g.x.d.l.k.h.k.k.k.k.l.l.k.g.g.k.g.x.x.x.x.x.l.l.l.x.k.k.k.k.k.k.k.k.m.k.m.k.m.m.m.m.l.l.h.l.h.l.z.s.t $.$.t $.r r y y q Z >.>.>.Z 0 y r B $.>.$.Z 0 0 $.=.b.x.k.k.k.n.h.h.l.h.h.h.h.n.h.l.n.n.h.a.n.g.n.n.f.n.a.a.n.n.f.n.f.n.f.n.f.f.g.n.n.f.f.n.f.g.f.f.n.f.f.n.a.f.g.g.f.g.f.f.g.f.f.f.f.f.f.f.f.f.f.f.f.C.f.f.f.f.f.f.f.f.f.C.f.j.f.f.f.V.r.            % cXFXFXHX+XQ +X[.;.i m -XKXhXT.oXH 6 0.8XqXoXaXxXT.9 S 7XrX7XeXVXZX&XY.m U =XvXIXJXmXDXJXFXJXFXHXIX>XY Y.ZX&XA.W.H.: d qX8X8XwXNXwXm 6 *.7X7X8XkXFXJXFXIX+XD Y.IX[.! ).-.% *.8X8XqX].[.Y.d s ].}.}.=XdXaXY 8 *.7X7X8XhXAXJXDXLXsXP Q cXfX&.I.G.9 L 7X7X7X8XgX:Xj a ].7XqX8XNXFXFXDXKX=XU Y.vXDXbXDXAXJXgX;.+X[.P b &.}.NX&XY.Y.a $.7XqXqX}.xXxXY v t.}.s.{.5XDXgX[.P N 3.-XVXPXSXP P.IXIXIXIXIXKXKXIXIXIXLXIXLXGXbXAXDXGXHXKXPXaXY W.PX-XZ.-Xd u P F l z #XDXeX8 b Z.D.` J.xXIXKXKXPXaXY Y.IX=X` #Xl * H H c J ,XZXfXu a U 3.F R.4XGX'.= d T.T.Y _.jXmXmXbXLX1XI ^.UX1X ./.D u K E.e...4XlXaXm f J.OX!._.jXJXbXGXIXNX'.D.sXDXDXFXJXIXIX",
"k.p.k.x.k.p.k.k.p.k.k.p.k.k.k.k.k.p.p.k.k.k.k.g.x.g.d.g.x.g.k.d.x.k.k.h.g.k.l.l.k.k.h.x.x.k.x.g.x.x.x.x.x.x.x.l.k.k.9Xk.k.k.m.k.9Xk.k.n.m.m.m.k.l.l.l.l.n.n.m.x.r.r.i.e Z t t t t y t ,.( ) ) A A 0 0 ) >.B 0 1.t $.r.z.x.l.n.n.n.h.h.h.h.h.h.n.h.n.n.n.h.h.g.f.n.n.g.n.n.f.n.n.n.n.n.n.f.f.f.g.n.f.f.f.f.n.n.C.f.h.f.f.a.n.a.n.f.f.f.f.C.f.C.C.C.f.f.f.f.f.f.f.f.j.j.C.f.f.f.f.f.C.j.C.f.j.j.f.f.j.j.f.V.r.            % nXGXFXHX+XP @X@X;.i j ;.nXgXT.oXI 7 C %.2.' 2XxXU.a e 6.t.*.}.SXNX$X} p h S.aXJXJXGXJXFXFXFXFXHXIX>XY W.SX*XF.W.H.: u ;.;.;.@XzXwXj 8 L ].6.oXlXFXFXHXIX-Xm '.IX@XW W.! 8 m ;.'.`.'.;.| i = * a f } 4XsX! : L qX-X XfXAXJXmXLXhXW Z.SXhXZ.W.;.9 n }.].}.wXcX4Xz a '.8X[.&XgXZXGXAXIX=X-.[.lXDXbXJXvXIXgX;.-X@XP D U  XNX8XW.[.a n 7XqX{.8XgXsXY n ].7XqX{.3XIXgXI.P D 5.1XVXPXSX&.P.KXIXIXIXIXIXIXKXKXUXGXKXKXAXvXcXFXGXGXHXLX3XY W.PX-XU oXF a P &.P P =XGX3Xa h P -.Y P.xXLXJXJXLX3XY Y.IX=X` -Xb 2 ` H z G @XZXaXu b &.L f W 1XAXY.6 m &.m l Y.vXmXJXmXIX1XU !.UX2X .(.D < l H ] c OXkXaXd u Y 5.Y ' 5XJXJXFXIXNXU.D.hXDXDXFXFXLXPX",
"k.k.k.x.k.k.qXp.k.p.k.k.k.p.p.k.k.k.k.k.g.d.k.g.d.d.g.x.p.g.x.g.g.g.k.k.l.x.g.k.g.l.k.k.k.h.g.k.x.l.x.l.l.z.x.l.k.k.k.k.k.k.m.9Xk.k.9Xk.k.n.m.m.h.h.h.h.l.m.m.x.r.r.:.$.Z t 0 t t r t ,.) t S B M Z t $.>.M y w :.=.u.b.x.l.n.n.n.h.h.x.h.n.h.h.n.h.h.h.h.h.n.n.f.f.f.n.a.n.n.a.a.n.a.n.g.n.g.g.f.n.n.g.f.f.f.C.f.f.f.f.f.a.n.a.g.g.g.f.g.f.f.f.f.C.C.f.C.f.f.f.f.f.j.j.C.f.f.f.f.f.j.j.j.j.j.j.f.j.j.C.n.r.            $ ZXGXHXHXXXE ).[.~ 8 x ;.zXsXT.|.A 6 6 < 9 ] _.xXT.s 9 9 s N I.gXZX).} G F  .dXJXJXbXDXJXDXFXHXHXIX>XU Y.SX&XA./.! 3 u m i m W.zX,Xj 8 i m i } sXKXDXDXPX&XG I.KX@X! W.m % 8 j d G :X,XR.3 > > > : | 4X4XE : 0 n a D 3XmXJXmXLXgXU ` vXsX-.K.-.u a d d x /.lXwXb 6 z G E ;.sXFXKXUXIX=XU [.lXZXAXbXvXJXlX;.-XW.F p h G.gX-XY. Xv a %.L I Y.hXhXI a S I %.I Y.ZXsX;.m d z ^.VXLXUXQ ;.FXIXKXKXIXKXIXUXUXUXUXUXUXSXvXAXKXDXFXKXLX1XP  XPXoXU oXZ.6 6 m m D =XAXaXp 6 v *.n Z.NXHXbXJXLX3XJ Y.LX8XP.=XY < f G P P +XNXgXd a C 0.L 3.eXKXY.8 m ;.&.P Y.mXJXJXJXLX=X&. XUXXX| ^.l a I H l ' @XlXwXm s %.L l ' dXJXHXIXIXNX'.D.hXDXDXbXDXLXPX",
"p.k.k.k.k.k.k.k.p.k.k.p.p.k.k.k.p.k.p.k.g.k.d.p.g.x.k.g.k.k.g.x.d.k.k.k.g.l.k.k.k.l.k.g.k.k.g.l.z.x.k.x.l.x.l.l.9Xk.k.k.m.k.k.m.m.k.m.m.m.m.m.k.l.h.l.h.h.m.l.h.j.r.u.r.:.1.Z r w w ) t $.( r 0 y q A >.Z q y w $.r.s.d.m.k.M.n.n.n.l.h.h.h.n.h.n.h.h.h.n.n.n.n.g.n.n.f.n.n.f.f.a.n.a.a.a.n.a.n.n.f.g.f.f.f.f.n.f.C.f.f.f.n.a.f.f.f.f.f.f.f.n.C.f.f.f.f.f.f.f.f.f.f.f.f.f.f.f.C.j.j.j.j.j.j.j.j.f.f.f.C.f.r.. .         % cXGXDXGX^.K W.H.x E Q.~.vXxX` !.N = q s K .._.xX| u a f H | W.vXnX~.~  .Q.).jXJXJXbXJXHXFXFXJXLXLX*XU Y.VX&XF./.J h E ~ ~ R.,XzX,Xd j ~  .~ ~.kXGXGXDXLX*XD K.HXOX! (.x p J E R | 3X4XQ.3 j o.....~.4X5Xx g G ~ E ..,XnXHXSXPXaXY | vXsX-.Q.Q d m G j ~ ,XZX8Xh d F G x  .kXFXJXKXUX=XY E.kXbXDXDXnXIXzX;.>XH.E ~  .%XmXXX!.^.a 6 9 k ' J.dXgXY 9 f ( ' c H gXgX! ! E ' _.mXLXAXU I.KXIXKXKXKXKXKXKXUXKXUXUXUXUXSXDXFXGXGXGXIX#XP  XIX X&.-XZ.9 6 m *.b wXUX3Xl = 8 *.L &.NXLXmXmXLX3X' Y.LX=X3.=XI.6 6 n n n '.SXsXd = a $.n L 1XUX^.8 8 %.&.D F.vXJXmXmXLX3XU  XUXOX}  XP 9 N C L &.+XgXwXP v C &.P 5.sXJXLXHXIXNXY.| dXbXnXJXvXGXKX",
"k.k.k.k.k.k.k.k.k.k.k.k.k.p.k.k.k.k.k.g.k.k.k.k.k.g.k.k.k.g.g.k.k.g.k.h.k.k.g.k.k.g.k.k.h.k.k.k.x.x.l.z.x.z.x.z.k.k.k.m.k.k.m.m.k.m.k.m.m.n.m.m.h.l.h.v.l.l.l.n.h.s.b.b.r.:.$.y y >.>.:.,.r 1 q B A 2.>.( q M $.$.h.x.x.k.k.n.n.n.n.h.h.n.n.h.m.n.g.h.h.g.p.n.p.n.g.n.n.n.f.n.f.n.a.n.n.n.f.n.f.a.n.f.f.C.n.a.n.n.f.a.f.f.f.f.f.f.n.f.f.f.f.C.n.f.f.f.f.f.f.f.f.f.f.f.f.f.f.f.f.C.f.j.j.C.j.j.f.C.f.f.f.V.=.  .         = vXGXGXGX^.F /.H.! @X)._.jX5X.._.l 6 s H L.X.5XjX| 9 f d T.(.OXnXnX~...Q.).Q.4XJXbXbXnXDXDXDXDXGXIX=XY J.vX&XJ./.F F R.;X;X,X4XgX.Xh ~ ;X;X<X5XdXUXIXGXLX&XF R.HX.XA..Xh c X.X.Q.Q.5X4XR.p ..X.o.X.5XdX>XF R H.;XX.<X5XzXHXSXIXsXU D.SXsXH.W.W h X.Q.Q.;X,XZX@Xd E Q.Q.Q.,XzXbXJXKXKX+XY E.vXAXDXDXDXHXfX;.@XI.} ~.~.%XxXXX^.T.6 a 3 |  ._.sX3XD < H | T.....dXcXH.! ).~.5XmXLXAX| H.HXKXKXKXIXIXKXKXKXIXIXKXKXKXKXGXKXLXLXHXIX-XG .XIX.X`  XU 6 6 n n m 8XDX$Xp * 6 *.n -.NXHXmXJXIX3XK ^.PX=XU oXP.6 7 n $.n [.DXdXN 6 a %.v L 1XUXoXa 6 v L b T.AXJXJXJXLX*XU ^.SX#XF.Y.Y 6 9 C C m [.NXfXP 6 a C n P 3XLXJXKXPXNXY.D.dXbXmXmXvXZXKX",
"k.k.k.k.k.k.p.k.p.k.k.k.k.k.k.p.k.k.k.k.g.d.x.g.k.k.k.h.k.k.k.k.k.k.k.k.k.k.k.p.g.x.x.h.k.k.k.x.l.x.x.k.k.z.x.z.k.k.k.k.m.9XqXm.9Xk.m.k.m.m.m.m.l.l.l.M.l.l.n.v.n.b.j.b.b.1.:.e $.:.r :.8.B y ) M M A >.V w M S t.7Xl.l.m.n.n.n.n.n.n.h.h.m.n.n.h.n.n.h.g.n.n.n.n.g.n.g.n.g.f.f.a.n.a.n.n.a.a.n.a.n.f.n.f.a.C.n.f.f.f.f.g.f.f.f.f.f.C.n.f.f.f.f.f.C.f.f.f.f.f.f.f.f.f.f.f.f.f.f.C.f.j.f.f.f.f.f.f.f.f.C.V.=.  .         % vXGXGXGX^.G .XK.! Q.).~.jX5X` Y.l 9 a N Y...%XxX' 8 a a W L.Q.cXnXQ.~ ,X,X;XjXJXbXnXnXbXbXDXDXGXLX=XY Y.ZX&XJ.XXK h o.;X<X,X5XjX#Xg E +.<XX.,XjXGXGXUXLX$XF Y.HX[.-.[.h j X._.~.;X4X4XR.i ..;X<XX.:X4X>Xx j Q.,X;X;XzXmXJXcXKXaXU | xXwX-.W.J j Q.,X<X,X,XlX@Xg | ~.;X~.5XnXDXIXIXUX+XY ^.vXAXDXGXFXIXlX;.[.W.X.;X;X5XmX#X!.T.u l p ..R.;X:XE p f H (._.R.%XjXsX! Q.).~.;XmXLXAX` R.HXIXIXIXIXIXIXIXKXIXKXKXUXKXKXUXsXaXGXHXHX&XH .XIXoXL U G 6 6 $.n v [.[.3.s 6 e *.a P wXzXJXJXLX3XH !.LX*XU Y.&.6 6 a n a '.wX[.n 6 6 L v L eXxXW.u 6 n b s S.mXJXLXHXPX=XY  XAX%X| ^.P 6 6 $.$.n [.SXaXD 6 v %.n L eXLXJXKXIXSXT.` dXJXmXjXgXSXKX",
"k.k.qXp.k.k.k.k.k.k.k.k.k.k.k.p.k.k.p.k.k.k.k.k.k.k.k.k.k.k.k.k.k.g.k.k.k.g.k.k.d.g.x.k.g.k.k.k.z.z.z.k.z.x.x.l.k.k.9Xk.k.k.m.k.m.k.z.z.k.k.m.k.h.l.l.l.l.l.l.l.v.v.v.c.t.#.:.:.:.w w >.8.$.A B 0 r A B B 0 t #.=.b.z.l.m.n.n.n.n.n.h.n.n.h.n.h.n.h.n.g.n.g.g.n.n.n.f.n.f.f.n.n.n.n.n.n.n.n.n.f.n.f.n.a.a.n.f.f.f.f.g.f.f.f.f.f.f.f.f.f.C.n.f.f.n.n.f.f.f.f.V.f.f.f.f.f.f.f.f.f.f.f.C.j.f.j.f.C.f.f.f.C.V.r.            $ vXGXGXGXoXY oXI.E H.H. .4X3XK !.b 9 9 k | ] %XmX` 6 8 8 h E R.lXZXR.~ Q.~.~.zXJXJXbXnXDXDXAXDXGXIX*XU Y.SX&XG.OXG z  .R.H.R.,XlX%X4 x o.o.o.;XkXGXJXDXLX=XF L.FX.X;.[.h p ..X.R.~.5XjXR.3 x R.X...:XzX4Xm j ! R. .X.6XnXJXZXIXaXU D.SXsX-.I.J x X.~.~ Q.,XZX[.3 E X.~.X.,XzXFXFXIXFX-XY (.mXbXAXAXZXIXgX;.,X;...~.Q.5XAXXXJ.3.u f 2 ]  .Q.,X! p f k ' ....X.4XjXI. .~._.5XmXLXSXY  .AXKXKXKXFXKXFXKXSXUXUXUXUXUXUXZXW.G.lXPXKX*XY oXIX>XY.F.z u 6 m m m wXI.P b 7 a *.b -.:XsXJXJXLX3XH ^.LX$XY A.P 9 6 n n n [.Y.-.n 6 6 n a N oXY.Y a 6 a n v Z.aXkXJXHXPX=XY  XGXOXY Y.%.6 6 n n n '.gXaXm 6 0 n b L =XHXHXIXIXxX!.| sXbXbXbXgXZXKX",
"k.p.k.p.k.k.k.k.qXp.k.p.k.p.k.k.p.k.k.k.k.k.k.k.k.k.k.k.k.k.k.p.k.k.k.k.k.p.k.p.k.k.k.C.k.k.k.k.k.k.k.k.k.k.9Xk.qXn.k.k.9Xk.k.9X9Xk.k.k.9Xk.l.z.k.z.z.k.z.k.z.k.m.m.z.x.u.r.<.1.t r 0 ) 8.,.A e 9 B >.A ) w $.1.r.v.m.m.m.m.k.m.n.n.n.n.k.n.n.n.l.n.l.n.g.h.n.n.n.n.n.n.n.g.n.n.g.n.g.n.f.n.f.n.f.n.n.f.f.f.n.f.f.n.f.f.f.f.f.f.f.f.g.n.f.f.n.f.f.h.f.f.f.f.f.f.h.n.f.f.n.f.f.f.f.f.f.f.f.f.f.j.C.f.f.C.V.r.            $ mXJXAXAX^.D +XY.-.H.H.| 4X1X' !.N 6 6 n L Y 1XxX5.9 a i E ! W.lXlXR.! Q.H.H.sXFXbXnXnXbXbXJXDXJXIX*XY Y.VX+XS..XE G Y.Y.W.W.>XzX@Xg ..X.X.X.;XjXFXJXJXLX&XD Y.GX.X-.Y.p G G.A.S.L.:XsXR.g F.K.} } (.xX5Xc F H.H.~ R.4XnXJXDXLXaXY A.ZXaX-.U G ! H. .X.H.OXvX^.p E K.K.R.~.jXJXFXHXIXwX-.[.vXcXAXDXbXLXgX;.@XQ.-.Q.R.3XmXoXY.T.6 8 a m ! W.sXH.i 8 8 b Y H ..jXdXT.H.R.X.5XVXIXVXU D.cXFXFXFXUXFXFXUXCXVXSXVXVXSXGXGX^.I.SXIXKX=XQ oXSXaX*XY.z 6 6 a b P aX-XD.a = a n d W.,X5XDXLXLXeXD ^.KXaXY.G.D 6 6 %.n m 8X3XY.b 6 6 L d P wXY.P a 6 n L b S.*X3XJXLXLXwX&.W.DXOXY J.H 6 q n n n ;.NXwXm 8 a n n C +XFXHXHXPXNXI.I.hXFXFXFXFXKXIX",
"k.k.k.k.p.k.p.k.p.k.k.k.k.k.k.p.k.p.k.k.k.p.k.k.k.k.k.k.k.k.k.k.p.k.k.k.k.k.k.k.k.k.k.k.k.k.k.k.k.k.p.9Xk.k.k.k.k.k.k.k.k.k.k.k.m.k.k.m.k.k.z.k.m.m.z.k.k.k.k.m.m.k.k.9Xx.z.u.1.:.t 0 t 7.4.A A 0 M 2.7.>.S $.b.9Xz.k.m.k.m.k.m.m.n.m.g.n.n.n.n.n.n.n.h.n.h.n.n.n.g.g.n.n.n.g.n.g.f.f.n.n.f.n.f.n.g.f.n.f.n.g.f.n.f.g.g.f.f.g.f.f.g.f.g.f.f.g.f.f.f.f.h.f.n.n.f.f.f.n.f.f.f.f.f.f.f.f.f.f.f.f.j.f.f.f.f.V.r.            $ vXAXAXUXoXU =X[.I.P h  .dX3XD.-Xb # e *.6.' -XVXP.9 6 n C L I.lXvXR.X.! P ;.sXLXJXnXbXJXJXJXbXGXIX*XY Y.ZX=XF.^.Y g G Q -.;.@XlX$Xc x ..H.! [.jXJXJXFXIX=XD ^.LX-X;.W.m h U Z.&.F.$XdXE.p P -.-.&.E.dX3XF h Q A.-.L.sXnXJXDXLX3XY S.ZXsX! h h m D P Y I.@XvXE.p W Y.U.H.(.jXJXFXFXKX+X! [.bXvXAXJXDXLXgX;.[.;.! ~ | XXlX XY.D.8 6 n m P I.sX@Xd 6 v %.%.` :XJXhXT.K.H.| _.VXIXVX` J.KXIXIXIXIXIXIXKXUXKXKXKXUXvXJXDX XI.ZXIXIXwXP +XUXaX$XY.F i * * * d aX#XY b 6 6 8 * } 5X5XJXJXLX3XD !.KXdXOXG.D * $ 8 a d hXcXW.d 6 6 a a S.aX+X-.8 6 v b b W.3X3XJXHXIX>XU ^.DX$X` ^.D * 9 $.$.m ;.NXwXm 6 a L L P +XGXHXIXIXgXY.G.hXIXFXfX@XfXSX",
"k.k.p.qXk.p.k.p.k.p.k.k.qXk.k.k.qXk.p.k.k.k.k.p.k.k.k.k.k.k.k.k.k.k.k.k.k.k.k.k.k.k.k.k.k.k.k.k.k.k.k.k.k.k.k.k.k.k.k.9Xk.x.k.m.9Xk.9Xk.z.z.z.z.l.k.l.l.k.z.m.k.m.m.k.k.b.v.j.$.1.:.w B 2.4.B q S A 2.B S :.1.z.x.z.l.m.n.m.m.m.m.n.h.n.n.n.n.l.n.h.h.n.n.n.n.n.n.n.n.n.n.g.g.n.n.n.f.g.n.f.f.n.n.f.g.f.f.f.f.f.f.f.n.C.f.n.f.f.n.g.f.f.f.f.f.g.f.h.f.h.f.f.f.f.n.f.f.f.f.f.f.f.f.n.f.f.f.f.f.f.f.f.f.f.f.r.. .         $ vXGXAXUX=X` -X[.-.g p W.KXaXI.-XN - $.7X7X|.pXVXF.* 6 *.=.=.t.xXmX). .h m '.MXJXJXnXDXFXbXJXDXGXLX*XY Y.SX=XD.W.! : 6 C %.C [.hX3Xh & d -.P ;.dXJXHXFXIX8Xm '.KXoX-.Y.h $ 9 *.$.P +XgXY.8 6 %.].&.!.hX3XH & a L P P >XDXJXmXLXaXK T.vXsXU F D 6 a m n &.'.zX).2 a 6.].T.oXjXJXHXIXKXoXP XXZXvXmXJXDXLXsX;.[.I.P d m '.NXoXY.T.8 a $.=.n &.fXfXb 6 *.t.0.5.1XUXhXoX-.P H XXUXIXVXY U.IXIXIXIXIXIXIXIXUXKXIXIXUXGXJXDX^.I.ZXIXIXwXP +XFXaX%X| K h u : : J vX#XK G u u : %  .nXjXDXJXPXaXD !.GXsX&XF.G d : 8 * 8 aXgXT.b 8 6 * & J aX+XQ d * 6 u u W.dX5XFXHXKXwXU  XmXXXG -.D < 6 a a m [.wX[.d 8 9 v b H #XcXJXHXIXZX'.U.gXIXKX&Xm .XNX",
"p.k.p.p.k.p.k.k.k.k.k.k.p.k.k.k.p.k.k.k.k.k.k.k.k.k.k.k.k.k.k.k.k.k.p.k.p.k.k.k.k.k.k.k.k.k.k.k.k.k.qXk.k.qXk.k.9Xp.k.k.k.9Xk.m.k.k.k.m.z.k.k.k.l.l.z.k.z.z.k.m.k.m.m.k.b.j.C.:.1.:.r t Z _ B q B >.Z 0 t 1.r.t.z.c.z.m.m.k.m.m.n.k.n.n.l.n.n.n.n.n.g.l.n.g.n.n.g.n.g.n.n.g.n.n.n.f.n.f.g.g.n.f.g.f.V.V.n.f.n.f.n.n.n.f.g.f.n.n.f.f.n.f.n.f.f.n.f.V.f.f.f.n.h.f.f.f.f.f.f.f.f.f.f.f.f.f.f.j.j.n.f.f.f.f.V.r.. .     .   $ mXJXDXJX-XI oXI.;.m a P.NXhX` Y.H = e b.7X7XeXgXG.6 6 t.qXqX8XVXmX).F.d m [.NXGXDXDXDXDXJXJXDXGXLX*X` ^.SX.XU W.F.2 a 6.`.].-X=X$Xc * b *.%.P.kXJXFXFXIX8Xb Y.UXW.P W.D $ e *.=.&.8XgX^.a 6 *.7XqX-XgXeXH = v *.%.-.sXAXDXmXJX3X` Z.vX3X! Y.Z.6 n t.*.*.[.sX@Xi u }.8X}.1XxXmXFXHXSXoXP +XZXmXAXGXDXGXgX;.[.[.G d b '.VXoXXXY.6 n =.=.=.;.fXwXb v ].7Xb.7X3XUXsXY.m L 6.1XVXKXvX| !.UXIXIXIXIXIXIXUXUXUXUXIXUXKXJXAX^.Y.ZXIXKX=X! [.FXsX#XA.W ! z J Q.:XbX).K } P h F } 4XmXdXGXGXLX=XH  XKXaX:XG.G z u 8 : m vXdXY G b 8 * & F.ZXXXJ D u u & * OXvXdXDXFXKXwX` XXGX1XA.K D s 6 6 % 8 I.[.P m u * 6 6 d /.kXDXIXIXNXoXY.gXIXIX+X&.-XSX",
"k.p.p.k.k.p.k.k.p.qXp.k.k.k.k.p.k.k.k.k.k.k.k.k.k.k.k.k.k.p.k.k.k.k.k.k.k.p.k.k.k.k.k.k.k.k.p.9Xk.k.k.k.k.k.9Xk.x.z.x.z.k.z.k.z.9Xk.k.k.k.m.k.k.l.z.k.l.z.k.k.m.m.m.m.m.v.h.b.v.u.:.#.) >.4.A A 2.>.>.Z =.r.s.b.k.m.m.k.k.m.m.n.n.k.n.k.n.n.n.n.n.l.n.h.n.n.n.n.n.n.n.g.n.n.n.f.f.g.n.n.g.g.g.f.f.n.g.g.n.f.g.f.f.f.f.f.g.n.f.g.g.f.f.f.f.n.f.f.f.f.f.f.j.h.h.j.f.f.f.f.f.n.n.f.n.f.f.f.f.f.f.f.n.f.f.f.V.r.        .   % xXmXAXKX-XP [.I.! a d Z.gXfXP *.n 6 6 $.t.t.'. XP 6 6 $.t.t.}.eXhX+XZ.a m '.NXLXHXDXDXDXDXJXbXHXHX*XY ^.SX XG Q ! 2 a t.].qXqX XJ.D : a *.$.;.>XzXHXIXLX8XL !.KXY.h Q z = v t.t.;.}.-X3.u 7 $.qX=.}.8X[.d = v *.n ;.wXvXAXbXLXsX-.'.SXwXG ! Y 6 n =.qX}.+X@X;.d 6 =.qXqX8XaXvXJXGXGX-XU oXcXbXGXFXmXKXsX;.+X[.P D I -XNXoXY.G.6 a t.t.r.].fX8Xm 6 =.s.C.s.|.VXsXY.D b 3.}.UXLXvX3.Y.UXIXIXPXIXIXIXUXUXUXUXUXUXUXJXDX^.W.SXIXKX=XP [.ZXaX#XE..X/.).jXjX5XjX).| (.R./.4X4X6XjXkXGXLXIXaXU  XAXgX@XE.H.W ! A.).5XJX4XY T.S.J W R.sXJXE.! D.F h H L.dXmXjXJXHXIXwX;.[.AXhX>XA.H D 8 u 8 W lXaXQ J h 8 > < J dXvXSXIXIXNX[.I.gXIXIX=X&.&XSX",
"k.k.k.k.k.k.p.k.p.k.k.k.p.k.k.k.p.k.p.k.k.p.p.p.k.p.k.p.qXk.k.p.p.k.p.k.k.k.k.k.k.k.k.k.k.k.p.k.k.k.k.k.k.k.k.k.k.x.k.k.z.k.z.k.m.k.k.k.m.k.m.k.l.x.z.k.l.l.m.m.k.m.k.m.n.l.v.b.h.1.:.#.Z >.( A Z 2.,.$.1.u.z.z.k.k.k.m.m.k.m.m.n.k.n.n.n.k.n.n.n.n.n.n.n.h.g.n.n.g.n.f.f.n.n.f.n.n.f.C.n.g.g.n.f.n.n.f.f.g.f.f.f.g.n.g.f.f.n.f.g.f.n.n.g.g.f.n.h.j.f.h.j.j.j.h.f.f.f.f.f.f.f.f.f.f.f.f.n.f.f.n.f.f.f.f.V.r.            $ kXvXvXKX+X! [.[.! i 8 Y cXgXU m 8 7 a t.t.t.*.P N * 6 *.].s.6.`.1XoX&.a a ;.aXlXFXDXDXDXDXJXDXHXLX*X` Y.AX XG Y D u 6 t.t.].}.3.G h 6 n *.$.;.^.,XHXLXIX8XL '.AXY.p h u 9 n =.=.t.&.m N a = S ].=.*.&.L b 6 6 $.n *.I.#XmXmXJXsX;.;.UX8Xg h P a e =.=.qX;.;.~ m 6 =.].t.`.Y.wXbXGXUX-XU oXAXbXnXDXSXKXfXI.[.'.D D T.1XAXoXZ.Y 8 0 =.t.=.].'.-.a 6 $.t.=.r.U.=XhXI.d b I -XUXPXcXI Y.IXPXIXPXPXPXIXUXUXUXUXUXCXSXFXvX^.K.ZXIXFX&XP +XNXaX$XK.$X4X(.,X4X5XdX%X .@X).:XjX4X5XzXjXvXGXIXeXL W.SXsX:XE./.(.R.gXmX5X4X5XD. XXX%XvXjX5XjX(.H.XX).OXdX4X5XjXjXJXHXLX=XY ^.AXdX>XF.} L.! A.(.3XvXsX! A.-.J | R.3XmXxXvXIXPXSX XI.gXIXIX-X&.8XSX",
"p.k.p.k.p.k.p.k.k.k.p.k.k.k.k.k.k.k.k.p.p.k.p.k.p.k.p.k.p.p.k.k.k.p.p.k.k.k.k.k.k.k.k.p.k.k.k.k.k.9Xp.qXk.k.k.k.k.k.z.k.k.z.k.k.k.k.k.k.k.m.k.9Xk.k.z.l.l.k.m.z.m.m.m.k.n.l.l.b.b.t #.Z Z Z >.A A Z Z :.#.u.B.m.m.n.k.m.k.m.k.n.n.n.h.n.g.n.n.n.h.h.n.k.l.n.n.n.g.g.n.n.n.n.n.n.n.n.n.n.n.f.n.f.g.g.n.f.n.f.f.n.g.f.f.f.n.n.f.f.n.n.n.f.f.n.f.n.f.f.f.j.V.j.j.h.n.f.h.f.n.h.f.f.f.f.f.n.f.f.f.f.V.f.f.f.V.=.            % vXAXSXFX-XP .XW.-.G j H.lXzX;.m 8 - n qXqX].*.P h = 6 ].qX0X].L -XY.&.L a N ` Y.dXbXbXFXJXDXDXHXLX$XK ^.AX.X-.! F : a }.8X8XMX=X} g * m ].'.wX3X_.GXHXIX8XD Y.vX).} ! i < %.}.qX].m m z : * *.qX].*.n m d 6 n *.*.&.P | jXJXHXfX;.;.[.;.j G G 6 n qXqXqX;.-.E i 6 ;.qX].[.;.&XGXHXDXXXY XXAXvXnXFXKXKXfXI.oXU.P u f _.AX3X^.D 6 n qXx.qXt.*.L 8 6 *.s.s.t.L U +XA.d a b D.#XxXZXU '.KXIXIXKXKXKXKXUXUXUXCXUXUXAXGXlXW.[.FXIXKX+XP +XNXaX*X| F.jX4X_.X.:XmX).K ).4X,X).~.jXvXdXvXKXPX=XD '.FXsX$XF._.3X(.%X;X;XdX4X| OX*X(.5X5X;XnX@XF.$X_.%XjX5X5X6XxXnXFXHX>XK E.vX4X3XW.).%X_.5XkX4XdX>XK..X@X:XjXvXdX4XxXDXHXIXNXW.I.gXIXIX-XP =XSX",
"k.k.k.p.p.k.k.p.k.p.k.k.p.p.k.p.p.k.k.k.p.p.k.p.k.p.k.p.p.k.k.k.p.k.k.k.k.k.k.p.k.qXp.p.9Xk.p.k.k.k.k.k.k.qXk.k.z.x.k.k.k.k.k.z.k.k.k.k.9Xk.k.k.z.k.k.l.k.z.m.m.m.k.m.k.k.h.v.v.s.r.1.Z $.Z :.Z A Z Z $.r.r.g.n.k.k.m.k.m.n.m.m.n.k.n.n.n.k.n.g.h.n.h.n.n.h.h.n.n.n.g.n.n.g.f.n.C.n.g.n.n.n.n.n.n.n.f.n.g.f.g.f.n.f.n.f.f.g.f.n.n.C.g.g.f.g.f.f.f.h.j.V.j.h.j.V.f.n.f.n.f.f.f.n.f.n.f.f.n.f.f.n.f.f.f.f.V.r.  .         % AXKXUXKX+XP :XW.! ~ [.:XsXgX;.d d $ 6 a $.*.&.L d u $ 8 n *.`.6.Y.Z.I Y L D D | dXmXJXJXFXFXFXHXHX#XY Y.AX&XW G P 8 6 L *.}.gXJ.Y D : a ;.'.gXaXL.xXPXIX[.z ^.AX3XA.F u * s *.].*.&.G h : = s *.].*.%.m i % q $.*.&.m z $XvXNX=X-.&.&.*.P m C 6 a ;.'.8X;.! ! i % *.].}.8X[.[.kXLXDXoX' XXcXnXbXHXKXKXwXI.-XJ.| U J.4XDXaXF.d 6 a ].qX7X].%.m 8 6 %.t.t.t.D m ;.-.H d l H H oXlXP P.SXFXSXUXSXUXFXSXSXUXUXUXUXDXHXcXI.I.gXIXSX@XP [.gXaX3XZ.K ).mX_.R _.bX%Xc } 4XjXo...4XzXdXAXIXIX8XP oXSXsX4XE E :XkX:X..~.JX5XH J.4X3X(. .5XbX/.F ).5X%X_._.5XjXdXbXJXGX>XY E.xXgX>XR.(.3X).1X3X3XzX>XK.&X,X).5X4X5XdXjXDXHXPXNX[.I.gXPXIX-XU 8XSX",
"p.k.k.p.p.p.k.p.k.p.p.k.p.p.k.p.p.k.k.p.k.k.p.k.k.p.p.p.g.k.k.k.k.k.k.k.k.qXk.k.k.k.k.k.k.k.k.k.k.k.k.k.k.k.qXk.k.k.m.k.k.k.k.qXk.k.9Xk.k.k.k.k.9Xk.k.k.k.m.k.m.k.m.k.m.k.m.z.l.b.c.<.$.$.) >.) ) $.:.$.b.z.k.n.k.n.k.n.n.m.n.k.n.n.n.n.n.m.n.n.k.n.n.g.n.n.g.n.n.g.n.n.g.n.g.n.n.n.n.n.f.C.n.n.n.g.g.n.f.g.n.f.g.f.n.f.f.n.p.n.f.n.f.n.f.f.f.f.f.h.f.h.j.V.j.j.f.f.n.f.f.f.g.f.f.g.a.f.n.f.n.f.f.f.f.f.V.r.            % ZXKXUXKX+XQ @XE.R.! J K | _.G 8 d 8 % - # 6 N l i u * = $ 6 L &.m m d m G D z | dXJXJXDXHXGXFXJXJX%XJ L.vXxX^.D P h 8 % % ;.NXG.F E g : % 3 5XAXXXAXLXKX[.h E.nX4X} g h 2 = 9 v b ! x j i & $ 6 a %.&.P m 8 % 6 6 b -.m Y S.I.P.-.Z.;.;.[.-.m s * = 6 -.aX| x x : * a P -X&XR.vXLXcXoXH =XAXZXFXFXFXHXaXI.+XXXG.} ).3XlXzX! j a = a $.*.%.P d i * 6 v $.$.m L Y P D H N H D  XlXU Y.UXIXIXIXIXIXIXhXaXfXwXaXaX3XsXdXJ.Y [.gXZX+XY S.+X$X.XY W ).4XQ..._.jXOXz } ,X5X ...:XvXdXDXPXIXaX-.I.hXdX>X .c R.dX%X..X.ZXsXm ! +XcX).~ ,XZX@Xh  .5XjX..X.4XjXjXDXLXIX>XU ^.lXdXwXH.~ ,XdX:X..(.vX4X! H.5X4X;XR.5XvXkXnXHXIXvXY.P.gXPXKX-XY 8XUX",
"k.k.p.k.k.k.p.k.k.k.k.k.k.k.k.k.k.k.p.k.k.p.k.k.p.k.k.k.p.qXp.k.k.k.k.p.k.k.k.k.k.k.k.k.k.k.k.9Xk.k.k.qXk.k.n.k.m.qXk.k.k.m.n.m.k.k.k.k.k.k.k.9Xk.k.k.k.k.k.m.k.m.k.k.k.m.k.k.d.x.b.:.t Z S A B B Z Z $.b.m.m.k.n.k.n.k.k.n.n.n.k.n.k.n.n.k.k.n.n.k.n.n.g.k.n.n.g.n.g.g.n.g.n.g.n.n.n.n.n.n.n.n.g.n.n.f.n.f.f.n.n.n.f.n.g.f.n.f.f.f.f.f.h.h.h.h.h.f.j.h.j.V.j.h.n.n.g.g.n.n.g.n.f.n.n.g.f.g.n.f.n.f.n.f.V.r.            = lXAXGXGX+XW $X:X .F.E : 2 H d > : : i 8 u 2 f u * u i 8 8 8 8 : 8 * 8 l D l D ' xXbXnXHXHXDXJXLXKX%XJ ^.xXvXXXG P G h E R.sXFXR.G E F j ~ ).mXxX!.1XgXIX-Xh ~ ).W u : i i u 6 6 8 i 8 2 i u : * : p h i d m a 8 : 8 i 8 u d m U P.P.&.[.wX;.m F d i m @XHXR.z F D u i Q dXdX(.3XcXAX-XU &XGXZXnXFXZXDXaXK.@X@X).} g z H.W.i i 8 8 = = 6 a z p i : % $ 6 6 a b d p d l z l z +XNXY W.KXLXLXIXIXIXIXsXaXhXaXsXaXaXsX*XF.G.>XaXaXI.P A.[.W.G.Q E.,X4X%XR.).3X!.J W.%X>X~.~.).3X_.*XgXSX=XJ Y W./.R.E K L.3X/...L.4X,Xx -.@X>X@X~ Q.kX/.z .._.5X....5XmXjXDXLXIX=XQ Y.hXdXsX;.x R.5X:X} (.kXsX! E ).zX)...).vXjXnXHXLXlX[.P.gXIXUX-X%.8XSX",
"p.k.p.k.k.p.p.k.p.k.k.p.k.p.p.k.k.p.k.p.k.k.p.p.k.p.k.p.k.k.p.p.k.k.k.k.k.k.k.k.k.k.qXk.k.k.k.k.k.k.k.k.k.k.9Xk.m.k.k.m.k.k.k.k.k.k.9Xk.k.k.k.k.k.k.9Xk.k.k.k.m.k.m.m.k.m.m.k.k.f.u.#.t r r B Z B r t #.=.b.m.k.k.n.n.n.n.n.k.n.n.n.k.n.n.k.n.n.n.p.n.k.n.k.n.n.n.n.g.n.g.n.g.n.g.f.n.V.n.n.C.n.n.g.n.f.g.g.f.g.f.n.n.f.g.g.n.f.n.g.g.g.h.h.h.f.h.f.h.h.V.j.h.j.f.n.n.g.g.n.g.g.n.f.n.f.n.a.f.n.n.f.g.f.V.r.. .         $ >X4XdXvXOX| >X>X~  . .g p z p 8 > 3 i i i f d i * : : 8 i i h i 8 8 i d d D K | dXbXFXHXFXGXFXJXIX%X' E.AXgXQ h m F x ,XzXzXzX~ z x x o.zXnXzX1Xl z #XFX@Xp h G.G : * : 8 8 i i i i a : : 2 i 8 : h i i 8 8 8 a 8 i u * 9 u a Z.S.Z.Z.[..XE j F J ).dXmXjX' z F z | 3XvXmX%XJ } sXAX+XY #XZXcXnXbXnXDX3XH.*X). .L.c > i x : : 8 i 8 : 8 i f : > : 8 : 8 a m i 8 6 s l l l d [.gXK Y.GXLXHXIXLXIXHXFXSXFXAXSXSXDXJXgXE.oXSXKXgXY.P >XlXaX+XG.J.).,X_.).jXkXW.F./.:X>X).%XjX5X%X>X>XsXW.D -.@XR. .E L.).3X$XR.%XsXW.x R.,X,X@XI.$X3X~ E L.:X5XR.X._.5X%X>XsXNX&XP Y XX#X@X! ! H.%X%XK.W.aX@XG E ).,X;X;.).4XjXvXFXLXSXY.Z.=XSXUX-XP [.fX",
"k.p.k.p.k.k.k.k.k.p.p.k.p.k.k.p.k.p.k.k.p.k.k.k.k.k.p.k.k.k.k.x.k.p.k.k.k.k.k.k.k.k.k.k.qXk.k.k.k.qXk.k.p.9Xk.k.k.k.k.k.m.k.m.k.k.k.k.k.k.k.k.k.k.k.k.k.k.m.k.m.k.k.k.m.k.k.n.m.h.h.b.$.Z S Z B B $.t r.u.d.m.k.k.k.k.n.k.n.k.n.k.n.n.n.n.m.n.k.n.n.n.g.n.n.g.n.g.n.n.g.n.g.n.g.n.n.n.C.g.C.n.n.g.n.f.f.n.g.n.g.n.f.f.n.g.g.f.n.f.g.n.g.f.f.h.h.h.h.h.h.j.h.h.h.f.n.g.n.g.n.n.n.n.n.f.n.n.n.n.a.f.f.n.f.V.r.. .         % >X| L.3X).E 3XzX/./.).J.z 2 i : : 4 i j -.F d u < 8 : : j x p : 8 f b d D D.! ..sXFXFXFXFXDXDXLXIX%X` !.GX3XF f i h J ;X;X,X,XK p g c ..;X~.,XX.j K %XFX.XP H.Y g 2 u 8 8 i i m d i i : 8 : i p h h g 8 > 8 8 f h h f u u u d &.D.Y D.@XW.m d h W ).:X4X%Xh d m h ..,X5X,X..c | aXFX+XY %XbXdXnXbXnXvX%XK.4X)...R...x E F 3 8 8 : 8 i m m d 2 i > : d i P P i u u d f l Y F .XgXF L.gXgXdXdXgXjXgXNXVXNXVXSXVXAXLXlXK.W.ZXPXUX[.P +XNXaX*X| z ! :X:X/.wXZX$XG E E.>X[.%XjXmXdXHXIXFXoXJ .XZXdX3XL.} W.aX@XR.jXFX,X| K..XwX@X>XFXkXL.A._.%X5X(.1XjX5X_.:X>XwXY.J G.#X).[.I.W.:X3X:XOX>XsXW.! E.>X4X,X@X4X4XOX$XaXdX>XQ D I.aXNX[.G ;.'.",
"p.k.C.k.k.p.p.p.k.p.k.p.k.k.k.p.k.k.C.k.k.k.k.k.k.k.k.p.x.k.p.k.k.k.k.k.k.k.k.p.k.k.k.k.k.k.k.k.k.k.k.k.qXk.k.k.k.9Xk.k.k.k.m.k.k.k.k.k.9Xk.k.k.k.k.k.k.k.m.k.k.m.k.m.k.k.n.k.n.l.x.b.$.Z Z Z $.:.>.$.u.7Xk.k.n.k.n.k.k.n.n.k.n.n.n.m.n.n.m.n.k.n.n.p.n.n.k.n.n.n.n.n.g.n.n.g.n.g.n.g.n.n.n.C.n.f.n.f.n.n.a.a.n.g.n.f.n.f.n.f.f.g.g.f.n.p.n.f.h.h.j.j.h.h.h.j.V.n.n.g.g.n.f.n.g.f.n.n.f.a.a.n.f.g.n.f.f.V.r.            % @XJ K.xX_.x :XmX5X:X4XdX} i p 2 & 4 j ~ ,X! 8 8 * * u g  .E.x h i b m m D ! G K.KXHXHXFXDXnXDXDXJX$XJ K.JXxXA.z d i x E R 5XdXH g p p E ..o.jX/.E W ).DX@X(.sX! 2 u 3 i p i z ! G i 8 : : : g G J p u 8 i 8 i j ! Y p p u a d U A.` F.aX.Xh p d ! L.E 5X:XD f d h X.....5XL.c | aXFX XG OXDXjXnXnXnXbX3XL.dXjX%X;X).:XR.g 8 8 : 8 g h ! P p u : : p 3 P ;.h i 8 d d N ' S.P &XgXG  .*X>X>X>X:X>X>XVXUXVXUXUXUXAXLXxXY.^.AXLXSX.XY #XSXdX*XQ z h P I.;.;.NX>XJ h G I.[.Y.:XgXdXGXHXKX&X! .XlXdX4XQ h W &X+X-.$XGXdXK x -.>X+X+XfXUX.XG J (.3XY._.mXxXjXJXJXDX=XU /.vXsXwX;.! W.>X@X.XsXZX$XW H.OX4X,X+XcXAXaXaXsXgX@X-.;.&XfXfXI.&.+XwX",
"k.p.C.k.p.p.k.p.p.k.p.k.k.p.p.k.p.k.k.p.k.p.p.k.k.p.p.k.x.x.k.x.p.qXk.k.k.k.k.k.qXk.k.qXk.k.k.k.k.k.k.k.p.k.k.k.k.k.k.k.k.k.k.k.k.k.k.k.k.k.k.k.k.k.k.k.k.k.k.m.m.k.k.k.k.k.m.g.l.l.s.$.r e Z w 0 S t r.k.k.m.k.n.k.n.n.n.n.m.n.n.k.k.n.k.n.n.n.k.n.n.n.g.n.n.g.n.g.n.n.g.g.n.g.n.g.n.n.n.n.n.n.n.n.n.f.n.n.n.n.n.f.n.f.n.g.f.n.n.g.n.f.g.g.h.f.j.h.h.j.h.j.h.j.f.n.f.n.g.n.g.n.n.n.f.n.n.n.f.n.f.n.n.f.V.r.            X J G (.dX%X..).jX~.(.,XvXOXH Y h : i E ).4Xm d d 9 * h R.4X3XJ F m d b b D Y H D.sXlXgXzXjXjXzXmXDX$XK D.mXvXF.} | g 3 ..3XmX*Xc | ' 2 c R.6XJX@XE F @XDX).).ZX).g g i p g h H.>X-.p i : % : F ).%XG h j i i 8 E >X/.F D a u d Z.S.Y L.3X/.J W g 3 R _.mX3XF | G : g X.6XJX$XJ A.dXAX.XG R.nXnXmXvXnXbX5X .5XdX_._.5XzX>Xh i : * 2 i E $XH.f 2 > 3 g 3 Q.,XE m d b s d ` Y m +XkXW } :XsXsX4XsXsXaXUXKXUXUXUXUXKXIXxXE.^.AXLXUX XY #XvXaX+X| z 8 8 m C &.fX&XG g 6 a L N U.dXsXDXKXFX>XP [.ZXsX>X-.h u m U D Y sX3Xz p d &.;.;.[.SX.XD h P G.Y.Y.1XjXdXmXJXGX&XJ ^.vX4X4XH.h J [.oX[.=XgXaX! D -.&X@X[.sXNXlXDXIXIXsXA.;.sXIXKX[.&.wXSX",
"k.k.k.k.k.k.k.p.k.p.p.k.p.k.k.k.qXk.k.k.p.k.k.k.p.k.k.p.k.x.x.x.p.p.k.k.p.k.k.k.k.k.k.k.k.k.k.k.qXx.x.x.k.k.k.k.p.p.k.k.k.k.m.k.k.k.k.k.k.k.k.k.k.k.9Xk.k.k.k.k.k.k.m.m.m.m.k.k.d.z.b.$.e e t 0 0 t t r.qXn.n.k.k.k.k.n.n.n.k.n.n.n.k.n.n.n.n.k.k.n.k.n.k.n.g.n.n.n.n.f.g.n.n.C.g.n.n.g.n.n.g.n.n.f.a.n.a.n.n.a.n.f.f.n.f.n.g.g.f.f.n.f.f.n.f.h.V.j.h.V.j.h.j.h.f.n.n.n.n.f.n.n.f.n.n.a.n.a.n.n.g.g.n.g.V.r.  .         X ! H./.5X5X_.5X5XR.~.,X4X_.| | E E W.:X,X:X-.! D h z L.:X5X:XE h D m b b H U L J.sXaX&X>X,X,X4XdXbXOXY Y.vXgX(.(. ...R.4XjX5X5X!.E. .| Q.jX4XjX:XG x 5XbXE.Q.nX).x F G j h H.>XsX;.h h i : F @XkX4X} G R i j ~ R.dX).z F d a d Y U K } :X).L. .E  .,X6X4X5X.. .~ K X.6XzXjX%XK Z.gXZXW.x R.4X4X4X4X4X4X%X_.5X:XR.;X3XvX,Xm P a 2 3 c ).jXJ.z l 2 > c X.4X4XJ h m a b d I &.H  XdXY J.%X).).).).).).UXKXUXUXUXUXKXLXxXY.^.UXLXAX(.` =XcXaXOXY h 8 8 m %.%.gX8XH b 6 v m b D.gXgXFXFXFX+XP [.ZXhX>XS.D 6 6 m b D fXaXG p * 8 n n *.NX XD i * b b d Y.xX5XmXJXDX&XJ /.mX4X,XI.h 8 b -.P P aXaXU d d &.;.-.'.gXNXNXKXIXNXW.I.sXIXIX+XP 8XNX",
"k.k.C.k.p.k.p.p.k.k.k.k.k.k.p.k.p.k.p.k.k.p.p.p.qXk.k.k.p.x.p.p.k.k.p.p.k.k.qXk.k.k.k.k.k.k.qXqXk.k.k.k.k.k.k.k.k.qXk.p.9Xk.k.k.k.k.k.k.k.k.k.k.k.k.k.k.k.k.k.k.m.k.k.k.k.k.k.k.k.z.r.e y 0 w r r v 0 #.p.k.k.k.n.k.n.k.k.k.k.n.g.n.k.n.n.k.n.n.k.n.n.p.n.k.n.n.n.g.n.n.n.g.n.n.n.n.n.n.C.n.n.g.n.n.n.n.a.n.g.n.f.n.g.f.n.f.n.g.g.n.f.n.g.g.g.h.j.h.h.j.V.j.V.j.n.g.n.f.g.n.f.f.n.f.n.a.n.n.n.a.n.n.g.n.V.r.            & nXkXjXjX%X_.jX4X~.dXDXjX_.R._.F. .:X:X(.;X).).| F E.5X~.5X4X} D D m d L I P D &XIXAXAXbXvXnXnXvXJXOXW 3XLXxX).3X:XL.).4X4X5X,X%X4X_.E.:X5X%XjX:XG E jXbX(.:XnX@X .E ~ ! R.).,X,XR.E F F ~ E.:X3X>X).L.-.E ;.,XQ.:X:Xz D D d f P | Y  .3X%X%X).R.;XzX;X;X6X_.:XR.o.jX4X;X5XOXK I.SXZXK.E >XnXdXdXkXjX3XE.5XmX1XX.%XzXZX:X! -.m l ..:X:X:X/.| F z x ).;X,X>XQ d m b n b L U I.*X3X} _.3X;X).:X%X;X).VXIXUXKXUXUXKXPXxXY.^.AXPXDX/.U #XcXsX+XW d 8 8 n a L fX*XP d * a b v P.gXlXZXKXKX-XY oXFXgX>X;.h 8 8 m b m fXwXD a 6 a m n ].NXoXD i 6 b m N Y.mX4XmXJXGX-XY XXmX4X,XG.m 8 * b a m -X3XU d * 8 b n -.fXSXSXIXLXNX+X'.gXIXKX-XL 8XNX",
"C.k.k.p.k.k.k.p.k.k.p.k.k.k.k.p.k.k.k.k.k.k.p.p.k.k.p.k.p.k.x.x.d.d.g.b.x.x.x.x.k.qXx.x.k.qXp.k.k.k.x.x.x.x.qXk.k.k.k.qXk.k.k.k.k.k.k.k.k.k.k.k.k.k.k.k.k.k.k.k.n.k.k.k.k.k.k.k.x.x.s.e y 0 M w 0 S M e s.k.k.l.k.g.k.k.n.k.k.k.n.k.n.n.k.n.k.k.n.k.m.n.n.k.n.k.p.n.n.k.n.k.n.n.n.n.g.n.f.n.n.n.g.n.V.n.n.n.f.n.V.g.g.g.f.n.V.f.f.n.C.n.f.n.n.f.f.n.n.f.n.n.n.f.f.n.f.f.n.f.g.f.n.f.g.V.f.f.n.n.n.f.n.f.V.r.            % FXFXcXmX). .,XnX5X3XjXjX~...@X). .R.R._.3X~ } W.H.Q.E.R.5X4X| z D b m &.&.&.G =XFXZXZXZXbXbXAXDXGXOX` XXGXvX . .jX4X).~ o.zX4Xc 5XzX,X~..._.bX%XJ E 3XbX).,XbX)...).Q...E.(.R.%XR.A.R.! ! R.R.).:XW.OX/.! /.:XR.:X3XG D m d d U A.| K.4XE.X.5X;XX.X._.zX5XR 5X4X~._.Q.,XzX%XF W.NXZXH.E sXFXnXlXlXZX4XE.jXHX3X_.).5XjX_.| ^...c  ._._.,X(.E.L.K  .4XQ.).>X! d m b n m &.D A.dXsXY.4XnXnXnXnXnXnXnXKXIXUXKXUXUXIXPXgXJ.(.AXLXAXXXU $XvXdX@XJ d < 6 a b L '.Y.P f = a b b -.=XsXFXIXUX+XP +XSXwXoXQ d 6 6 8 a n -X&XP a 6 a n a *.NX[.m u 6 v n 8 ;.jXdXmXJXFX+XP [.nX4X:X! m 8 8 n v m -XwXU m 8 a n n L wXzXzXnXFXZXoX'.MXKXKX-XP =XVX",
"k.k.p.k.k.p.p.k.p.k.qXp.k.p.k.k.k.p.p.k.k.k.p.k.p.k.k.p.p.p.p.x.x.x.d.d.x.x.x.s.p.x.p.x.p.x.p.k.k.p.x.x.x.x.p.k.k.k.k.k.k.k.k.k.k.qXk.k.k.k.k.k.k.k.k.k.k.k.k.k.k.n.k.k.k.k.k.k.x.x.s.t y r ( r 0 $.Z e s.l.g.g.g.k.k.k.k.k.k.g.k.n.g.k.g.k.k.n.k.k.k.k.k.k.k.g.p.n.g.g.g.g.k.g.g.n.n.n.n.f.g.n.n.g.C.n.f.n.n.f.g.f.f.V.g.f.g.f.n.f.n.n.n.n.f.n.n.f.f.n.f.f.f.n.f.f.n.f.f.f.g.g.g.g.f.n.g.n.n.f.n.f.f.f.n.C.            % wX:X@X4X@X~ ).nXjXR.).mX5X..L.4X:XH. .).jXH.~ R.>X/.E o.4XdX| G m m D P P G.Y >XKXFXFXmXvXcXbXAXDX*X| } 4XvX .E Q.jX,X~ ..,X,Xj O.;XzXX.c X.mX5XE E ;XmX,X>XnX).J R.:X^...E ~.sXR.W E.E.R. . .5X:X .Q.:X.XQ.E R.jX:XG G h d D | Q J R.dX).x ~.jX5X....zX4Xj o.5XzX.X} 4XnX%XJ ;.zXFXW.E [.jXDXFXZXFXdXOXjXHXnX4XX.5XmX3Xc T._.E. .| ~.>XR...~.X.R.~ ..,X,X! d i b L P P 3.G *XdX .>XbXJXDXDXDXbXbXKXKXUXUXUXUXKXPXgXL.oXAXPXAX^.W $XlXaXW.F p 8 $ & u a G Q D u * * a d m -.@XDXPXKX+XU [.+XY.W.U i * * 8 a a ;.'.m a 6 6 a a *.-XI.m 8 6 8 v n P %X5XmXDXDX-XP [.ZX>X@X-.a 8 6 a a m .XwXU d 6 8 a a L wXzXlXZXKXNX[.U.gXPXIXoX%.8XSX",
"p.k.p.k.k.k.k.k.k.p.k.k.k.k.p.k.k.k.p.k.k.k.qXp.k.k.k.k.k.p.x.x.d.b.d.d.x.x.x.p.k.p.p.x.k.p.k.p.x.p.x.p.p.x.p.x.x.x.x.k.k.k.k.k.k.p.k.k.k.n.k.k.k.k.k.C.k.p.k.k.k.k.k.k.g.g.k.g.x.b.s.#.e $.r A M r r #.s.k.g.g.g.k.k.k.k.k.k.k.n.n.k.n.k.C.C.k.g.g.g.x.g.g.g.n.n.k.g.n.h.k.g.g.g.g.g.f.g.f.g.n.C.n.C.n.n.f.f.g.g.n.f.n.f.f.f.n.C.f.n.f.f.f.f.f.f.f.f.f.f.f.f.f.f.f.a.a.n.f.f.n.g.f.g.g.f.n.f.f.f.n.n.f.n.r..       .   % sX>X).,X4XQ.,XnXsX).5XjX:X~ X.).).L.E.R.>XQ.H.-.[.).~ E _.#XF h D D h i P .X! E.sX,X:X>X>X:X3XaXhX(.| F.3XkXL.X.Q.;X).Q.X.~.;Xo.X.o.;X~.Q. .,X,XE E OXsXQ.R.vX%XE E R._...K R.>XQ.! ~ (._.| | :X5XL. .W.,XR.~ R.sX:XY D h p d G P G .XkXW.E .._.X...X.).5X~  .Q.,XQ. .R.,X)...;.4XgXW.G E W.3X4XwXsX>X .~.jXnX5XX.6XJX5XK ..R.).R.E Q.4XQ.E ..%X).R  .,X4XE m m d m d Y.W.Y oXsXW G.).Q.(./.(.W..XSXIXUXUXUXUXUXLXgXT.oXDXLXDX.XY &XGXkXY.h d i > & % : F W h i % % * : 8 G Y.SXKXSX+XU D.-.A.!.K i < % * 6 8 m -.m i = $ 6 a 8 -.;.m : = 6 8 9 d ` (.kXHXKXoXY '.@XI..XA.d 6 6 8 a a -.[.U i * 6 9 n m H.,XNXLXIXSX'.`.fXUXUXoXL -XVX",
"p.k.k.p.p.p.p.p.k.k.p.k.p.k.k.p.k.p.k.p.k.k.k.p.p.qXp.p.p.k.x.p.d.d.d.x.d.x.x.x.x.x.x.x.x.k.k.qXx.x.x.x.x.x.x.k.x.p.p.k.k.p.k.k.k.p.k.k.k.k.k.k.p.k.k.k.k.k.p.k.k.k.k.k.k.k.k.k.d.g.s.$.#.t 0 S Z e e #.s.k.g.k.g.k.k.k.k.n.k.g.k.C.k.g.n.k.k.n.k.g.g.g.g.k.k.g.p.n.g.k.g.g.g.g.f.f.n.n.g.n.n.C.n.f.n.f.f.f.n.f.f.g.f.f.f.f.f.f.f.f.f.f.f.n.f.f.f.f.f.f.f.n.f.f.f.f.C.n.C.C.n.g.g.g.f.f.f.f.g.C.f.f.C.C.f.r.. .         $ aXsX/.:X,XR.>XzX;XR.5XjX:X ./.:X:X@XOX).sX/.).,XQ..X).).1X%X` | G.W h G @X>XE H.dXmXzXbXvXvXvXvXvX^.| #XDXcX_.(.4X4X,X4XzXzX4XQ.6X5X5X5X4XdXjX:Xx  .dXvXW.K.kX%X| K.E._.E.X.E.)./.K.R.Q.Q.Q..._.).R.R./.:XR.L.R.:XOXH G W D h Y U Y.jXnX).R.%X:X;X:X;X5X5XL.:X:X3X).:X5X5X~.K I.fXgXI.;.,X>X,X>XsXsX,XR.).zXzX,X,X5XmX5X' L...Q.R.K.R.).Q...X.R.X. .X.Q.;XE j m m d b wX$X} 3XsX .W.>X>X:X:X>X>X>XVXUXUXUXUXUXUXPXgXT. XDXLXUX/.J >XDXsXH.g i 3 i : : p ! Q h i 8 : 8 8 h F.Y.+X XY.;.Y -.-.D.} z i 2 6 % % 8 D Q m a 6 = $ = 8 ;.! i 8 % % 6 * u G Z.fXUXNXoXP -.-.-.J.J a 6 = 6 8 8 h -.G u = & 6 a d G ;.sXIXIXSX-XP.'.oXNX.XL -XSX",
"k.p.p.k.p.p.p.k.k.p.k.k.k.k.p.k.p.k.p.qXp.k.k.p.p.k.s.k.x.x.x.p.d.d.d.b.p.x.x.x.p.x.x.p.k.p.p.p.s.x.x.s.x.x.p.k.p.k.p.k.p.k.p.k.k.p.k.k.k.k.p.k.k.k.k.p.k.k.k.p.k.k.k.k.k.k.k.k.x.x.x.s.b.0.S Z >.$.r.r.s.n.p.n.k.k.k.p.k.k.g.k.k.k.g.g.n.k.n.k.h.g.g.g.g.g.g.g.g.k.g.g.g.k.g.g.g.g.g.f.n.C.n.n.n.f.n.g.f.f.f.f.f.f.f.f.f.f.f.f.f.f.n.f.j.f.f.f.f.f.f.f.j.j.f.f.f.f.f.f.f.C.f.C.f.f.g.f.f.g.g.f.f.f.f.f.V.r.        .   - [.dX>X3X%X~ (.dX>X).>XjX5X| _.:X3X.X X>XZXY./.sX@X>X>X1XhXdXL.3X3X_...).sX4X .R.jXbXmXbXbXJXJXHXGX%XK J.GXbX(.} @X5X3XdXNXFXzXR.).5X4X4XdXgXHX4XK.(.DXHX$X^.vX:X| ).3X%X5X:X5X5X(.(.%X4X3X5X:X4X3XR.5X;X4X>XsXOX1X_...>X:X$XwXwX-.R.vXbXOXH.$X4X4XjXjXnXvXR.:XsXjXdXvXDXbX1X| ).GXUX[.Y :XHXbXFXFXFXzXX.L.vXjXE.;XzXnX3X' _.dXdX#X$XsX4XQ.;X>XdX>X4X3X,X,X! R.[.-.-.,XdX.XH.dXsX} K.>X>X>X:X>X:X>XNXNXVXNXVXNXSXLXdXS.XXGXLXZX/.K G.@XA.i : i : i 3 i : j i i i i i 8 i h G d d m G &.&.Y D K H 2 i u u : : 8 G P d f u : : : p -.F i d 8 : : 8 d P D S.Y.'.I.P ;.;.W./.G s a * = = * m Q D d 8 & = = 8 m H.>XlXgXfX X`.3.'.NXoXL -XSX",
"p.p.p.p.p.p.p.C.p.p.p.p.p.p.p.p.k.p.p.k.p.p.p.p.x.p.k.s.s.p.p.p.d.d.p.j.x.p.x.p.x.p.p.p.p.k.p.p.p.s.x.s.s.x.k.qXp.qXp.k.p.k.p.p.k.k.k.p.p.p.k.k.p.p.p.k.k.p.k.p.C.k.k.p.p.g.k.p.d.g.k.s.b.1.e 0 e t 0.b.x.g.f.p.p.k.g.k.k.g.k.p.g.C.k.k.k.C.g.g.g.g.g.g.g.d.g.g.g.g.g.g.g.g.d.g.f.g.g.n.C.n.C.C.f.n.C.g.f.f.C.f.f.g.f.f.f.f.f.f.f.f.f.f.j.j.j.f.f.f.f.f.j.j.f.f.f.a.f.f.f.f.f.f.C.C.C.f.C.f.C.f.f.f.f.C.n.r.            X [.lXsX4X:XW X.4XsX>X:XjXxXXX..L.Y.U U.'.fXoX3XzX$XY.D.U.-XdXXXdXvXsX3X%X$X3X%X:XdXJXmXmXJXbXnXHXLX$XJ E.GXDXOX}  .x Z.I.;.I.gX>X . ...J.D.Z.=XdXvXdXGXHX#XF.4X4XL.E.(.%XY.| E.3X%X).5X%XOXY.'.8X3X%X4X@X>X@X[. XaX5X_.bXbXZXIXsX-.G.kXbX$XA.F.L.Y.^.L.@XdX).L.H.W.oXoX-XaXxX3X3XGXIXoXQ :XDXvXnXDXJXnX .L.jX4X,X;X>XZXdX .E.XXXX X XwXsX,XsX:X#XaX.X=XsXsX@XsXsX>X4XwXkX@XK.kXdXQ Y /.&X>X&X>X:X&XMXVXMXNXNXNXxXIXgXF.^.vXGXSXW.D G F.! g : i 3 : i : i i : : 8 i 8 i i u u : u f D 3.U D F D.F 2 u u 8 i 8 8 i i : u u 3 3 8 i m i u i 8 8 8 u p d u i b P Z.-.;.! I.I.h d f 8 8 6 i G Y h d f 2 6 * u -.Q ;.I.;.P.P.`.U. XSX-XP =XSX",
"p.p.p.p.p.p.p.p.k.p.k.p.p.p.p.p.p.p.p.p.p.p.p.p.x.s.p.p.p.p.p.p.s.d.d.s.x.s.p.p.s.x.p.p.p.p.p.p.x.s.p.x.p.x.x.s.k.p.p.p.p.p.qXp.k.p.k.p.p.p.p.p.p.p.p.p.C.p.k.k.k.k.C.k.p.k.k.p.p.g.k.k.b.r.$.$.>.$.t.b.k.p.g.g.g.k.p.k.p.p.g.g.g.g.g.g.g.g.g.C.f.g.g.g.g.d.j.g.g.d.j.g.g.j.d.g.f.f.f.f.g.g.C.n.C.f.f.f.f.f.f.f.f.C.f.f.C.f.f.f.f.f.C.f.j.C.j.f.j.j.f.f.j.j.j.j.f.f.f.f.f.f.C.C.C.g.f.f.g.f.f.f.f.f.C.C.n.=.  .         X .XgX4X5X:XE L.@X@X$X&XaXSXdXL.T.3.v 6.`.8XaXgXvXL.l 3. X-XhXdXUXxXOX%X%XL.Q.jXjX4XJXmXJXJXJXbXJXHX%XJ ^.DXxX(.W.G.3 v *.*.%.wXSXL.` * l 3.L P.xXLXHXGXGX$XU #XdX_. .T.Y.N s %.-X>XdX3XR.` D L U.eX3XvX@XW.m D 6.oXaXdXPXHXFXKXwX! Y.vXlX+XK.A.f d m C P sXjXR.G d *.*.P  XSXJXDXKXKXoXP >XHXbXbXnXbXnXR.H.4X>X>X>X@XlXdXJ.Y.U D *.%.%.oXgXcXW.D 3.L I U.hXvXvXdXsXsX).:XsXsXdXsX-.d G.wX>X>X>X>XwXgXNXNXNXNXMXVXHXaXQ Y.3XgXvX.XH.G.! h i i 3 : 3 i m h h 8 : 8 i i i p z d f f f D Y P D Y Q d u : u i i i d h i : : : u u i d h u 8 8 i u u u u u * : u m ! F i d m i : u u u u u u i i u u u i u u a h i f D P &.`.P.P.'.NXoXU =XUX",
"p.k.p.k.p.k.p.k.C.k.C.p.k.p.k.p.p.p.k.p.p.k.p.p.p.p.p.p.p.s.s.s.d.p.j.b.x.s.p.k.s.p.p.x.p.p.qXk.p.x.x.p.x.s.p.x.k.p.p.k.k.p.k.p.qXp.p.k.p.k.k.p.k.p.k.p.k.p.p.p.C.p.k.p.p.k.p.k.g.g.p.p.h.b.r.r.t.t.s.p.p.g.g.g.p.g.p.p.g.g.d.g.k.C.g.g.g.g.g.g.d.g.j.g.g.j.j.g.g.g.p.g.p.d.j.p.f.f.f.f.g.C.g.g.f.C.C.f.f.f.f.C.f.f.C.f.f.f.f.C.f.C.f.f.j.C.j.C.j.f.C.j.j.j.j.j.a.f.C.g.C.f.C.f.f.C.C.f.C.f.C.f.C.f.f.C.V.r.            X [.dXsX5X%X..(..XG.Q S.8XUXhXT.T.U M 6.`.}.eXVXUXT.f %.7X|.xXVXUXAX^.} } F J vXvXjXJXmXbXnXbXbXJXHX%X` Y.GX1XF.K.K.p v *.*.n 8XZXJ.| 9 L 6.*.&.MXPXGXJXGX#XU #XvXXX} J.U f v %.I.W.4X4XL.N b C &.'.-XxX#XA.a ;.P.P.-XgXPXIXFXIXaX} Y.gX3XJ.K.Z.a C *.*.%.=XvX(.P a *.;.*.'.SXIXJXIXGX XP >XHXnXbXbXFXlXI.I.,XK.I.W.;.&XvXY.D.3.v C %.$.'.aXcX[.N C %.C &.#XbXDXwXW.Y..X! aXDXsXhXD.d I.sXwXaXsXaXwXMXNXVXgXMXNXNXGX>XA./.3XvXZX@X&X>XQ h i : 8 g d m H.G i i 8 > : j j | K d 2 i d D G F F D i u 3 : : : 8 d D m i 2 : 2 2 i h h d u u 8 i i i d f u u 8 a h P m d G Q i 8 u : 2 u 8 i d i 8 : * u u 2 i m a 8 8 n *.'.P.P.oXVXoXI 8XSX",
"k.p.p.k.p.p.k.k.p.k.C.C.p.k.C.p.k.p.p.k.p.p.p.p.p.p.p.p.p.p.C.p.d.s.s.b.j.d.d.p.p.s.k.p.qXp.k.p.p.x.x.x.s.x.s.x.p.k.p.k.x.p.p.p.p.p.k.p.k.p.k.p.k.p.k.p.p.p.k.p.k.p.p.k.p.k.p.p.p.g.k.p.g.p.s.1.1.r.h.h.d.x.d.d.p.p.d.g.g.g.g.g.k.g.g.g.p.g.g.p.g.f.p.n.p.g.d.p.g.p.g.a.C.k.g.k.g.k.C.g.g.C.n.C.f.C.g.C.g.C.g.k.C.k.C.g.g.C.g.f.f.f.f.a.a.f.C.f.j.C.j.j.j.C.j.C.C.j.j.j.C.f.C.C.C.C.f.f.f.f.f.f.f.C.f.C.V.r.            X Z.3XdXjX3XE.3X%X} D D '.gXgX` D.I 0 *.0.*.`.wXSXT.f I `.t.8XeXVXAX!.J.h p J lXdXdXHXAXmXnXnXnXJXHX*XY (.KX&XA.J.I.g a *.%.v +XNXJ.3.9 C *.*.*.gXPXIXJXUX#XQ *XGX+X} J.Y s b L L G 3XhXY.b n *.%.L !.vX#X` f *.t.%.3.aXPXDXAXIXaXZ.W.lX:XA.U Y f n $.*.n &XlXQ.G a =.=.*.P.VXIXAXGXUXoXY >XJXmXnXDXHXZXI.K.>XI.P m m -XIXY.P.P.v S =.=.%.'.NX[.n S *.=.%.3.dXGX1XT.F P h *XUXaXeXU Y aXIXFXZXFXFXSXNXNXCXNXNXCXNXIXaXF.%X3XvXvXOX3XlXE.D i u f z p | *XQ d u * 2 3 g ..$XG.D u 2 d D G Y W.Q i i 2 2 2 : i H.G.d 2 2 * 2 u z | K p 2 * : : i i D d u 6 u s m G G P F i u u : : i i i p p i u 2 2 u 2 f d b d a a n *.P.6.;.-XSXoXL =XSX",
"C.k.k.C.k.p.p.p.p.p.C.k.p.p.k.p.p.p.p.p.p.p.p.p.p.p.p.p.p.p.p.p.g.b.d.d.d.d.d.s.k.s.p.p.p.k.k.p.x.x.s.s.x.x.p.x.p.p.k.k.s.k.qXp.p.k.p.k.p.k.p.k.p.k.p.p.k.k.p.k.p.k.k.p.k.p.p.k.g.g.g.g.p.p.b.1.$.r.x.b.d.d.d.g.g.g.d.g.f.d.d.g.g.g.g.g.g.g.k.g.g.p.g.p.g.g.j.g.p.g.g.g.g.g.g.C.g.C.C.g.k.C.C.k.f.g.C.g.C.g.g.C.g.C.k.C.C.g.C.g.f.C.f.f.f.a.a.j.C.j.j.C.j.j.C.j.j.j.C.C.j.j.j.j.f.C.C.C.C.f.f.C.C.f.C.f.f.r.            X Y T.kXJX5X_.dXXXT.P H  XgXgX6.P.%.v 0.t.].8XSXAXD.s %.}.t.eXhXUXUX^.J.h F I.sXgXdXJXDXmXmXbXbXJXLX=XY ^.UX&X-.I.J.p n *.&.m +XcXS.Y u %.*.*.;.VXPXKXJXGX#XQ =XFXoXZ.J.U d D %.I Z.aXhXU.b n *.*.C |.VX-XY u %.*.*.&.fXLXDXDXKX3XW Y.ZX>X| K ' s S $.=.$.=XNXW.D v =.=.*.U.AXLXJXHXKXW.J >XbXvXmXvXHXlXI.K.>X[.m m m &XIXY.3.&.n $.0.0.*.+XZX[.n n =.*.6.T.dXGX*XY.h d z 3XAXaX=X&.&.fXNXNXNXNXNXNXNXSXNXSXSXSXSXIX4X! oX=XaXxX).3XvX/.G N f u i J 3XxXF.D h 2 : p | 4XkXI.D d d D P J Y.gX$Xh p i i 3 i E aXY.d f : 2 p 3 ' 1X` i u 2 i i i G J.K f 2 u p D D Q .X! i u 2 2 2 i g K Y i u 2 2 i 2 i z K d u a v %.*.P.6.&.-XSXoXL -XNX",
"C.k.p.p.k.C.p.C.p.p.p.C.C.p.p.C.p.p.p.p.p.p.p.p.p.p.p.p.p.qXp.p.j.s.b.d.d.p.d.d.p.k.p.p.k.k.p.p.p.x.x.x.x.s.x.s.p.p.k.p.p.p.p.k.p.p.p.p.p.p.p.p.k.p.p.k.p.k.p.p.k.p.k.p.p.k.k.p.g.p.g.g.p.k.s.#.t r.b.d.x.d.p.g.k.g.g.g.g.g.g.d.g.g.g.p.g.g.g.g.g.g.p.g.j.g.g.g.g.g.p.n.g.g.p.g.g.g.k.C.C.k.C.g.g.p.k.g.C.k.g.g.g.k.C.k.C.f.g.f.f.j.j.a.f.a.a.f.C.j.j.j.j.j.j.j.C.j.j.j.C.j.C.j.C.C.f.f.f.f.C.f.C.f.f.C.f.r.. .         X P U gXLX4X%X5X/.S.D I 8XSXgXI.P.%.N t.].'.}.fXSXT.s 3.8X}.eXeXUXAX!.T.p Y Y.gXvXdXJXmXJXbXJXbXGXLX=XY  XKX=X-.I.G.8 m ].6.P =XSXJ.Y a %.;.P.P.gXPXGXKXGX#XU +XSX XZ.J.P s b P D Y aXaXU.N C *.*.%.[.SXXX` f 6.`.3.3.aXLXLXFXGX*XY  XSX=X| K K a %.*.;.%.wXvXL.L n *.;.*.'.SXIXJXKXFXY.J 3XJXmXmXcXGXlXG.I.$XY.G m ;.&XKXY.D.3.n =.u.t.}.8XFX[.n $.t.*.6. XxXGX1XY.m G Y aXcX#X3XT.P oX8X8X8X8X8X8XMXSXNXSXNXSXNXIX>X! oX-X1XdX%X4XlXW.Z.P D l J #XdX3XY.| Y d 2 E :XjXdXI.m m D D G Y .XZX>XG G x i 2 G 3XlXJ.l z 2 & 2 z %XvXL.z h p g i j @X3XY d d p a h D F.dX$XD d i : i p x %X(.z f 2 2 i i g R.Y.F a a n %.*.6.*.*.8XKXoXL -XSX",
"p.p.p.p.p.p.p.p.p.k.C.p.p.p.p.p.p.p.p.p.p.p.p.p.p.p.p.p.p.p.p.p.d.d.j.d.d.b.d.d.k.p.k.x.p.p.p.k.x.s.p.x.s.x.x.s.qXp.p.k.k.p.k.p.k.k.qXk.k.k.k.k.p.k.k.p.k.p.k.p.p.k.p.k.k.p.k.p.p.g.p.g.p.p.x.=.#.r.h.b.s.p.k.k.g.x.g.g.d.g.g.g.p.g.p.g.p.g.g.g.g.g.f.p.j.p.p.f.f.f.f.p.f.p.g.g.g.C.g.k.g.C.k.C.C.g.g.C.k.C.C.p.C.C.g.C.g.f.C.C.C.j.j.j.C.j.f.C.j.j.C.j.j.C.j.C.j.C.C.C.j.C.j.j.f.C.C.C.C.C.C.C.f.f.f.C.V.r..           X L Z.gXJXdX%X5X/.Q z p G.lXhX3.3.%.v %.6.6.Y 8XVX3.d L ].'.P.'.UXxXE.} l p | lXjX4XJXmXbXbXbXJXGXLX%XH ^.KX=XZ.I.H.p a L &.L oXvXT.Y f n &.&.D.gXPXKXGXUX=XU oXSXoX-.S.U u 6 8 6 p 1X3XS.m b %.;.L [.AXOX| 3 C 3.5.` 3XLXGXDXDX#XY Y.SX=XS.} ` a C *.;.L =XvX!.G b ;.P.;.W.mXLXJXKXGXW.J 5XJXmXAXmXJXlXA.G.OXK.m m &.@XAXY.3.3.n 6.t.`.P.=XcXU.a $.P.P.3.Y.hXKX=XI.d P } aXxX*X1XT.I oX8X&X&X-X-X8XNXSXNXCXSXNXSXFXwX;.-X=XdXvX%XxXlX+XY.Z.U J.:X3X:X>X).J.D.W H.:X3X4XsXW.P m h b D Y .XZXOXG G F z K ).dXgXW.z F z p c ^.4XjX%XY G z g z R.jXdXF.d D d d h D E.vX3XQ Q m 3 i j _.jX3XK D p 2 g h E.xX$XY L m C n *.P.P.Z.aXUXoXL -XSX",
"p.p.k.C.k.C.k.p.p.C.p.C.p.p.k.p.p.p.p.p.p.p.p.p.p.p.p.p.p.p.p.k.s.d.d.j.d.j.d.d.p.x.p.p.p.x.p.k.x.x.s.x.s.x.x.x.p.p.x.p.p.p.k.k.x.k.k.p.p.k.p.k.k.k.p.k.p.k.k.k.k.k.k.p.p.k.k.C.p.g.g.f.p.x.x.r.=.r.b.j.s.d.g.g.g.k.d.d.g.g.g.g.g.g.C.g.g.p.g.p.g.p.d.p.j.j.p.j.g.g.g.C.g.g.p.g.C.k.g.g.C.g.C.k.g.p.g.C.g.C.C.k.g.C.g.C.k.C.f.g.f.f.a.f.j.f.a.f.j.j.j.j.j.j.j.j.C.C.j.C.C.j.C.j.C.j.C.j.f.C.f.C.f.f.f.C.f.r.            X %.;.lXJXjX;XdX(.E G g ~ kXgX3.3.&.b b b I T.xXxX3.L b b %.;.>XKXFXL.| c 2 | mXdX4XJXmXmXJXbXJXJXLX#XP [.KX+XQ H.-.G d a d P 3XAX| Y D d m G I.ZXLXKXIXGX-XU #XZX XU -.U m u u u J dX>XF.P b v m P &XFXE.W x a d H | sXLXDXDXGX%XY Y.VX&X-.-.Q d a v m H aXdX .Y d d m P Y.AXLXHXIXKXE.c 5XJXmXAXmXJXkXS.Y.%XD.F i i >XGXY.` Y v b L L H =XvXT.d n m %.L Z.xXKX+X-.d p z 3XvX-X1XF.I '.8X-X-X-X-X-XNXNXSXNXSXNXNXFXaXI.8XfXSXFX$XdXvX$X.X[.G.W.;X@X:X4X@XW.W.I.W.,X,X@XsX[.m m m h G Y .XlX+X} ! E  .).4X3XsX$X} W J ..%X5X).5X>XL. .J F.%X5X3X4X^.h N D d b G (.mX:X| | W x x X.5X4X#X| H z i z  .5XdX#XU L L C C *.6.3.3.oXNX-XP -XSX",
"p.p.p.p.p.p.C.p.C.k.p.C.C.p.C.p.p.p.p.p.p.p.p.p.p.p.p.p.p.p.p.p.b.d.d.b.s.b.d.d.x.x.x.x.x.x.p.x.p.p.p.x.x.x.x.p.x.qXp.k.k.k.p.k.p.x.p.k.p.p.k.p.p.p.k.p.k.p.p.k.p.p.k.p.p.k.p.k.g.p.p.n.p.p.z.r.#.u.b.j.s.d.p.d.g.d.d.g.g.g.d.g.C.g.g.g.g.g.g.g.g.g.g.j.j.d.p.g.g.p.g.p.g.p.C.g.g.g.k.g.k.C.g.C.f.p.p.p.g.p.C.g.C.k.C.g.g.C.C.C.a.a.f.a.f.a.f.a.C.j.j.C.j.C.C.C.C.j.C.j.j.j.j.C.j.C.j.C.C.f.f.f.C.f.f.C.n.r.            X L ;.lXJXjX%X4X@X .E  .sXcXhXZ.I &.&.&.&. X^.xXdXY U Z.&.P W.4XFXFXL. .J W 5XmXdX4XJXmXmXbXJXJXJXLX%XY Y.KX=X-.-.! -.P P .X*XvXvX} I.Q P [.>XwXbXLXGXIXAXXXU =XSX X&.U P Q G ! W.>XDX>XJ.G.! D ;.[.lXFXE.J.F.K K Y.%XxXIXFXFXGX*XY Y.xX-XQ -.&.U D P W.).vXdX .| G z Q W.>XGXLXFXIXKXW.] 5XmXzXmXDXHXkX| Y.oX| K g R.jXDXY.Y Y D b L J.-XxXSXT.P P m P  X3XGXIXXX-.P p E.bXjXXX3XS.H [.-X-X8X-X-X8XNXNXNXNXNXCXSXKXwXP.&XgXSXSX$XjXDX$XW.$X.X).).H._.5XW.W.,X[./.@XW.@XsX[.P m D m P Q +XlX@XH.E.G.L.).).).3X@XK.(. .R.5X$X%X4X%X).W.! ).dX%X%X3X^.z d p s d G OXbX:XL.Y.Y.K._.3X:X%XOXJ.| K Y R.:X:X:X#X&.C L C C *.P.%.` #XZX-XL -XVX",
"k.p.p.C.k.p.p.p.k.p.p.p.k.p.p.p.p.p.p.p.p.p.p.p.p.p.p.p.p.p.p.p.j.d.p.s.p.j.d.d.p.x.p.x.p.x.p.s.p.x.x.s.s.x.p.x.p.x.x.k.p.p.p.qXx.p.x.x.k.p.p.p.p.k.p.k.k.p.k.p.k.p.k.C.k.k.k.p.p.g.p.k.k.p.7Xs.=.r.g.b.j.j.d.g.p.p.g.j.d.f.g.g.k.C.k.g.g.p.g.g.g.g.p.j.d.j.j.g.p.g.g.g.g.g.g.g.C.C.k.C.g.g.C.k.p.g.C.C.C.C.g.C.k.k.g.k.g.g.C.g.a.f.f.f.f.f.a.a.C.j.j.C.C.C.j.C.j.C.C.j.j.C.j.C.C.f.C.f.C.f.f.C.f.f.f.C.f.=.            X %.D.gXJX6X;XsX).E R.%X).sXdXS.F D P '.D.J Y $X(.l z J.[.P x -.>XzXH.~ X. .E.xXxX5XJXmXmXbXJXbXLXLX$XI Y.IX+X-.Q J @X>XW.$X3XkXlX| @XwX@X>XsX4XlXLXGXGXGXoXK *XKX=XU Q A.+X).@X4XsXZX>X.XsX>X[.&X>XNXZXW.sXkX+X+XsXdXvXIXFXFXKX*X`  XMXoX&.P -.[.W.W.sX3XgXdXY.$X#XK.$XsXjXHXHXHXIXKXY.Y 5XJXnXnXFXLXlXD.J.oXJ.} | :X>XcXY.D P U U.Y. X XdXgXY G I.'.I.^.=XvXAX$XW.E.| 5XdX5XXX=XD.&.[.-X-X8X-X-X-XMXNXCXNXNXNXNXIXfXI.[.8XNXlX@XsXDX>XK.).:X:XR..._.3XE.G..X>X>XQ.Q.>XsX[.P m h d G Y .XcX$X} /.Q.K.Q.R.Q.aX@XL.%XE.R.).(.).5XR.L.Q. .R._.L./.3X!.z d d d h G /.bX3XF..X(.L.%X3X_.OX%X^.^.!..._.1X%X%XI.D L L L C &.6.U 3.#XSX-XH -XVX",
"p.p.p.k.p.p.p.p.C.k.p.p.p.k.p.p.p.p.p.p.p.p.p.p.qXp.p.p.p.p.k.p.d.d.d.p.b.b.d.s.s.x.p.s.p.p.x.x.p.s.x.x.p.x.x.p.k.p.p.p.k.k.p.k.p.x.x.x.p.x.p.p.k.p.p.p.p.g.p.p.k.k.k.k.C.C.k.p.k.g.p.p.p.p.x.s.=.C.d.g.b.d.d.d.p.g.p.d.g.d.g.d.g.g.p.g.p.g.g.p.d.g.p.p.p.p.p.j.g.p.g.p.C.p.C.p.k.C.C.k.C.p.k.C.C.g.g.g.k.g.C.k.C.C.C.C.C.C.g.C.f.a.a.a.f.f.f.C.j.C.C.C.j.j.C.j.C.C.j.C.C.j.C.j.C.C.f.f.f.C.C.C.C.C.C.C.f.r.            X L -.kXJXjX).4X).E R.;XR.jXkXOX! a F $XA.u g 3XE.g 3 F.>Xm i -.,XzXH.j _.X.X.xX5XdXJXmXJXJXmXbXJXJX=XG '.IXoXW -.m @XHX3X} :XbXgXK E.lXzX/.;XkXJXHXGXUXDX#XY +XAXoXU P Q 4XvX:X.XgXFX[.I.sXFXwX[.=XZXNXD.oXSXcX>X$XkXFXIXZXFXKXwXZ. XgX.X-.&.G wXFX+XW.aXZXaXZ.1XDXsX@X>XkXHXHXFXKXKXY.' 3XJXnXDXDXIXlXZ.Y.OXY  .%X .(.lXOXY d z Y.Y.z d XX/.h d W [.P z } 3XsX/.W /.3X..%XxXXX:X;.P ;.8X[.-X[.-XqXNXSXNXSXNXNXNXIXgXP.[.&XgXZX/.sXFX>XG.K.).,XX.| ).5XE. .Y.wX,XR.H.@X>XY.m h d d J ! W.cX>XF.W.W.:X@XH.@X4XOX .Q.).%XR...).:XQ.E.OXE.)._..._.3X^.z N d b D G R.vX5X .R.)._._.R.L.3X3XE.).1XL.R.~._.:XY.N D L L $.&.6.3.U Y.gX-XL -XSX",
"p.p.p.p.a.p.p.p.p.p.C.p.p.k.p.p.p.p.p.g.p.p.p.p.p.p.p.d.p.p.d.d.d.d.d.d.j.s.b.j.b.d.p.s.b.d.b.d.d.b.j.d.d.b.j.d.x.d.d.b.x.x.d.x.x.s.p.x.x.s.b.d.d.d.d.d.p.g.d.d.d.d.d.d.j.d.j.d.b.s.d.d.p.p.x.s.#.C.k.g.g.g.k.p.p.g.k.p.p.k.g.p.p.g.k.p.k.p.p.k.g.p.p.p.k.p.g.p.p.p.p.k.p.p.p.p.p.C.p.p.p.C.p.p.p.p.p.a.f.p.p.a.f.a.p.a.a.j.j.j.a.a.j.C.C.a.a.C.j.j.C.C.j.j.j.C.C.j.j.C.C.C.j.j.C.j.C.C.C.C.C.C.C.C.j.C.f.r.            X m ;.ZXIXzX~.4X,X).Q.o.X.jXvX>X .G OXlX(.E _.mX:Xx  .jXsX! ~ jXjXjX5XX.X...X.mX5X5XJXJXmXJXJXDXHXGX*XY Y.IXoXY Q D @XFX,XX._.vXdX} W.kXnX~.~.jXJXLXGXGXDXOX' OXxX XU J Q 4XzX).L.aXUX=XI.[.zXzXH.@XlXlXW.K.5XFX;XR.4XJXJXJXKXKX8XQ [.cX.XQ P ! 3XbX%X .3XJX3X| L.xXxXR._.xXJXJXmXJXGXY.K 1XJXvXZXZXFXsX-.W.sX;.! @X .4XzX>XW.p F *X(.p x 3X/.z p F.3XF p L.3X4X:XW (.:X..xXdX_.1XD.Y  X=X-X-X-X-X8XMXNXNXNXNXNXVXKXwX&. X8XgXcX.XaXGX&XG.R.(.).R...R._.L.| J././.L. .E.$XF.D h G W W J ).AX:X! } W.$XW.! K.:X).! ..~.:XX...X.5X%X .E.).3XL.' _.3XY.b d d d m D ..jXdX .R.).%X_...(.3X3XK.Y.%X%X_...X.1XXXL D I N L 6.6.3.|  XxX-XL -XVX",
"g.p.p.p.p.p.p.p.p.p.p.p.p.p.p.p.p.p.k.p.p.p.k.k.d.k.d.p.g.x.p.p.d.p.d.d.b.d.d.d.d.d.d.d.d.d.d.d.d.d.d.h.x.x.d.d.b.x.d.x.p.x.d.x.x.x.x.x.x.x.d.d.d.d.d.x.x.p.g.d.d.g.d.d.d.d.d.d.d.d.d.d.d.p.s.s.=.r.k.k.p.p.p.k.k.p.p.g.p.p.p.p.p.p.p.p.p.p.g.p.p.p.k.g.p.p.p.f.p.k.p.p.p.p.p.p.p.p.p.p.p.p.p.p.C.p.C.p.p.a.a.p.p.p.a.a.j.C.C.j.f.a.C.C.j.a.a.j.C.C.C.j.C.C.j.C.j.C.j.C.C.C.C.j.C.C.j.C.j.j.C.C.j.C.C.C.V.#.            o &.;.NXbX4X).,X:X).,X..j ;XmX4XR.%XdXsXR.~.5XjX_. .,XdX>XH.,X5X4X4X%XR.5X....jXjX4XJXnXnXbXbXbXJXLX1XY Y.GX[.Q P Q >XsX:X:X5XdXvX} ,XsX4X;X5X6XzXHXGXDXDXOX' OXvX XY Y G.3X4X,X@X4XlX@X/.,X4X4X;X,XdXjXR.5X4X6X;X5X4XjXJXJXUXKX8XY W.gXXX-.! I.5XxX%X_.5XjX5XL.%X5X5X%X;XjXmXJXmXJXGXY.K 3XJXdXNXFXKXNX;.[.wXQ.).H.x /.zX>XW.| %XdX).L.:XbX:X| (.sX4XL.(.dXjXdX3X).:X .c 3XdX^.#X` I -X-X-X8X-X-X-XNXSXCXNXNXNXNXUXaXD.oX>XsXNX/.3XUXoXD.Y._.%X(.%X%X1X!.K..X#X$X#X).%X*XJ.K F W | | W $XJX*X} H.W.@XR.H.R.W.K. .F.L.%XL....._.(.| X.(._.L.] L.=XY.d h h G D G (.vX3X} .. .%X_. .R.%X$XY. .R.%XE...X.3X=XY D L b H 3.&.Y T.=XxX XL -XSX",
"p.p.p.p.p.p.p.p.p.p.p.p.p.p.p.p.p.p.p.p.k.p.p.p.p.k.k.p.d.p.p.d.p.p.d.b.d.j.b.d.h.d.b.d.d.d.s.d.d.d.x.x.x.x.d.d.j.d.d.x.x.p.x.x.x.x.x.x.x.s.x.d.d.d.d.d.p.k.g.d.g.g.d.d.d.d.d.d.s.x.p.p.d.p.s.x.r.r.k.g.p.p.p.p.p.p.p.p.p.p.p.g.p.p.p.g.p.g.p.p.p.p.p.p.p.p.p.p.p.p.p.p.p.p.p.C.p.p.p.C.p.C.C.p.p.C.p.C.a.a.p.a.a.a.p.j.p.C.j.C.a.f.C.C.a.C.a.a.j.C.a.a.C.C.C.C.C.C.C.C.C.C.i.C.C.C.C.C.C.j.j.C.C.j.j.C.V.r.o           X &.'.zXnX5XQ.>X;X(.).~ c ;XjX%XQ.:X:X,X_.:X;XjX).).:X%X:XQ.@X5X5X4X;XX.:X..c 4X4X5XJXFXnXmXDXmXAXLXaXY Y.KXoX-.F Q XXQ.X.R.:X_.3X~ ).@XR.~.;X:X5XJXFXHXDX/.J #XgX XY J R.).~.Q.).~.).Q.Q.,XQ.o.~.)._.:X .5X;X~.~.,X:X:XDXHXGXIXwXU  XVXXX-.G H.^.L.X._.~.X.:XX.:X(._.(.1X_.4XmXmXJXHX^.Y 3XmX.X[.wXwXwX;.I.>XI.:XR.3 E >X@XG.E.%X_.L.~.%XdX%XF.5X%X_.L._.%X5XdX:XR.4X(.3 X.4XE.#X;.P &.&.&.&.&.&.&.NXIXSXKXUXUXNXSXVX'.'.-XsXNXY.oXNX}.P. X#X3XW.%X4XdX^.^.-XsX5X).%X4XsXE.U W J W.3XW.$XJX1X| E.$X4X%X).:X3X(.A.E.%X_.L.R.%X1X(.L.OXR.1X#X^.OX=XY.D x G Q F.! _.nX3X .J.X.(._.L.L.).$XR.L.L._.L...| (.^.P D &.T.3.&.3.-XhXhXSX[.L -XMX",
"p.p.p.p.a.p.p.p.p.C.p.p.p.p.C.s.p.p.p.k.p.p.p.p.k.p.d.p.d.p.p.p.d.p.p.s.s.b.d.d.d.d.d.p.j.d.b.j.d.d.b.x.g.b.d.x.g.d.b.g.x.x.x.x.x.x.x.x.x.s.b.d.d.x.x.d.g.p.d.d.d.d.d.p.p.d.p.d.d.x.s.p.p.p.x.s.r.r.p.p.p.p.C.k.p.p.p.g.p.g.p.p.p.g.p.p.p.p.p.p.g.p.p.p.g.p.p.p.p.p.p.p.p.p.p.p.p.p.p.C.C.p.p.C.C.p.C.a.a.a.a.a.a.a.p.j.j.C.C.j.a.C.f.C.a.C.a.a.j.i.a.a.j.C.C.C.C.C.C.C.j.j.j.C.C.C.j.C.j.C.j.j.C.C.j.C.f.r..           X &.;.wXnX4XR.@X>XdX:X....jXjX3X$X4XkX4X5X5XjXjX5X).4XdXaX4X5X5XkXjX1XdX_...X.jX5X5XHXKXnXnXbXmXcXLX1XY W.IXW.Y W A..X).~.).R._.sXH.W.@X%X#X$X$X5XDXJXLXUX XY =XZXoXP ! E.).).@X)._.3XE.W.:X).~.).@X^.$XL._.).(.).).~.%XJXDXDXIXaX-. XgX XQ W W._._._.R.R._.;XR.%X/.XX(.#X_.5XmXJXJXHX[.Y 3XDXdXzXNXzX&XE ;.:X@X:X~ E ).4X@XW.).5X5X5X5X4XjX$X).4X4X4X:X%X1XdX3X%XR.4XL.c 3X5X^.-XZ.&.P.P.D.P.Z.;.P.SXIXKXKXKXKXKXIXgXI.oXwXgXNX'.}.MXfXoX{.oX&XW.W.%XsX#XY..XaXaX).).:XdX).E c g Q.cX@X1XJX%X..(.:X3X(.).:XaXOXF.).$X3X(._.1X5XR..._.%X3X#X=X3XaX XY | | W.aXW._.mXsXF.Y.%X1XOXE.OX:X:XL.E.).)._._.%X3X+X&.Y ^.=X XY.Y.aXdXsXSX-X&.8XSX",
"p.p.p.p.s.p.p.a.p.p.p.p.s.p.p.p.p.p.p.p.p.p.p.p.p.p.p.p.p.p.p.p.p.d.d.p.b.b.j.d.d.d.d.p.d.d.d.p.d.d.d.d.d.d.x.d.x.x.x.p.s.x.s.p.x.d.x.x.d.d.d.d.b.p.d.d.d.d.d.d.d.d.p.d.d.p.g.p.x.s.d.p.p.p.p.p.C.C.C.C.p.p.p.p.p.p.g.p.g.p.p.k.p.p.p.p.p.p.p.a.p.p.p.p.p.p.p.p.p.p.p.p.p.p.p.p.p.C.C.s.p.C.p.p.p.p.C.p.a.a.a.s.a.a.p.a.p.C.C.C.a.a.a.a.a.a.a.C.C.C.C.a.C.C.C.C.C.C.C.C.C.C.C.C.j.C.C.C.C.C.j.C.C.C.C.C.V.=.            - %.L 8XPXZXR.E.ZXLXjX:X_.5XjX5X_.3XjX%X%X5X5X_.1X..:X_.).%X5X%X4XdXmXvXjX5X5X6X3XnXJXHXJXDXLXJXLXPXaXY '.PX=XY Y.'.P %.}.t.I eXZXE.R.J S.U.&.G.dXHXDXHXSX XP #XlXY.P Z.} Y S.Y.Z.I.sXOX .Q Z.Y.Y.D.-XgX^. .J F.W.Q F.4XJXbXcXIX>XU [.NX[.U } T.` ^.oXJ.Y.3X>XK.K.S. X'.P.XXcXHXFXIXKXY.D *XKXZXFXFXIXsXP P Q K.$XL.x 3X4X%X/.E.5X%X_.5X4X>X$XL.4X5X%X%X,X5XsX3X%X5X4X_...3X3X>X=XL L 8XfX8XaXfXfX8XKXPXIXIXIXIXIXPXgX;.'.MXUXNX[.].pXfX}.&.&.T.F.| E.dX*XJ.J.>XlX#XF.R.5X,X..R R %XlX/.>XDX3XE.K./.aX$XL.E.*XOX| ..| ).dX1X(.5X_.c ..L.*XaX#XOXsX+XY x x ).vX^.).JXaXT.T.(.4XOXL.).4X:X~  ._.3X5X%X3XvXaXA.Q W.aXxXdXY.1XaXdXUX[.%.8XNX",
"C.C.p.C.C.s.C.s.p.C.p.C.a.s.a.p.a.a.s.C.s.p.p.p.p.p.p.s.p.p.p.p.p.p.s.d.j.s.s.s.d.d.b.d.b.s.d.d.s.d.b.d.d.d.d.d.d.x.x.x.x.x.x.x.d.d.s.x.d.b.d.s.d.s.d.d.d.d.p.d.p.d.g.d.p.d.x.p.s.p.x.p.p.p.p.p.C.C.p.p.p.p.p.p.p.p.p.p.p.p.p.p.p.p.C.p.p.p.p.p.p.p.p.p.p.p.p.p.p.p.p.p.p.p.p.C.p.C.p.p.s.C.p.C.s.C.s.C.a.a.a.C.a.a.p.a.a.j.C.j.C.C.C.a.a.a.C.j.a.a.C.a.C.C.C.C.i.C.C.C.C.j.C.C.j.C.j.C.C.j.C.j.f.C.f.C.f.r.            . X X $ & % + X $ & $ $ + $ $ + + $ % + + + + + $ + + - + + $ $ $ $ % $ + $ + # $ & % & % % & & % * $ o X * $ X + X o o X o o - $ +   | KXVXNXSXIXPXLXPXIXKXSXUXIXUXSXSXSXlXNXSXgXSXKXSXNXgXNXNXVXgXUXLXAXgXgXSXSXgXSXGXPXPXLXPXKXSXUXIXUXSXSXgXgXZXSXSXSXKXKXSXcXNXSXSXNXSXLXPXIXPXIXUXSXKXIXIXLXIXIXKXNXNXgXNXFXKXlXKXGXUXGXSXAXAXvXmXAXSXKXSXAXAXvXcXAXAXGXKXFXKXKXKXDXKXKXKXKXNXNXHXKXKXKXKXKXKXPXPXIXIXPXPXPXPXIXSXSXIXIXPXKXUXUXUXUXSXVXZXSXAXUXIXUXvXSXUXPXKXSXZXJXGXAXDXGXIXIXUXKXLXIXAXUXAXLXIXAXAXUXGXAXgXvXSXIXUXAXGXAXvXAXZXGXIXUXGXIXKXZXgXgXGXIXAXGXPXIXAXAXUXKXAXAXGXKXKXZXSXUXGXGXGXGXKXKXSXSXUXLXPXIXSXKXKXIXPXUXNXSXKX",
"a.C.C.p.C.C.p.a.C.p.p.C.a.a.a.C.p.C.C.p.a.s.p.a.p.s.p.p.p.g.a.p.p.s.j.d.b.d.d.d.d.j.p.d.d.d.p.p.d.d.d.d.d.d.d.g.x.x.k.p.s.x.x.s.x.d.x.d.d.b.p.d.d.x.x.d.p.a.d.d.k.p.g.d.x.x.d.d.p.x.k.p.p.p.p.p.p.p.p.p.p.p.p.p.p.p.p.C.p.p.f.p.p.p.k.p.p.p.p.a.p.p.p.p.p.p.p.a.p.p.C.p.p.p.p.p.p.s.p.p.a.C.a.a.C.C.C.C.C.s.a.C.a.C.a.a.a.C.C.C.C.C.C.C.a.C.j.C.C.C.a.C.a.a.C.C.j.C.j.C.j.C.C.C.C.C.C.C.C.j.j.j.C.C.C.C.f.r.                                                                                                                                                  Y.PXIXPXPXPXPXPXPXPXPXPXPXPXPXPXPXLXPXPXPXPXPXPXPXPXPXPXPXPXPXPXPXPXPXPXPXPXPXPXPXPXPXPXPXPXPXPXPXPXPXPXPXPXPXPXPXPXPXPXPXPXPXPXPXPXPXPXPXPXPXPXPXPXPXPXPXPXPXPXPXIXPXPXPXPXPXPXPXPXPXPXPXPXPXPXPXPXPXPXPXPXPXPXPXPXPXPXPXPXPXPXPXPXPXPXPXPXPXPXPXPXPXPXPXPXPXPXPXIXPXPXPXPXPXPXPXIXIXPXPXPXPXIXIXPXPXPXPXPXPXPXPXPXPXPXPXPXPXPXPXLXPXPXPXPXPXPXPXPXPXPXPXPXPXPXPXPXPXPXPXPXPXPXPXPXPXPXPXPXPXPXPXPXPXPXPXPXPXPXPXPXPXPXPXPXPXPXPXPXPXPXPXPXPXPXPXPXPXPXPXPXPXPXPXPXPXPXPXPXPXPXPXPXPXPXPXPXPXIXIX",
"C.s.C.C.s.C.C.C.s.C.C.s.C.a.C.C.C.C.s.C.C.s.s.a.s.C.s.s.s.s.C.C.s.s.s.s.a.s.p.s.s.s.s.a.s.s.a.a.s.j.s.d.s.d.b.s.s.p.s.s.p.p.s.p.s.p.s.p.s.s.p.a.s.s.s.s.s.s.s.s.s.s.s.s.s.p.s.s.s.s.s.C.s.p.p.a.s.p.C.p.p.s.C.s.p.s.C.p.s.a.p.a.p.C.p.C.C.s.p.p.s.C.p.a.a.s.a.a.C.C.p.p.s.C.s.s.C.C.s.C.s.s.C.C.s.s.C.s.C.s.C.C.s.s.C.a.C.C.C.C.C.i.s.C.C.C.C.C.C.C.s.C.C.C.C.C.C.C.C.C.C.C.C.C.C.C.C.C.C.C.C.i.C.C.C.C.f.=.                                      .                           .                           .                                               .   I.PXIXPXPXPXPXPXPXPXPXPXPXPXPXPXPXPXPXPXPXPXPXPXPXPXPXPXPXPXPXPXPXPXPXLXPXPXPXPXPXPXPXPXPXPXPXPXPXPXPXPXPXPXPXPXPXPXPXPXLXPXPXPXPXPXPXPXPXPXPXPXPXPXPXPXPXPXPXPXPXIXPXIXPXPXPXPXPXPXPXPXPXPXPXPXPXLXPXPXPXPXPXPXPXLXPXPXPXPXPXPXIXPXPXIXPXPXPXPXPXPXPXPXPXPXPXPXPXPXPXPXPXPXPXPXPXPXIXPXPXPXIXPXPXPXPXPXLXPXPXPXPXPXPXPXPXPXPXPXPXPXPXPXPXPXPXPXPXPXPXPXLXPXPXPXPXPXPXPXPXPXLXPXPXPXPXPXPXPXPXPXPXPXPXPXPXPXPXPXLXPXPXPXPXPXPXPXPXPXPXPXPXPXPXPXPXPXPXPXPXPXPXPXPXPXPXPXPXPXPXPXPXPXPXPXPXPXIXPXIX",
". . o o o o o o o . . o o o o o . . o o o o o o o o o . o . o o . o . o o o . o . o . o o o . o o o o o . o o o . o o . . o o o o o . o o . o o . o o o o . o . o . o . o o . o . o o o o o . o o o o o o o o o o o . o . o o o o . o o o o o o o . . o o o o o X o o o o o o o o o . o o . o o . o o o o o o o o . . o o o o o o o o o o o . . o o . o o . o o o o o o . . o o - o o o o o . o o . . o o .                                                                                                                                               .   J.PXIXPXPXPXPXPXPXPXPXPXPXPXPXPXPXPXPXPXPXPXPXPXPXPXPXPXPXPXPXPXPXPXPXPXPXPXPXPXPXPXPXPXPXPXPXPXPXPXPXPXPXPXPXPXPXPXPXPXPXPXPXPXPXPXPXPXPXPXPXPXPXPXPXPXPXPXPXPXPXPXPXPXPXPXPXPXPXPXPXPXPXPXPXPXPXPXPXPXPXPXPXPXPXPXPXPXPXPXPXPXPXPXPXPXPXPXPXPXPXPXPXPXPXPXPXPXPXPXPXPXPXPXPXPXPXPXPXPXPXPXPXPXPXPXPXPXPXPXPXPXPXPXPXPXPXPXPXPXPXPXPXPXPXPXPXPXPXPXPXPXPXPXPXPXPXPXPXPXPXPXPXPXPXPXPXPXPXPXPXPXPXPXPXPXPXPXPXPXPXPXPXPXPXPXPXPXPXPXPXPXPXPXPXPXPXPXPXPXPXPXPXPXPXPXPXPXPXPXPXPXPXPXPXPXPXPXPXPXPX",
"                                                                                                                                                                                                  .                                                             . .                                                                                                             . o                                                                                                                                                                           U.PXPXPXPXPXPXPXPXPXPXPXPXPXPXPXPXPXPXPXPXPXPXPXPXPXPXPXPXPXPXPXPXPXPXPXPXPXPXPXPXPXPXPXPXPXPXPXPXPXPXPXPXPXPXPXPXPXPXPXPXPXPXPXPXPXPXPXPXPXPXPXPXPXPXPXPXPXPXPXPXPXPXPXPXPXPXPXPXPXPXPXPXPXPXPXPXPXPXPXPXPXPXPXPXPXPXPXPXPXPXPXPXPXPXPXPXPXPXPXPXPXPXPXPXPXPXPXPXPXPXPXPXPXPXPXPXPXPXPXPXPXPXPXPXPXPXPXPXPXPXPXPXPXPXPXPXPXPXPXPXPXPXPXPXPXPXPXPXPXPXPXPXPXPXPXPXPXPXPXPXPXPXPXPXPXPXPXPXPXPXPXPXPXPXPXPXPXPXPXPXPXPXPXPXPXPXPXPXPXPXPXPXPXPXPXPXPXPXPXPXPXPXPXPXPXPXPXPXPXPXPXPXPXPXPXPXPXPXPXPX",
"                                                                                                                                                                                                                                                                .                                                                                                               . .                                                                                                                                                                       .   J.PXIXPXPXPXPXPXPXPXPXPXPXPXPXPXPXPXPXPXPXPXPXPXPXPXPXPXPXPXPXPXPXPXPXPXPXPXPXPXPXPXPXPXPXPXPXPXPXPXPXPXPXPXPXPXPXPXPXPXPXPXPXPXPXPXPXPXPXPXPXPXPXPXPXPXPXPXPXPXPXPXPXPXPXPXPXPXPXPXPXPXPXPXPXPXPXPXPXPXPXPXPXPXPXPXPXPXPXPXPXPXPXPXPXPXPXPXPXPXPXPXPXPXPXPXPXPXPXPXPXPXPXPXPXPXPXPXPXPXPXPXPXPXPXPXPXPXPXPXPXPXPXPXPXPXPXPXPXPXPXPXPXPXPXPXPXPXPXPXPXPXPXPXPXPXPXPXPXPXPXPXPXPXPXPXPXPXPXPXPXPXPXPXPXPXPXPXPXPXPXPXPXPXPXPXPXPXPXPXPXPXPXPXPXPXPXPXPXPXPXPXPXPXPXPXPXPXPXPXPXPXPXPXPXPXPXPXPXPXPX",
"                                                                                                                                                                                                                                                                                                                                                                                .                                                                                                                                                                             I.PXIXPXPXPXPXPXPXPXPXPXPXPXPXPXPXPXPXPXPXPXPXPXPXPXPXPXPXPXPXPXPXPXPXPXPXPXPXPXPXPXPXPXPXPXPXPXPXPXPXPXPXPXPXPXPXPXPXPXPXPXPXPXPXPXPXPXPXPXPXPXPXPXPXPXPXPXPXPXPXPXPXPXPXPXPXPXPXPXPXPXPXPXPXPXPXPXPXPXPXPXPXPXPXPXPXPXPXPXPXPXPXPXPXPXPXPXPXPXPXPXPXPXPXPXPXPXPXPXPXPXPXPXPXPXPXPXPXPXPXPXPXPXPXPXPXPXPXPXPXPXPXPXPXPXPXPXPXPXPXPXPXPXPXPXPXPXPXPXPXPXPXPXPXPXPXPXPXPXPXPXPXPXPXPXPXPXPXPXPXPXPXPXPXPXPXPXPXPXPXPXPXPXPXPXPXPXPXPXPXPXPXPXPXPXPXPXPXPXPXPXPXPXPXPXPXPXPXPXPXPXPXPXPXPXPXPXPXPXPX",
"                                                                                                                                                                                                                                                                                                                                                                                                                                                                                                                                                          .   J.PXIXPXPXPXPXPXPXPXPXPXPXPXPXPXPXPXPXPXPXPXPXPXPXPXPXPXPXPXPXPXPXPXPXPXPXPXPXPXPXPXPXPXPXPXPXPXPXPXPXPXPXPXPXPXPXPXPXPXPXPXPXPXPXPXPXPXPXPXPXPXPXPXPXPXPXPXPXPXPXPXPXPXPXPXPXPXPXPXPXPXPXPXPXPXPXPXPXPXPXPXPXPXPXPXPXPXPXPXPXPXPXPXPXPXPXPXPXPXPXPXPXPXPXPXPXPXPXPXPXPXPXPXPXPXPXPXPXPXPXPXPXPXPXPXPXPXPXPXPXPXPXPXPXPXPXPXPXPXPXPXPXPXPXPXPXPXPXPXPXPXPXPXPXPXPXPXPXPXPXPXPXPXPXPXPXPXPXPXPXPXPXPXPXPXPXPXPXPXPXPXPXPXPXPXPXPXPXPXPXPXPXPXPXPXPXPXPXPXPXPXPXPXPXPXPXPXPXPXPXPXPXPXPXPXPXPXPXPXPX",
"                                                                                                                                                                                                                                                                                                                              .                                                                                                                                                                                                                               U.PXPXPXPXPXPXPXPXPXPXPXPXPXPXPXPXPXPXPXPXPXPXPXPXPXPXPXPXPXPXPXPXPXPXPXPXPXPXPXPXPXPXPXPXPXPXPXPXPXPXPXPXPXPXPXPXPXPXPXPXPXPXPXPXPXPXPXPXPXPXPXPXPXPXPXPXPXPXPXPXPXPXPXPXPXPXPXPXPXPXPXPXPXPXPXPXPXPXPXPXPXPXPXPXPXPXPXPXPXPXPXPXPXPXPXPXPXPXPXPXPXPXPXPXPXPXPXPXPXPXPXPXPXPXPXPXPXPXPXPXPXPXPXPXPXPXPXPXPXPXPXPXPXPXPXPXPXPXPXPXPXPXPXPXPXPXPXPXPXPXPXPXPXPXPXPXPXPXPXPXPXPXPXPXPXPXPXPXPXPXPXPXPXPXPXPXPXPXPXPXPXPXPXPXPXPXPXPXPXPXPXPXPXPXPXPXPXPXPXPXPXPXPXPXPXPXPXPXPXPXPXPXPXPXPXPXPXPXPXPX",
"X X X X - X X - X - X X X - X o X X o X o . o - X X X X X + X X X - X X X X X - - X X X X X X X o X - X $ o o o o + X X X o - - - X X - X - X X + X - - X X X X - X X X X X X X - X X X X X X + X X - X   . o . - X X .   o X X o   . . X X - - X X X X X X X X .     . X X X   . o X X o     o X X X X X X X o o o o . o . X o X X . .   . X o .   . X X X X X - X X X o X X X X X o o X o X X o X X o X X o o o o o X X X X X X . . o o o         o X o o o X X X X X X X o X o . . . o o o o o X o o X . o o o o o o X X X X X X . . o o o o X X X X X +   Y.PXIXPXPXPXPXPXPXPXPXPXPXPXPXPXPXPXPXPXPXPXPXPXPXPXPXPXPXPXPXPXPXPXPXPXPXPXPXPXPXPXPXPXPXPXPXPXPXPXPXPXPXPXPXPXPXPXPXPXPXPXPXPXPXPXPXPXPXPXPXPXPXPXPXPXPXPXPXPXPXPXPXPXPXPXPXPXPXPXPXPXPXPXPXPXPXPXPXPXPXPXPXPXPXPXPXPXPXPXPXPXPXPXPXPXPXPXPXPXPXPXPXPXPXPXPXPXPXPXPXPXPXPXPXPXPXPXPXPXPXPXPXPXPXPXPXPXPXPXPXPXPXPXPXPXPXPXPXPXPXPXPXPXPXPXPXPXPXPXPXPXPXPXPXPXPXPXPXPXPXPXPXPXPXPXPXPXPXPXPXPXPXPXPXPXPXPXPXPXPXPXPXPXPXPXPXPXPXPXPXPXPXPXPXPXPXPXPXPXPXPXPXPXPXPXPXPXPXPXPXPXPXPXPXPXPXPXPXPXPX",
".X X+X&XaXW.&X=X3XaX*X*X^.#X*X/.Y.R.R.G.F % F. XXX/.$X3XY.Y.OX^.} Y.E._.(./.XX$X&X+X+X.X#X>X#XW.* D -XoXY.* & * D &X$XE.Y.L.W./.J.K./._.L.Y.#XJ.W.+XW.&XJ.K.#XOX>X.XG.-.Y.W.Y.W.[.G.+XOX.XW.J.J.G.I.Y.d $ 6 * = W.Y.W.* $ P -X-Xu $ - 8 oX&X.X[.XX.XY.A.-.J.Y.| 2 $ $ d -.+X&.$ $ f [..Xi = o D =X.XY.W..X.XD.Q } H.o.~ T 4 j % Y.XXd % * d /.Y.= $ + -.oX X XY.[.Y.D.D.J.W.Y.W.Y.(.U } ^.S.W.^.F.W U | F.K.T.E.K.L.E.E. .....| J.Y.E.K.E. X X= o X d A.x F L.XXXX/.E.XXoXXX| Y Y i d p W Y.G.L.Y.W.W.K.J p | ^.J.R.R.K.E.^.(.XX X^.J.Y.W..X[. X=X>X=X>X=XOXK.gXPXPXPXPXPXPXPXPXPXPXPXPXPXPXPXPXPXPXPXPXPXPXPXPXPXPXPXPXPXPXPXPXPXPXPXPXPXPXPXPXPXPXPXPXPXPXPXPXPXPXPXPXPXPXPXPXPXPXPXPXPXPXPXPXPXPXPXPXPXPXPXPXPXPXPXPXPXPXPXPXPXPXPXPXPXPXPXPXPXPXPXPXPXPXPXPXPXPXPXPXPXPXPXPXPXPXPXPXPXPXPXPXPXPXPXPXPXPXPXPXPXPXPXPXPXPXPXPXPXPXPXPXPXPXPXPXPXPXPXPXPXPXPXPXPXPXPXPXPXPXPXPXPXPXPXPXPXPXPXPXPXPXPXPXPXPXPXPXPXPXPXPXPXPXPXPXPXPXPXPXPXPXPXPXPXPXPXPXPXPXPXPXPXPXPXPXPXPXPXPXPXPXPXPXPXPXPXPXPXPXPXPXPXPXPXPXPXPXPXPXPXPXPXPXPXPXPXPXPXPXPXPXPXPXPXPXPXPXPXPX",
"S.P D.XX XW.&XW.[.#XA.A.U Z.S.| E._.E.K.z % G.A.A.F.G.A.K K K.F.K J J.} } G.F.J././.OX.XXXoX$XY.: X S..Xp . X = D K.E.H.F.} F.L.} F.K.T.E. .T.K | ^.J.K.| Y..X+X>XY.A.L.Y.W.Y.Y.W.S.W..X/..XoX X.X.X+XU = 6 $ $ P ;.Y.* * D oXU.* = - 8 Y.[.[.W.[..X.X.X+X+X&X[.u $ $ d d Y.Q $ $ : D. X* $ o D oX!.Y.Y././.#X#X*X5X,XX.T j j O J [.i $ & d [.W.* - - |  XY.Y.[.Y. X&X=X&XwX=X>X[.Y.W.+XwX=X=X&XF.Y Y T.Y.E.XX1X3X1X%XL.T...| ` (.*X3X1X>XfX[.X . o u z z F F.).^.^.^.(.oX^.J.p D d d i Q &X&X$X>X3X*X.Xd z XX3X>X>X$XR.W./././.XXXX3XaX*X=X>X>X&X&X>X&X&X XW.gXPXPXPXPXPXPXPXPXPXPXPXPXPXPXPXPXPXPXPXPXPXPXPXPXPXPXPXPXPXPXPXPXPXPXPXPXPXPXPXPXPXPXPXPXPXPXPXPXPXPXPXPXPXPXPXPXPXPXPXPXPXPXPXPXPXPXPXPXPXPXPXPXPXPXPXPXPXPXPXPXPXPXPXPXPXPXPXPXPXPXPXPXPXPXPXPXPXPXPXPXPXPXPXPXPXPXPXPXPXPXPXPXPXPXPXPXPXPXPXPXPXPXPXPXPXPXPXPXPXPXPXPXPXPXPXPXPXPXPXPXPXPXPXPXPXPXPXPXPXPXPXPXPXPXPXPXPXPXPXPXPXPXPXPXPXPXPXPXPXPXPXPXPXPXPXPXPXPXPXPXPXPXPXPXPXPXPXPXPXPXPXPXPXPXPXPXPXPXPXPXPXPXPXPXPXPXPXPXPXPXPXPXPXPXPXPXPXPXPXPXPXPXPXPXPXPXPXPXPXPXPXPXPXPXPXPXPXPXPXPX",
">X*X*X*XW.&X+X+X X&X.X[.oX*X^.^.%XOXE.E.F & K.Y.W.^.W.^.L.| | } | L.3X3X*X3X3X>X+XXX+X#X*X&X*XY.* X ` W.D o X & D G.Y.K.F.W Y.3X4XaXsXsX3XL. .E.1XdXsXaX>X#XW.OX>X^.W.#X>X3X>X#X$XK.^.OX@X&X>X>X>XaX=Xd $ $ % % P I.W.: 8 U -X-X8 = - a [.oX[.oX&X+X&X>X>X*XwXY.2 * * h D ^.A.& * m &XwXd * = D  X^.^.(.#XXX#X=X^.%X5X+.R T R > ;.oXD u d -.>XXXd 8 u S..XXXoXoXoXY.XX=X+X&XwXoXI.R.W. X>X>X&XoXY.J.Y.^.Y.J.^.*X*X*XY.L.L... .} J.XX1XXXoXaX-.b D D Y ` ` } E.#X/.*X*XXXXX+XE.` A.Q A.Y -..X#X.X+X$X.X/.F p W.#X*X#XK.J /./.#X#XoX^.1X1X+X&X-X+X>X&X+XoX&XXXW.gXPXPXPXPXPXPXPXPXPXPXPXPXPXPXPXPXPXPXPXPXPXPXPXPXPXPXPXPXPXPXPXPXPXPXPXPXPXPXPXPXPXPXPXPXPXPXPXPXPXPXPXPXPXPXPXPXPXPXPXPXPXPXPXPXPXPXPXPXPXPXPXPXPXPXPXPXPXPXPXPXPXPXPXPXPXPXPXPXPXPXPXPXPXPXPXPXPXPXPXPXPXPXPXPXPXPXPXPXPXPXPXPXPXPXPXPXPXPXPXPXPXPXPXPXPXPXPXPXPXPXPXPXPXPXPXPXPXPXPXPXPXPXPXPXPXPXPXPXPXPXPXPXPXPXPXPXPXPXPXPXPXPXPXPXPXPXPXPXPXPXPXPXPXPXPXPXPXPXPXPXPXPXPXPXPXPXPXPXPXPXPXPXPXPXPXPXPXPXPXPXPXPXPXPXPXPXPXPXPXPXPXPXPXPXPXPXPXPXPXPXPXPXPXPXPXPXPXPXPXPXPXPXPXPXPXPXPXPXPXPX",
"aXaXaX*X X&X#X#X X&X&X#X>X1X*X3X#XXX).(.J * J &X*X>X3X#XL.F.L.} | K XX3X>X>X3X+X/.#X+X+X$X#X&XW.d * I.=X&.* & f Y J.W.W.K.H.E.%X:X$X>X3X(.|  .J.oX3X3X3X$X+XXXOX%X^.Y.(.OX$X%X/./.F.W.(./..X+X&X+X=XoXU P P P L A.[. XG G U 8X[.L Y G Z.-X+X+X[.&X+X=X+XoX+X+X| D H D G S..XY.D D P -X+XP L P Y.-X*X XOX#X+X+X-XW.;X+.O.^ ^ R ~ [.$XA.P J Y +XG.P m D ^.+XoX+X+XOX X#X-XoX&X&XoX[.Y..X+X+X$X+X/.^.(.^.XXXX^.^./.OXXX/.K.E.R. .F.L.^.^. X&X-.6 8 6 u f D K W W.*X%XXX+X#X=X#XW.z z F G d U W.^.Y.W.OXXXXXW d J (.OX@X! G @XOX+XOX$X(.D ^.XX.XJ.[.+XoX&X+XXXY.W.gXPXIXPXPXPXPXPXPXPXPXPXPXPXPXPXPXPXPXPXPXPXPXPXPXPXPXPXPXPXPXPXPXPXPXPXPXPXPXPXPXPXPXPXPXPXPXPXPXPXPXPXPXPXPXPXPXPXPXPXPXPXPXPXPXPXPXPXPXPXPXPXPXPXPXPXPXPXPXPXPXPXPXPXPXPXPXPXPXPXPXPXPXPXPXPXPXPXPXPXPXPXPXPXPXPXPXPXPXPXPXPXPXPXPXPXPXPXPXPXPXPXPXPXPXPXPXPXPXPXPXPXPXPXPXPXPXPXPXPXPXPXPXPXPXPXPXPXPXPXPXPXPXPXPXPXPXPXPXPXPXPXPXPXPXPXPXPXPXPXPXPXPXPXPXPXPXPXPXPXPXPXPXPXPXPXPXPXPXPXPXPXPXPXPXPXPXPXPXPXPXPXPXPXPXPXPXPXPXPXPXPXPXPXPXPXPXPXPXPXPXPXPXPXPXPXPXPXPXPXPXPXPXPXPXPXPXPXPXPXPX",
"3XwX=X*X X&X&X&X[.>X*X.XaX=X1X*XOX#XOX/.W i i J.OX#X$X^.Y.(.Y.K.Y.G.W.&X#X$X+XF.OX#X$X+X#X#X&XY.D d Y &XD d d G Q /.W.W.W.L.(.OX@X/.+X:X^.L.J.(.XX*X3X#XXX/..X/./././.^./././.%X%X#X+X@X+X$X.X XW.Y.i * 6 6 * $ p W.oXu * 6 S.D * 6 = d +X&X+X+X&X&X*X[.G.Y.Z.& * * $ $ D #XS.$ % $ | D $ $ $ D =X*XE.XX$XoX+XD...o.^ T / T O O Z.+Xh X $ & Y i $ $ + T.=X X+XoXoX X+XY.G.Y.[.Y.XX.XXXY.J.Y.Y.W.(.Y.E./.OX^.| } J.L.^._.(.(.} L.(.K.J.S.Y.D . . . o * d F x Y.*X$X$X1X#X#X*XY.d h d d f A.J.J.K.Y.^.OXOX| f F A.^.E.F J OXOX#XOX#XoXD D.J.Y.-.J. XF.Y.Y.-.A.W.gXPXPXPXPXPXPXPXPXPXPXPXPXPXPXPXPXPXPXPXPXPXPXPXPXPXPXPXPXPXPXPXPXPXPXPXPXPXPXPXPXPXPXPXPXPXPXPXPXPXPXPXPXPXPXPXPXPXPXPXPXPXPXPXPXPXPXPXPXPXPXPXPXPXPXPXPXPXPXPXPXPXPXPXPXPXPXPXPXPXPXPXPXPXPXPXPXPXPXPXPXPXPXPXPXPXPXPXPXPXPXPXPXPXPXPXPXPXPXPXPXPXPXPXPXPXPXPXPXPXPXPXPXPXPXPXPXPXPXPXPXPXPXPXPXPXPXPXPXPXPXPXPXPXPXPXPXPXPXPXPXPXPXPXPXPXPXPXPXPXPXPXPXPXPXPXPXPXPXPXPXPXPXPXPXPXPXPXPXPXPXPXPXPXPXPXPXPXPXPXPXPXPXPXPXPXPXPXPXPXPXPXPXPXPXPXPXPXPXPXPXPXPXPXPXPXPXPXPXPXPXPXPXPXPXPXPXPXPXPXPX",
" XS.Y.XXG.W.Y.[.A.oXW.P Y.Y.^.#X$X$XOX%XQ i i Y W.^.Y.z (.(.^.OXOX.XW.Y.J.Y.J J $X$X$X&X*X&X>XG.- . % d X o   % h Y.W.R.K.} /..XH.F.E./.K.R.E.(.Y.K.^.Y.E.^./.^./.XX/.F.F.L.Y.%X#X#X/.OX@X$XW.J.I.I.d $ * $ $ X 8 Y.oX= = * 6 = * = + 6  X=XoXXX&X+X+X[.W..XY.u + $ + X d oXS.+ $ $ $ - $ $ o b #X^. XXX&X.X&X+X,X<X+./ / T O O -.+Xz X O % $ + $ + - I.-X&X+X.XoXoXoXXX&X&X*XW..X.X+XXXXX$XK.Y.(.L.L.E.(.K.L.#X1X%X%X%X).^.L.K.#X(.*XaXwXP X o . X : m F G R.*X=X*X*X$X$X=X^.h h D h p A.Y.+X>X3X1X&X#XF.d J /.>X>XF E $X%X#X+X+X+XY.^.>XaX-XoX1X*XaXaX1XoX#XSXPXPXPXPXPXPXPXPXPXPXPXPXPXPXPXPXPXPXPXPXPXPXPXPXPXPXPXPXPXPXPXPXPXPXPXPXPXPXPXPXPXPXPXPXPXPXPXPXPXPXPXPXPXPXPXPXPXPXPXPXPXPXPXPXPXPXPXPXPXPXPXPXPXPXPXPXPXPXPXPXPXPXPXPXPXPXPXPXPXPXPXPXPXPXPXPXPXPXPXPXPXPXPXPXPXPXPXPXPXPXPXPXPXPXPXPXPXPXPXPXPXPXPXPXPXPXPXPXPXPXPXPXPXPXPXPXPXPXPXPXPXPXPXPXPXPXPXPXPXPXPXPXPXPXPXPXPXPXPXPXPXPXPXPXPXPXPXPXPXPXPXPXPXPXPXPXPXPXPXPXPXPXPXPXPXPXPXPXPXPXPXPXPXPXPXPXPXPXPXPXPXPXPXPXPXPXPXPXPXPXPXPXPXPXPXPXPXPXPXPXPXPXPXPXPXPXPXPXPXPXPXPXPXPXPXPXPXPXPXPX",
" X| G.Y.G.W.W.W.A.^.Y.G J.Y.^.XX*X$X#X%X! p h ! Y.Y.W.W /.OXOXOXOXXXXX&X&X3XY.K $X#X$X&X&X*X>XY.+ o o   o o . % G W.W.@XH. .E./.@X@X>X:X(.Y.R.W.(.#X3X$X^.(./.^./.@X/.XX#X4X3X%X$X/./.OX.X$XaXsXgX.X8 % * = = X u W.oX% $ * = & * = X u XX*X+XOX>X=X*XoX*XaXG = $ $ $ X D &XS.X $ $ $ $ = % X D *X-XoX$X>X&X&XR.6X<X^ / / T ; O A.&Xz + $ % $ $ $ + + I.>X&X-X+X#X#X*X=X>XwX>X[..XXX&X*X&X&XY.W.Y.|  .E._._.E.).:X%X%X$X).(.L.K.*X(.(.3XI.X o . . X : h G E R.:X*X$X:X%X#X$XW.z d d h d A.J.oX=X1X=X=X*XF.z F ! >X(.i W $XXX&X#X&X#XY.D &X+X X+X=XoXXX+X^.Y..XVXPXPXPXPXPXPXPXPXPXPXPXPXPXPXPXPXPXPXPXPXPXPXPXPXPXPXPXPXPXPXPXPXPXPXPXPXPXPXPXPXPXPXPXPXPXPXPXPXPXPXPXPXPXPXPXPXPXPXPXPXPXPXPXPXPXPXPXPXPXPXPXPXPXPXPXPXPXPXPXPXPXPXPXPXPXPXPXPXPXPXPXPXPXPXPXPXPXPXPXPXPXPXPXPXPXPXPXPXPXPXPXPXPXPXPXPXPXPXPXPXPXPXPXPXPXPXPXPXPXPXPXPXPXPXPXPXPXPXPXPXPXPXPXPXPXPXPXPXPXPXPXPXPXPXPXPXPXPXPXPXPXPXPXPXPXPXPXPXPXPXPXPXPXPXPXPXPXPXPXPXPXPXPXPXPXPXPXPXPXPXPXPXPXPXPXPXPXPXPXPXPXPXPXPXPXPXPXPXPXPXPXPXPXPXPXPXPXPXPXPXPXPXPXPXPXPXPXPXPXPXPXPXPXPXPXPXPXPXPXPX",
"aX=X=X&X+XaXwX>X^.&X*XY.*X1X#X=X$X$X$X$X} h z W $XsXXXK #X+X#X#X#XXX[..XdX3Xz E %X$X$X$X$X*X=XY.+ . o o o o . % G E.).OX} F.R.).:X:X:X:X(.E.R./.#X*X3X(.E./.OX(.(.#XOX/.OX>X:X3X>X/.%X/..X&X=X+X-X6 X = = $ $ X : Y.+X% $ * = * * * X u oX1X#X X=X&X>X| J. X$ $ $ $ $ X z -XG.$ $ $ $ $ & $ X D 3XoXoX=X=X+X&Xj ~.+./ { / T ; O ` #Xd + + + $ % % - X I.wX+X+X+X#X#X*X&X&X&X&X.X+X+X=X>X+X.X/././.^.E.E.(._.R._.%X:X$X:X/.E.L.K.OX(.E.*Xm o X . . X 8 h J G E.$X:X$X*X*X$X%X^.z h h d d Q I.[.-X#X*X=X*XJ.F K E @XH.p W %X&X$X#X&X#X^.f Y.-XoX#X=X=XoXoX^.Y.-XxXPXPXPXPXPXPXPXPXPXPXPXPXPXPXPXPXPXPXPXPXPXPXPXPXPXPXPXPXPXPXPXPXPXPXPXPXPXPXPXPXPXPXPXPXPXPXPXPXPXPXPXPXPXPXPXPXPXPXPXPXPXPXPXPXPXPXPXPXPXPXPXPXPXPXPXPXPXPXPXPXPXPXPXPXPXPXPXPXPXPXPXPXPXPXPXPXPXPXPXPXPXPXPXPXPXPXPXPXPXPXPXPXPXPXPXPXPXPXPXPXPXPXPXPXPXPXPXPXPXPXPXPXPXPXPXPXPXPXPXPXPXPXPXPXPXPXPXPXPXPXPXPXPXPXPXPXPXPXPXPXPXPXPXPXPXPXPXPXPXPXPXPXPXPXPXPXPXPXPXPXPXPXPXPXPXPXPXPXPXPXPXPXPXPXPXPXPXPXPXPXPXPXPXPXPXPXPXPXPXPXPXPXPXPXPXPXPXPXPXPXPXPXPXPXPXPXPXPXPXPXPXPXPXPXPXPXPXPXPXPX",
"-X+X#XoXoXaX>X&XY.+X3XOX^.XXoX#X3X*X$X$X} h x z W >XY z =X#X-X#X-X&X X} *XK.i | %X$X%X*X>X*XwXJ.X o X o o . . @ F R.W.@XF.F.R./.@X.X@X,X(.(.R.(.(.OX%X^.^.%X$XOX).$X@X(./.%X>X>X3X%XOX%XOX&X>XwXY.* $ = $ = = X u  X[.$ $ % = % & = - * +X1X*X X=X+XaXU D F X $ $ $ $ o m #XF.X $ $ $ $ $ $ - F =XoX#X&X&X-X>Xh ~ +./ / +.^ ; O Z.%Xh + + $ + $ $ + + -.>X&X+X+XXX+X=X&X&X+X&X XoX.X&X*X+XoXXX.X_.E.E.(._.R.R._.:X@X%X).OX(.F.F.XX(.Y.D $ X o o . X : F Y J R.>X$X*X*X%X#X=X/.z d z h h Z.W.XX*X*X=X*X*XJ.F K E L.E p | $X$X$X=X&X+X#Xd Y.^.^.Y. X^.E.Y.J.Z.T.gXPXLXPXPXPXPXPXPXPXPXPXPXPXPXPXPXPXPXPXPXPXPXPXPXPXPXPXPXPXPXPXPXPXPXPXPXPXPXPXPXPXPXPXPXPXPXPXPXPXPXPXPXPXPXPXPXPXPXPXPXPXPXPXPXPXPXPXPXPXPXPXPXPXPXPXPXPXPXPXPXPXPXPXPXPXPXPXPXPXPXPXPXPXPXPXPXPXPXPXPXPXPXPXPXPXPXPXPXPXPXPXPXPXPXPXPXPXPXPXPXPXPXPXPXPXPXPXPXPXPXPXPXPXPXPXPXPXPXPXPXPXPXPXPXPXPXPXPXPXPXPXPXPXPXPXPXPXPXPXPXPXPXPXPXPXPXPXPXPXPXPXPXPXPXPXPXPXPXPXPXPXPXPXPXPXPXPXPXPXPXPXPXPXPXPXPXPXPXPXPXPXPXPXPXPXPXPXPXPXPXPXPXPXPXPXPXPXPXPXPXPXPXPXPXPXPXPXPXPXPXPXPXPXPXPXPXPXPXPXPX",
"#X#X&X+X XaX>X=X.X#X3X*X.XY..X$X1X*X$X$X} x J z W XXK F =X#X#X-X#X-X^.J.3X(.d ..:X%X%X$X*X$X>XJ.X . X o o o   % F Q.Q.OXF.| L./.@X@X@X@XQ.E.H.E./.XXXX(.(.OX%XOXXX%X%X(./.#X$X$X$X/.%X(.^.#X&X+X6 - $ = - = $ X u W. X% $ $ = % % $ - * ^.#XoX X+X+X>X! X 6 $ $ $ $ $ X D #XS.X $ $ - $ $ $ X z oX.X^.oX&XoX>Xj ; T T T T , O @ Q +Xh + $ % $ $ $ $ X ;.@X[.[.[.[.oX&X&X&X+X+X X[.XXoX+X+X+X[..X/.(.L.R._._.E.R.).).(./.XX^.F.} XX%X.X& . o o o . o : D E J R.&X>X$X&X$X#X$X/.z h z z d Z.Y.XX=X*X*X*X*XK.K F J J F g } %X#X$X#X&X&XoXd T.Z.J.Y..XoXoXY. X XY.gXPXPXPXPXPXPXPXPXPXPXPXPXPXPXPXPXPXPXPXPXPXPXPXPXPXPXPXPXPXPXPXPXPXPXPXPXPXPXPXPXPXPXPXPXPXPXPXPXPXPXPXPXPXPXPXPXPXPXPXPXPXPXPXPXPXPXPXPXPXPXPXPXPXPXPXPXPXPXPXPXPXPXPXPXPXPXPXPXPXPXPXPXPXPXPXPXPXPXPXPXPXPXPXPXPXPXPXPXPXPXPXPXPXPXPXPXPXPXPXPXPXPXPXPXPXPXPXPXPXPXPXPXPXPXPXPXPXPXPXPXPXPXPXPXPXPXPXPXPXPXPXPXPXPXPXPXPXPXPXPXPXPXPXPXPXPXPXPXPXPXPXPXPXPXPXPXPXPXPXPXPXPXPXPXPXPXPXPXPXPXPXPXPXPXPXPXPXPXPXPXPXPXPXPXPXPXPXPXPXPXPXPXPXPXPXPXPXPXPXPXPXPXPXPXPXPXPXPXPXPXPXPXPXPXPXPXPXPXPXPX",
"Y.Y.Y.[.[.#X[.&XY.Y..X/.Y.K Y.1X1X#X%X3XA.z F J J Y z F 1X#X=X#X#X#XoXJ.3X(.z } %X%X:X3X$X*X*XG.X . . . . . . % F W.W.(.H.| R.).)./.).$XE.L.R.(.#X_.(.(.^.).%X%X%X#X%X%X%X$X$X*X3X*X>X%X(./.XX$X- $ $ - $ = $ X u .X X$ $ $ $ $ = $ - < oX#X#XoX=X-XwX-.X $ $ $ $ $ $ X h &XS.+ $ $ $ $ $ $ X D 1X=XoX#X1X#X4Xj T O./ { / ^ ; O Q +Xh + + + + % O $ $ ;.>X@X+X+X.X+X=X&X>X&X&X+X+X&X+X&X+X[.W.W./.^.L.E._.OX).R.).%X).OX)._.L.L.%X%XoX: . X - o   X * F G E R.>X$X*X$X$X#X$X/.h d z h p A.Y.oX*X*X1X=X1XY.F K G E K p | $X$X#X#X#X+X.Xm XX X.XoX*X=X*X+X&X+XoXgXPXPXPXPXPXPXPXPXPXPXPXPXPXPXPXPXPXPXPXPXPXPXPXPXPXPXPXPXPXPXPXPXPXPXPXPXPXPXPXPXPXPXPXPXPXPXPXPXPXPXPXPXPXPXPXPXPXPXPXPXPXPXPXPXPXPXPXPXPXPXPXPXPXPXPXPXPXPXPXPXPXPXPXPXPXPXPXPXPXPXPXPXPXPXPXPXPXPXPXPXPXPXPXPXPXPXPXPXPXPXPXPXPXPXPXPXPXPXPXPXPXPXPXPXPXPXPXPXPXPXPXPXPXPXPXPXPXPXPXPXPXPXPXPXPXPXPXPXPXPXPXPXPXPXPXPXPXPXPXPXPXPXPXPXPXPXPXPXPXPXPXPXPXPXPXPXPXPXPXPXPXPXPXPXPXPXPXPXPXPXPXPXPXPXPXPXPXPXPXPXPXPXPXPXPXPXPXPXPXPXPXPXPXPXPXPXPXPXPXPXPXPXPXPXPXPXPXPXPXPXPXPXPXPXPXPXPXPXPXPX",
"Y.I.G.+X&X&XY.#X$X+XOXXX XY ^.*X*X$X%X3X .z F K x K h F *XoX#X=X=X#XXXJ.3XK.p | %X:X$X*X*X$X3XJ.+ o o . . . . @ x Q./.(.K.} R.@X).).@X:X/.H.R./.#X).(.E.E.(.XX%X#X*X*X*X#X$X$X3X3X*X>XOXOX.X#X8X6 - # $ - $ $ X u W..X% $ $ $ # $ $ $ : #X$X+X#X&X-XsX;.X % $ $ $ $ + - D #XD.$ $ $ $ $ $ $ X D =X=X XoX*X+X>Xj ^ +.{ { { +.; O ! &Xh + + + + + $ O O ;.8X@X[..XXX@X>X&XwX&X>X.X+X+X&X+XXXI.I.K.J.}  .L.(._._._.OX@X)./.XX(.L.F.).%XoX< o o - o . o * F J Y R.$X>X$X$X$X#X$XOXz h z d d -.Y..X=X=X1X*X*XY.F K J G F p | $X#X#X*X&X+XoXd  X^. XY.#X^.-XY.W.oXoXgXPXIXPXPXPXPXPXPXPXPXPXPXPXPXPXPXPXPXPXPXPXPXPXPXPXPXPXPXPXPXPXPXPXPXPXPXPXPXPXPXPXPXPXPXPXPXPXPXPXPXPXPXPXPXPXPXPXPXPXPXPXPXPXPXPXPXPXPXPXPXPXPXPXPXPXPXPXPXPXPXPXPXPXPXPXPXPXPXPXPXPXPXPXPXPXPXPXPXPXPXPXPXPXPXPXPXPXPXPXPXPXPXPXPXPXPXPXPXPXPXPXPXPXPXPXPXPXPXPXPXPXPXPXPXPXPXPXPXPXPXPXPXPXPXPXPXPXPXPXPXPXPXPXPXPXPXPXPXPXPXPXPXPXPXPXPXPXPXPXPXPXPXPXPXPXPXPXPXPXPXPXPXPXPXPXPXPXPXPXPXPXPXPXPXPXPXPXPXPXPXPXPXPXPXPXPXPXPXPXPXPXPXPXPXPXPXPXPXPXPXPXPXPXPXPXPXPXPXPXPXPXPXPXPXPXPXPXPXPXPX",
" X XY.*X+X$XW.+XOX#X$X*X#X| E.*X*X%X*X*XF.h x K x F z H *X#X#X-X+X-XoXJ.*XE.z F.$X%X:X%X$X*X1XI.X o o o o .   % F (.).W.R. .E.OX/./.@X$X).H.R./.OX/.K.L.T.K.E.^.%X$X%X$X#X$X$X*X3X3X*X@XOX.X#X*X$ - $ $ # - $ X u W.XX& - $ $ - $ $ X < oX=X-X&X>X+XfX;.- $ $ $ $ $ $ X m +XD.$ $ - $ $ - + - D 3X=XXX+X=XoX3Xj O.+.{ { { +., O Q +Xh O + + O + $ O $ -.:X[.+X+X+X+X&X=X&X&X>XoXXX+X&X&X XJ.G.J.L.T. .L._.(.(.(.OX)./.).(.(.J.F./.XX^.* o - - o   X * F J E E.$X$X>X$X$X#X&X.Xz p h h d -.W.XX=X*X=X#X$XY.c F F E F p W %X#X#X#X#X#XoXd  X.XY.W.*X=X-X| '.&X+XgXPXPXPXPXPXPXPXPXPXPXPXPXPXPXPXPXPXPXPXPXPXPXPXPXPXPXPXPXPXPXPXPXPXPXPXPXPXPXPXPXPXPXPXPXPXPXPXPXPXPXPXPXPXPXPXPXPXPXPXPXPXPXPXPXPXPXPXPXPXPXPXPXPXPXPXPXPXPXPXPXPXPXPXPXPXPXPXPXPXPXPXPXPXPXPXPXPXPXPXPXPXPXPXPXPXPXPXPXPXPXPXPXPXPXPXPXPXPXPXPXPXPXPXPXPXPXPXPXPXPXPXPXPXPXPXPXPXPXPXPXPXPXPXPXPXPXPXPXPXPXPXPXPXPXPXPXPXPXPXPXPXPXPXPXPXPXPXPXPXPXPXPXPXPXPXPXPXPXPXPXPXPXPXPXPXPXPXPXPXPXPXPXPXPXPXPXPXPXPXPXPXPXPXPXPXPXPXPXPXPXPXPXPXPXPXPXPXPXPXPXPXPXPXPXPXPXPXPXPXPXPXPXPXPXPXPXPXPXPXPX",
"^.^.Y.&XoX.XZ.^..X+X#X/.XXU Y.>X$X$X*X*X} h x K F F z c 1XOX#X#X-X+XXXJ.1XE.h  .:X%X$X*X&X&X>XG.X o o o o . . @ F E.).W.G.} R././.).).:XE.L.L.E.XX^.L.L.J.L.(.(./.*X#X#X#X*X$X*X>X&X&X@X@X[.[.+X$ - $ = $ - $ X 8 W.[.% + - $ - - $ - *  X=XXX XoX XaXQ X $ $ $ - $ $ X h oXG.$ $ + $ $ $ $ X D &XoX^.^.XXXX:Xx +.+.{ { { { 5 O Y +Xh O O O + O O $ X ;.-X+X@X+X+X-X>X&X&X+X&XoXoX.X$X&X.XK.G.G.F.F. ._._._.(.(.).%X).#XXX(.L.F./.Y.Y.* o o - o . o * D J J Y.:X:X:X*X%X$X&X/.h g p d p } Y.XX*X*X=X#X1XY.x G G G F g W %X#XOX#X&XoX[.d -.-.Q Q S.A.H.Q A.F.P sXPXPXPXPXPXPXPXPXPXPXPXPXPXPXPXPXPXPXPXPXPXPXPXPXPXPXPXPXPXPXPXPXPXPXPXPXPXPXPXPXPXPXPXPXPXPXPXPXPXPXPXPXPXPXPXPXPXPXPXPXPXPXPXPXPXPXPXPXPXPXPXPXPXPXPXPXPXPXPXPXPXPXPXPXPXPXPXPXPXPXPXPXPXPXPXPXPXPXPXPXPXPXPXPXPXPXPXPXPXPXPXPXPXPXPXPXPXPXPXPXPXPXPXPXPXPXPXPXPXPXPXPXPXPXPXPXPXPXPXPXPXPXPXPXPXPXPXPXPXPXPXPXPXPXPXPXPXPXPXPXPXPXPXPXPXPXPXPXPXPXPXPXPXPXPXPXPXPXPXPXPXPXPXPXPXPXPXPXPXPXPXPXPXPXPXPXPXPXPXPXPXPXPXPXPXPXPXPXPXPXPXPXPXPXPXPXPXPXPXPXPXPXPXPXPXPXPXPXPXPXPXPXPXPXPXPXPXPXPXPX",
" X X^.&X*X+XJ +X*X#X%X#XXXJ Y.*X1X*X*X:X .h x F z F l F #XOX-X#X#X#X XT.:X^.h L.%X%X:X*X&X&X>XG.X o o o . . . O G ).).W.K.H./.$X).$X@X:X).R.L.R._.^.L.}  .K.J.E.OX$XOX#X#X$X$X1X&X+X&X+X@X[.wX@X$ - - - - - $ X 8 [.[.% X $ + - X $ X 2 .X*XoX X&XoX>XU X X - $ $ - - X D aX X$ X $ - $ $ - X z =XoX X-X=X#X3X4 +.+.{ { { +.5 O -.&Xm + + + O - X O X ;.>X>X[.-X+X+X=X=XXXoX&X+X+X+X&X>XXXI.G.G.J.F.T.(.%XOX(./.$X$X).#XOX(.L.F.)./.W.* o - # o . X * F J W L.$X*X*X*X$X+X&XW.z d z d p Q Y.^.*X1X#X#X1XK.F G G F F g W #XOX-X#X#X+XoXi i d d G G z F F G F h aXPXIXPXPXPXPXPXPXPXPXPXPXPXPXPXPXPXPXPXPXPXPXPXPXPXPXPXPXPXPXPXPXPXPXPXPXPXPXPXPXPXPXPXPXPXPXPXPXPXPXPXPXPXPXPXPXPXPXPXPXPXPXPXPXPXPXPXPXPXPXPXPXPXPXPXPXPXPXPXPXPXPXPXPXPXPXPXPXPXPXPXPXPXPXPXPXPXPXPXPXPXPXPXPXPXPXPXPXPXPXPXPXPXPXPXPXPXPXPXPXPXPXPXPXPXPXPXPXPXPXPXPXPXPXPXPXPXPXPXPXPXPXPXPXPXPXPXPXPXPXPXPXPXPXPXPXPXPXPXPXPXPXPXPXPXPXPXPXPXPXPXPXPXPXPXPXPXPXPXPXPXPXPXPXPXPXPXPXPXPXPXPXPXPXPXPXPXPXPXPXPXPXPXPXPXPXPXPXPXPXPXPXPXPXPXPXPXPXPXPXPXPXPXPXPXPXPXPXPXPXPXPXPXPXPXPXPXPXPXPX",
"D z F Y W F d K Y h x K h f (.3X*X*X$X*XF.h z x z x g F #X-X#XXX#X-XXX| L.F.h  .%X:X:X$X>X&X>XS.O . o o . . . + E ).)..XY.K.@X:X@XOX:X:X@X(.E.(.#X(.E.L.F.E.E.E.%X3X*X*X*X*X*X#X+X>X&X>X:X&XwX8X6 - - $ - $ $ + u W.[.$ X X X - X $ + * #X>X+X+X>XoXwX3.X $ $ - $ - X X H aX^.$ - + + - - + X D *XoXoX=X$X#X1Xc @.6X@.@.@.+.> O -.@Xh + + O + - X $ O -.>X+X[.oX-X+X&X>X X+X>X+X+X+X&X&X.XJ.G.L.L.L..._._.%X/._.OX$X^.%X#X(.J.F.XXXX[.6 o - - o   o & F K J L.*X*X$X$X$X@X&X/.z p h p f J !.^.*X*X$X#X*XG.F F F F z p E #XOXOX#X-XoXXXh F Q Y G.Y.W.S.Y H.K.! gXPXPXPXPXPXPXPXPXPXPXPXPXPXPXPXPXPXPXPXPXPXPXPXPXPXPXPXPXPXPXPXPXPXPXPXPXPXPXPXPXPXPXPXPXPXPXPXPXPXPXPXPXPXPXPXPXPXPXPXPXPXPXPXPXPXPXPXPXPXPXPXPXPXPXPXPXPXPXPXPXPXPXPXPXPXPXPXPXPXPXPXPXPXPXPXPXPXPXPXPXPXPXPXPXPXPXPXPXPXPXPXPXPXPXPXPXPXPXPXPXPXPXPXPXPXPXPXPXPXPXPXPXPXPXPXPXPXPXPXPXPXPXPXPXPXPXPXPXPXPXPXPXPXPXPXPXPXPXPXPXPXPXPXPXPXPXPXPXPXPXPXPXPXPXPXPXPXPXPXPXPXPXPXPXPXPXPXPXPXPXPXPXPXPXPXPXPXPXPXPXPXPXPXPXPXPXPXPXPXPXPXPXPXPXPXPXPXPXPXPXPXPXPXPXPXPXPXPXPXPXPXPXPXPXPXPXPXPXPXPX",
"z z K F x x z x h x F h d h ^.*X*X:X$X>X .g x x x z p F 1X#X-X-X#XXXXXK h c c R.%X$X$X&X:X&X>X;.X o X o o . . @ G W./.@XK.K..X&X$XW.$X>X@XW.L.(.XX(.J.} | L.^.(.$X1X>X$X&X:X1X/.+X>X&X+X&X&XwXqX- - - $ - + + X u [.[.$ $ X X + X $ X * #X=X+X+X*XXXwXQ X - X - X - - X G aX'.$ - X + X - - X D *XXX-X#X=X#X1Xp O.O.O.@.R ..@ O U $Xm + X + X O + $ + -.8X&X@X+X+X+X>X-X#X=X+X+X+X+X&X&X.XG.K.J.L.L.T.R.%X%X_._.OX$X$X*X#X/.K.L.XXXX].6 o - # o . o * x K K L.*X*X$X$X$X$X$X.Xz i p p p J Y.^.*X#X*X=X$XJ.h z F F h i W %XXXOX-X#X+X.Xu p D.S.F.Y.W.} Q A.A.F.gXPXPXPXPXPXPXPXPXPXPXPXPXPXPXPXPXPXPXPXPXPXPXPXPXPXPXPXPXPXPXPXPXPXPXPXPXPXPXPXPXPXPXPXPXPXPXPXPXPXPXPXPXPXPXPXPXPXPXPXPXPXPXPXPXPXPXPXPXPXPXPXPXPXPXPXPXPXPXPXPXPXPXPXPXPXPXPXPXPXPXPXPXPXPXPXPXPXPXPXPXPXPXPXPXPXPXPXPXPXPXPXPXPXPXPXPXPXPXPXPXPXPXPXPXPXPXPXPXPXPXPXPXPXPXPXPXPXPXPXPXPXPXPXPXPXPXPXPXPXPXPXPXPXPXPXPXPXPXPXPXPXPXPXPXPXPXPXPXPXPXPXPXPXPXPXPXPXPXPXPXPXPXPXPXPXPXPXPXPXPXPXPXPXPXPXPXPXPXPXPXPXPXPXPXPXPXPXPXPXPXPXPXPXPXPXPXPXPXPXPXPXPXPXPXPXPXPXPXPXPXPXPXPXPXPXPXPXPXPXPX",
"(.OX3X).(.R. .R.E.R.} K G | OX$X>X:X&X>X .g z x j z p G $X#XoX#X#XXXOXJ h g z R.%X%X%X:X*X$X3X} X o O o o X . @ F (././.G.G..X*X$X&X$X:X@XW.R.W.OX(.} | T.K.(.(.%X*X*X$X$X*X>X*X*X$X*X$X#X-X&X=X- - - - - - $ X 8 [.W.$ X X X X + X $ * .X&XXX.X&X+X1XU X X X X X X + X H wXY.+ - - X + - + - z -XXXXXoXXX X#Xp + + + + + @ + - ' +Xh X X + X + + $ X Q &X@X XXX.X.X+X&X+X-X+X.X.XXX+X+XW.H.I.K.E.H. .E._.)._.(.%XOXXX+XOXXXL.F.^.^.Y.< o o - o o o % D G K L.$X:X$X$X#X#X%XW.h i i i 2 K J.^.*X#X1X=X$XJ.h z z m h p E /.@XXX#X+X+XY.: - K J.D.D.J.Z.| | ! S.gXPXPXPXPXPXPXPXPXPXPXPXPXPXPXPXPXPXPXPXPXPXPXPXPXPXPXPXPXPXPXPXPXPXPXPXPXPXPXPXPXPXPXPXPXPXPXPXPXPXPXPXPXPXPXPXPXPXPXPXPXPXPXPXPXPXPXPXPXPXPXPXPXPXPXPXPXPXPXPXPXPXPXPXPXPXPXPXPXPXPXPXPXPXPXPXPXPXPXPXPXPXPXPXPXPXPXPXPXPXPXPXPXPXPXPXPXPXPXPXPXPXPXPXPXPXPXPXPXPXPXPXPXPXPXPXPXPXPXPXPXPXPXPXPXPXPXPXPXPXPXPXPXPXPXPXPXPXPXPXPXPXPXPXPXPXPXPXPXPXPXPXPXPXPXPXPXPXPXPXPXPXPXPXPXPXPXPXPXPXPXPXPXPXPXPXPXPXPXPXPXPXPXPXPXPXPXPXPXPXPXPXPXPXPXPXPXPXPXPXPXPXPXPXPXPXPXPXPXPXPXPXPXPXPXPXPXPXPXPXPX",
"Y.XX#X^.R.E W ..R. .h p z } +X&X$X$X$X:X} g j z j z p x $XOX#X$X#X+XOXJ g g j L.:X).$X$X>X$X*XZ.X X X o X X . @ x ).@X/.A.F./.+X$X%X@X>X).W.E.(.$X/.}  .L.K.E.^.).#X%X#X#X$X*X$X>X$X=X$X%X#X&X&X$ $ $ $ $ $ $ X u oX+X% o X X o X X X * [.&X+X+X&X&XaX| X o X X - - X X G 3XY.- X X X X X + X D =X*X X+X#XoX*Xl + X X X X + X + ' $XD O O X X + X X + -.&XXX+X&X#X#X*X3XaX&X&X&X#X-X&X&X.XY.K.Y.E.F.L.R.%X%X_.(.%X*X%X*X*X%X(.Y.#XOX.Xi o X - o . o % m G F L.$X*X$X*X#XOXXXY.g 2 u i : H Y.^.#X*X*X#X%X} p p h g j : x /.XXXX#X#XoXY.* X d G D Z.W.W.W.W.Y.G.gXPXPXPXPXPXPXPXPXPXPXPXPXPXPXPXPXPXPXPXPXPXPXPXPXPXPXPXPXPXPXPXPXPXPXPXPXPXPXPXPXPXPXPXPXPXPXPXPXPXPXPXPXPXPXPXPXPXPXPXPXPXPXPXPXPXPXPXPXPXPXPXPXPXPXPXPXPXPXPXPXPXPXPXPXPXPXPXPXPXPXPXPXPXPXPXPXPXPXPXPXPXPXPXPXPXPXPXPXPXPXPXPXPXPXPXPXPXPXPXPXPXPXPXPXPXPXPXPXPXPXPXPXPXPXPXPXPXPXPXPXPXPXPXPXPXPXPXPXPXPXPXPXPXPXPXPXPXPXPXPXPXPXPXPXPXPXPXPXPXPXPXPXPXPXPXPXPXPXPXPXPXPXPXPXPXPXPXPXPXPXPXPXPXPXPXPXPXPXPXPXPXPXPXPXPXPXPXPXPXPXPXPXPXPXPXPXPXPXPXPXPXPXPXPXPXPXPXPXPXPXPXPXPXPXPXPXPXPXPXPX",
"L.^.E.L.K.X. .Q. .W K z K | XX:X&X:X$X:X! p g g g p 3 h @X@XOX+X#X+X/.x g g g  .:X%X$X:X*X%X*XW X o O o . O o @ F %X$X/.K.F.XX*X$X$X@X&X@XW.(.$X>X%X} F.L.L.E.(.OX#X%XOXXX*X*X*X3X*X$X*X%X*X1X#X$ $ 6 % % % $ X i &X&X* $ $ $ + + - X 8 +X>X+X+X&X&XaXZ.X $ $ $ $ $ - X H aXY.+ % & = % $ - - D *X=X+X+X*X+X3Xd % 2 & & & @ + + Y #Xz & 6 : * * % X + A.*XOX+X+X+XOX*X3X*X&X*X#X+X+X$X&X.XK.I.K.W.L. .E.).).).(.$X$X#X*X$X#XY.Y.#X+XoXu o - X o . . $ b K K  .%X$X*X$X$X#XOXK.i & % * % h J.^.*X#X*X#XXX! : : : : : % p R. XOX+X&XoXJ.* X u K Y G.#X+XOXOXoX[.gXPXIXPXPXPXPXPXPXPXPXPXPXPXPXPXPXPXPXPXPXPXPXPXPXPXPXPXPXPXPXPXPXPXPXPXPXPXPXPXPXPXPXPXPXPXPXPXPXPXPXPXPXPXPXPXPXPXPXPXPXPXPXPXPXPXPXPXPXPXPXPXPXPXPXPXPXPXPXPXPXPXPXPXPXPXPXPXPXPXPXPXPXPXPXPXPXPXPXPXPXPXPXPXPXPXPXPXPXPXPXPXPXPXPXPXPXPXPXPXPXPXPXPXPXPXPXPXPXPXPXPXPXPXPXPXPXPXPXPXPXPXPXPXPXPXPXPXPXPXPXPXPXPXPXPXPXPXPXPXPXPXPXPXPXPXPXPXPXPXPXPXPXPXPXPXPXPXPXPXPXPXPXPXPXPXPXPXPXPXPXPXPXPXPXPXPXPXPXPXPXPXPXPXPXPXPXPXPXPXPXPXPXPXPXPXPXPXPXPXPXPXPXPXPXPXPXPXPXPXPXPXPXPXPXPXPXPXPXPXPX",
"} }  . .K.R.(.R.L.X.W p % h OX$X>X$X+X:XE 3 g p 3 i 3 g OX@X@X#X-X$X/.z i 3 g ..).%X%X%X$X$X3XU X X o o o . . > K $X:X/.J.J.XX$X$X@X+X:X)././.@X>X).} J.F.E.E.(.XX#X$X#XXX*X*X$X*X*X$X%X1XOX*X-X$ 6 u u 8 8 * o u $X8X% $ 8 8 * % $ + & +X>X-X+X&X+XaX} X * 2 2 * % + X D aXY.- < < = & & - X z *X=XoX-X=XoX>Xb $ & & @ + + o o H $Xh $ % % + $ $ X o ! *X+XOX@XXX%X$X>X*X&X&X#X+X+X&X+X.XW.K.E.E.F.L.(.%X).).).%X=XOX$X&X#XW.Y.OX+X/.< . . . . . . - d z z | #X%X#X#X/.K.Y h % + % % + 2 | T.^.XX#X/.F.z : : 8 2 2 : i J F.^. XoX XY.: o u Y Y S.+X+XXXXXOXY.gXPXPXPXPXPXPXPXPXPXPXPXPXPXPXPXPXPXPXPXPXPXPXPXPXPXPXPXPXPXPXPXPXPXPXPXPXPXPXPXPXPXPXPXPXPXPXPXPXPXPXPXPXPXPXPXPXPXPXPXPXPXPXPXPXPXPXPXPXPXPXPXPXPXPXPXPXPXPXPXPXPXPXPXPXPXPXPXPXPXPXPXPXPXPXPXPXPXPXPXPXPXPXPXPXPXPXPXPXPXPXPXPXPXPXPXPXPXPXPXPXPXPXPXPXPXPXPXPXPXPXPXPXPXPXPXPXPXPXPXPXPXPXPXPXPXPXPXPXPXPXPXPXPXPXPXPXPXPXPXPXPXPXPXPXPXPXPXPXPXPXPXPXPXPXPXPXPXPXPXPXPXPXPXPXPXPXPXPXPXPXPXPXPXPXPXPXPXPXPXPXPXPXPXPXPXPXPXPXPXPXPXPXPXPXPXPXPXPXPXPXPXPXPXPXPXPXPXPXPXPXPXPXPXPXPXPXPXPXPXPX",
"^.E.L.(.).).~.(.).R.| 2 . p /.$X$X@X.XE.g % & & & & % u F.W..XXX XXXY.3 & > > x L.R.OX%X%X%X#XK o . o . . . . @ J @X%XXXJ.L.^.*X$X+XOX:X(.W.(.@X*X^.F.F.} E.E.(./.%X#X#XXX*X=X$X*X*X$X#X%X#X%XXX$ + - - - X O o * oX*X* X + $ X - $ X & Y.&X+XXX*X#X3XY o + + - + - + $ D *XY.$ % & & = & % & D oX#X.XoX&X X*XG 2 < 2 u u : u 2 Y OXY p i u p f u p p } OXOXXXXX.XOX+X#X#X#X#X+X.XXXOX+X/.J.K.W.E.L. .E._.(.(.R.XXOXXXOXOXXXL.T.W.Y.Y.u $ $ - X X o X i z z | %X%X%X%X/.K.'.Y.'. XY.Y. XT.T.Y.#X#X&X^. X=X#X-X&X-X&X+X=X+XW./.@X@XoX.Xd X u F D F.OX/.XXOXXX!.gXPXPXPXPXPXPXPXPXPXPXPXPXPXPXPXPXPXPXPXPXPXPXPXPXPXPXPXPXPXPXPXPXPXPXPXPXPXPXPXPXPXPXPXPXPXPXPXPXPXPXPXPXPXPXPXPXPXPXPXPXPXPXPXPXPXPXPXPXPXPXPXPXPXPXPXPXPXPXPXPXPXPXPXPXPXPXPXPXPXPXPXPXPXPXPXPXPXPXPXPXPXPXPXPXPXPXPXPXPXPXPXPXPXPXPXPXPXPXPXPXPXPXPXPXPXPXPXPXPXPXPXPXPXPXPXPXPXPXPXPXPXPXPXPXPXPXPXPXPXPXPXPXPXPXPXPXPXPXPXPXPXPXPXPXPXPXPXPXPXPXPXPXPXPXPXPXPXPXPXPXPXPXPXPXPXPXPXPXPXPXPXPXPXPXPXPXPXPXPXPXPXPXPXPXPXPXPXPXPXPXPXPXPXPXPXPXPXPXPXPXPXPXPXPXPXPXPXPXPXPXPXPXPXPXPXPXPXPXPXPX",
"^.L.L.(.(._.).Q.R.L. .3 + z W.OX+X@XR.H.! F K K J Y G W G.G.W.@X X X^.J K E J | L.K.(.OX%X$XOXK O X X X O O O % z (./.(.D.T.^.OX@X$XOX).R.K.R.W.#X(.F. ...Y.E.!./.#X#X#XXX$X$X$X$X&X$XXXXX/.XX^.Y | K U -.-.! ;.F./.#XJ.I.F.K.K.-.-.W.Y..XoX+X+X*XXX@X/._.).E.(.OXXX(./.^.OX%XOX/.OX/.).XXE.XX^.^. X#X#X*X#X$XXX$XXX$X>X$XXX%X#X(.%X%X:X%X$X&X:X@X$XOX/.OX#X+X.XXXoX&X&X1X1X*X-X+XOXOX#XW.E.G.W.(.K.R./.).).).(.%X#X%X1X%X/.J. ./.(.XXK u * * $ + X O f F z F.$X%X1X:X$XoX'.}.P.t.9.{.U.S.J.).@X:X*X#X X'.'.}.'.'.`.}.'.U. XOX%X$X+X+XD X * D z Y K.L.L.L.J.3.aXPXPXPXPXPXPXPXPXPXPXPXPXPXPXPXPXPXPXPXPXPXPXPXPXPXPXPXPXPXPXPXPXPXPXPXPXPXPXPXPXPXPXPXPXPXPXPXPXPXPXPXPXPXPXPXPXPXPXPXPXPXPXPXPXPXPXPXPXPXPXPXPXPXPXPXPXPXPXPXPXPXPXPXPXPXPXPXPXPXPXPXPXPXPXPXPXPXPXPXPXPXPXPXPXPXPXPXPXPXPXPXPXPXPXPXPXPXPXPXPXPXPXPXPXPXPXPXPXPXPXPXPXPXPXPXPXPXPXPXPXPXPXPXPXPXPXPXPXPXPXPXPXPXPXPXPXPXPXPXPXPXPXPXPXPXPXPXPXPXPXPXPXPXPXPXPXPXPXPXPXPXPXPXPXPXPXPXPXPXPXPXPXPXPXPXPXPXPXPXPXPXPXPXPXPXPXPXPXPXPXPXPXPXPXPXPXPXPXPXPXPXPXPXPXPXPXPXPXPXPXPXPXPXPXPXPXPXPXPXPX",
"E.E.K.).%X_.).).).W.R.h i J @X$X:X:X+X&X&X=X=X8X=XeX8X8X-X&X+X&X#X+X+X XXX#XoXXX/./.*X*X1X3X*X| % & : 2 p i 3 : F %XXXXXL.L.(.XX$X3X%X%X(.E.E.@X*X).T.F.F.W.(.^.#X$X$X$X$X=X*X>X*X*X*X*X%XXXXXXX/.XX^.).).OXW.).E.E.).E./.E.W.W.K.H.XXW.K.oX+X+X*X#X$XW.E.L.R._.E.R.F.E.L.E.).).R.R.R.(._.L.L.L.W.XX#X$X1X#X^.L.F. .L.R.L.H.L. .} E.R.L. . .H.F.F.G.G.G./.+X+XXX+X+X=X#X=X3X*X#X#X#XOXOX/.K.H.R.R.K.K.(.%X).(._.OX%X%X%XOXXX!.L.OXXX/.d $ $ + + X o X i F F A.&X*X%X$X*X'.*.t.$.0.$.>.%.&.F./.:X@X:XXX X3.6.0.$.t.$.*.t.6.^.oX#XXXXXoXU * G J.T.Y. XE.Y.^. X'.gXPXIXPXPXPXPXPXPXPXPXPXPXPXPXPXPXPXPXPXPXPXPXPXPXPXPXPXPXPXPXPXPXPXPXPXPXPXPXPXPXPXPXPXPXPXPXPXPXPXPXPXPXPXPXPXPXPXPXPXPXPXPXPXPXPXPXPXPXPXPXPXPXPXPXPXPXPXPXPXPXPXPXPXPXPXPXPXPXPXPXPXPXPXPXPXPXPXPXPXPXPXPXPXPXPXPXPXPXPXPXPXPXPXPXPXPXPXPXPXPXPXPXPXPXPXPXPXPXPXPXPXPXPXPXPXPXPXPXPXPXPXPXPXPXPXPXPXPXPXPXPXPXPXPXPXPXPXPXPXPXPXPXPXPXPXPXPXPXPXPXPXPXPXPXPXPXPXPXPXPXPXPXPXPXPXPXPXPXPXPXPXPXPXPXPXPXPXPXPXPXPXPXPXPXPXPXPXPXPXPXPXPXPXPXPXPXPXPXPXPXPXPXPXPXPXPXPXPXPXPXPXPXPXPXPXPXPXPXPXPX",
"| z z K ~ E E E E Y F < u J @X$X$X$X-X'.%.`.y.0.t.1.}.*.*.-X+X+X#XXX-XY.3.9.{.6.U.J.#X=X$X*X*XJ % @ & > > : > > x #X_._.J.K.(.).$X$X%X:X/.E.E.@X$X#XF.D.F.E.E.^.XX=X$X*X$X$X*X>X$X*X$X*X1X%X%XE. .L.L.R.F.E.K.K. .L.R.L.R.E.E.I.W.W.K.I.W.#X&XoX>X&X$XR.H.R.(.E.K./.W.R.K.).W.H.W.(.E.R.(.E.(.!.XX$XoX$X>X#X^.L. .^.^.^.E.E.^.K.L.).L.L./.W.^.E.W.XXK.E.+X&X+XOX+X+X&X=X=X=X1X#X#XOX+X$X/.R.R.E.R.K.K.).:X).(.(.%X#X%X1X%XOXL.J.XX/.^.f + $ $ + + X X i D z Z.&X#X*X*X=X}.`.$.#.r.$.S 0.U.G..X%X$X:XoX'.`.0.#.=.s.#.$.1.].{.oX-X+XXX.XP.f L oX*X1X3X3X3XaXfXfXUXPXPXPXPXPXPXPXPXPXPXPXPXPXPXPXPXPXPXPXPXPXPXPXPXPXPXPXPXPXPXPXPXPXPXPXPXPXPXPXPXPXPXPXPXPXPXPXPXPXPXPXPXPXPXPXPXPXPXPXPXPXPXPXPXPXPXPXPXPXPXPXPXPXPXPXPXPXPXPXPXPXPXPXPXPXPXPXPXPXPXPXPXPXPXPXPXPXPXPXPXPXPXPXPXPXPXPXPXPXPXPXPXPXPXPXPXPXPXPXPXPXPXPXPXPXPXPXPXPXPXPXPXPXPXPXPXPXPXPXPXPXPXPXPXPXPXPXPXPXPXPXPXPXPXPXPXPXPXPXPXPXPXPXPXPXPXPXPXPXPXPXPXPXPXPXPXPXPXPXPXPXPXPXPXPXPXPXPXPXPXPXPXPXPXPXPXPXPXPXPXPXPXPXPXPXPXPXPXPXPXPXPXPXPXPXPXPXPXPXPXPXPXPXPXPXPXPXPXPXPXPXPXPXPXPXPXPXPXPXPX",
"K c z K E E c E J p u u d Y %X:X:X&X-X{.6.t.$.=.t.#.=.t.t.}.+X%XXX#XXX X6.%.`.%.6.|.=X*X1X:X%X| @ @ > : > > > > z OX(./.Y.E.(.XX%X3X%X%XW.W.W.@X*XXXF.D.A.W.^.W.+X&X#X%X&X*X*X*X$X*X1X#X$X#X1XE.F.E.F.J.@XG.E.W.R.^.E.L..X! K.&X} Y oXW.W.&X+XXX=X#X>XW.Y.W.Q W.@XY K.@XW..X.X(./.G H.+XK | OX^.XX#XoX+X#XoX/.K.(.K z (.E.i F.XXK.(.L.E.Q i W.Y.p -..XY.@X#XoXW.[.XX&X+X&X=X*X#XXXXXOX@X(.K.K.K.K.K.L.(.%X).^.E.OX_.XX%XOXXXL. .(.Y.K.i & * 2 : + + O i G D A.&X=X-X#X=X|.*.e #.t.#.e $.6.P. X&X&X=X|.{.0.$.#.=.b.=.#.#.0.U. X-XXXoX XP.6 6 P -XoX1X1X1X1XfX`.8XPXPXPXPXPXPXPXPXPXPXPXPXPXPXPXPXPXPXPXPXPXPXPXPXPXPXPXPXPXPXPXPXPXPXPXPXPXPXPXPXPXPXPXPXPXPXPXPXPXPXPXPXPXPXPXPXPXPXPXPXPXPXPXPXPXPXPXPXPXPXPXPXPXPXPXPXPXPXPXPXPXPXPXPXPXPXPXPXPXPXPXPXPXPXPXPXPXPXPXPXPXPXPXPXPXPXPXPXPXPXPXPXPXPXPXPXPXPXPXPXPXPXPXPXPXPXPXPXPXPXPXPXPXPXPXPXPXPXPXPXPXPXPXPXPXPXPXPXPXPXPXPXPXPXPXPXPXPXPXPXPXPXPXPXPXPXPXPXPXPXPXPXPXPXPXPXPXPXPXPXPXPXPXPXPXPXPXPXPXPXPXPXPXPXPXPXPXPXPXPXPXPXPXPXPXPXPXPXPXPXPXPXPXPXPXPXPXPXPXPXPXPXPXPXPXPXPXPXPXPXPXPXPXPXPXPXPXPXPXPX",
"#X3X%X:X5X;X,X5X_.W u i P Z.OX%X>X*X-X}.0.t #.=.b.#.#.$.y.-X-XOXXXXXoX!.*.t t.$.C `.=X*X*X*X%XJ $ & % + 2 @ + & z (.R.E.T.} E.).OX).).%XE.K.R..XOXXXA.Q | K.E.Y.OX&XOXXX+X$X$X#X#X#X#X#XOXXX#XE.Y.F.% K >Xh % I.W.K.W.E.I.% F >XF + A.W. X+XXXoX&X=X$X XI.F : I.&X: u G.G.[.XXY.J u A.*XD i | Y.+X&XXXXX$XXX XJ.G u h XX^.p z | K.XX^.| h d Y.oXD i P R.@X+X+X+X.XoX&X&X&X-X=X#X#XOXOX$X/.H.H.L.K.F.H./.$X%X(.(.%X%X(.XXOX/.!.L./.OX/.h : % 2 2 O + % i D d A.-X=X*X*X-X{.$.t =.b.t.t e 0.`. X2X-X=X}.}.$.$.=.u.7Xu.=.t $.`. X-X+X+X XP.9 0 3.oX^.^.*X#X X-X`.eXPXPXPXPXPXPXPXPXPXPXPXPXPXPXPXPXPXPXPXPXPXPXPXPXPXPXPXPXPXPXPXPXPXPXPXPXPXPXPXPXPXPXPXPXPXPXPXPXPXPXPXPXPXPXPXPXPXPXPXPXPXPXPXPXPXPXPXPXPXPXPXPXPXPXPXPXPXPXPXPXPXPXPXPXPXPXPXPXPXPXPXPXPXPXPXPXPXPXPXPXPXPXPXPXPXPXPXPXPXPXPXPXPXPXPXPXPXPXPXPXPXPXPXPXPXPXPXPXPXPXPXPXPXPXPXPXPXPXPXPXPXPXPXPXPXPXPXPXPXPXPXPXPXPXPXPXPXPXPXPXPXPXPXPXPXPXPXPXPXPXPXPXPXPXPXPXPXPXPXPXPXPXPXPXPXPXPXPXPXPXPXPXPXPXPXPXPXPXPXPXPXPXPXPXPXPXPXPXPXPXPXPXPXPXPXPXPXPXPXPXPXPXPXPXPXPXPXPXPXPXPXPXPXPXPXPXPXPXPXPX",
"E.(.R._.).%X_._.Y.D $ 9 U S.+X$X$X&X-Xt.#.t #.s.7X=.#.e =.-XoX-X-X-XoX`.C #.|.t.M 3.1X=X$X*X%XK & : + + g > O % x (././.F.F.(.XX).(.).3X).H.R.W.+X^.} | F.K.Y.^.#X>X&X&X$X*X$X%X$X*X#X#X$X#X#X/.z i K J.+XS.G & z ^.#Xh % Y W.&XW.Q & h XX&X#X#X=X+XwXY.* i Y.[.oXoXF + D $X[.: u G.W.+X.XQ $ D $X#XXXOX>XXXoXD + F ^.+X+XoXp $ Y *XZ.$ f W.[.-X-Xb $ Y &XXX&X&X+X&X=X>X=X=X*X#X#X$X$X&X/.H.F.J.F.L.L./.$X%XXX_.%X1XXXOXXX_.E.E./.#X/.z & + $ : X + O u p d | =X*X&X=X=X].$.0.t.t.r.1.$.*.P. X#X1X-X X9.%.$.t.0.t.<.t.1.%.`. XXXoXoX[.P.C &.6.[.oX*X1X*X-X8Xt.8XPXPXPXPXPXPXPXPXPXPXPXPXPXPXPXPXPXPXPXPXPXPXPXPXPXPXPXPXPXPXPXPXPXPXPXPXPXPXPXPXPXPXPXPXPXPXPXPXPXPXPXPXPXPXPXPXPXPXPXPXPXPXPXPXPXPXPXPXPXPXPXPXPXPXPXPXPXPXPXPXPXPXPXPXPXPXPXPXPXPXPXPXPXPXPXPXPXPXPXPXPXPXPXPXPXPXPXPXPXPXPXPXPXPXPXPXPXPXPXPXPXPXPXPXPXPXPXPXPXPXPXPXPXPXPXPXPXPXPXPXPXPXPXPXPXPXPXPXPXPXPXPXPXPXPXPXPXPXPXPXPXPXPXPXPXPXPXPXPXPXPXPXPXPXPXPXPXPXPXPXPXPXPXPXPXPXPXPXPXPXPXPXPXPXPXPXPXPXPXPXPXPXPXPXPXPXPXPXPXPXPXPXPXPXPXPXPXPXPXPXPXPXPXPXPXPXPXPXPXPXPXPXPXPXPXPXPXPXPXPX",
"J. .L.o.Q.;X_.(.L.P = 9 3.Y.+X:X$X&X-X].#.$.u.u.b.u.r.$.%.}.-X-X-X-X-X`.C 0.u.7X0.3.=X=X=X#X%XK > @ o @ 3 : + O z /.OXXXF.J._.OX).(.OX:X).K.E./.OX^.| A.F.K.Y.E.#X3X*X:X*X*X*X*X>X1X$X$X*X#X#X^.$ p Y. X+XoXY.u : W.#X* u I.oX+X@X[.m u Y.&X#X#X>X&X*XZ.6 P [.oX X.XI.u i .XF.* F W. XoX XY.p p ^.XX/.+X*XXX$XG d Y.W. X XW.J.d F -XK u S.'. XoX[.[.m G @XXX+X+X+X+X&X=X>X=X*X#X#X$X&X:X/.H.F.F.J.F.F.OX3X%XOXXX%X#X_.XX#X_.!.K.XX%XOXp @ & @ % % + % % % = H #X*X&X=X=X}.t.t.$.r.$.=.0.6.S.(.%XOX#X X'.t.u.$.#.u.#.$.t.{.U.^.OX.X.X[.{.*.$.A I  X=XaX=X1X=Xv oXPXIXPXPXPXPXPXPXPXPXPXPXPXPXPXPXPXPXPXPXPXPXPXPXPXPXPXPXPXPXPXPXPXPXPXPXPXPXPXPXPXPXPXPXPXPXPXPXPXPXPXPXPXPXPXPXPXPXPXPXPXPXPXPXPXPXPXPXPXPXPXPXPXPXPXPXPXPXPXPXPXPXPXPXPXPXPXPXPXPXPXPXPXPXPXPXPXPXPXPXPXPXPXPXPXPXPXPXPXPXPXPXPXPXPXPXPXPXPXPXPXPXPXPXPXPXPXPXPXPXPXPXPXPXPXPXPXPXPXPXPXPXPXPXPXPXPXPXPXPXPXPXPXPXPXPXPXPXPXPXPXPXPXPXPXPXPXPXPXPXPXPXPXPXPXPXPXPXPXPXPXPXPXPXPXPXPXPXPXPXPXPXPXPXPXPXPXPXPXPXPXPXPXPXPXPXPXPXPXPXPXPXPXPXPXPXPXPXPXPXPXPXPXPXPXPXPXPXPXPXPXPXPXPXPXPXPXPXPXPX",
"^.^._.R.R._._.).D.3.%.v P.Y.#X%X:X&X-Xt.1.s.1.=.r.=.t.t.*.}.-X=X-XoX-X`.0.1.t.$.w.'.=X*X*X$X*XJ : > % > : : % O z @XOX/.F.F./.OX_.(.XX3X/.K.R./.+X/.| } D.K.^.Y.#X3X&X*X$X&X*X&X*X>X%X%X%X%X%XE.p J.F.| OX| Y.XXY .X@Xz  XG.P +XY -.&X!  X&X+XoX=X+X>XF.Y [.P J. XD G.Y.Y ^.J.U Y.F Z.+XD Z.Y.Q K.OXXXXX1X_.@XG.^.T.d  XY.d G.Y.S.XXD.Y.T.d I. Xm I. XI.W.[.+X+X+XoX&X&X=X#X=X.XXX%X#X#XW.H.F.F.F.F.J._.$XOXoX(._.#X(._.XX^.L.L.K./.Y.p p 3 & 2 % % & p F z | #X%X%X%X-X}.t.#.#.t.$.e $.P.D.^.%X%X#X X{.y.$.S $.t.=.e $.*.'.^.XXOX.X X'.C C 2.n 3.oX&X=X-X-Xn 8XPXIXPXPXPXPXPXPXPXPXPXPXPXPXPXPXPXPXPXPXPXPXPXPXPXPXPXPXPXPXPXPXPXPXPXPXPXPXPXPXPXPXPXPXPXPXPXPXPXPXPXPXPXPXPXPXPXPXPXPXPXPXPXPXPXPXPXPXPXPXPXPXPXPXPXPXPXPXPXPXPXPXPXPXPXPXPXPXPXPXPXPXPXPXPXPXPXPXPXPXPXPXPXPXPXPXPXPXPXPXPXPXPXPXPXPXPXPXPXPXPXPXPXPXPXPXPXPXPXPXPXPXPXPXPXPXPXPXPXPXPXPXPXPXPXPXPXPXPXPXPXPXPXPXPXPXPXPXPXPXPXPXPXPXPXPXPXPXPXPXPXPXPXPXPXPXPXPXPXPXPXPXPXPXPXPXPXPXPXPXPXPXPXPXPXPXPXPXPXPXPXPXPXPXPXPXPXPXPXPXPXPXPXPXPXPXPXPXPXPXPXPXPXPXPXPXPXPXPXPXPXPXPXPXPXPXPXPXPXPX",
"XX/.R.|  .R.Y.S.C 0 $.*.U.Y.#X$X&X$X-X7Xt.=.#.=.s.#.$.r.}.|.-X+X2XoXoX|.6.$.t.$.$.}.=X&X*X*X$X` 2 u i & g : > % h )./.^.F.} ^./.XX_.).%X/.F.G.E.XXY.| Z.} Y.Y.L.XX&X#X#X#X$X$X$X$X*X+XOX%XOX%XE.K.J.& K *Xd *  X#XW.Y.XX/.X h wXd X W.&X.X+X.X/.#X#X#XY.+X-.* Y.#Xu u W.Y.Y.Y.+X` * Z.=Xu u ^.E.E.XXOX_.$X%X+XW.+Xi 2 +XoX% d  XY.Y.^.-Xm * '.XXa b '.W..X+X[.&X@X-X&X&X#X=X$X+X#XXXOX+X/.G.G.L.J.J.J.(.%XXX_.XXXX#XOX%XXX(.Y. .).(.L.g 3 2 & > + + % z ' Y T.#X1X%X$X=X}.=.e #.b.r.e #.0.P.^.OX#X1X X}.*.S #.=.7Xt.$.e $.{. XXXXX|. X'.S $.`.$.L  X=X>X-X-XS -XPXPXPXPXPXPXPXPXPXPXPXPXPXPXPXPXPXPXPXPXPXPXPXPXPXPXPXPXPXPXPXPXPXPXPXPXPXPXPXPXPXPXPXPXPXPXPXPXPXPXPXPXPXPXPXPXPXPXPXPXPXPXPXPXPXPXPXPXPXPXPXPXPXPXPXPXPXPXPXPXPXPXPXPXPXPXPXPXPXPXPXPXPXPXPXPXPXPXPXPXPXPXPXPXPXPXPXPXPXPXPXPXPXPXPXPXPXPXPXPXPXPXPXPXPXPXPXPXPXPXPXPXPXPXPXPXPXPXPXPXPXPXPXPXPXPXPXPXPXPXPXPXPXPXPXPXPXPXPXPXPXPXPXPXPXPXPXPXPXPXPXPXPXPXPXPXPXPXPXPXPXPXPXPXPXPXPXPXPXPXPXPXPXPXPXPXPXPXPXPXPXPXPXPXPXPXPXPXPXPXPXPXPXPXPXPXPXPXPXPXPXPXPXPXPXPXPXPXPXPXPXPXPXPXPXPXPXPXPXPX",
"OXOX(. .} F.F.U L 0 e $.U.Y.#X%X$X&X-X{.$.#.#.r.s.#.#.$.t.}.-X-X#XoX-X!.$.n t.%.S 6.=X=X*X*X$XK 2 g 2 $ x : + % F XX^.^.F.| ^.XX%X%X#X%X(.L.K.XX#XXX} | F.K.K.K./.$X$X#X$X*X*X1X>X*X$X$X%XOX%X(. .` h L.#X| d D S.OXOXG.D i G.+XD.d m A.+X#XXXXX>X$X+XXXK h Y ^.oXA.h u ` XX Xl u Y Y.+XJ.F * K (._.$XOX1X@X*XY.i D E.XX^.Y.d 9 Z.+XF.2 f I.^. X^.f 8 I.+X+XXX+X=X&X>X=X*X1X>X=X&X&X#X&X.XG.L.J.L.J.J.(.1X#X_./.%X1X%X1X%X_.K.F.).%X(.K p & % 2 % & $ l K K T.%X%X%X%X-X}.$.$.t.b.t.=.n 0.D.[.@X#X=XoX}.*.#.*.t.s.t.s.$.C `.W.oX X X}.9.C t.u.6.%. X+X-XoX-XS 8XPXPXPXPXPXPXPXPXPXPXPXPXPXPXPXPXPXPXPXPXPXPXPXPXPXPXPXPXPXPXPXPXPXPXPXPXPXPXPXPXPXPXPXPXPXPXPXPXPXPXPXPXPXPXPXPXPXPXPXPXPXPXPXPXPXPXPXPXPXPXPXPXPXPXPXPXPXPXPXPXPXPXPXPXPXPXPXPXPXPXPXPXPXPXPXPXPXPXPXPXPXPXPXPXPXPXPXPXPXPXPXPXPXPXPXPXPXPXPXPXPXPXPXPXPXPXPXPXPXPXPXPXPXPXPXPXPXPXPXPXPXPXPXPXPXPXPXPXPXPXPXPXPXPXPXPXPXPXPXPXPXPXPXPXPXPXPXPXPXPXPXPXPXPXPXPXPXPXPXPXPXPXPXPXPXPXPXPXPXPXPXPXPXPXPXPXPXPXPXPXPXPXPXPXPXPXPXPXPXPXPXPXPXPXPXPXPXPXPXPXPXPXPXPXPXPXPXPXPXPXPXPXPXPXPXPXPXPXPXPX",
"#X#X).(. .` I I `.$.e C `.'.OX%X:X&X-XP.n $.=.7X7Xr.#.Z 0.-X-XoXoX-X-XU.C %.8X{.S 2.1X=X*X$X$Xx i 3 O > g i % % W XX/.^.T.| _.OX%X$X%X3X(.L.K.@X&XOX} D.F.K.Y.Y.XX*X*X$X*X*X>X3X3X*X*X*X$X#X_.XXz F L.)./.+XT.$ f XX#Xi % G.+XoXoXY.* u [.#XOX#X*X#X&XJ.$ d  X^.W.oXA.$ l +XF.+ u Y. X X+XT.& p ^.XX#X#X$X+X*XY 6 U XXoX X-XY $ D XXD $ H XX X^.-X&.8 G .X+X.X+X#X&X*X=X=X3X>X*X&X+X&X=XOXG.G.J.L.L.L./.%X%X/.^.XX1X%X%XOXXXE.L./.).(.J g 2 & 3 @ % + h K ' | %X%X%X%X-X}.%.t.1.r.=.=.=.*.6.'.+X$X&XoX].0.1.t.=.t.$.=.t.6.`.oXoX XoX XU.0.0.6.0.t. XoXoX-X-XC 8XPXIXPXPXPXPXPXPXPXPXPXPXPXPXPXPXPXPXPXPXPXPXPXPXPXPXPXPXPXPXPXPXPXPXPXPXPXPXPXPXPXPXPXPXPXPXPXPXPXPXPXPXPXPXPXPXPXPXPXPXPXPXPXPXPXPXPXPXPXPXPXPXPXPXPXPXPXPXPXPXPXPXPXPXPXPXPXPXPXPXPXPXPXPXPXPXPXPXPXPXPXPXPXPXPXPXPXPXPXPXPXPXPXPXPXPXPXPXPXPXPXPXPXPXPXPXPXPXPXPXPXPXPXPXPXPXPXPXPXPXPXPXPXPXPXPXPXPXPXPXPXPXPXPXPXPXPXPXPXPXPXPXPXPXPXPXPXPXPXPXPXPXPXPXPXPXPXPXPXPXPXPXPXPXPXPXPXPXPXPXPXPXPXPXPXPXPXPXPXPXPXPXPXPXPXPXPXPXPXPXPXPXPXPXPXPXPXPXPXPXPXPXPXPXPXPXPXPXPXPXPXPXPXPXPXPXPXPXPXPX",
"#XOX).OX X3.2.6.0.0.S S 9. X#X%X%X$X-X].$.=.b.r.r.r.r.$.,.|.-X+X%XXX-XU.%.P.`.y.0.6.=X=X#X*X$XK i : + p p p & @ ' XXXX(.T.} /.%X#X%X:X3X(.L.Y.OX$XOXA.A.L.K.Y.E.%X>X*X$X*X>X3X3X3X*X*X$X=X#X%XJ.i } J.K./.Y.Y.` P ^.XXf -.W.I.[.G.Y.G.h J.oX.X+X>X&X*XA.d [.A.Y.XX| -XS.K +XJ.F Y.F.F.#X|  XY.J ^.#X/.%X&X+X@X&.D.oX| ^.Y.Q -XI.` $X` Z..XY J.Y.Y  XI.A..X+X.XoX+X&X*X=X>XwX>X&X#X+X+X&XXXG.F.L.F.F.F./.$X%X^.E.).2X%X#XOX/.G. .(.W.R.z p : i i > + $ p J J F.#X%X%X%X-X|.q.$.t r.#.#.1.6.6.[.&X#X&X[.|.}.1.t $.u.$.#.=.t.|.'.oXoX X X X6.$.%.$.P.oXoXXX-X-XC 8XPXIXPXPXPXPXPXPXPXPXPXPXPXPXPXPXPXPXPXPXPXPXPXPXPXPXPXPXPXPXPXPXPXPXPXPXPXPXPXPXPXPXPXPXPXPXPXPXPXPXPXPXPXPXPXPXPXPXPXPXPXPXPXPXPXPXPXPXPXPXPXPXPXPXPXPXPXPXPXPXPXPXPXPXPXPXPXPXPXPXPXPXPXPXPXPXPXPXPXPXPXPXPXPXPXPXPXPXPXPXPXPXPXPXPXPXPXPXPXPXPXPXPXPXPXPXPXPXPXPXPXPXPXPXPXPXPXPXPXPXPXPXPXPXPXPXPXPXPXPXPXPXPXPXPXPXPXPXPXPXPXPXPXPXPXPXPXPXPXPXPXPXPXPXPXPXPXPXPXPXPXPXPXPXPXPXPXPXPXPXPXPXPXPXPXPXPXPXPXPXPXPXPXPXPXPXPXPXPXPXPXPXPXPXPXPXPXPXPXPXPXPXPXPXPXPXPXPXPXPXPXPXPXPXPXPXPXPXPXPX",
"#X#X+X-X`.6.0.$.$.$.r.%.U.^.OX%X%X$X-Xt.t.t.$.=.u.#.r.t.8.-X-X#XOXXXoX{.`.%.t.%.t.{.-X=X*X$X$XK 3 > > 2 g > 2 : c %XXXXX .| (.XX%X*X%X*X^.} Y./.#XOXA.A.G.J.Y.R.XX*X$X#X$X*X=X*X*X*X$X%X#XXX#X!.| ^.l K *Xs D =X!.XXW.G.=Xh G &XD i oX[.^.oXW.oX=X&X#XY.+XA.* H.=X* z #X^.^.E.OXY.i | $Xz z XX/.(.OX/./.@X@X[.Y.=XG 9  XW.* D &XY.^.Y.&XD 2 !.E.* h +X X/.OXXXXXOX+X&X=X=X&X*X.X^. XXXoXW.H.G.F.L.F.L.(.%XOX(.R./.%XXX%X%XOXR.H.W.).E.h p : i 3 @ + % p W J F.%X%X%X%X-X|.>.r e r.:.e S *.6..X@X$X#X XU.0.S e $.b.$.S e A U. X.X.X.X.X'.L C 6.N %. XOXXXoX-XL =XPXPXPXPXPXPXPXPXPXPXPXPXPXPXPXPXPXPXPXPXPXPXPXPXPXPXPXPXPXPXPXPXPXPXPXPXPXPXPXPXPXPXPXPXPXPXPXPXPXPXPXPXPXPXPXPXPXPXPXPXPXPXPXPXPXPXPXPXPXPXPXPXPXPXPXPXPXPXPXPXPXPXPXPXPXPXPXPXPXPXPXPXPXPXPXPXPXPXPXPXPXPXPXPXPXPXPXPXPXPXPXPXPXPXPXPXPXPXPXPXPXPXPXPXPXPXPXPXPXPXPXPXPXPXPXPXPXPXPXPXPXPXPXPXPXPXPXPXPXPXPXPXPXPXPXPXPXPXPXPXPXPXPXPXPXPXPXPXPXPXPXPXPXPXPXPXPXPXPXPXPXPXPXPXPXPXPXPXPXPXPXPXPXPXPXPXPXPXPXPXPXPXPXPXPXPXPXPXPXPXPXPXPXPXPXPXPXPXPXPXPXPXPXPXPXPXPXPXPXPXPXPXPXPXPXPXPXPXPXPX",
"#X#X#X-X}.0.e #.r.e S t.U.Y.#X$X$X-X-X|.0.#.#.r.r.#.#.$.{.-XoX#X%XXXXX{.%.v t.$.$.{.=X-X*X$X$XE i p 3 % x % > 2 h (.R...| ..(.).%X).XX$XE.L.L.(..X^.} F.F.K.K.Y.OX*X$X#X+X#X&X*X$X$X#X#X$XXX#XL.^.F.$ | 1Xd & J.#X^./.&XG.% Y &XW : H.+X^.XXOXoX#X&X#X X/.d u K.*Xh u J.(./.^.R.F g K.$XY p Y W.OXXXXXXX$X+XoX+XY.d x ^.XXx F I.Y.).^.J d F E._.W 3 D R..XOX.XOXXX@X=X>X=X&X#X.XW.W. X.XW.G.G.H.L.F.L.).:X$XOX(.#X%X#X%X$X#XW.G.).@X(.F i > : 3 O + + p Y J F.+X%XOX%X#X!.C r >.u.t.e n %.Z..X@X$X+XoX|.3.M A t.}.{.2.S C Y. X.X.X^.^.'.N %.|.6.H  XXXXX@X+Xm 8XPXIXPXPXPXPXPXPXPXPXPXPXPXPXPXPXPXPXPXPXPXPXPXPXPXPXPXPXPXPXPXPXPXPXPXPXPXPXPXPXPXPXPXPXPXPXPXPXPXPXPXPXPXPXPXPXPXPXPXPXPXPXPXPXPXPXPXPXPXPXPXPXPXPXPXPXPXPXPXPXPXPXPXPXPXPXPXPXPXPXPXPXPXPXPXPXPXPXPXPXPXPXPXPXPXPXPXPXPXPXPXPXPXPXPXPXPXPXPXPXPXPXPXPXPXPXPXPXPXPXPXPXPXPXPXPXPXPXPXPXPXPXPXPXPXPXPXPXPXPXPXPXPXPXPXPXPXPXPXPXPXPXPXPXPXPXPXPXPXPXPXPXPXPXPXPXPXPXPXPXPXPXPXPXPXPXPXPXPXPXPXPXPXPXPXPXPXPXPXPXPXPXPXPXPXPXPXPXPXPXPXPXPXPXPXPXPXPXPXPXPXPXPXPXPXPXPXPXPXPXPXPXPXPXPXPXPXPXPXPX",
"#X#XoXoX{.S e $.t.S e C U. XOX$X$X-X-X`.$.S $.s.7X=.t t 0.|.|.oX2XXXoX!.A C |.0.e 5.-X1X#X%X:Xx 3 i @ & j 3 @ > x _.(.E. .Y.).%X%X%X%X$X/.(././..X/.T.A.J.Y.Y.^.$X>X*X*X%X$X$X>X3X3X*X#X$X#X$X^.F.` | ^./.^.T.2 K %X:XG G A.R.@XR.W.J G ^.OX#XXX&X#X&XW.u z Y.W.^. X| 3 K XXR.< i R.E./.XX| % D ^.(.OXOX>X@X@XG.p G Y.W.(./.G g | %X| @ g R.R.R.E.j @ F /.OXOXOXoX+X=XwX=X=X#XXX XW..XXXW.G.F.H.H.F.H..X$XOXOX(.%X1X#X$X$X%XW.R./.@X(.x 3 : > i % O + h W J F.#X1X%X#X#X'.N I 6.6.6.*.S %.Z.W.OX$X+XY.S.6.I U.5.T.&.U.&.I I.W..X X^. XU.I S.3.3.I Y.XX.X[.[.;.wXPXPXPXPXPXPXPXPXPXPXPXPXPXPXPXPXPXPXPXPXPXPXPXPXPXPXPXPXPXPXPXPXPXPXPXPXPXPXPXPXPXPXPXPXPXPXPXPXPXPXPXPXPXPXPXPXPXPXPXPXPXPXPXPXPXPXPXPXPXPXPXPXPXPXPXPXPXPXPXPXPXPXPXPXPXPXPXPXPXPXPXPXPXPXPXPXPXPXPXPXPXPXPXPXPXPXPXPXPXPXPXPXPXPXPXPXPXPXPXPXPXPXPXPXPXPXPXPXPXPXPXPXPXPXPXPXPXPXPXPXPXPXPXPXPXPXPXPXPXPXPXPXPXPXPXPXPXPXPXPXPXPXPXPXPXPXPXPXPXPXPXPXPXPXPXPXPXPXPXPXPXPXPXPXPXPXPXPXPXPXPXPXPXPXPXPXPXPXPXPXPXPXPXPXPXPXPXPXPXPXPXPXPXPXPXPXPXPXPXPXPXPXPXPXPXPXPXPXPXPXPXPXPXPXPXPXPXPXPXPX",
"XX#XXXoXU.v M t.`.%.0 N P.Y.#X+X$X$X+XU.S C `.{.}.t.$.M 2.|.-X-XXXXX-XT.H D.|. XU 3.1X-X$X1X%Xx 3 : O 3 j 3 @ @ x _.R.R.L.L.%X1X$X%XOX1XXX^.^./.XX/.F.D.F.K.L.(.&X3X*X*X$X&X#X*X*X*X$X#X#XXXOXL.z K ..L.K.R.F.p i R.E.g G ~ H.E.H.L.F z  ./.%XXX%X$XXX| z J F.L.J.F.| K F ^. .h W  .H.L.F.A.G F T.(.#X/.&X@X[.J G J ! F.;.~ ~ ! E _.| }  . . .X. .H...! W.@X.X+XOX+X>X8X>X*X+X.XW.W..X+X^.G.F.F.F.F.F.(.%X(.)._.%X#XOX%X$X$X(.K./.).E.x i 2 : > % + + g W J } $X*X%X$X XZ.3.S.3.D.Z.Z.D.&.Y Y.%X@X#XY.| J.J.Y.L.E.H.E.W.Y.F.K.XXOX+XY.J.J.F.F.F. .G./.+X+XoX;.fXPXPXPXPXPXPXPXPXPXPXPXPXPXPXPXPXPXPXPXPXPXPXPXPXPXPXPXPXPXPXPXPXPXPXPXPXPXPXPXPXPXPXPXPXPXPXPXPXPXPXPXPXPXPXPXPXPXPXPXPXPXPXPXPXPXPXPXPXPXPXPXPXPXPXPXPXPXPXPXPXPXPXPXPXPXPXPXPXPXPXPXPXPXPXPXPXPXPXPXPXPXPXPXPXPXPXPXPXPXPXPXPXPXPXPXPXPXPXPXPXPXPXPXPXPXPXPXPXPXPXPXPXPXPXPXPXPXPXPXPXPXPXPXPXPXPXPXPXPXPXPXPXPXPXPXPXPXPXPXPXPXPXPXPXPXPXPXPXPXPXPXPXPXPXPXPXPXPXPXPXPXPXPXPXPXPXPXPXPXPXPXPXPXPXPXPXPXPXPXPXPXPXPXPXPXPXPXPXPXPXPXPXPXPXPXPXPXPXPXPXPXPXPXPXPXPXPXPXPXPXPXPXPXPXPXPXPXPXPXPX",
"XX#XoX XF.N &.3.%.6.L D 3.Y.#X$X:XOXY.T.3.U.Y.S.P.9. X3.6.^.oX$XXXXX^.| D.J.G.G.Y.S.oXOX$X:X%XK : > > > g > 3 3 j R.~.L...T.OX1X$X#X%X$X_.E.^._./.^.F.| J.Y.J.^.#X3X*X$X#X&X%X*X3X>X$X#X%XOX_.J.J.K.^.Y.).Y.Y.(.K.(.(.E./.W.W.@XW.E.(.^.E._.OX^.*X#XXX(./.XX(.XXoX^.XXOX/.(./.#X#XXX.XOX/..X#X+X(.(.XX/.@X.X.X@X:XXXXX@X.X).:X@X@X_.).)./.XXXX/.(./././..X+X@X+XoX+X&X*X=X*X#XoX.X.XoX#X.XS.F.L.J. . .W.)._.E.L._._.^.(.(..XR.F.R.).R.h u 2 : @ % @ % p F K | /.OX#X%X^.Y.Y.W.J.J.J.F.G.A.| D.W./.XXK.E.(. .L.R.R.R.L.F.W.W.Y.^. XE.F. .| .. .Q.(.E./.W.[.'.*.fXPXIXPXPXPXPXPXPXPXPXPXPXPXPXPXPXPXPXPXPXPXPXPXPXPXPXPXPXPXPXPXPXPXPXPXPXPXPXPXPXPXPXPXPXPXPXPXPXPXPXPXPXPXPXPXPXPXPXPXPXPXPXPXPXPXPXPXPXPXPXPXPXPXPXPXPXPXPXPXPXPXPXPXPXPXPXPXPXPXPXPXPXPXPXPXPXPXPXPXPXPXPXPXPXPXPXPXPXPXPXPXPXPXPXPXPXPXPXPXPXPXPXPXPXPXPXPXPXPXPXPXPXPXPXPXPXPXPXPXPXPXPXPXPXPXPXPXPXPXPXPXPXPXPXPXPXPXPXPXPXPXPXPXPXPXPXPXPXPXPXPXPXPXPXPXPXPXPXPXPXPXPXPXPXPXPXPXPXPXPXPXPXPXPXPXPXPXPXPXPXPXPXPXPXPXPXPXPXPXPXPXPXPXPXPXPXPXPXPXPXPXPXPXPXPXPXPXPXPXPXPXPXPXPXPXPXPXPXPXPX",
"XX#XOXY.| T.F.T.S.D.U.D.Y Y.+X$X$X.XK.^.XXXX(.)././.XX.X^.Y.Y.$X+XXX(.Y.XX(.E./././.(.*X%X1X%XY 8 3 i g j g p 3 x (.R.X.| ..(.OX%XOX(.%X(.L.J.(./.^.| | } K.L.E.#X*X$XXXXX#X#X&X$X1X$XXXXX_.+XOXY.Y.Y.Y.Y.Y.Y.S.Y.OXOXF.;.G.P.;.Z.Z.U | oX%X/.(.$XXXOXK.F Y Y I K Y Y z D.oXJ.D G G Y P G J m A.+X X+XXX&X+X@X! h F D m m d d i } ).' 2 2 u u u u u : ! @X+X+X-X&X&X>X=XwX>X*X&X+X+X$X*X.XJ.S.J.F.F.L./.:XOX_.R.(._.(.(.OX@XW.K.(.).(.g O . . O o O @ g F x | E.%X#XXXXX@XXX^.J d h D d z A.A.K.XXXXXXXXE.z g x z x g j W./..X X^.(.Y.Y i 3 ..(.).)..X.XoXoX=.fXPXPXPXPXPXPXPXPXPXPXPXPXPXPXPXPXPXPXPXPXPXPXPXPXPXPXPXPXPXPXPXPXPXPXPXPXPXPXPXPXPXPXPXPXPXPXPXPXPXPXPXPXPXPXPXPXPXPXPXPXPXPXPXPXPXPXPXPXPXPXPXPXPXPXPXPXPXPXPXPXPXPXPXPXPXPXPXPXPXPXPXPXPXPXPXPXPXPXPXPXPXPXPXPXPXPXPXPXPXPXPXPXPXPXPXPXPXPXPXPXPXPXPXPXPXPXPXPXPXPXPXPXPXPXPXPXPXPXPXPXPXPXPXPXPXPXPXPXPXPXPXPXPXPXPXPXPXPXPXPXPXPXPXPXPXPXPXPXPXPXPXPXPXPXPXPXPXPXPXPXPXPXPXPXPXPXPXPXPXPXPXPXPXPXPXPXPXPXPXPXPXPXPXPXPXPXPXPXPXPXPXPXPXPXPXPXPXPXPXPXPXPXPXPXPXPXPXPXPXPXPXPXPXPXPXPXPXPXPXPX",
"XXXX(.^.K.^.^.F.Z.A.A.Z.Z.Y.[.+X#XOXOX@XK. .R.H.L.H.} L.OXXX.X.X.XE.K. .}  .L.).$X%XOX#X#X%XXXc O + + @ @ + @ > x ).~.E.L.L.XXOX%X1X1X$X(.E.!.OX:X@X' | T.K.!.E.#X3X$XXX^.*X3X>X$X*X1X#X%X#X*XI.$ & = % * = & $ p W.W.$ $ $ % % $ & + i XX1X#XOX*X#XaXY + = & & = % $ - z #X| $ & * & % % % O D *X^.oX+X>X+X>Xx % & % % % $ O O U @Xz $ $ $ = $ $ - $ Q &X&X+X+X&X&X=X*X*X=X>X*X+XoX#X=XXXJ.F.G.F.A.L./.%XOX_.(._._./.)..X>XW.R.W.).Q.g O O O . . O & c x E | OX$X%X$X#X$X&XXXY p h h p D J.J./.%XXX%X%X(.x z x x x g F (..X.X/..X XY. .x z  .)./.(.XXoXoX-X*.eXPXPXPXPXPXPXPXPXPXPXPXPXPXPXPXPXPXPXPXPXPXPXPXPXPXPXPXPXPXPXPXPXPXPXPXPXPXPXPXPXPXPXPXPXPXPXPXPXPXPXPXPXPXPXPXPXPXPXPXPXPXPXPXPXPXPXPXPXPXPXPXPXPXPXPXPXPXPXPXPXPXPXPXPXPXPXPXPXPXPXPXPXPXPXPXPXPXPXPXPXPXPXPXPXPXPXPXPXPXPXPXPXPXPXPXPXPXPXPXPXPXPXPXPXPXPXPXPXPXPXPXPXPXPXPXPXPXPXPXPXPXPXPXPXPXPXPXPXPXPXPXPXPXPXPXPXPXPXPXPXPXPXPXPXPXPXPXPXPXPXPXPXPXPXPXPXPXPXPXPXPXPXPXPXPXPXPXPXPXPXPXPXPXPXPXPXPXPXPXPXPXPXPXPXPXPXPXPXPXPXPXPXPXPXPXPXPXPXPXPXPXPXPXPXPXPXPXPXPXPXPXPXPXPXPXPXPXPXPXPX",
"^.XXXXXXXXXX^.H i d i f Q Y.XX+X+X$X@X@XW j x x x x i E $XOX+X+X#XXX^.F x z J R.:X>X@X$X:X@X:XG X . O O O O . ; E ).Q.Q.K.K./.$X$X3X%X1X/.^.^.#X:XOX| | F.J.K.K.%X3X*X.X^.*X3X3X*X>X*X#X@X#X*XY.- = * 6 8 6 $ + d XXW.+ % * : % % % + p $X1X#XXX*XXXaXQ $ : * * * : % + D &XZ.$ % % % > : % O Y 1X.XXX+X*X+X>XF % > % % > 8 $ $ W oXD & 8 * 8 8 * = $ -.:X+X+X+X+X+X=X*X=XwX>X&X+XXX#X*XXXJ.F.F.F.J.L.(.:X%X(._.(._.(.(.XX$XE.K.(.W.o.R 4 4 ; . . O & g E E | OX$X#X%XOX+XoX.X| d z z d F F.J.XX#X%X%X#X^.H x x x x j x W.@X/. X.X^.^.F.z g  .~.)././..X.XoX0.MXPXPXPXPXPXPXPXPXPXPXPXPXPXPXPXPXPXPXPXPXPXPXPXPXPXPXPXPXPXPXPXPXPXPXPXPXPXPXPXPXPXPXPXPXPXPXPXPXPXPXPXPXPXPXPXPXPXPXPXPXPXPXPXPXPXPXPXPXPXPXPXPXPXPXPXPXPXPXPXPXPXPXPXPXPXPXPXPXPXPXPXPXPXPXPXPXPXPXPXPXPXPXPXPXPXPXPXPXPXPXPXPXPXPXPXPXPXPXPXPXPXPXPXPXPXPXPXPXPXPXPXPXPXPXPXPXPXPXPXPXPXPXPXPXPXPXPXPXPXPXPXPXPXPXPXPXPXPXPXPXPXPXPXPXPXPXPXPXPXPXPXPXPXPXPXPXPXPXPXPXPXPXPXPXPXPXPXPXPXPXPXPXPXPXPXPXPXPXPXPXPXPXPXPXPXPXPXPXPXPXPXPXPXPXPXPXPXPXPXPXPXPXPXPXPXPXPXPXPXPXPXPXPXPXPXPXPXPXPXPX",
"XX%XXX_.XX_.(.' p d d h -.[.oX&X>X$X%X:XE x G F F x g | $X+X+X+XXX#X(.K x x E (.$X@X:X&X>X>X@XP O O O O O O ; > R ;XQ.W.R.K.OX$X%X1X$X:XOX^.(.%X$XXX| |  .L.E.E.%X3X>XXX^.>X3X>X*X>X$X#X#X+X*XY.$ * % d m d % - i .XY.% % % % : & % X i $X1XXX(.#XoX3XQ % : * > : u = X D &XW $ $ O % % : % X D &X X^.XX&XXX>Xh % % @ @ ; % $ % | oXD % % % % 6 % $ X Q &X[.@X+X+X+X&X=X*X>X*X#XoX.X+X&X.XJ.A.A.F.| | (.)._.R.L.X._.^.(./.XXR.L.E.Q.Q.T , , O O . . > c x E | %X$XOX#X#X#X#X.XW p h z p F G.K..XXX#XXX%X(.c z x x x h h (..X[./..X^.^.} g g ~ (./.)././..X Xt.fXPXIXPXPXPXPXPXPXPXPXPXPXPXPXPXPXPXPXPXPXPXPXPXPXPXPXPXPXPXPXPXPXPXPXPXPXPXPXPXPXPXPXPXPXPXPXPXPXPXPXPXPXPXPXPXPXPXPXPXPXPXPXPXPXPXPXPXPXPXPXPXPXPXPXPXPXPXPXPXPXPXPXPXPXPXPXPXPXPXPXPXPXPXPXPXPXPXPXPXPXPXPXPXPXPXPXPXPXPXPXPXPXPXPXPXPXPXPXPXPXPXPXPXPXPXPXPXPXPXPXPXPXPXPXPXPXPXPXPXPXPXPXPXPXPXPXPXPXPXPXPXPXPXPXPXPXPXPXPXPXPXPXPXPXPXPXPXPXPXPXPXPXPXPXPXPXPXPXPXPXPXPXPXPXPXPXPXPXPXPXPXPXPXPXPXPXPXPXPXPXPXPXPXPXPXPXPXPXPXPXPXPXPXPXPXPXPXPXPXPXPXPXPXPXPXPXPXPXPXPXPXPXPXPXPXPXPXPXPXPX",
"XXXXXX%X%XOXE.J p d d d U Y.+X#X$X$X%X%XE h x z x x p ! $X@X+X&XOXXX(.K x c J (.$X@X&X:X:X&X,XE ; % @ O O O ; > R ~.Q.E.J.F.^.%X%X$X%X%XW.R.K.OX$X).| ..F.J.E.R.OX*X$XXX^.*X*X$X$X$X#XXXoX+X*XU.$ $ - a i a 6 X i  XE.+ @ + @ @ % % X 2 oXoXXXoX$XoXwXU + : : : : p % X m +XW + % O O % > % X z #X XY. X$X[.@Xz O ; ; O O O O O Y .Xh $ O % % @ $ + + Q @X+X+X+X+XXX*X>X=X=X*X&X+X+X&X*XXXG.D.F.L.F.F.E.(._._.R.OX%X).%X$X%XW.K.).@XQ.^ T T ; O O O % j R J | ).$X%X%X#XXX#XXXW d h z p z G.F.XX#X-XXXXX/.z z z z x g h W..X.X.XXX^.^. .h g ~ (.).(./..X XoXt.hXPXPXPXPXPXPXPXPXPXPXPXPXPXPXPXPXPXPXPXPXPXPXPXPXPXPXPXPXPXPXPXPXPXPXPXPXPXPXPXPXPXPXPXPXPXPXPXPXPXPXPXPXPXPXPXPXPXPXPXPXPXPXPXPXPXPXPXPXPXPXPXPXPXPXPXPXPXPXPXPXPXPXPXPXPXPXPXPXPXPXPXPXPXPXPXPXPXPXPXPXPXPXPXPXPXPXPXPXPXPXPXPXPXPXPXPXPXPXPXPXPXPXPXPXPXPXPXPXPXPXPXPXPXPXPXPXPXPXPXPXPXPXPXPXPXPXPXPXPXPXPXPXPXPXPXPXPXPXPXPXPXPXPXPXPXPXPXPXPXPXPXPXPXPXPXPXPXPXPXPXPXPXPXPXPXPXPXPXPXPXPXPXPXPXPXPXPXPXPXPXPXPXPXPXPXPXPXPXPXPXPXPXPXPXPXPXPXPXPXPXPXPXPXPXPXPXPXPXPXPXPXPXPXPXPXPXPXPXPXPX",
"XX%X%XXXXX/._.J p p i d Q ^.oX&X&X@X$X@XE h x x x x g } $X+X+X-X#XXXE.K z x E Q.:X:X:X:X:X:X@XE > @ @ O ; O , 4 R X.R.R. . .W.@X@XOX%X$X(.E.(.$X$XOX| | F.K.E.E.OX>X*X$XOX*X*X*X*X*X$X#X#X+X=XJ.$ = $ d D m 6 o p .XE.+ O O @ O @ % X f #XoXoXoX&X+XaXJ + > > > : i % X D @XQ $ * O O @ % % X F *X=XXX+X&X+X,Xx ; ; ; ; O ; ; O Y .Xz @ @ @ O O O + O ! >X+X+X&X+X-X=X>X>X*X>X=X&X+X&X>XoXG.F.G.F.} } (.).(._._._.%XOX%X*X$XW.K.).%X<X^ ^ T ; O . o & j K K | XX%X@X#X#X#XoXXXQ p d d d z F.J..XXX#X%XXX/.x x z x h g g E././..X.X^.Y. .z g ..(.Q.)..X.X XY.t.MXPXPXPXPXPXPXPXPXPXPXPXPXPXPXPXPXPXPXPXPXPXPXPXPXPXPXPXPXPXPXPXPXPXPXPXPXPXPXPXPXPXPXPXPXPXPXPXPXPXPXPXPXPXPXPXPXPXPXPXPXPXPXPXPXPXPXPXPXPXPXPXPXPXPXPXPXPXPXPXPXPXPXPXPXPXPXPXPXPXPXPXPXPXPXPXPXPXPXPXPXPXPXPXPXPXPXPXPXPXPXPXPXPXPXPXPXPXPXPXPXPXPXPXPXPXPXPXPXPXPXPXPXPXPXPXPXPXPXPXPXPXPXPXPXPXPXPXPXPXPXPXPXPXPXPXPXPXPXPXPXPXPXPXPXPXPXPXPXPXPXPXPXPXPXPXPXPXPXPXPXPXPXPXPXPXPXPXPXPXPXPXPXPXPXPXPXPXPXPXPXPXPXPXPXPXPXPXPXPXPXPXPXPXPXPXPXPXPXPXPXPXPXPXPXPXPXPXPXPXPXPXPXPXPXPXPXPXPXPXPX",
"XXOXOXXX). X^.K p p d d |  X+X#X$X@X$X%XE z z x x z p | #XOX+X+X#XXX^.x x c J ).>X$X:X:X>X:X@Xx ; O O O O ; , , R X.~.E.H.! W.:X$X@X%X:X/.W.).@X:XOXF.} F.R.W.E.@X3X1X$X%X>X*X*X>X*X$X+X#X-X=XY.+ & $ d d d * o d .XE.@ O ; @ O @ > X i -X#X+X#X*X+XwXE + > > > : g + O m +X! + % O O % & & X D *X*X.X+X&X+X:Xx ; ; , , ; ; ; @ W (.z ; % @ ; O @ @ O ! +X+X+X+X+X+X=XwX&X&X>X&X+X+X&X*X#XI.S.L.J. . .E.(.)._._.%X1X_.%X$X$XE.L.).:XX.O.T T ; . . o & j K J ..(.#X%X#X#X+X+XOXQ p h d d z F.S./.#X#X+X+X/.F h x x h g h W./.^.^./. X^.F.h g | R.Q.)./..X^. Xy.MXPXPXPXPXPXPXPXPXPXPXPXPXPXPXPXPXPXPXPXPXPXPXPXPXPXPXPXPXPXPXPXPXPXPXPXPXPXPXPXPXPXPXPXPXPXPXPXPXPXPXPXPXPXPXPXPXPXPXPXPXPXPXPXPXPXPXPXPXPXPXPXPXPXPXPXPXPXPXPXPXPXPXPXPXPXPXPXPXPXPXPXPXPXPXPXPXPXPXPXPXPXPXPXPXPXPXPXPXPXPXPXPXPXPXPXPXPXPXPXPXPXPXPXPXPXPXPXPXPXPXPXPXPXPXPXPXPXPXPXPXPXPXPXPXPXPXPXPXPXPXPXPXPXPXPXPXPXPXPXPXPXPXPXPXPXPXPXPXPXPXPXPXPXPXPXPXPXPXPXPXPXPXPXPXPXPXPXPXPXPXPXPXPXPXPXPXPXPXPXPXPXPXPXPXPXPXPXPXPXPXPXPXPXPXPXPXPXPXPXPXPXPXPXPXPXPXPXPXPXPXPXPXPXPXPXPXPXPXPXPX",
"XXOXXXXX/._.R.K i p d i Q  XoX#X+X$X$X@XE z j x j x p } $X+X+X+XOXoX(.F z j E W.:X@X@X&X:X>X:XE O ; O O ; , , , R Q.Q.Q.H. .(.$X:X%X@X$X).W./.@X:X@X}  .F.K.R.E.%X>X$X*X#X*X#X$X3X*X%X#X1XXX=XY.$ & $ g h D 6 . i [.E.+ @ O O @ @ % O i =X#XXXoX*XoXwXJ + > > > > p + X m @X-.% % O O % % % O D *X=X.XoX&X+X>Xx % ; , , , , ; O Q XXj > j T T ^ R , O E +X+X+X&X+X+X&X&X>X&X=X&X+XoX&X>XXXG.|  . .} } E.).(.W.R.).$X%X%X%X#XK.L.(.).o.T 5 4 O O . o & z E J | ).$X$X$X+X+X+XXXW d g h d m G.S.XXoXoX+X@X/.z h h z j g g E./.(.(. X/.W.F.g g E ~.W././.W. XY.].MXPXPXPXPXPXPXPXPXPXPXPXPXPXPXPXPXPXPXPXPXPXPXPXPXPXPXPXPXPXPXPXPXPXPXPXPXPXPXPXPXPXPXPXPXPXPXPXPXPXPXPXPXPXPXPXPXPXPXPXPXPXPXPXPXPXPXPXPXPXPXPXPXPXPXPXPXPXPXPXPXPXPXPXPXPXPXPXPXPXPXPXPXPXPXPXPXPXPXPXPXPXPXPXPXPXPXPXPXPXPXPXPXPXPXPXPXPXPXPXPXPXPXPXPXPXPXPXPXPXPXPXPXPXPXPXPXPXPXPXPXPXPXPXPXPXPXPXPXPXPXPXPXPXPXPXPXPXPXPXPXPXPXPXPXPXPXPXPXPXPXPXPXPXPXPXPXPXPXPXPXPXPXPXPXPXPXPXPXPXPXPXPXPXPXPXPXPXPXPXPXPXPXPXPXPXPXPXPXPXPXPXPXPXPXPXPXPXPXPXPXPXPXPXPXPXPXPXPXPXPXPXPXPXPXPXPXPXPXPXPX",
"OXXXXX_.).XX^.x i d d p U W.oX$X$X%X$X@XK g z z z x p } $X#X&X-XOXOX(.F z z J ).>X:X:X:X:X@X@XR O O O ; , , , 4 T Q.Q.Q. .~ (.%XOX@XOX@XE.R.(.%X$X/.A.| } K.K.E.OX:X$X#XOX%X$X$X&X>X#X+X#XXX*XJ.$ = % 2 h h : X i [.[.% % O O ; @ % X 8 .XXX X.X#X/.>XQ + % > @ @ : % X m +X;.$ $ O O % @ % - D -X.X[..X+X+X+XF ; , , T / +.; O Y W.j > , T T T R ; O ! +X+X[.[.+X.X&X&X&X=X>X+XXXXX+X&XoXG.} | } | } R./.Q.R.R.(.%XXX_.XX(.R.L.).).X.^ 5 , O O o o % h G J | XX$X#X#X#X#XoXXXQ d h h p h J.T. X#X#XoX+X.Xz h h x h g g E./.^.(./.^.[.A.h g ~ (.).W././. XY.U.MXPXPXPXPXPXPXPXPXPXPXPXPXPXPXPXPXPXPXPXPXPXPXPXPXPXPXPXPXPXPXPXPXPXPXPXPXPXPXPXPXPXPXPXPXPXPXPXPXPXPXPXPXPXPXPXPXPXPXPXPXPXPXPXPXPXPXPXPXPXPXPXPXPXPXPXPXPXPXPXPXPXPXPXPXPXPXPXPXPXPXPXPXPXPXPXPXPXPXPXPXPXPXPXPXPXPXPXPXPXPXPXPXPXPXPXPXPXPXPXPXPXPXPXPXPXPXPXPXPXPXPXPXPXPXPXPXPXPXPXPXPXPXPXPXPXPXPXPXPXPXPXPXPXPXPXPXPXPXPXPXPXPXPXPXPXPXPXPXPXPXPXPXPXPXPXPXPXPXPXPXPXPXPXPXPXPXPXPXPXPXPXPXPXPXPXPXPXPXPXPXPXPXPXPXPXPXPXPXPXPXPXPXPXPXPXPXPXPXPXPXPXPXPXPXPXPXPXPXPXPXPXPXPXPXPXPXPXPXPXPX",
"XX(.(.XXXX/.E.F p i p d Q  XXXXX*X$X$X@XK h z z z x p F.$X+XOX#X#XXXE.K z x E W.:X@X:X&X,X,X@XR O O O O , T , , R Q.~.(. . .^././.)./.@XE.Q.L.(.%XXX .|  .K.E.R.(.OXOX/./.XX#X#X#X=X&X-X-XXX1XT.+ * & > : * & X d @X[.% @ @ O @ @ % O i +XoX.XoX*XXX>XW $ & > ; > : & X h -X;.O X X O O + + X D &X X+XoX&XoX:Xx , , , / +./ , ; E .Xx ; 4 , , , , ; O -.wX&X&X+X+X-X&X>XwX>X>X&X+XXX#X*X#XY.} F.F.}  .^.).W.R.R._.1X%X1XXX(.^.E.).).<XT , , ; . . O % g R K | XX$X%X#X#X#X#XXXQ d h d d z G.T.^.#X-XOXOX.Xz j h h h g p E.(.^..X^. XW.D.h p E W.W.Q.W./..XY.Y.VXPXPXPXPXPXPXPXPXPXPXPXPXPXPXPXPXPXPXPXPXPXPXPXPXPXPXPXPXPXPXPXPXPXPXPXPXPXPXPXPXPXPXPXPXPXPXPXPXPXPXPXPXPXPXPXPXPXPXPXPXPXPXPXPXPXPXPXPXPXPXPXPXPXPXPXPXPXPXPXPXPXPXPXPXPXPXPXPXPXPXPXPXPXPXPXPXPXPXPXPXPXPXPXPXPXPXPXPXPXPXPXPXPXPXPXPXPXPXPXPXPXPXPXPXPXPXPXPXPXPXPXPXPXPXPXPXPXPXPXPXPXPXPXPXPXPXPXPXPXPXPXPXPXPXPXPXPXPXPXPXPXPXPXPXPXPXPXPXPXPXPXPXPXPXPXPXPXPXPXPXPXPXPXPXPXPXPXPXPXPXPXPXPXPXPXPXPXPXPXPXPXPXPXPXPXPXPXPXPXPXPXPXPXPXPXPXPXPXPXPXPXPXPXPXPXPXPXPXPXPXPXPXPXPXPXPXPXPXPXPX",
"XXXXXX_.XXXXE.F p p d p } ^.XX#X$X#X$XOXY z z z z z i } #XOX#XXX#XXX!.K z z J (.%X%X@X:X$X>X:Xx O O O ; , , , 4 ^ Q.@X[.G.F.^.).%X@X+X:X(.E.L.OX1XOX} |  .K.K.E.(.%XOXXX/.OX#X+X+X>X&X&X#X&X3XG.+ * * > > & & X l *X+X+ @ + % @ @ > O 8 #X+XoXXX&XXXaXY + 2 3 3 : 3 % X D $X| $ X X O X - + X F #XoX+X+X*XOX1Xx ; ; , ^ +./ ; O ~ [.m , / , / , 4 ; O ! &X&X+X+X-X+X&X&X=X>X>X&X+XXX#X*XXXJ.} F.L.}  .E.(._.R.R.).$X%X2X%X^.E.L.).).Q.^ T > ; . . O @ j G J W ).$X$X$X#X#XoXXXQ d h h p l F.S. X-XOXoXXX/.z h h x h g i R./.^./.W.W.W.I.h p ~ (.W.Q.(.(.W.E.+XFXIXPXPXPXPXPXPXPXPXPXPXPXPXPXPXPXPXPXPXPXPXPXPXPXPXPXPXPXPXPXPXPXPXPXPXPXPXPXPXPXPXPXPXPXPXPXPXPXPXPXPXPXPXPXPXPXPXPXPXPXPXPXPXPXPXPXPXPXPXPXPXPXPXPXPXPXPXPXPXPXPXPXPXPXPXPXPXPXPXPXPXPXPXPXPXPXPXPXPXPXPXPXPXPXPXPXPXPXPXPXPXPXPXPXPXPXPXPXPXPXPXPXPXPXPXPXPXPXPXPXPXPXPXPXPXPXPXPXPXPXPXPXPXPXPXPXPXPXPXPXPXPXPXPXPXPXPXPXPXPXPXPXPXPXPXPXPXPXPXPXPXPXPXPXPXPXPXPXPXPXPXPXPXPXPXPXPXPXPXPXPXPXPXPXPXPXPXPXPXPXPXPXPXPXPXPXPXPXPXPXPXPXPXPXPXPXPXPXPXPXPXPXPXPXPXPXPXPXPXPXPXPXPXPXPXPXPXPXPXPX",
"XXXXXX_.(.XX^.c p f p p D.^.(.#X#X%X%XOXJ p z c z z p } %X#X#X#XXXXX^.c z z J ~.$X;X:X$X$X@X@Xx O O ; ; , , , , R Q.Q.@XS.F.^.(.OX$X@X$X_.(.R.).:X#X .| L.K.K.R.(.XX_./.XX#X&X&X&X=X+X&X&X+X=XI.X : > & : : & X z =X+X$ @ % @ @ > % O i -X+XoXXX&XoXaXU + > ; > 4 : $ X D =X} $ & $ + + X $ + D #XoXXX-X#X-X3XF > ; , ^ <X^ ; O ~ @Xm 4 j T , / T ; O W &X-X+XoXoX+X&X=X3X=X3X$X+XXX+X*XXXJ.T.L.L.} } L.R._.L.L.).%X%X%X_.^.E.E.).).o.^ T 4 O . . . @ i E G W OX$X$X#X#X#X+XoX| d z d f h S.T.^.XXOXoXXXXXz h z h x g p E./.^.W.W. XW.G.d p W E.(.Q.W.W.W.K.@XIXPXPXPXPXPXPXPXPXPXPXPXPXPXPXPXPXPXPXPXPXPXPXPXPXPXPXPXPXPXPXPXPXPXPXPXPXPXPXPXPXPXPXPXPXPXPXPXPXPXPXPXPXPXPXPXPXPXPXPXPXPXPXPXPXPXPXPXPXPXPXPXPXPXPXPXPXPXPXPXPXPXPXPXPXPXPXPXPXPXPXPXPXPXPXPXPXPXPXPXPXPXPXPXPXPXPXPXPXPXPXPXPXPXPXPXPXPXPXPXPXPXPXPXPXPXPXPXPXPXPXPXPXPXPXPXPXPXPXPXPXPXPXPXPXPXPXPXPXPXPXPXPXPXPXPXPXPXPXPXPXPXPXPXPXPXPXPXPXPXPXPXPXPXPXPXPXPXPXPXPXPXPXPXPXPXPXPXPXPXPXPXPXPXPXPXPXPXPXPXPXPXPXPXPXPXPXPXPXPXPXPXPXPXPXPXPXPXPXPXPXPXPXPXPXPXPXPXPXPXPXPXPXPXPXPXPXPXPXPXPX",
"!.XXXXXXXX(.E.z i p i p D.^. X#X#X#X$XOXK z z h z z p } $X#X#X#XXXXXE.F z h J R.:X:X:X:X$X@X:Xj O O O ; , , , , R Q.@X[. ...E.XXOX$X$X:X).(.L.(.:XOX .| F.K.R.K.E.(.(.XXXX%X#X+X+XwX&X+X&X-X>XG.+ : : > 3 2 & O d #X#X% @ > % % > % O a +XoXoX.X#XXXaXY + & @ @ > % + X D #X| $ % % $ $ $ $ X D #X^.XXXX#XXX*Xz ; ; , , T 4 ; O P Q.j , , , , , > ; O P +XoXoX+X.XoX+X+X&X=X*XoX.X/.XXoXXXY.J.L.E.Y.E.(.%XOXE.L.(.)./.XX_.(.E.L.W.).H.T O O O O . o % g J J W OX$X#X#X#X+X#X.X| p z d d d F.T. X-XXXOXXXOXz h z z x g i R./.E.^.^.^.Y.G.d 3 E R.(.E.(.W.W.K.@XHXPXPXPXPXPXPXPXPXPXPXPXPXPXPXPXPXPXPXPXPXPXPXPXPXPXPXPXPXPXPXPXPXPXPXPXPXPXPXPXPXPXPXPXPXPXPXPXPXPXPXPXPXPXPXPXPXPXPXPXPXPXPXPXPXPXPXPXPXPXPXPXPXPXPXPXPXPXPXPXPXPXPXPXPXPXPXPXPXPXPXPXPXPXPXPXPXPXPXPXPXPXPXPXPXPXPXPXPXPXPXPXPXPXPXPXPXPXPXPXPXPXPXPXPXPXPXPXPXPXPXPXPXPXPXPXPXPXPXPXPXPXPXPXPXPXPXPXPXPXPXPXPXPXPXPXPXPXPXPXPXPXPXPXPXPXPXPXPXPXPXPXPXPXPXPXPXPXPXPXPXPXPXPXPXPXPXPXPXPXPXPXPXPXPXPXPXPXPXPXPXPXPXPXPXPXPXPXPXPXPXPXPXPXPXPXPXPXPXPXPXPXPXPXPXPXPXPXPXPXPXPXPXPXPXPXPXPXPXPXPX",
"XXXXoX_.^.(.E.F p i u p | W.XXOX#X#X%XXXK z z z z z p T.#XOXOXoXXXOX!.F z c J (.%X%X@X:X$X:X@Xx O O ; O O ; ; , R Q.Q.Q...| E._.OX@X/.).E.|  .(.OX^.| F.L.(.(.E.).%X#X/..X+X+X=X&X=X+X.X&XXX+XF.O > % > > > @ o d #XXX+ + % @ @ + % O a XX[.XX-X&XoX>XY + > > ; ; > @ X D XXU + % $ $ $ $ $ X d -X-X^.XX$XOX&XF ; , , , ; ; O @ ~ [.m , , , , , ; % @ P +X+X+X+X+XXX+X+X&X+X=X#X.X.X+X&X$X.X^.E._.)./.%X$X%X_._.%X%XOX%X2X%XXXL.@X;X~.R ; ; @ O . . & h E J | /.$X#X#XOX#XoXoXU i d d f d S.T.XX#XoXoXXXXXx g h h h j 3 L.(.(.^.Y.W.Y.G.h i W (.W.W.Q.Q.W.E.).FXPXPXPXPXPXPXPXPXPXPXPXPXPXPXPXPXPXPXPXPXPXPXPXPXPXPXPXPXPXPXPXPXPXPXPXPXPXPXPXPXPXPXPXPXPXPXPXPXPXPXPXPXPXPXPXPXPXPXPXPXPXPXPXPXPXPXPXPXPXPXPXPXPXPXPXPXPXPXPXPXPXPXPXPXPXPXPXPXPXPXPXPXPXPXPXPXPXPXPXPXPXPXPXPXPXPXPXPXPXPXPXPXPXPXPXPXPXPXPXPXPXPXPXPXPXPXPXPXPXPXPXPXPXPXPXPXPXPXPXPXPXPXPXPXPXPXPXPXPXPXPXPXPXPXPXPXPXPXPXPXPXPXPXPXPXPXPXPXPXPXPXPXPXPXPXPXPXPXPXPXPXPXPXPXPXPXPXPXPXPXPXPXPXPXPXPXPXPXPXPXPXPXPXPXPXPXPXPXPXPXPXPXPXPXPXPXPXPXPXPXPXPXPXPXPXPXPXPXPXPXPXPXPXPXPXPXPXPXPXPX",
"_.XX_.XX^.^.K.x i p i i | W..X#X#X%X%XXXH z z z z g p T.#XXX+XOXOX#XE.c z z K R.@X:X@X:X:X:X@Xh O O ; O O O ; , ~ @X@XQ.;.X./.$X$XOXOXOX(.F.L.).3XXXL.E.K.(././.@X>X$X$X#X*X=X>XwXwX&X+X&X+X&XI.+ > > > > % % O h &XoX$ + @ O O O + $ u +XoXoX+X&X+XaXQ @ 3 > 4 ; : > X D $X! % : + O X X $ + D >X-X[.+X=XXX*XE , , , , , , O O ~ [.R ; , / , , 4 > O -.&X+X+X+X+X+X+X+X&X#X=X#XXX+X&X*X#XXXXX^.^.(./.OX$X%XR.R._.%X%X%XOXXX(.L.).%X).R ; , > O . . % h J J ` /.%X#X-XOXXX-X.X| f d d p d T.J.^.oX+XXX/.XXF g h z j g : R./.^.^.W.Y.W.S.h p E R.(.E.W.W.Q.R.).HXPXPXPXPXPXPXPXPXPXPXPXPXPXPXPXPXPXPXPXPXPXPXPXPXPXPXPXPXPXPXPXPXPXPXPXPXPXPXPXPXPXPXPXPXPXPXPXPXPXPXPXPXPXPXPXPXPXPXPXPXPXPXPXPXPXPXPXPXPXPXPXPXPXPXPXPXPXPXPXPXPXPXPXPXPXPXPXPXPXPXPXPXPXPXPXPXPXPXPXPXPXPXPXPXPXPXPXPXPXPXPXPXPXPXPXPXPXPXPXPXPXPXPXPXPXPXPXPXPXPXPXPXPXPXPXPXPXPXPXPXPXPXPXPXPXPXPXPXPXPXPXPXPXPXPXPXPXPXPXPXPXPXPXPXPXPXPXPXPXPXPXPXPXPXPXPXPXPXPXPXPXPXPXPXPXPXPXPXPXPXPXPXPXPXPXPXPXPXPXPXPXPXPXPXPXPXPXPXPXPXPXPXPXPXPXPXPXPXPXPXPXPXPXPXPXPXPXPXPXPXPXPXPXPXPXPXPXPXPXPX",
"_.XXXX_.^._.Y.F i i i d Z.W.XX#X$X#X#X%XK g j z z z p F.%XXXXXXXXXXXY.F z z K (.%X%X:X$X$X$X:Xx O O O , , , ; 4 ~ @X@X[.G.H.).$X%XOXOX$X^. . .%X:XOXL.L.E.(.(.).$X$X%X$X$X*X*XaXwX>X=X+X&X+X&X;.+ i 3 4 4 > % O d &XXX$ + O O O O + O i oXoX-X+X&X@XaX! @ 3 3 , 4 j > O z @X! % > @ O O O + O D +X&X+X+X*XoX>Xx , , , , , , ; ; ! [.E , , / , / , , O ! &X+X+XoXoXoX+X+X#X#X&X&X+X+X=X=X#XoX(.^.^.^._.OX3X%X(.E._.%XXX#XOXXX^.E.).).~.O.o.O., @ . O % h J J | XX%X#X#XOX#XXXXXW i z d p d L.J..XOXoX+X XXXz h z h g i i R.W.W.W.^.W.W.H.h i K E.Q.W.Q.(./.H.).FXPXPXPXPXPXPXPXPXPXPXPXPXPXPXPXPXPXPXPXPXPXPXPXPXPXPXPXPXPXPXPXPXPXPXPXPXPXPXPXPXPXPXPXPXPXPXPXPXPXPXPXPXPXPXPXPXPXPXPXPXPXPXPXPXPXPXPXPXPXPXPXPXPXPXPXPXPXPXPXPXPXPXPXPXPXPXPXPXPXPXPXPXPXPXPXPXPXPXPXPXPXPXPXPXPXPXPXPXPXPXPXPXPXPXPXPXPXPXPXPXPXPXPXPXPXPXPXPXPXPXPXPXPXPXPXPXPXPXPXPXPXPXPXPXPXPXPXPXPXPXPXPXPXPXPXPXPXPXPXPXPXPXPXPXPXPXPXPXPXPXPXPXPXPXPXPXPXPXPXPXPXPXPXPXPXPXPXPXPXPXPXPXPXPXPXPXPXPXPXPXPXPXPXPXPXPXPXPXPXPXPXPXPXPXPXPXPXPXPXPXPXPXPXPXPXPXPXPXPXPXPXPXPXPXPXPXPXPXPXPX",
"!.XX_.XXXX_.!.z i i i i A.W.XX+X#X#X$X#XF h z z z z p } #XXX#XXXXXXX^.z z g K E.:X:X:X$X@X$X@Xj O O ; ; , , , > ~ @X@X,XG.H.).@X@X@X@X$XW.H.K.OX1X$XE.L.E././.(.OX*X#X=X$X*X>X=X=XwX&X-X&X+X&XA.O 4 4 4 4 4 3 O g =X/.% O O O @ > @ + 8 +X[.+X@X&X+XwX! @ , 4 , 4 3 @ O x @X! % > @ O O O + X h >X@X[.+X&X@X>Xm , , , / / , ; O ~ Q.j , , , , , , , @ ~ +X.XoXoXoXoXoX+X#XoX-XOXXX XXX+X^.Y.^.Y.E.!.L.E.).OXR.L.(.OX_._.XX^.L...(._.X.^ +.o.; O . O @ g J J | _.$X#X+X#XXX-XXX` i d d i d J.G.^.+XXXoX/..Xz d h h h g 3 H.(.E.(.W. XW.S.g i J R.Q.W.Q.W.W.R.~.HXPXIXPXPXPXPXPXPXPXPXPXPXPXPXPXPXPXPXPXPXPXPXPXPXPXPXPXPXPXPXPXPXPXPXPXPXPXPXPXPXPXPXPXPXPXPXPXPXPXPXPXPXPXPXPXPXPXPXPXPXPXPXPXPXPXPXPXPXPXPXPXPXPXPXPXPXPXPXPXPXPXPXPXPXPXPXPXPXPXPXPXPXPXPXPXPXPXPXPXPXPXPXPXPXPXPXPXPXPXPXPXPXPXPXPXPXPXPXPXPXPXPXPXPXPXPXPXPXPXPXPXPXPXPXPXPXPXPXPXPXPXPXPXPXPXPXPXPXPXPXPXPXPXPXPXPXPXPXPXPXPXPXPXPXPXPXPXPXPXPXPXPXPXPXPXPXPXPXPXPXPXPXPXPXPXPXPXPXPXPXPXPXPXPXPXPXPXPXPXPXPXPXPXPXPXPXPXPXPXPXPXPXPXPXPXPXPXPXPXPXPXPXPXPXPXPXPXPXPXPXPXPXPXPXPXPXPXPXPXPX",
"#XXX|._.^.XXK.c i i i f Z. XoX+X#X#X=XOXx h z z z z p | %X.X+X#XXXXX^.c z z K ~.:X).$X$X:X$X,Xj ; O ; ; ; , , > R Q.@X;.! } /.OX@X)././.E.F.F./.*XOXJ.J.Y..X^.^.oXOXXXoXoX=X=X=X*X*X+X.XoX+X&XH.O 3 , 4 , 3 4 o d -XoX% @ O @ @ % @ O a [.+X[.XX&X+X>XE @ 4 , 4 , 4 > O z @XY ; > ; O O O + O D +X[.@X[.>X[.>XR , , / , / , ; O ~ @Xj , / , / / 4 , O E &X&XXX+XoX+X=X>X3X*X1X*XoX XoXoXE.!.XXXXXX(.(.(.OXOXR.X.(.%X%X2X%X(.E.!._.).X.^ ^ o., @ . . + g E x | (.#XOXOXoXXXXXXX` i d d i p J.D.W.oXXX+X.X/.z g h h h i i K.W.E.W.^.Y.Y.F.h 3 F R.E.E.W.W.Q.H.(.FXPXPXPXPXPXPXPXPXPXPXPXPXPXPXPXPXPXPXPXPXPXPXPXPXPXPXPXPXPXPXPXPXPXPXPXPXPXPXPXPXPXPXPXPXPXPXPXPXPXPXPXPXPXPXPXPXPXPXPXPXPXPXPXPXPXPXPXPXPXPXPXPXPXPXPXPXPXPXPXPXPXPXPXPXPXPXPXPXPXPXPXPXPXPXPXPXPXPXPXPXPXPXPXPXPXPXPXPXPXPXPXPXPXPXPXPXPXPXPXPXPXPXPXPXPXPXPXPXPXPXPXPXPXPXPXPXPXPXPXPXPXPXPXPXPXPXPXPXPXPXPXPXPXPXPXPXPXPXPXPXPXPXPXPXPXPXPXPXPXPXPXPXPXPXPXPXPXPXPXPXPXPXPXPXPXPXPXPXPXPXPXPXPXPXPXPXPXPXPXPXPXPXPXPXPXPXPXPXPXPXPXPXPXPXPXPXPXPXPXPXPXPXPXPXPXPXPXPXPXPXPXPXPXPXPXPXPXPXPXPX",
"^.XXoX(.(.(.R.h i i i i ;.W.oX+X#X#X#XOXF g z z h z p J.+X+XoX+X#XXXE.z z z J R.;X%X%X*X%X$X:Xj ; O , , ; , ; , R ).).W.}  .(.@XOX@X@XXXW.I.E.W.$XOXY.K.E.OX#XoX%X*X#X#X#X=X1X=X&X=X=X=X+X-X>XI.@ , 5 4 , 4 3 O g =XoX% + @ ; @ @ % + p &X=XoX+XwX+X3X .@ > 4 , 4 4 > X z @XW @ > , ; , ; + + F >X@X@X+X:X+XwXE > T , / / , , ; ~ Q.R ; 4 T , T T ; @ E +X&X+XoX+X-X=X1X*X*X>X=X+X XXXOXoX^.XX(.XXXX).XX%X).(.R._.#XXX2X%X(.^.L.(._.R.O.O.O., O . o $ h E J W /.$X@XOXXXXXoX.XQ i d d i p G.A.Y.XXoXXXXXXXz g h h g p 3 L.^.E.E.W.Y.W.G.g i x R.R.W.R.W.(.K.Q.HXPXPXPXPXPXPXPXPXPXPXPXPXPXPXPXPXPXPXPXPXPXPXPXPXPXPXPXPXPXPXPXPXPXPXPXPXPXPXPXPXPXPXPXPXPXPXPXPXPXPXPXPXPXPXPXPXPXPXPXPXPXPXPXPXPXPXPXPXPXPXPXPXPXPXPXPXPXPXPXPXPXPXPXPXPXPXPXPXPXPXPXPXPXPXPXPXPXPXPXPXPXPXPXPXPXPXPXPXPXPXPXPXPXPXPXPXPXPXPXPXPXPXPXPXPXPXPXPXPXPXPXPXPXPXPXPXPXPXPXPXPXPXPXPXPXPXPXPXPXPXPXPXPXPXPXPXPXPXPXPXPXPXPXPXPXPXPXPXPXPXPXPXPXPXPXPXPXPXPXPXPXPXPXPXPXPXPXPXPXPXPXPXPXPXPXPXPXPXPXPXPXPXPXPXPXPXPXPXPXPXPXPXPXPXPXPXPXPXPXPXPXPXPXPXPXPXPXPXPXPXPXPXPXPXPXPXPXPXPXPX",
"^.^.^.^./.(.G.h i i i d A.[.XX+X#X+X#X.XF g g h z h p G.+XoX+X+X#XoXK.z h j c Q.:X%X:X%X:X:X,Xj O ; , ; , ; ; , ~ ~./.W.H.H.(.@X@X$X$X$X/.R.R..X$XXXY.E.E.#X$XOX#X$X#X1X=X*X>X1X*X>X*X=X-X-X&XG.@ ; , 4 4 4 > O g =XoX% @ > @ @ @ % O p +X*X+X.X>X+X4X} O , , , , 4 % O F $XE @ ; ; , , ; > X z >X.X+X+X&X+X>XR , 4 / , , T , O ~ @XR ^ <XQ.o.+.+.^ > E &X+X+X+X#X#X*X1X*X1X*X=XoX.XXXoX^.!.oX(.XX^.(.).$X%XE.R.%X$X%X%X%X%X(.L._._.~.R , T , O . . $ g G K W .X$X+XXXXXXXXXXXW f p d u p F.A.^.+X.X X/. Xh i p h g 3 2 F.E.E.E.W.Y.Y.F.p 3 x K.W.Q.R.W.Q.H.(.DXPXPXPXPXPXPXPXPXPXPXPXPXPXPXPXPXPXPXPXPXPXPXPXPXPXPXPXPXPXPXPXPXPXPXPXPXPXPXPXPXPXPXPXPXPXPXPXPXPXPXPXPXPXPXPXPXPXPXPXPXPXPXPXPXPXPXPXPXPXPXPXPXPXPXPXPXPXPXPXPXPXPXPXPXPXPXPXPXPXPXPXPXPXPXPXPXPXPXPXPXPXPXPXPXPXPXPXPXPXPXPXPXPXPXPXPXPXPXPXPXPXPXPXPXPXPXPXPXPXPXPXPXPXPXPXPXPXPXPXPXPXPXPXPXPXPXPXPXPXPXPXPXPXPXPXPXPXPXPXPXPXPXPXPXPXPXPXPXPXPXPXPXPXPXPXPXPXPXPXPXPXPXPXPXPXPXPXPXPXPXPXPXPXPXPXPXPXPXPXPXPXPXPXPXPXPXPXPXPXPXPXPXPXPXPXPXPXPXPXPXPXPXPXPXPXPXPXPXPXPXPXPXPXPXPXPXPXPXPXPX",
"XX^.^._././.K.g i i u f A.W.XX&X$X#X%X/.F g h z h z p G.+X+X+X+XXXXXL.z h g J R.).@X$X$X$X:X@Xj O ; ; , ; , ; , ~ Q.).Q.H.L.W.@X@X$X@X$XW.E.K.XX*X#XY.K.^.@X%X#X$X1X#X#X&X*X*X1XeX*X=X=X&X&X8XH.@ , , 5 4 4 > O p =XoX$ @ @ ; O % > O p +X>X#X.XwX$X>X! @ , 4 , ; : > X D &X! ; , ; , ; , & O z >X@X@X+X&X&X>XG , , , / , T ; O R @XR ;.zXzXzX6XzX,X> E &X+X+X+X#XXX#X=X*X=X=X&X X^. X X^.Y.^.Y.!._.(.(.%X).R.L._.XX(.(.XX).!...E._.X.T , ; ; O . . + p G E W /.$X@X+XOXOXoX.XY 3 f i u i F.D.^.oXXX.X/./.z 3 d i i 3 : } (.R.E.Y.W.Y.A.i 3 h L.W.K.R.W.E.L.E.DXPXPXPXPXPXPXPXPXPXPXPXPXPXPXPXPXPXPXPXPXPXPXPXPXPXPXPXPXPXPXPXPXPXPXPXPXPXPXPXPXPXPXPXPXPXPXPXPXPXPXPXPXPXPXPXPXPXPXPXPXPXPXPXPXPXPXPXPXPXPXPXPXPXPXPXPXPXPXPXPXPXPXPXPXPXPXPXPXPXPXPXPXPXPXPXPXPXPXPXPXPXPXPXPXPXPXPXPXPXPXPXPXPXPXPXPXPXPXPXPXPXPXPXPXPXPXPXPXPXPXPXPXPXPXPXPXPXPXPXPXPXPXPXPXPXPXPXPXPXPXPXPXPXPXPXPXPXPXPXPXPXPXPXPXPXPXPXPXPXPXPXPXPXPXPXPXPXPXPXPXPXPXPXPXPXPXPXPXPXPXPXPXPXPXPXPXPXPXPXPXPXPXPXPXPXPXPXPXPXPXPXPXPXPXPXPXPXPXPXPXPXPXPXPXPXPXPXPXPXPXPXPXPXPXPXPXPXPXPXPX",
"XXXX^.^.(.W.H.g 2 i : i S.W.XX+X%XOX%X(.z p g h h g i G.+X+X+X+X-XXXJ.c h g x R.;X%X$X%X$X,X,Xj ; ; ; ; ; ; , R R )./.R.F.L.(.OX@X$X@X@XW.I.R.[.$XOXK.K.!.XX#X#X#X*X#X#X#X=X&X=X*X=X*X#X+XoX:XH.@ > 3 4 , > > X d #X-X+ + ; @ @ % @ + i +XoX^..X+XXX>XY + > > > ; 3 : O D @XY @ ; ; , , > & X z [.W.W.[.@X+X:XR , , / , / , ; O m [.R R +.o.+.+.o.R @ x +X[.[.-XoXoX#X#X$X#X=X=X XXX#X=XoX^.^.J.(.E.Y./.%XOX_.E.E._.XX%X%XOX!.| (._.R.j ; , ; O . . O p G x E /.$X+X@X+XXXXX.XJ 2 u u 2 u F.A.Y.XXoXXX/.^.d 3 p i i 2 2  .Y.E.!.^.W.Y.A.i : j F.Q.K.R.R.E.L.Q.GXPXPXPXPXPXPXPXPXPXPXPXPXPXPXPXPXPXPXPXPXPXPXPXPXPXPXPXPXPXPXPXPXPXPXPXPXPXPXPXPXPXPXPXPXPXPXPXPXPXPXPXPXPXPXPXPXPXPXPXPXPXPXPXPXPXPXPXPXPXPXPXPXPXPXPXPXPXPXPXPXPXPXPXPXPXPXPXPXPXPXPXPXPXPXPXPXPXPXPXPXPXPXPXPXPXPXPXPXPXPXPXPXPXPXPXPXPXPXPXPXPXPXPXPXPXPXPXPXPXPXPXPXPXPXPXPXPXPXPXPXPXPXPXPXPXPXPXPXPXPXPXPXPXPXPXPXPXPXPXPXPXPXPXPXPXPXPXPXPXPXPXPXPXPXPXPXPXPXPXPXPXPXPXPXPXPXPXPXPXPXPXPXPXPXPXPXPXPXPXPXPXPXPXPXPXPXPXPXPXPXPXPXPXPXPXPXPXPXPXPXPXPXPXPXPXPXPXPXPXPXPXPXPXPXPXPXPXPXPXPX",
"^.XX_.^./.W. .p : : 2 u D.Y.XX#X#XOX%X(.z p p g g h u F.#X+X+X+XXXXXL.l g g c L.@X%X$X$X$X:X@Xj ; ; ; ; ; ; 4 4 R Q.W.;.}  ./.@X@X/.W.@XW.E.R..X%XXXK.Y.^..X/..X#X*X=X$X=X=X=X=X*X>X&XW.Y.W.&XH.@ 3 4 ; > 5 4 O h =XoX$ @ @ @ @ ; @ O f $X.X XXXXX^.3XJ @ > > , ; : : X D &XY @ ; ; ; ; ; % O z @X/.W..X+X+X>XG , T / , / , ; O R @XR 4 ^ / ^ / ^ 4 O G &X+X+X+X-XXX*X1X=X=X*X*X#X#X=X*X*XoXXX^.OXXX(._.3X:X).).%X%X%X$X%X#X(.L.(.)._.R ; ; ; O . . O 3 G x W (.$X#X+X+XXXW.[.P : : 2 & * | | E.OXXXXX/.R.i : 3 : > > : | L.Y.E.Y.Y.Y.W > & i  .K.K.K.E.E.L.R.DXPXPXPXPXPXPXPXPXPXPXPXPXPXPXPXPXPXPXPXPXPXPXPXPXPXPXPXPXPXPXPXPXPXPXPXPXPXPXPXPXPXPXPXPXPXPXPXPXPXPXPXPXPXPXPXPXPXPXPXPXPXPXPXPXPXPXPXPXPXPXPXPXPXPXPXPXPXPXPXPXPXPXPXPXPXPXPXPXPXPXPXPXPXPXPXPXPXPXPXPXPXPXPXPXPXPXPXPXPXPXPXPXPXPXPXPXPXPXPXPXPXPXPXPXPXPXPXPXPXPXPXPXPXPXPXPXPXPXPXPXPXPXPXPXPXPXPXPXPXPXPXPXPXPXPXPXPXPXPXPXPXPXPXPXPXPXPXPXPXPXPXPXPXPXPXPXPXPXPXPXPXPXPXPXPXPXPXPXPXPXPXPXPXPXPXPXPXPXPXPXPXPXPXPXPXPXPXPXPXPXPXPXPXPXPXPXPXPXPXPXPXPXPXPXPXPXPXPXPXPXPXPXPXPXPXPXPXPXPXPX",
"XX!.^.^./.E.} i : * : 2 | W./.$XOXOX%X(.g i p p p p 2 A.+XXXXX+XXXXXL.p i 3 z R.).@X$X$X>X:X,Xj ; ; , ; ; ; ; ; E W.Q.Q.}  ..X:X$X@X@X&X).W.W.+X*XXXY.^./.OXXXXX$X3X*X*X#X*X1X3XeXaX=XW.R.R.>XK.@ > , 3 > 3 4 o h =XoX% @ @ @ @ % % + i &X+X^.XX#XXXaXU + > > : > : & O z $XW % & @ @ & & % X h +X@XW.XX+X$X>XJ , T j T T , ; O m [.~ 4 ^ ^ T R R 4 O x &X+X+X+X#X+X*X*X*X#X*X=X#X+X&X>X:XOXOXW.#XXX(.#X:X3XOX(.).%X%X%X%X%X(.J.W.OX).K O O O . . . O : x x K E.#X#X+X+X.XR.! u + X X - + K W R./.XX(.E.! > @ @ @ @ O O d J  .J.L.L.L.K @ + & z G ~ X. . ...R.DXPXPXPXPXPXPXPXPXPXPXPXPXPXPXPXPXPXPXPXPXPXPXPXPXPXPXPXPXPXPXPXPXPXPXPXPXPXPXPXPXPXPXPXPXPXPXPXPXPXPXPXPXPXPXPXPXPXPXPXPXPXPXPXPXPXPXPXPXPXPXPXPXPXPXPXPXPXPXPXPXPXPXPXPXPXPXPXPXPXPXPXPXPXPXPXPXPXPXPXPXPXPXPXPXPXPXPXPXPXPXPXPXPXPXPXPXPXPXPXPXPXPXPXPXPXPXPXPXPXPXPXPXPXPXPXPXPXPXPXPXPXPXPXPXPXPXPXPXPXPXPXPXPXPXPXPXPXPXPXPXPXPXPXPXPXPXPXPXPXPXPXPXPXPXPXPXPXPXPXPXPXPXPXPXPXPXPXPXPXPXPXPXPXPXPXPXPXPXPXPXPXPXPXPXPXPXPXPXPXPXPXPXPXPXPXPXPXPXPXPXPXPXPXPXPXPXPXPXPXPXPXPXPXPXPXPXPXPXPXPX",
"oX^.XX_./.E.! : % * & 2 | !.XX%X%X#X%XW.p 3 3 3 3 3 > W XXXXXXOXOX).F.3 2 2 g  .).:X$X$X:X>X;Xj ; ; ; ; ; O @ > ~ Q.Q.K. .A./.$X$X@X@X:X(.E.W.#X>X#XY.W.^.XXXX+X*X3X*X*X=X*X*X=XaX>X*XW.Y.K.>XK.@ < > 2 > : : X d *X&X+ O + + + $ + X u $X#X^.XX#XXX4XY X + % + + + + O l +X` + + + + @ $ + X p .XOX.XXX+X+X>XK % ; ; ; ; ; O O m [.m @ @ ; ; O ; + O h +XOXXX+XXX#X*X$X=X#X=X=X+XXX&X>X&X@X/.W.%X(.^.(.%X%X(._.).%XOX#XOX#XE.T.E././.F O . . . . . . > g x z L.W./. XW.Z.F F D d d l p f z F } Y.E.Y.G F G m b D D D D Y F Y T.J.F.F.K F Y G P J Y  . .L...X.DXPXPXPXPXPXPXPXPXPXPXPXPXPXPXPXPXPXPXPXPXPXPXPXPXPXPXPXPXPXPXPXPXPXPXPXPXPXPXPXPXPXPXPXPXPXPXPXPXPXPXPXPXPXPXPXPXPXPXPXPXPXPXPXPXPXPXPXPXPXPXPXPXPXPXPXPXPXPXPXPXPXPXPXPXPXPXPXPXPXPXPXPXPXPXPXPXPXPXPXPXPXPXPXPXPXPXPXPXPXPXPXPXPXPXPXPXPXPXPXPXPXPXPXPXPXPXPXPXPXPXPXPXPXPXPXPXPXPXPXPXPXPXPXPXPXPXPXPXPXPXPXPXPXPXPXPXPXPXPXPXPXPXPXPXPXPXPXPXPXPXPXPXPXPXPXPXPXPXPXPXPXPXPXPXPXPXPXPXPXPXPXPXPXPXPXPXPXPXPXPXPXPXPXPXPXPXPXPXPXPXPXPXPXPXPXPXPXPXPXPXPXPXPXPXPXPXPXPXPXPXPXPXPXPXPXPXPXPXPXPX",
"^.E._.!.F.E p O X O o - F J.(.XXOX).R.J & + @ @ @ @ + g ..!.XXXX^.^.` & > @ > x ..R./.@X@X,X).i . O O O O O O > ~ Q.W.R.} F.).$X@X@X@X@X(.W./.$X*X-XW.W..XoXXXoX&X=X&X&X&XaX>X>X>X>X&XW.G.H.$XK.+ @ @ + % % % % h +X.X% & * : : > & : p XX/.!.(.XXXX%X| 2 2 > : : : 2 2 K /.} p u 2 f 3 3 i i J /..X/./.@XOX#XA.m m m j m j m m ! W.;.R j j R R E ! W H.OX+XXX+XoXXX#X$X*X1X#X*X+X.X+X&XXXE.E.E.XX^.L.L.%X).E.R.E.(.(.(.(._.E...R.W.R.G @ @ + O O o o > x z x /.#X+X#XoX XY.[. X^. XoX^.!.` T.!.XX+XXXI.[.[.oX|. X}.}. X!.Y.J.Y.E.!.Y.J.3.T.T.3.Z.S.Y.R.(.T.E.AXPXPXPXPXPXPXPXPXPXPXPXPXPXPXPXPXPXPXPXPXPXPXPXPXPXPXPXPXPXPXPXPXPXPXPXPXPXPXPXPXPXPXPXPXPXPXPXPXPXPXPXPXPXPXPXPXPXPXPXPXPXPXPXPXPXPXPXPXPXPXPXPXPXPXPXPXPXPXPXPXPXPXPXPXPXPXPXPXPXPXPXPXPXPXPXPXPXPXPXPXPXPXPXPXPXPXPXPXPXPXPXPXPXPXPXPXPXPXPXPXPXPXPXPXPXPXPXPXPXPXPXPXPXPXPXPXPXPXPXPXPXPXPXPXPXPXPXPXPXPXPXPXPXPXPXPXPXPXPXPXPXPXPXPXPXPXPXPXPXPXPXPXPXPXPXPXPXPXPXPXPXPXPXPXPXPXPXPXPXPXPXPXPXPXPXPXPXPXPXPXPXPXPXPXPXPXPXPXPXPXPXPXPXPXPXPXPXPXPXPXPXPXPXPXPXPXPXPXPXPXPXPXPXPXPXPXPXPXPXPX",
"!.(.E.| H K H D L D D D I J.E.(.XX(.L.F.S.D.D.J.D.F.G.Y.J.K.(.XXoX^.K.T.L.J.F.Y.Y.Y.(.#X%X%X).p O o O O O O O ; E Q.E.R.! } (.(..X)./.@XW.R.E.@X*XoXY.^..X+XXXXX+X&X+X#X#X*X*X*X*X*X+X.X).OX@X(.K.L.L. .E.L.Y.R.L.OX%X(.OX(._.%XOXE.#X/..XXX XXX%X%X%X%X:X:X).%X:X).:X:X(./.@X:X@XOX%X:X).@X@X).OX/./.OX#XOX/.).OXOX+X&X$XXXOX).Q.W.).).).E.).).Q.).).E.(.+X.X.XoX+X&X*X*X1X*X=X#X^.$X3X$XE.E./.$X).(.(.:X$XW.(.(./.)./.(.#X(.L.K.^.E.G % & % % + X . > x c K (.$X$X-X-X-X3.%.0.$.$.$.A L U T.^.OX@X+XY.P.C t.C 1.$.A 6.N U Y.^.Y.E.Y.J.H A C L I T.!.E.E.K.Q.DXPXIXPXPXPXPXPXPXPXPXPXPXPXPXPXPXPXPXPXPXPXPXPXPXPXPXPXPXPXPXPXPXPXPXPXPXPXPXPXPXPXPXPXPXPXPXPXPXPXPXPXPXPXPXPXPXPXPXPXPXPXPXPXPXPXPXPXPXPXPXPXPXPXPXPXPXPXPXPXPXPXPXPXPXPXPXPXPXPXPXPXPXPXPXPXPXPXPXPXPXPXPXPXPXPXPXPXPXPXPXPXPXPXPXPXPXPXPXPXPXPXPXPXPXPXPXPXPXPXPXPXPXPXPXPXPXPXPXPXPXPXPXPXPXPXPXPXPXPXPXPXPXPXPXPXPXPXPXPXPXPXPXPXPXPXPXPXPXPXPXPXPXPXPXPXPXPXPXPXPXPXPXPXPXPXPXPXPXPXPXPXPXPXPXPXPXPXPXPXPXPXPXPXPXPXPXPXPXPXPXPXPXPXPXPXPXPXPXPXPXPXPXPXPXPXPXPXPXPXPXPXPXPXPXPXPXPXPXPXPX",
"OX/.XXE.E.^.'.oXoX X X!.T.^.XX%X%XOXXX=X-X8X-X-X-X=X=X X+XOX#X1X#XoXoXoXoX-X XoX XoX$X:X:X:X@Xg O @ % > > > > % ~ (.).). .} ^./.%X:X%X@X@XW.W.+X>X&X/..XXX+X+X+X+X>X&X&X&X*X>XwX=XaX>X:X%X%X#X(._.L.L.(.E.R.L.Y. .(.E.K. ...L.L. .| L.K.K./.XX/.$X%X).L. . . . . . . .L. .W.E.E.K. .H.L.L. .H.H.E.)././.%X#X/.L. .} F.J.J. .L...! Q.Q.~ } H.F.F. . .L.H.E.$XXX.X+XoX$X&X*X>X1X#XOXXX$X*X#XW.E.W.$X/.E.(.:X$X(.R.(.)././.(.%X(.J.R.E.^.J * > * $ - X . 2 F c x (.$X%X-X-X X6.t.e r.=.e =.*.3.Y.W.@X/.oXU.`.0.$.e 8.$.r $.0.6.U.Y.Y.Y.T.U.6.B %.N I U.L.L.E.L.W.DXPXPXPXPXPXPXPXPXPXPXPXPXPXPXPXPXPXPXPXPXPXPXPXPXPXPXPXPXPXPXPXPXPXPXPXPXPXPXPXPXPXPXPXPXPXPXPXPXPXPXPXPXPXPXPXPXPXPXPXPXPXPXPXPXPXPXPXPXPXPXPXPXPXPXPXPXPXPXPXPXPXPXPXPXPXPXPXPXPXPXPXPXPXPXPXPXPXPXPXPXPXPXPXPXPXPXPXPXPXPXPXPXPXPXPXPXPXPXPXPXPXPXPXPXPXPXPXPXPXPXPXPXPXPXPXPXPXPXPXPXPXPXPXPXPXPXPXPXPXPXPXPXPXPXPXPXPXPXPXPXPXPXPXPXPXPXPXPXPXPXPXPXPXPXPXPXPXPXPXPXPXPXPXPXPXPXPXPXPXPXPXPXPXPXPXPXPXPXPXPXPXPXPXPXPXPXPXPXPXPXPXPXPXPXPXPXPXPXPXPXPXPXPXPXPXPXPXPXPXPXPXPXPXPXPXPXPXPXPXPX",
"/.XXXXoX&.L 6.%.C 0.C P T.^.XX%X%X#XoXI 2.`.$.t.>.=.`.A U. XXX#X#X-X|.P.3.3.3.2.U.Y.#X*X$X:X%Xg O @ @ % % > % ; ~ ).).(.} } W.).).:X:X).[.Q.W.+X*X#X.X X X+X#X+X#X=X&X#X&X*X>X>X*X>X*X*X%X%X%XK.F.J.L.E. .^.E.K.L./._.L.E._.R.L.(.E.^.K.Y.#XXX^.*X%X(.K. .R._.R.R.R.).E.R.).W.Q.(.(.R.E.(./.(.R.W.OX(./.$X%X%XL.R.(.W.W.W./.E.R.o._.Q.X._._./.).).%X_.R.@X@X.XOX+X+X&X&X=X1X3X*XOX/.$X*XOXR.W./.#X/.^.(.:X%X(.R._.(././.(.).^. .K.^.K.c % : % $ + X . * z z z (.$XOX#X=X|.t.#.e =.=.e #.6.P.G.OX@XOXXX`.t.$.t #.r.=.t e S U.U.W.^.Y.U.Y.%.0 $.S M P.Y.J.R.L.E.DXPXPXPXPXPXPXPXPXPXPXPXPXPXPXPXPXPXPXPXPXPXPXPXPXPXPXPXPXPXPXPXPXPXPXPXPXPXPXPXPXPXPXPXPXPXPXPXPXPXPXPXPXPXPXPXPXPXPXPXPXPXPXPXPXPXPXPXPXPXPXPXPXPXPXPXPXPXPXPXPXPXPXPXPXPXPXPXPXPXPXPXPXPXPXPXPXPXPXPXPXPXPXPXPXPXPXPXPXPXPXPXPXPXPXPXPXPXPXPXPXPXPXPXPXPXPXPXPXPXPXPXPXPXPXPXPXPXPXPXPXPXPXPXPXPXPXPXPXPXPXPXPXPXPXPXPXPXPXPXPXPXPXPXPXPXPXPXPXPXPXPXPXPXPXPXPXPXPXPXPXPXPXPXPXPXPXPXPXPXPXPXPXPXPXPXPXPXPXPXPXPXPXPXPXPXPXPXPXPXPXPXPXPXPXPXPXPXPXPXPXPXPXPXPXPXPXPXPXPXPXPXPXPXPXPXPXPXPXPXPX",
"^./.XX!.6.3.n $.$.v *.*.P. XXX%XOX#X|.`.t.Z #.r.r.e 1.t.{.oXoXOXoXoX X{.%.C t.$.0.-X#X$X$X*X%Xg @ @ > > > : > > ~ ).).). .} E.).;X:X:X,X@XQ.W.@X*X#X.X.XXX#X+X+X#X&X#X&X&X&X*X=X>X>X*X$X%X$X%XK.L./.| K.%XJ } %XL.XXE.^./.F W %XJ c /.Y.W.oXXX/.*X%X).L.E.} j L.).z ! ).R.W.W..XJ.h F.).x G /.Y.W..XE.^.#X#XOXW.).J p W.W.p E _.X.Q.R.R.E : L.E.2 h @XK.^./..XXX.XoX+X&X=X*X&X#X^.W.%X$XOXR.E.R./.^.L.L.OX).L.R.E.(.(._.(.(.L.| K._.E.K % > % + + + . > x h c /.%X%X#XoX8X=.e e t.r.e e $.3.U..XOXOXXX!.0.e e $.r.u.#.e e 0.U.Y.E.E.Y.Y.A e 1.*.v 3.Y.R.E.H.Q.ZXPXPXPXPXPXPXPXPXPXPXPXPXPXPXPXPXPXPXPXPXPXPXPXPXPXPXPXPXPXPXPXPXPXPXPXPXPXPXPXPXPXPXPXPXPXPXPXPXPXPXPXPXPXPXPXPXPXPXPXPXPXPXPXPXPXPXPXPXPXPXPXPXPXPXPXPXPXPXPXPXPXPXPXPXPXPXPXPXPXPXPXPXPXPXPXPXPXPXPXPXPXPXPXPXPXPXPXPXPXPXPXPXPXPXPXPXPXPXPXPXPXPXPXPXPXPXPXPXPXPXPXPXPXPXPXPXPXPXPXPXPXPXPXPXPXPXPXPXPXPXPXPXPXPXPXPXPXPXPXPXPXPXPXPXPXPXPXPXPXPXPXPXPXPXPXPXPXPXPXPXPXPXPXPXPXPXPXPXPXPXPXPXPXPXPXPXPXPXPXPXPXPXPXPXPXPXPXPXPXPXPXPXPXPXPXPXPXPXPXPXPXPXPXPXPXPXPXPXPXPXPXPXPXPXPXPXPXPXPXPX",
"^.^.oX XU.n e $.$.6 e *.P. X+X$XOX+X-X6.S e $.r.1.#.t t {.oXXX#X+XXX X9.S $.t.S $.`.&X#X*X%X%Xg @ @ % > 8 8 , > E _.R.E.} H.Q.Q.).~.Q.Q.R.R.Q.[.$XXXY.^.^.XX.X.X+X&X+X#X#X&X&X&X=X*X#XOXOX#X$X(.^.| & F.:Xi u W.^..XOXW.| & K >XK + Y G.Y.+XXXXX#XXX%XW.| h i _.$Xh h ! K.+XXXG.D i J.XXF f Y | @X#X/.^.#XOX+XY.D f P .X.XF F K | (.R.W h G E./.} h g | /./.^..X^. X#X=X*X=X&X#X^.E.OX*X%XE.(.E.XX^.Y.^.$X%XR.L.E.(.(.E.^.R. .} W.OX[.E % > % O X X o : F z F (.%XOX#X-X}.*.e r.s.t.1.e $.%.U. XOXXXXX}.6.e =.r.r.t.r.=.e %.Y.Y.!.W.T.Y.N C 0.0.C 3.Y.W.E.R.R.ZXPXPXPXPXPXPXPXPXPXPXPXPXPXPXPXPXPXPXPXPXPXPXPXPXPXPXPXPXPXPXPXPXPXPXPXPXPXPXPXPXPXPXPXPXPXPXPXPXPXPXPXPXPXPXPXPXPXPXPXPXPXPXPXPXPXPXPXPXPXPXPXPXPXPXPXPXPXPXPXPXPXPXPXPXPXPXPXPXPXPXPXPXPXPXPXPXPXPXPXPXPXPXPXPXPXPXPXPXPXPXPXPXPXPXPXPXPXPXPXPXPXPXPXPXPXPXPXPXPXPXPXPXPXPXPXPXPXPXPXPXPXPXPXPXPXPXPXPXPXPXPXPXPXPXPXPXPXPXPXPXPXPXPXPXPXPXPXPXPXPXPXPXPXPXPXPXPXPXPXPXPXPXPXPXPXPXPXPXPXPXPXPXPXPXPXPXPXPXPXPXPXPXPXPXPXPXPXPXPXPXPXPXPXPXPXPXPXPXPXPXPXPXPXPXPXPXPXPXPXPXPXPXPXPXPXPXPXPXPXPX",
"(.^.^.oX%.q #.=.$.e e *.P.[.OX@X#X-X}.C e #.1.qXu.#.#.e t.-XXX#XOXoX}.0.S =.7X0.t U.=X=X#X*X).p O % % > > > > % ~ @X).E.W ! H.H.o. .^ ~ ~ W.@X@X*X#XY.W..X+XXXXX&X=X&X&X#X#X&X*X*X*X#X+X$X$X*X^.p p } W.XXW.P : J +X&Xh i D.R.XXW.A.* i W.+XXXOX*XOX$XA.$ d W./.XXOXW : J &XW.2 d W.^.XXXX| % z /.#XXXOX$XXX+XD + D XXOX@X%XK 2 K ).~ 3 j )./.OX$XW & p (.(.^.^.Y. X&X*X*X=X*X#X^.E.%X*X$X(.(.^.XX(.R./.*X%XE.E.(.(.E.(.(.E.H.W W.@X@X! % % % $ O + O % : > i /.1X%XOX#X-X2.0.=.$.=.$.=.$.6.S. XXXXXoX`.t.$.t.#.r.1.#.0.*.6.U.W.E.Y.Y.'.&.$.$.%.%.U.Y.E.R.H.R.ZXPXPXPXPXPXPXPXPXPXPXPXPXPXPXPXPXPXPXPXPXPXPXPXPXPXPXPXPXPXPXPXPXPXPXPXPXPXPXPXPXPXPXPXPXPXPXPXPXPXPXPXPXPXPXPXPXPXPXPXPXPXPXPXPXPXPXPXPXPXPXPXPXPXPXPXPXPXPXPXPXPXPXPXPXPXPXPXPXPXPXPXPXPXPXPXPXPXPXPXPXPXPXPXPXPXPXPXPXPXPXPXPXPXPXPXPXPXPXPXPXPXPXPXPXPXPXPXPXPXPXPXPXPXPXPXPXPXPXPXPXPXPXPXPXPXPXPXPXPXPXPXPXPXPXPXPXPXPXPXPXPXPXPXPXPXPXPXPXPXPXPXPXPXPXPXPXPXPXPXPXPXPXPXPXPXPXPXPXPXPXPXPXPXPXPXPXPXPXPXPXPXPXPXPXPXPXPXPXPXPXPXPXPXPXPXPXPXPXPXPXPXPXPXPXPXPXPXPXPXPXPXPXPXPXPXPXPXPXPXPX",
"XX^.[. X%.e =.].t.$.e *.U.[.OX$X#XOX|.$.$.r.t.b.s.s.$.n U.-XOXOX#XoX|.6.$.t.}.u.$.U.1X$X$X%X).p O % ; 8 > > % @ ~ %X@XE.E ! H.Q.H.o.^ ~ Q.;XQ.,X>X%XY.(.XXOXXX+X#X*X&X&X&X*X&X=X>X>X=X#X$X+X#XF.* G Y..XXX+XK.i p XX^.2 x K.^./.^.W.z * S..XOX#X%XXX*XG i G.Y. X^. XY.G L >XY.f A.Y.^./.Y.K.z z Y.).(.).$X#X$XG F W.W..X/.Y.E.G G ).W F /.R.Y.W.A.R.| z Y.)./. X^. X&X1X*X*X*X+X!.E.OX3X$X)./.(.(.^.E._.$X%XK.K.E.K.K.K.K.E.K.} Q.$X@XQ % > > % $ @ @ % 2 : g /.%X%X%X X}.}.0.e =.r.e $.`.3.P.^.XXXX X9.u.1.#.e 1.#.e e 1.`.I.^.E.Y.J.U.6.M $.S C U.Y.R.R.H.R.AXPXPXPXPXPXPXPXPXPXPXPXPXPXPXPXPXPXPXPXPXPXPXPXPXPXPXPXPXPXPXPXPXPXPXPXPXPXPXPXPXPXPXPXPXPXPXPXPXPXPXPXPXPXPXPXPXPXPXPXPXPXPXPXPXPXPXPXPXPXPXPXPXPXPXPXPXPXPXPXPXPXPXPXPXPXPXPXPXPXPXPXPXPXPXPXPXPXPXPXPXPXPXPXPXPXPXPXPXPXPXPXPXPXPXPXPXPXPXPXPXPXPXPXPXPXPXPXPXPXPXPXPXPXPXPXPXPXPXPXPXPXPXPXPXPXPXPXPXPXPXPXPXPXPXPXPXPXPXPXPXPXPXPXPXPXPXPXPXPXPXPXPXPXPXPXPXPXPXPXPXPXPXPXPXPXPXPXPXPXPXPXPXPXPXPXPXPXPXPXPXPXPXPXPXPXPXPXPXPXPXPXPXPXPXPXPXPXPXPXPXPXPXPXPXPXPXPXPXPXPXPXPXPXPXPXPXPXPXPXPX",
"XX^..X'.%.$.=.=.#.*.$.%.P. XOX@XOX-X}.=.t.r.$.t.=.=.u.1.`.-XXX#X-XoX X`.0.1.t.=.t. X%X*X%X3XOXz > : : > 8 : % @ ! @X:XE.! W  .R.o.~ ^ ~ ~ Q.[.@X*X#XE.W./.XX.X+X&X*X#X+X#X&X#X&XwX*X$X#X$X+X-XT.D W.U J.%XF Y.^.Y OX/.G XX} W &XJ U ^.Y I.OXXXOX$XXX&XG.I.Y.h G.oXh J.oXY.+XY. XY.d ` ^.f z Y.| L.(.^.XX#X+X+XY.XXY u K. .: W @XK.).K./.} * } E.> h ).L.K.XXW.^. X^..X#X*X=X&X+X^.E./.$X@X^.W.Y.(.(.L.K.%XXXL.L.L.^.(.E.E.(.H.| R.E.W.G : 8 % % @ O o : ! E ! .X$X%X#X#X-X0.e e =.=.e e $.*.U.^._.XXoX'.u.#.e e =.r.#.e e 6.U.K.K.Y.S.'.%.a $.$.v 3.K.K.R.L.L.cXPXPXPXPXPXPXPXPXPXPXPXPXPXPXPXPXPXPXPXPXPXPXPXPXPXPXPXPXPXPXPXPXPXPXPXPXPXPXPXPXPXPXPXPXPXPXPXPXPXPXPXPXPXPXPXPXPXPXPXPXPXPXPXPXPXPXPXPXPXPXPXPXPXPXPXPXPXPXPXPXPXPXPXPXPXPXPXPXPXPXPXPXPXPXPXPXPXPXPXPXPXPXPXPXPXPXPXPXPXPXPXPXPXPXPXPXPXPXPXPXPXPXPXPXPXPXPXPXPXPXPXPXPXPXPXPXPXPXPXPXPXPXPXPXPXPXPXPXPXPXPXPXPXPXPXPXPXPXPXPXPXPXPXPXPXPXPXPXPXPXPXPXPXPXPXPXPXPXPXPXPXPXPXPXPXPXPXPXPXPXPXPXPXPXPXPXPXPXPXPXPXPXPXPXPXPXPXPXPXPXPXPXPXPXPXPXPXPXPXPXPXPXPXPXPXPXPXPXPXPXPXPXPXPXPXPXPXPXPXPX",
" XoX X|.].=.e =.#.e $.;.D.'.OX%X#XoX-Xu.=.$.#.t.=.#.$.t.}. X#XOXXXoXoX{.$.$.t.S *.-X$X$X%X$X%Xg % % > 8 : 3 : % E @X/.H.J J  . .~ ~ ^ R ~ R.R.%X$X#XK.E.(./.oX/.+X&X#XoX#X&X=X&X*X*X#X%X%X#XXXY.oX| : } >X* : oX.X[.W.+XW.& P :XG * J./.J..X^.^.*X%X+XW.+Xm * Y.+X2 u ^.-X X^.1XH % Z. Xu * A.F.L./.E.^._.(.oX^./.i : J.F.: d (.R.W.).(.h : } L.i 2 | R.R.E.E.^.W.Y.Y. X#X#X*X#X#XXXXX@X(.K.R.^.^.(.W.^.%X%X_.E.(.%X%X%XXX/.K.H.K.K.@XQ : : % $ @ O O : G G E ).%X).#X+X}.%.e #.u.t.$.e S &.P.oXXX(.oX!.6.e #.$.r.b.=.$.e %.I.Y.K.Y.U.Y.%.v 0.0.S &.J.K.R. .L.AXPXPXPXPXPXPXPXPXPXPXPXPXPXPXPXPXPXPXPXPXPXPXPXPXPXPXPXPXPXPXPXPXPXPXPXPXPXPXPXPXPXPXPXPXPXPXPXPXPXPXPXPXPXPXPXPXPXPXPXPXPXPXPXPXPXPXPXPXPXPXPXPXPXPXPXPXPXPXPXPXPXPXPXPXPXPXPXPXPXPXPXPXPXPXPXPXPXPXPXPXPXPXPXPXPXPXPXPXPXPXPXPXPXPXPXPXPXPXPXPXPXPXPXPXPXPXPXPXPXPXPXPXPXPXPXPXPXPXPXPXPXPXPXPXPXPXPXPXPXPXPXPXPXPXPXPXPXPXPXPXPXPXPXPXPXPXPXPXPXPXPXPXPXPXPXPXPXPXPXPXPXPXPXPXPXPXPXPXPXPXPXPXPXPXPXPXPXPXPXPXPXPXPXPXPXPXPXPXPXPXPXPXPXPXPXPXPXPXPXPXPXPXPXPXPXPXPXPXPXPXPXPXPXPXPXPXPXPXPXPX",
"XX^. X X*.e e =.n e e *.U.^.XXOX#XOX}.0.#.#.e b.r.#.#.Z {.oXOXOXoXXX X6.n $.}.$.S P.*X$X%X$XOXg @ > > > 2 : : > W ).(.K. .T._._.o.~ ^ R ^ Q.E./.*X/.Y.R.(.XX XOX+X&X+X+X&X>X>X3X*X*X$X#X#X#XOX^.3.h D E.&XG d P [.+X+X-.d P J.+XG.J u P ^.XX/./.%X%X+XW.h d -./..XJ.F f T.*XXXd d | Y.^.J.G & z Y.(.L.(.XX(.XXF.u h G.W.E.Y.K p A.$XR.i d G.J.Y.E.F + h ^.(.W.W.^.^.^.oX#X*X*X#XXX/.OX#XOXY.E.(.(.(.^.(.%X%X(.^.(.$XOX$X).E.R.F.K.R.@XH.: * > % $ + o : G R E /.$X%X%X-X-X%.$.t.t.r.=.#.$.6.P. XXXXXoXU.6.e =.=.=.=.=.=.S %.U.Y.E.Y.I.Y.C $.0.0.C U J.L.L.L.L.AXPXPXPXPXPXPXPXPXPXPXPXPXPXPXPXPXPXPXPXPXPXPXPXPXPXPXPXPXPXPXPXPXPXPXPXPXPXPXPXPXPXPXPXPXPXPXPXPXPXPXPXPXPXPXPXPXPXPXPXPXPXPXPXPXPXPXPXPXPXPXPXPXPXPXPXPXPXPXPXPXPXPXPXPXPXPXPXPXPXPXPXPXPXPXPXPXPXPXPXPXPXPXPXPXPXPXPXPXPXPXPXPXPXPXPXPXPXPXPXPXPXPXPXPXPXPXPXPXPXPXPXPXPXPXPXPXPXPXPXPXPXPXPXPXPXPXPXPXPXPXPXPXPXPXPXPXPXPXPXPXPXPXPXPXPXPXPXPXPXPXPXPXPXPXPXPXPXPXPXPXPXPXPXPXPXPXPXPXPXPXPXPXPXPXPXPXPXPXPXPXPXPXPXPXPXPXPXPXPXPXPXPXPXPXPXPXPXPXPXPXPXPXPXPXPXPXPXPXPXPXPXPXPXPXPXPXPXPXPXPX",
".XXX X X%.7 #.b.=.e 6 *.U. X_.OX%X-X}.%.t $.u.7Xb.r.t S `.-XOX#XoX+XoX0.$.t.8Xt.C Y.*X%X$X3X).h % > > : 2 3 2 >  .OX/.E.J.L.).~.^ ^ ^ R ~ ~.(.OX1XOXK.Y.^.+X#XOX&X*X#X#X*X>XaX=X*X>X*X%X%X%X#XJ.- u ^.W.W..XD.= d -XXX* * Y.oX^.OXW.* u Y.+XXXXX#XOX$X-.& G /.W.W.oXF.< F =XS.* D Y.W. X XG.u p E.(.K.(.XX(.#XK u ~ /./.W.XXZ.u F OXW i | Y.J.K.K.K.x g R.(.Y.W.^.Y.Y. X1X1X*X#XXX/.OXXX/.(.E.^./.(.^.(.$X1X(.^./.$X%X$XOX(.E.} R.K./.H.: : % % % + O : G E E (.%XOXXX#XoXt.t.#.=.=.#.*.*.6.5.^.XXXXoXY.P.t.=.e =.r.e $.=.6.P.Y.E.Y.I.P.3.$.$.C $.P.J.K.L.L.X.vXPXPXPXPXPXPXPXPXPXPXPXPXPXPXPXPXPXPXPXPXPXPXPXPXPXPXPXPXPXPXPXPXPXPXPXPXPXPXPXPXPXPXPXPXPXPXPXPXPXPXPXPXPXPXPXPXPXPXPXPXPXPXPXPXPXPXPXPXPXPXPXPXPXPXPXPXPXPXPXPXPXPXPXPXPXPXPXPXPXPXPXPXPXPXPXPXPXPXPXPXPXPXPXPXPXPXPXPXPXPXPXPXPXPXPXPXPXPXPXPXPXPXPXPXPXPXPXPXPXPXPXPXPXPXPXPXPXPXPXPXPXPXPXPXPXPXPXPXPXPXPXPXPXPXPXPXPXPXPXPXPXPXPXPXPXPXPXPXPXPXPXPXPXPXPXPXPXPXPXPXPXPXPXPXPXPXPXPXPXPXPXPXPXPXPXPXPXPXPXPXPXPXPXPXPXPXPXPXPXPXPXPXPXPXPXPXPXPXPXPXPXPXPXPXPXPXPXPXPXPXPXPXPXPXPXPXPXPXPXPX",
" XXX X|.C n t.=.r.0.e *.U. XXX%XOXOX|.$.=.t.r.r.1.t.r.$.9.-X#X#X#X-XoX3.=.t.u.t.t.U.*X$X%X$XOXp @ > > > 3 3 > &  .%X).R.X.T.XX_.Q.~ ^ R ~ Q.(.@X%X%X^.^.XX%X#XXX#X*X&X&X&X*X*X>X*X*X*X1X%XXX$XY : J.K.L.W.-.[.U D =XY.u Y.W.G.W.D.Y.Y.G W.#X/.XX$XXX*X} &.^.-.I.Y.A.&XY.D.*XJ.Z.oXZ.Z.'.Y I.Y.Q E.).E.^././.OX..K.).G I.F.K W.J.} OXK.Y.OXK D.W.G K.@XH.R.W.W.W.Y.J.Y.^.=X*X#X+XXX/././.W.E.Y.R.E.^.E.E.OXOXE.L.K./.(.OX(.E.K.| F.} W.! > : * % $ O o > G R E (.%XOX$XoX}.{.S e #.=.e e 0.6.P. XXX.XoXU.].=.e #.=.=.e e S 9.I.Y.K.W.J.U.&.e $.S M 3.J.K.R...L.vXPXPXPXPXPXPXPXPXPXPXPXPXPXPXPXPXPXPXPXPXPXPXPXPXPXPXPXPXPXPXPXPXPXPXPXPXPXPXPXPXPXPXPXPXPXPXPXPXPXPXPXPXPXPXPXPXPXPXPXPXPXPXPXPXPXPXPXPXPXPXPXPXPXPXPXPXPXPXPXPXPXPXPXPXPXPXPXPXPXPXPXPXPXPXPXPXPXPXPXPXPXPXPXPXPXPXPXPXPXPXPXPXPXPXPXPXPXPXPXPXPXPXPXPXPXPXPXPXPXPXPXPXPXPXPXPXPXPXPXPXPXPXPXPXPXPXPXPXPXPXPXPXPXPXPXPXPXPXPXPXPXPXPXPXPXPXPXPXPXPXPXPXPXPXPXPXPXPXPXPXPXPXPXPXPXPXPXPXPXPXPXPXPXPXPXPXPXPXPXPXPXPXPXPXPXPXPXPXPXPXPXPXPXPXPXPXPXPXPXPXPXPXPXPXPXPXPXPXPXPXPXPXPXPXPXPXPXPXPXPX",
" X/. X}.3.t.#.$.$.$.=.2.U.^.XX%XOX+X|.6.t.=.#.t.#.#.r.u.{.oXOX#X+XoX'.'.0.$.t.$.U.-X$X$X*X$X).p + @ > 2 3 3 > > } ).E.R. . ./.(.~ ~ ^ ~ E H.R.).%XXXK.Y.^.XXXXXX+X&X#X+X#X=X*X>X*X*X*X$X%X%X#XF.Y.K.g F.$Xu P =XY.#XY. XXXd G >Xz u .XW.^.+XW.(.%XXXOX^.+XY 2 I.W.p U *XoXoX.X3XZ.* Z.-Xu 8 W.W.E.OX_.!.(././.^.@XF 2 R.K.2 z OXW.W..X$XG * J.+Xg p @X@XK./.W.W.Y.W.oX#X*X#XoX.X^./.OX$X#XE.W.^.^.E.K.Y.%X%X^.E.(.OX^.%X#X%XR. .H.R.).W : : & % + O O > ~ G E E.%X%X%X|.|.2.e e 0.t.e e C &.D. XXX/.oX{.6.e e e r.u.S e 0 %.'.Y.Y.Y.I.J.L 9 %.%.s I Y.K.R.L.F.SXPXPXPXPXPXPXPXPXPXPXPXPXPXPXPXPXPXPXPXPXPXPXPXPXPXPXPXPXPXPXPXPXPXPXPXPXPXPXPXPXPXPXPXPXPXPXPXPXPXPXPXPXPXPXPXPXPXPXPXPXPXPXPXPXPXPXPXPXPXPXPXPXPXPXPXPXPXPXPXPXPXPXPXPXPXPXPXPXPXPXPXPXPXPXPXPXPXPXPXPXPXPXPXPXPXPXPXPXPXPXPXPXPXPXPXPXPXPXPXPXPXPXPXPXPXPXPXPXPXPXPXPXPXPXPXPXPXPXPXPXPXPXPXPXPXPXPXPXPXPXPXPXPXPXPXPXPXPXPXPXPXPXPXPXPXPXPXPXPXPXPXPXPXPXPXPXPXPXPXPXPXPXPXPXPXPXPXPXPXPXPXPXPXPXPXPXPXPXPXPXPXPXPXPXPXPXPXPXPXPXPXPXPXPXPXPXPXPXPXPXPXPXPXPXPXPXPXPXPXPXPXPXPXPXPXPXPXPXPXPX",
" XW. X XP.e e $.$.y S P.U. X(.%XOX+XoXt.S #.t t.1.#.$.=.|.'.oXoXoX-X}.9.S $.t.S $. X$X$X$X$X).p @ @ @ 2 3 > 3 > ..(.Q.R.~ | /./.Q.Q.Q.Q.Q.E.R..X%X).K.J.^.OXOX#X&X>X#X+X+X#X&X=X>X=X&X$X#X#X/.(.@XF 8 R.:Xd 8  X+XXX+X-X| u Z.$XW 2 F.Y.Y.XXoXOXXX#XOXOXY.h h E..XG p |  X+X#XY.Y h J.$XW h A.Y.^.#X_._._./.).(.E x ! W.(.W F | Y.$X@XY h | Y._. .W F K././.@X@X.X.X&X1X1X*X*X$XOX#X#X*X%XW.^././.^.W./.$X:X@X).(.%X/.1X$X%X^... .(.(.W > : * % $ O O : E R E Q.%XOX#X-X-X` v %.t.`.%.s N 3.D.(.XX(.^.!.5.v S *.t.P.3.$.0 P U.Y.Y.Y.T.S.D N 3.` l z F.K.K.F.L.cXPXPXPXPXPXPXPXPXPXPXPXPXPXPXPXPXPXPXPXPXPXPXPXPXPXPXPXPXPXPXPXPXPXPXPXPXPXPXPXPXPXPXPXPXPXPXPXPXPXPXPXPXPXPXPXPXPXPXPXPXPXPXPXPXPXPXPXPXPXPXPXPXPXPXPXPXPXPXPXPXPXPXPXPXPXPXPXPXPXPXPXPXPXPXPXPXPXPXPXPXPXPXPXPXPXPXPXPXPXPXPXPXPXPXPXPXPXPXPXPXPXPXPXPXPXPXPXPXPXPXPXPXPXPXPXPXPXPXPXPXPXPXPXPXPXPXPXPXPXPXPXPXPXPXPXPXPXPXPXPXPXPXPXPXPXPXPXPXPXPXPXPXPXPXPXPXPXPXPXPXPXPXPXPXPXPXPXPXPXPXPXPXPXPXPXPXPXPXPXPXPXPXPXPXPXPXPXPXPXPXPXPXPXPXPXPXPXPXPXPXPXPXPXPXPXPXPXPXPXPXPXPXPXPXPXPXPXPXPXPX",
" X^.^. X$.y e t.#.e 7 %.U.^.#X%XOXoX|.$.S e =.7Xt.#.Z M `.oX-XoX#X-X X5.v 2.}.%.N Y.=X&X$X%X).p % @ > ; > > 3 ,  .~.).R. .F.#X>XwX@X@X,X).W./.%X1X#XW.W..X&X#X#X&X>X&X$X&X&X#X>X>X=X=X#X$X%X%X_.z i H.W.).K.F.: | %X#XD d K.Q.~.~.R.j x W. XXXXX#X+X=XJ.i h H.K.R.Q.K 2 | $X^.i h R.W.W.(.G.p K ^.XXXXXX_.E.).| p x R.L.L.K.K i J OX} i z F.L.X.K.} i x K.@X.X.X^./.*X*X*X*X*X$XXXXX#X*X#XW.^.XX/.XXE.(.>X:X/.(.(.%X(.#X%X$X(... ._.R.] 2 2 2 & % O O > R E E W.%X_.%XXXY.I I I I I I P D F D.^._._.(.| Y H U U Y U I 3.P I ` J.^.Y.Y.A.F D l h z d } R.R.H.K.lXPXPXPXPXPXPXPXPXPXPXPXPXPXPXPXPXPXPXPXPXPXPXPXPXPXPXPXPXPXPXPXPXPXPXPXPXPXPXPXPXPXPXPXPXPXPXPXPXPXPXPXPXPXPXPXPXPXPXPXPXPXPXPXPXPXPXPXPXPXPXPXPXPXPXPXPXPXPXPXPXPXPXPXPXPXPXPXPXPXPXPXPXPXPXPXPXPXPXPXPXPXPXPXPXPXPXPXPXPXPXPXPXPXPXPXPXPXPXPXPXPXPXPXPXPXPXPXPXPXPXPXPXPXPXPXPXPXPXPXPXPXPXPXPXPXPXPXPXPXPXPXPXPXPXPXPXPXPXPXPXPXPXPXPXPXPXPXPXPXPXPXPXPXPXPXPXPXPXPXPXPXPXPXPXPXPXPXPXPXPXPXPXPXPXPXPXPXPXPXPXPXPXPXPXPXPXPXPXPXPXPXPXPXPXPXPXPXPXPXPXPXPXPXPXPXPXPXPXPXPXPXPXPXPXPXPXPXPXPXPX",
".XXX X|.L 9 %.`.P.C e &.J.Y.XXOX%X#XoXI N 3.!.{.U.9.L N Y.-X-X-X-XoX X` L U. X`.L Y.=X$X%X3XOXp % > > 3 > 4 > 3 ~ ;X~.E.F.K.#X:X,X@X[.@X/.W./.%X3X#X^.W./.&X#X#X&X&X>X$X+X+X&X>XaX*X=X$X%X$XXX .p F H.! K.} ! g z R.J.l z ..~  .!  .E K |  X+X-X#XOXXXW F ! ~ -.} ..| J ' E.F.Y ! } H.I.J.} | | T.XXXXOX/.^._.| !  .! L.Y. .W ! ..R. .} F.| | L...} H.! H.)././.XX^.#X*X*X&X$X#X/.XXOX$X%XY./..X/./.K.K.$X%X(.R.(.%XE.#X#XOXE...X.Y.E.K z p i 3 8 > @ > R G R R.%X%X%XXXT.3.S.| S.F.A.S.A.J | K.XX_._.|  .Y.K.J.Y.W.Y.Y.U.I.A.G.Y.Y.J.| | | } Q W W } L.K.F. .lXPXLXPXPXPXPXPXPXPXPXPXPXPXPXPXPXPXPXPXPXPXPXPXPXPXPXPXPXPXPXPXPXPXPXPXPXPXPXPXPXPXPXPXPXPXPXPXPXPXPXPXPXPXPXPXPXPXPXPXPXPXPXPXPXPXPXPXPXPXPXPXPXPXPXPXPXPXPXPXPXPXPXPXPXPXPXPXPXPXPXPXPXPXPXPXPXPXPXPXPXPXPXPXPXPXPXPXPXPXPXPXPXPXPXPXPXPXPXPXPXPXPXPXPXPXPXPXPXPXPXPXPXPXPXPXPXPXPXPXPXPXPXPXPXPXPXPXPXPXPXPXPXPXPXPXPXPXPXPXPXPXPXPXPXPXPXPXPXPXPXPXPXPXPXPXPXPXPXPXPXPXPXPXPXPXPXPXPXPXPXPXPXPXPXPXPXPXPXPXPXPXPXPXPXPXPXPXPXPXPXPXPXPXPXPXPXPXPXPXPXPXPXPXPXPXPXPXPXPXPXPXPXPXPXPXPXPXPXPXPX",
"/./. XJ.D L U L I P.N P D.^.OXOX#XXXY.Z.3. X` I.D.!.T.` J.!.oXXX#XXXE.T.J.T.D.F.T.K.).:X&X>X/.d 8 8 4 4 4 i i : ..~.~.R...L.#X*X@X@X@X@XW.W..X$X>X).Y.E.(.%XOX$X&X$X$X#XOXXX#X*X*X>X&X#X$X%XOXK././.R.W.@XW.^.(.(.~.(.OX(.(.~.).(./.@X@XE.XX_.oX#X#X.X.XoX+X@X@X@X@X@X@X[.@X/.@X@X@X@X+X:X@X.X@XW./.XXXX_._./.).@X@X:X@X$X$X).@X)._.).).@X@X@X[.@X[.Q.[.[.Q.[.@X(.(.#X#X-XOX#XOX^./.#X$XXXK.^./.OXW.K.L.OX#XR.L.R.%XXX*XOX(.R...R.Q.W.! % % % % $ O @ > j F x ! _._.XX_.^.(._.T.U | ` | Q U Y | E.(.E.E.E...E } } ! U F | K.Y.T.L.F.| J x g j ~ F. . . .F.} E lXPXPXPXPXPXPXPXPXPXPXPXPXPXPXPXPXPXPXPXPXPXPXPXPXPXPXPXPXPXPXPXPXPXPXPXPXPXPXPXPXPXPXPXPXPXPXPXPXPXPXPXPXPXPXPXPXPXPXPXPXPXPXPXPXPXPXPXPXPXPXPXPXPXPXPXPXPXPXPXPXPXPXPXPXPXPXPXPXPXPXPXPXPXPXPXPXPXPXPXPXPXPXPXPXPXPXPXPXPXPXPXPXPXPXPXPXPXPXPXPXPXPXPXPXPXPXPXPXPXPXPXPXPXPXPXPXPXPXPXPXPXPXPXPXPXPXPXPXPXPXPXPXPXPXPXPXPXPXPXPXPXPXPXPXPXPXPXPXPXPXPXPXPXPXPXPXPXPXPXPXPXPXPXPXPXPXPXPXPXPXPXPXPXPXPXPXPXPXPXPXPXPXPXPXPXPXPXPXPXPXPXPXPXPXPXPXPXPXPXPXPXPXPXPXPXPXPXPXPXPXPXPXPXPXPXPXPXPXPXPX",
"XXXX^.| | A.` G.I.A.Y.Q Z./.XX$X%X^.J..X X/..X@X_.^.XXXX(.!.XX#XXXXXJ.^._.(.(.(.(.(.(.%X$X,X.Xm i j i 4 j j 4 > E R.R. .| L.).#X@X[.[.@XR.R.W.W.OXW.L.K.^./.XX.X+X@XOX@XXXOX%X$X&X*X&X#X%X#X#X XJ.K. ... . .J. .G.+XOXW E ~ R R R ! G J XXOX(.(.OXOX:XF.h j j j j j m j ! ,XI.j p i j p i i 8 G OX/.^._.#XOX$XJ : 2 ; > > & % : R %X..3 > > > ; % ; % j @X@X@X).OXOX$X#X#X#X#XXX/.XX%X1X*X^.^./.%XOX/.(.%X:X_.(._.1X%X3X#X_.E.| E.).).;.O O O O o o @ i R R R H.%X%XXXXXXXXXXX| u d d d d ` S.Y.^.^.(.(.(.F f g h h p 3 | (.Y.K.L.K.H.| z 3 c  .R.R.L.L.R.L. .cXPXLXPXPXPXPXPXPXPXPXPXPXPXPXPXPXPXPXPXPXPXPXPXPXPXPXPXPXPXPXPXPXPXPXPXPXPXPXPXPXPXPXPXPXPXPXPXPXPXPXPXPXPXPXPXPXPXPXPXPXPXPXPXPXPXPXPXPXPXPXPXPXPXPXPXPXPXPXPXPXPXPXPXPXPXPXPXPXPXPXPXPXPXPXPXPXPXPXPXPXPXPXPXPXPXPXPXPXPXPXPXPXPXPXPXPXPXPXPXPXPXPXPXPXPXPXPXPXPXPXPXPXPXPXPXPXPXPXPXPXPXPXPXPXPXPXPXPXPXPXPXPXPXPXPXPXPXPXPXPXPXPXPXPXPXPXPXPXPXPXPXPXPXPXPXPXPXPXPXPXPXPXPXPXPXPXPXPXPXPXPXPXPXPXPXPXPXPXPXPXPXPXPXPXPXPXPXPXPXPXPXPXPXPXPXPXPXPXPXPXPXPXPXPXPXPXPXPXPXPXPXPXPXPXPXPXPXPXPXPX",
"E.^.(.E.^.^.K.W W W Q Y F.F.K.XX).OX).E.F.H.! H.F.| J (._.XXXXOX!.(.} J J K E (.).;X@X%X@X$X).i O O O O O O O ;  .@X).).R.K.OXOX@X,X,X@XW.E.W.OX%XOX^.(.XX#XXX+XXXOXOXOX$X*X*X*X*X3X*X$X#X#X3X| O @ ; @ O ; @ O D >XW.O @ ; O ; ; O O : ^.(././.:XOX3XE O ; ; ; , ; % O E wX;.@ % ; @ ; % + O h %XXX_.XX%X@X:XF > , 5 5 , > @ O E ,X} > , 4 , , 4 ; O m :X:X@X/.XXXX*X#X#X1X%X#XXXXXOX>X$X/.W.^././././.%X3X(.R._.$X%X1X*X^.(...(.).@X~ > 4 4 O o o $ j R R ~ Q.2X%X#XXX%XOXOXJ.z D D d d Z.J.W.oXoXXXoX^.K h m h h h p | (.E.E.Y.E.Y.} z p z  .K.L.X.X.R. .} lXPXPXPXPXPXPXPXPXPXPXPXPXPXPXPXPXPXPXPXPXPXPXPXPXPXPXPXPXPXPXPXPXPXPXPXPXPXPXPXPXPXPXPXPXPXPXPXPXPXPXPXPXPXPXPXPXPXPXPXPXPXPXPXPXPXPXPXPXPXPXPXPXPXPXPXPXPXPXPXPXPXPXPXPXPXPXPXPXPXPXPXPXPXPXPXPXPXPXPXPXPXPXPXPXPXPXPXPXPXPXPXPXPXPXPXPXPXPXPXPXPXPXPXPXPXPXPXPXPXPXPXPXPXPXPXPXPXPXPXPXPXPXPXPXPXPXPXPXPXPXPXPXPXPXPXPXPXPXPXPXPXPXPXPXPXPXPXPXPXPXPXPXPXPXPXPXPXPXPXPXPXPXPXPXPXPXPXPXPXPXPXPXPXPXPXPXPXPXPXPXPXPXPXPXPXPXPXPXPXPXPXPXPXPXPXPXPXPXPXPXPXPXPXPXPXPXPXPXPXPXPXPXPXPXPXPXPXPXPXPX",
"E. X X XXX(.-.i i u 3 d T.D.^.).$X).$X).h j x x z z h XX%X%XOX#X-XXXJ.z x h ~ :X:X:X%X:X$X:X).j ; ; ; ; ; O ; 3 o.).).(.K.R.%XOX@X@X@XwX).E.E.OX*X).^.(.OX%XOXOXXX%X/.OX$X$X>X*X&X*X$X%X$X-XwXW ; T T T T R > O D =XW.; ^ ^ / ^ ^ T O p #XOX/.).>X%X3X! 4 ^ ^ / ^ ~ , O E ,X~ 4 4 4 4 j T > O h $X#XoXOX$X@X:XE R +.{ { +.+.4 O Q >X-.R +.+.{ / +.j O j @X@X).W.XX_.$X$X#X#X#XXXXXXXOX*X$X^.^.(.#X/.(._.%X:X_.R._.#XOX*X#X(.Y...R._.W.~ , ^ ^ ; O o $ i R R ^ Q.%X%X#X#XOXoXXXJ.z d h d h | F.E.OXXXoXoX^.Y h z g h g 3 E ^.E.Y.Y.Y.Y.F.z 3 z  .R.L.L.R.R.L. .lXPXPXPXPXPXPXPXPXPXPXPXPXPXPXPXPXPXPXPXPXPXPXPXPXPXPXPXPXPXPXPXPXPXPXPXPXPXPXPXPXPXPXPXPXPXPXPXPXPXPXPXPXPXPXPXPXPXPXPXPXPXPXPXPXPXPXPXPXPXPXPXPXPXPXPXPXPXPXPXPXPXPXPXPXPXPXPXPXPXPXPXPXPXPXPXPXPXPXPXPXPXPXPXPXPXPXPXPXPXPXPXPXPXPXPXPXPXPXPXPXPXPXPXPXPXPXPXPXPXPXPXPXPXPXPXPXPXPXPXPXPXPXPXPXPXPXPXPXPXPXPXPXPXPXPXPXPXPXPXPXPXPXPXPXPXPXPXPXPXPXPXPXPXPXPXPXPXPXPXPXPXPXPXPXPXPXPXPXPXPXPXPXPXPXPXPXPXPXPXPXPXPXPXPXPXPXPXPXPXPXPXPXPXPXPXPXPXPXPXPXPXPXPXPXPXPXPXPXPXPXPXPXPXPXPXPXPXPXPXPX",
"^.oX X^.XX.XG.h d i i m K.Y.(.%X*X%X%X(.h x F G x z h @X#X%X%X#X%XXXL.z F z ~ ).:X:X@X:X:X,X;X^ T ^ / ^ ^ ^ ^ 4 ~ ;X@XW.K.Y.%X%X&XwX:X@XW.W.R.OX*X/.E.(./.#XXXOX).%XXXOX%X:X>X$X*X>X*X%X#X-XaX! , / / / / ^ T O D 8XE.> @.@.@.@.+.^ O 4 [.W.W.W.,X[.wX^ T +./ { / <X, % ~ ,X;.> 4 4 / , T ; O x #X/.(./.@XOX@XR ^ +.{ { { +.4 O P +X;.T +./ { { +.T O j ).@XW.W./.^.#X$X%X$X#XXX/.^./.$XOX^.^.W.%XOX^.R.%X%X~.E.E.XX(.OX@X(.E...R.R.(.^ , / ^ ; . . ; 4 R R E ;.%X%XOX-XoXOXoXJ.h d z g p ! K.W.)./.XXXX.XY p h h g g 3 J ^.K.Y.Y.Y.J.S.z i z  .R.L.R. .R.R. .gXPXPXPXPXPXPXPXPXPXPXPXPXPXPXPXPXPXPXPXPXPXPXPXPXPXPXPXPXPXPXPXPXPXPXPXPXPXPXPXPXPXPXPXPXPXPXPXPXPXPXPXPXPXPXPXPXPXPXPXPXPXPXPXPXPXPXPXPXPXPXPXPXPXPXPXPXPXPXPXPXPXPXPXPXPXPXPXPXPXPXPXPXPXPXPXPXPXPXPXPXPXPXPXPXPXPXPXPXPXPXPXPXPXPXPXPXPXPXPXPXPXPXPXPXPXPXPXPXPXPXPXPXPXPXPXPXPXPXPXPXPXPXPXPXPXPXPXPXPXPXPXPXPXPXPXPXPXPXPXPXPXPXPXPXPXPXPXPXPXPXPXPXPXPXPXPXPXPXPXPXPXPXPXPXPXPXPXPXPXPXPXPXPXPXPXPXPXPXPXPXPXPXPXPXPXPXPXPXPXPXPXPXPXPXPXPXPXPXPXPXPXPXPXPXPXPXPXPXPXPXPXPXPXPXPXPXPXPXPXPX",
"oX(.XXE.(./.F.d p i i F E.R./.#X$X#X$X_.g x x x x h g ).#X).OX%XXX%XL.z x j W ).:X@X%X:X:X,X@.O./ { { { { { / T ^ ).Q.R.L.L.)./.[.[.@X.XR.H.K./.%X_.K.K.(.)././.OX$XOX).#X%X*X$X$X*X%XOXXX-X*X~ , +.{ { { / , O D =XR., @.{ { { +.^ O i [.W.W.Q.@X@XwX;.T ^ / / / +.T ; ~ 4X~ 4 , , , , 4 ; O x OX#X^.XX$X).,XE +.{ { { { +.4 O P :X~ R +.{ { { { T O j @X).@X@X#XOX1X3X3X1X#X$XXX.X#X$X%X X/.(.).(.(.).3X:X).(._.*X%X1X$X:X). .R.~.~.~ 4 T ^ , O . @ j R R R ;.;XOX#XOX+XOXOXJ.h l z d p U G.^.XXoXXX^..XY p h h g g i E E.K.W.L.J.J.F.z i z  .R.R.L.R.L. .| jXPXIXPXPXPXPXPXPXPXPXPXPXPXPXPXPXPXPXPXPXPXPXPXPXPXPXPXPXPXPXPXPXPXPXPXPXPXPXPXPXPXPXPXPXPXPXPXPXPXPXPXPXPXPXPXPXPXPXPXPXPXPXPXPXPXPXPXPXPXPXPXPXPXPXPXPXPXPXPXPXPXPXPXPXPXPXPXPXPXPXPXPXPXPXPXPXPXPXPXPXPXPXPXPXPXPXPXPXPXPXPXPXPXPXPXPXPXPXPXPXPXPXPXPXPXPXPXPXPXPXPXPXPXPXPXPXPXPXPXPXPXPXPXPXPXPXPXPXPXPXPXPXPXPXPXPXPXPXPXPXPXPXPXPXPXPXPXPXPXPXPXPXPXPXPXPXPXPXPXPXPXPXPXPXPXPXPXPXPXPXPXPXPXPXPXPXPXPXPXPXPXPXPXPXPXPXPXPXPXPXPXPXPXPXPXPXPXPXPXPXPXPXPXPXPXPXPXPXPXPXPXPXPXPXPXPXPXPXPXPX",
"(.(.(.(.W.W.Q g i i i m K.Y._.2X#XOX$XW.g x x x c g h ).%XOX%X%XXXOX .c x c | ).:X%X%X:X$X,X+.^ / / / { { / / , O.Q./.E. .F.OX#X,X@X@X@XE.K.^.@X3XXX(.^./.%X%X#X$X:X%X$X%X:X:X1X3X3X%X%X#X+X>X~ , +.{ / / { T O G >X@.5 @.{ { { { { O 4 @X[.@X@XwX@XwX^ / / / { { +.4 O ~ ,XQ., 4 , , , , 4 ; j %X$X.XoX>X@X:XE ^ +.{ { { +.4 ; ! wX-.R +.{ { { { j O R %X@XOXOX/.OX*X1X3X*X$X*XXXXX#X*X#XXXOX(.@X).W.%X>X,X).(._.1X%X%X:X$X).} R.~.~.O.4 / T ; . O ; 4 R ~ E R.%X%XXX#X+XOXXXJ.z d d d p U F.^.oXXX.X.X.XJ i g h h g 3 E R.L.E.E.!.J.S.z 3 x  .R.L.L.L.L. ...dXPXPXPXPXPXPXPXPXPXPXPXPXPXPXPXPXPXPXPXPXPXPXPXPXPXPXPXPXPXPXPXPXPXPXPXPXPXPXPXPXPXPXPXPXPXPXPXPXPXPXPXPXPXPXPXPXPXPXPXPXPXPXPXPXPXPXPXPXPXPXPXPXPXPXPXPXPXPXPXPXPXPXPXPXPXPXPXPXPXPXPXPXPXPXPXPXPXPXPXPXPXPXPXPXPXPXPXPXPXPXPXPXPXPXPXPXPXPXPXPXPXPXPXPXPXPXPXPXPXPXPXPXPXPXPXPXPXPXPXPXPXPXPXPXPXPXPXPXPXPXPXPXPXPXPXPXPXPXPXPXPXPXPXPXPXPXPXPXPXPXPXPXPXPXPXPXPXPXPXPXPXPXPXPXPXPXPXPXPXPXPXPXPXPXPXPXPXPXPXPXPXPXPXPXPXPXPXPXPXPXPXPXPXPXPXPXPXPXPXPXPXPXPXPXPXPXPXPXPXPXPXPXPXPXPXPXPXPXPXPX",
"^.^.(.^./.W.H.p i i i z L.K.(.XX%X%X:XE.g z c x z z p /.OX%XOXXXXXXXT.h x g ~ ).;X;X:X%X$X,X+.{ { { / { { { / T o.~.Q.E.L. .%X3X,X@X&X@XW.R.(.$X1XOX^.^.XX#X).%X%X3X1X$X$X*X*X3X>X*X$X%X%XXX>X~ , +.{ { { +.T O F 3X(.[ @.{ { { +.+.O 4 ).).@X@XwX@XwX~ T { { / / { T O ~ wX;.4 , , , / , , O j #X#X[..X>X.X:X~ O.+.{ { { { , ; E ,X~ T +.{ { / { T O x @X@X.XOXOXOX&XaX3X1X*X*XOXXX@X*X#X/.#XE.OXOXR.).%X:X).).(.3X#X%X%X$X_. .R./.~.^ T / ^ ; O . @ 4 R R R R.%X%X#X#XOXOXOXL.d h d h d Y F.Y.OXXXXX^..XE p h h g j : J (.K.Y.J.Y.J.F.z i g ..R.L.R.L.R.H. .kXPXPXPXPXPXPXPXPXPXPXPXPXPXPXPXPXPXPXPXPXPXPXPXPXPXPXPXPXPXPXPXPXPXPXPXPXPXPXPXPXPXPXPXPXPXPXPXPXPXPXPXPXPXPXPXPXPXPXPXPXPXPXPXPXPXPXPXPXPXPXPXPXPXPXPXPXPXPXPXPXPXPXPXPXPXPXPXPXPXPXPXPXPXPXPXPXPXPXPXPXPXPXPXPXPXPXPXPXPXPXPXPXPXPXPXPXPXPXPXPXPXPXPXPXPXPXPXPXPXPXPXPXPXPXPXPXPXPXPXPXPXPXPXPXPXPXPXPXPXPXPXPXPXPXPXPXPXPXPXPXPXPXPXPXPXPXPXPXPXPXPXPXPXPXPXPXPXPXPXPXPXPXPXPXPXPXPXPXPXPXPXPXPXPXPXPXPXPXPXPXPXPXPXPXPXPXPXPXPXPXPXPXPXPXPXPXPXPXPXPXPXPXPXPXPXPXPXPXPXPXPXPXPXPXPXPXPXPXPXPX",
"^.(.!.XX(.^.| d i i i h K.W.(.#X%X%X:XE.g z x x z j h ).#X%XOX#XOXXX..l K g ..).:X).:X$X@X,X@.O./ { { / { { / / o.~.~.E.L. .%X3X$X%X%X$X^.R./.@X*X%X/.^./.#XOX%X$X>X$X$X$X*X>X:X>X*X:X%X+X@X>X~ T { { { { +.^ O R >XQ.; @.{ { { +.^ O i W.(.).(.@X@X,X~ T / { { { +.4 ; ~ ,X;., , , , , , 3 O j ).#X^.oX$XXX@XE ^ +.{ { { +.T O ~ ,X;.T +./ { { +.T ; j [.@X@X@XXXXX%X1X$X$X$X#XXXXX/.$XXXW..X(.)./.W.).@X).E.R.E.%X/.%X).).(...L.~.~.^ T T ^ , . O O 4 R R R Q.%X2X%XOXOXOXOXJ.h l d h d Y D.W.oXOXXX X/.W p h h d i 3 E R.K.K.J.Y.G.G.z 2 j ..X.L.R.L.R.R.~ gXPXPXPXPXPXPXPXPXPXPXPXPXPXPXPXPXPXPXPXPXPXPXPXPXPXPXPXPXPXPXPXPXPXPXPXPXPXPXPXPXPXPXPXPXPXPXPXPXPXPXPXPXPXPXPXPXPXPXPXPXPXPXPXPXPXPXPXPXPXPXPXPXPXPXPXPXPXPXPXPXPXPXPXPXPXPXPXPXPXPXPXPXPXPXPXPXPXPXPXPXPXPXPXPXPXPXPXPXPXPXPXPXPXPXPXPXPXPXPXPXPXPXPXPXPXPXPXPXPXPXPXPXPXPXPXPXPXPXPXPXPXPXPXPXPXPXPXPXPXPXPXPXPXPXPXPXPXPXPXPXPXPXPXPXPXPXPXPXPXPXPXPXPXPXPXPXPXPXPXPXPXPXPXPXPXPXPXPXPXPXPXPXPXPXPXPXPXPXPXPXPXPXPXPXPXPXPXPXPXPXPXPXPXPXPXPXPXPXPXPXPXPXPXPXPXPXPXPXPXPXPXPXPXPXPXPXPXPXPXPX",
"^.XX_.XX^.(.} p i p i h K.Y.(.%X%X).%XE.h x j x x h h (.OX%X#X#X#X_.| z x h ~ ).:X;X@X:X$X;X+.^ / { { / { / / , ^ ~.Q.E.H.F.OX$X$X%X).OXR.K.W.XX%X/.Y.W././.(.(.%X*X$X%X%X%X1X:X%X$X$X@XXX[.:XE T +.{ { { +.^ O j :XW., @.{ { @.+.{ O : Q.(.(.R.,X;.;X~ ^ { { { { +.4 ; E @X;.> , , T , T , O d XX X^.^.&X.X:X~ ^ +.{ { { +.4 O P ,X~ j +.{ { { { T O j @X@X@X).%XOX*X1X*X$X*X#XXXXXOX*X$X/.OXW.)./.).).:X:X(.R.(.*X*X$X1X/.R. .Q.(.Q.O.T T ^ ; . O ; 4 R R R Q._.%X2X%X#XXXXXJ.h h h d d J D.W.oX.XXX^.(.` d g g h p : G W.K.K.Y.Y.J.G.z 3 g | R.L.L.R.L. .| jXPXIXPXPXPXPXPXPXPXPXPXPXPXPXPXPXPXPXPXPXPXPXPXPXPXPXPXPXPXPXPXPXPXPXPXPXPXPXPXPXPXPXPXPXPXPXPXPXPXPXPXPXPXPXPXPXPXPXPXPXPXPXPXPXPXPXPXPXPXPXPXPXPXPXPXPXPXPXPXPXPXPXPXPXPXPXPXPXPXPXPXPXPXPXPXPXPXPXPXPXPXPXPXPXPXPXPXPXPXPXPXPXPXPXPXPXPXPXPXPXPXPXPXPXPXPXPXPXPXPXPXPXPXPXPXPXPXPXPXPXPXPXPXPXPXPXPXPXPXPXPXPXPXPXPXPXPXPXPXPXPXPXPXPXPXPXPXPXPXPXPXPXPXPXPXPXPXPXPXPXPXPXPXPXPXPXPXPXPXPXPXPXPXPXPXPXPXPXPXPXPXPXPXPXPXPXPXPXPXPXPXPXPXPXPXPXPXPXPXPXPXPXPXPXPXPXPXPXPXPXPXPXPXPXPXPXPXPXPXPX",
"^.^.^._.(.(.} d i i u D Y.E.(.OX).OX%XE.g x x x z j g ).%X#XOX#X#XXX..z x g | ~.:X:X:X&X:X;X@.{ { { { { / { / T ^ )._.Q. .L.XX%X%X$X#X@XE.K.R.OX&XXXW.^.XXOX(.OX%X:X#X%X%X*X:X$X%X:X$X$X@X.X:X~ T +.{ { { +.T O x &XW., +.+.{ +.+.+.O 4 .X%X_.(.,X[.,X~ ^ +.{ { { +.4 ; m ,X;., , , , , , > O j #XXX XoX=X$X>XE @.+.{ { { +.T O ~ ,X~ ^ +.{ / { +.T O j @X,X[.).#XOX$X=X$X#X$X+XOXOX#X*X$X^.OX/.@X)././.$X:X).Q.).*X*X1X%X(.(...R.~.~.~ T T ^ , O . @ 4 R R ~ Q.%X%X%X-XOXOXXXJ.z p z h d K F.^.+X.XXX X^.Y p h p h j : E Q.I.Y.Y.K.J.G.z 3 g | L.L. . .L.L...dXPXPXPXPXPXPXPXPXPXPXPXPXPXPXPXPXPXPXPXPXPXPXPXPXPXPXPXPXPXPXPXPXPXPXPXPXPXPXPXPXPXPXPXPXPXPXPXPXPXPXPXPXPXPXPXPXPXPXPXPXPXPXPXPXPXPXPXPXPXPXPXPXPXPXPXPXPXPXPXPXPXPXPXPXPXPXPXPXPXPXPXPXPXPXPXPXPXPXPXPXPXPXPXPXPXPXPXPXPXPXPXPXPXPXPXPXPXPXPXPXPXPXPXPXPXPXPXPXPXPXPXPXPXPXPXPXPXPXPXPXPXPXPXPXPXPXPXPXPXPXPXPXPXPXPXPXPXPXPXPXPXPXPXPXPXPXPXPXPXPXPXPXPXPXPXPXPXPXPXPXPXPXPXPXPXPXPXPXPXPXPXPXPXPXPXPXPXPXPXPXPXPXPXPXPXPXPXPXPXPXPXPXPXPXPXPXPXPXPXPXPXPXPXPXPXPXPXPXPXPXPXPXPXPXPXPXPXPXPXPX",
"_.^.^.!.E.^. .h i i u h J.K.(.OX%X%X).R.j z z j x z p OX@X#X%X#XXXXXT.z K j ..).;X:X:X&X$X,X@.O./ { / { { { { , O.Q._.(.L.R.%XOX%X*X:X:XW.R.E.$X1X#X(.(.XX%X).%X$X$X$X%X%X$X*X%X$X1X$X@X@XXX:XE T +.{ +.{ +.T . m >XQ.> +.{ +.{ +.+.O i /.:X)._.&X@X,X~ ^ +.{ { +.+.4 O ~ wX;., , T , , T , O j XXoX XoX&X+X,X! O.+.{ { { +.4 O P @X;.^ +./ { { +.T O j :X@X).[.OXOX*X*X#X*X*XOXXXXX+X*X#XW.OX).@X/./.(.:X:X).W.).%X%X%X%X).R. .R.).~.O.T / ^ ; . o @ j R R ~ ;.:X%X%XXX#XOXXXJ.d d d d p Y A.Y.oXXXoX^./.| p h h g g i G R.K.K.Y.Y.J.G.D i g ! R.L.R.L.L.L.~ dXPXPXPXPXPXPXPXPXPXPXPXPXPXPXPXPXPXPXPXPXPXPXPXPXPXPXPXPXPXPXPXPXPXPXPXPXPXPXPXPXPXPXPXPXPXPXPXPXPXPXPXPXPXPXPXPXPXPXPXPXPXPXPXPXPXPXPXPXPXPXPXPXPXPXPXPXPXPXPXPXPXPXPXPXPXPXPXPXPXPXPXPXPXPXPXPXPXPXPXPXPXPXPXPXPXPXPXPXPXPXPXPXPXPXPXPXPXPXPXPXPXPXPXPXPXPXPXPXPXPXPXPXPXPXPXPXPXPXPXPXPXPXPXPXPXPXPXPXPXPXPXPXPXPXPXPXPXPXPXPXPXPXPXPXPXPXPXPXPXPXPXPXPXPXPXPXPXPXPXPXPXPXPXPXPXPXPXPXPXPXPXPXPXPXPXPXPXPXPXPXPXPXPXPXPXPXPXPXPXPXPXPXPXPXPXPXPXPXPXPXPXPXPXPXPXPXPXPXPXPXPXPXPXPXPXPXPXPXPXPX",
"(.(.(.^.E.E.| d i i i z J.E.(.%X%X%X@XR.z z c j x j p %X%X#XOX#X#XXX} z x g ..).:X;X:X$X,X,X<X{ { / / { { / / T o.~.).R.L.R.%X@X:X:X$X$XE.R.W.$X1X%X(./.XX%XOXOX$X:X$X%X%X$X:X%X%X:X$X%X).XX$XE T +.{ { +.+.R O R &XW., +.+.+.+.+.o.O j (.%X_.(.@X@X,X~ ^ +.{ +.{ <Xj O E >X;.4 5 , T , T 8 O j XXXX^. X#X#X$XE ^ +.+.{ +.+.j O m wX;.^ <X{ { { +.T O g [.@X.XW.(.XX$X1X#X$X$X#X.X.XOX$XXXK.(.(.).(.W.Q.@X$XQ.R.E.%X%X$X@XQ.E. .;.Q.Q.o.4 T T ; . . ; 4 ~ R E R.%X%X$X-XOXXX/.J.h p l p p J  .!.#XoXXX^.(.| p d d g h 3 F (.K.E.J.Y.J.F.h i j  .R.L. .L.X. .~ gXPXPXPXPXPXPXPXPXPXPXPXPXPXPXPXPXPXPXPXPXPXPXPXPXPXPXPXPXPXPXPXPXPXPXPXPXPXPXPXPXPXPXPXPXPXPXPXPXPXPXPXPXPXPXPXPXPXPXPXPXPXPXPXPXPXPXPXPXPXPXPXPXPXPXPXPXPXPXPXPXPXPXPXPXPXPXPXPXPXPXPXPXPXPXPXPXPXPXPXPXPXPXPXPXPXPXPXPXPXPXPXPXPXPXPXPXPXPXPXPXPXPXPXPXPXPXPXPXPXPXPXPXPXPXPXPXPXPXPXPXPXPXPXPXPXPXPXPXPXPXPXPXPXPXPXPXPXPXPXPXPXPXPXPXPXPXPXPXPXPXPXPXPXPXPXPXPXPXPXPXPXPXPXPXPXPXPXPXPXPXPXPXPXPXPXPXPXPXPXPXPXPXPXPXPXPXPXPXPXPXPXPXPXPXPXPXPXPXPXPXPXPXPXPXPXPXPXPXPXPXPXPXPXPXPXPXPXPXPXPX",
"^.^.(.^.^.E.| p i i i z J.!.(.%X%X).$XE.h g x z z z p ).OXOXOX#XXXXX .z x g ~ ).;X:X:X$X,X,XQ.^ { { { { { { { , ^ Q.Q.R.X.E.).OX$X%X$X:XR.R.W.@X*X/.^.^.(.OX(.OX$X$X%X#X#X%X$X#X$X$X%X_._.(.OXR T +.+.+.+.+.T O m [.[., +.+.{ +.+.+.O i Y.E.R.L.[.[.wX~ ^ <X+.{ +.+., O G >X~ : T 4 , T T > O j XXXX!.Y..X.XoXG R +.{ ^ +.^ i O m ,X;., ^ ^ / ^ ^ 4 O j /.Q.Q.I.F.Y.+X=X=X*X#XoXXXXX+X*X%XE.^.(.@X@X/./.:X:X/./.(.%X).$X%XW.).H.Q.;X;X~ ; ; ; O O . O 4 R R E L.$X$X#X#X#XXXXXJ.z p h p p H F.E.XXXXXX(.oX` p p g d p u G ^.K.K.L.E.J.T.x i 4 ! R.R.L.X.H.R.W dXPXIXPXPXPXPXPXPXPXPXPXPXPXPXPXPXPXPXPXPXPXPXPXPXPXPXPXPXPXPXPXPXPXPXPXPXPXPXPXPXPXPXPXPXPXPXPXPXPXPXPXPXPXPXPXPXPXPXPXPXPXPXPXPXPXPXPXPXPXPXPXPXPXPXPXPXPXPXPXPXPXPXPXPXPXPXPXPXPXPXPXPXPXPXPXPXPXPXPXPXPXPXPXPXPXPXPXPXPXPXPXPXPXPXPXPXPXPXPXPXPXPXPXPXPXPXPXPXPXPXPXPXPXPXPXPXPXPXPXPXPXPXPXPXPXPXPXPXPXPXPXPXPXPXPXPXPXPXPXPXPXPXPXPXPXPXPXPXPXPXPXPXPXPXPXPXPXPXPXPXPXPXPXPXPXPXPXPXPXPXPXPXPXPXPXPXPXPXPXPXPXPXPXPXPXPXPXPXPXPXPXPXPXPXPXPXPXPXPXPXPXPXPXPXPXPXPXPXPXPXPXPXPXPXPXPXPXPXPXPX",
"(.^.^.^.^.(.| p u i u F K.^./.OX).XX@XR.g z j z j z p OXOXOXOXXXXXXX} z x g | ;X;X).,X@X&X,XQ./ / / / / / / T , ~ <X~.R. .L.).%X@X).@X@XR.L.E.OX$XOXE.E.^./.).XXOX%X%X%XOX%X$X&X*X$X%XL.L.(..XE ; T T T ^ 4 , O m @XW.O T T T T T > O i ).Q.Q.o.;.@X,X;.8 / T T T , ; O x >X-.; ; , , , ; % O j (.^.J.J..XW.-XQ > T 4 / T 4 , % P ,X;., , T T T 4 , O j @XW.E.H.OXW.#X3X*X*X&X+X+X+X#X>X>X(./.).@X@X).@X>X:XOX).).$XOX$X*X:X@X .Q.,X,X~ 4 T ^ 4 O . @ g R E E X.$X#X#X#XOXXXXXL.h p h h p J T.E.XXXXXX^.^.W p d g h h 3 F (.K.Y.K.Y.K.G.x 3 g ~ R. .L.R. .R.~ dXPXPXPXPXPXPXPXPXPXPXPXPXPXPXPXPXPXPXPXPXPXPXPXPXPXPXPXPXPXPXPXPXPXPXPXPXPXPXPXPXPXPXPXPXPXPXPXPXPXPXPXPXPXPXPXPXPXPXPXPXPXPXPXPXPXPXPXPXPXPXPXPXPXPXPXPXPXPXPXPXPXPXPXPXPXPXPXPXPXPXPXPXPXPXPXPXPXPXPXPXPXPXPXPXPXPXPXPXPXPXPXPXPXPXPXPXPXPXPXPXPXPXPXPXPXPXPXPXPXPXPXPXPXPXPXPXPXPXPXPXPXPXPXPXPXPXPXPXPXPXPXPXPXPXPXPXPXPXPXPXPXPXPXPXPXPXPXPXPXPXPXPXPXPXPXPXPXPXPXPXPXPXPXPXPXPXPXPXPXPXPXPXPXPXPXPXPXPXPXPXPXPXPXPXPXPXPXPXPXPXPXPXPXPXPXPXPXPXPXPXPXPXPXPXPXPXPXPXPXPXPXPXPXPXPXPXPXPXPXPX",
"^.(./.^././.} p i p i z T.E.XX).%XOX%XE.g j j c x g p %XOX).OXOX%XOXH.j F g ~ ).:X:X@X&X:X>X<X4 , , , , , , , 4 o.;X).~.X. .:X:X:X:X%X:X(.E.W.#X:X%XR.R.(.).$X$X%X>X$X$X$X$X$X:X>X&X%XR.).R.[.! , o./ +.+.+.j O G @XW.; o.+.^ +.+.^ O i ).Q.H.;.@X@X,X~ j ^ +./ +.o.4 O G :X~ ; ; , , , , 3 O j _.!.J./.>XXX+XY R +.+.+.+.+.j O ~ ,X;.j +.+.{ +.+.T O j W.E.W.W.>X X#X*X1X=X#X+X+X+X*X>X>XE./.(.).%X).OX:X:X@XOX(.%X%X>X:X$X@XH.I.;X,Xo.4 ^ ^ T O . @ 4 R R ..R.$X$X%X#XXXXXXXL.p i l p p K ..!.XXXXXX^.^.` p d d h p 3 F E.K.K.Y.K.J.G.F 3 3 ..R. . .R. .L.E dXPXPXPXPXPXPXPXPXPXPXPXPXPXPXPXPXPXPXPXPXPXPXPXPXPXPXPXPXPXPXPXPXPXPXPXPXPXPXPXPXPXPXPXPXPXPXPXPXPXPXPXPXPXPXPXPXPXPXPXPXPXPXPXPXPXPXPXPXPXPXPXPXPXPXPXPXPXPXPXPXPXPXPXPXPXPXPXPXPXPXPXPXPXPXPXPXPXPXPXPXPXPXPXPXPXPXPXPXPXPXPXPXPXPXPXPXPXPXPXPXPXPXPXPXPXPXPXPXPXPXPXPXPXPXPXPXPXPXPXPXPXPXPXPXPXPXPXPXPXPXPXPXPXPXPXPXPXPXPXPXPXPXPXPXPXPXPXPXPXPXPXPXPXPXPXPXPXPXPXPXPXPXPXPXPXPXPXPXPXPXPXPXPXPXPXPXPXPXPXPXPXPXPXPXPXPXPXPXPXPXPXPXPXPXPXPXPXPXPXPXPXPXPXPXPXPXPXPXPXPXPXPXPXPXPXPXPXPXPXPX",
"^.^./.(.(.E.| p i i i m K.W.OXOXOXOX%XK.g h c j z j p @XOX%X#X%X%XOX} z x j ~ @X,X:X$X:X:X,XQ.^ { { { { { / ^ T ^ ;X;XQ.H. .).%X:X@X@X@XW.E./.:X1X).E.E.R.%X%X@X$X>X$X%X%X:X&X:X>X*XOX/.:X/.%XE / @.@.{ +.+.T O c 2XX.> @.@.@.@.+.o.O j W.R.K..X&X/.,X~ T +.{ { { <XT O ~ @X;., 4 , , , 4 4 O j /.R.H./.,X.X.XE O.+.{ { { +.4 O j ,Xo.T +.{ { { +.T O R ;.;.K.E.:XY.XX1X*X*X#X#XoXXX+X&X$XE.(.).%X@X/.).@X:X).).E.)._.%X).).OXF.K.).~.O.4 / / T + . ; 4 R E E L.$X$X+X+XXXXX/.J.h p g p p K } E.XXXXXX^.(.` p d h d g : F E.K.K.Y.K.J.G.F 3 g ~ L. .L.L. .R.E sXPXPXPXPXPXPXPXPXPXPXPXPXPXPXPXPXPXPXPXPXPXPXPXPXPXPXPXPXPXPXPXPXPXPXPXPXPXPXPXPXPXPXPXPXPXPXPXPXPXPXPXPXPXPXPXPXPXPXPXPXPXPXPXPXPXPXPXPXPXPXPXPXPXPXPXPXPXPXPXPXPXPXPXPXPXPXPXPXPXPXPXPXPXPXPXPXPXPXPXPXPXPXPXPXPXPXPXPXPXPXPXPXPXPXPXPXPXPXPXPXPXPXPXPXPXPXPXPXPXPXPXPXPXPXPXPXPXPXPXPXPXPXPXPXPXPXPXPXPXPXPXPXPXPXPXPXPXPXPXPXPXPXPXPXPXPXPXPXPXPXPXPXPXPXPXPXPXPXPXPXPXPXPXPXPXPXPXPXPXPXPXPXPXPXPXPXPXPXPXPXPXPXPXPXPXPXPXPXPXPXPXPXPXPXPXPXPXPXPXPXPXPXPXPXPXPXPXPXPXPXPXPXPXPXPXPXPXPXPXPX",
"^.^.^.(.(.(.W i i i f D Y.W.OX%X%X%X%XR.h h z j x g p OX).OXOX#XXXOX| c G j ! ;X:X@X:X:X:X,X+./ / { / { { { / T o.<X@X[.L. .~.).:X).:X@XQ.(./.@X:XOXE.R.(.).%XOX%X:X#X%X@X$X&X>X3X$X@X(.@XK.W.R [ @.{ { { +.T O x _._.; @.{ { { +.+.O i W.! ! Q.@XH.).R R +.{ { { +., ; ~ @X;.> , , / , , 4 O 4 L.W E H./.! K.~ ^ +.{ { { { 4 ; G @X~ j +./ { / { T O 4 Q.~ W } +XK./.*X#XXXXXXX.XY.XX$X$XR.R.(.).).).W.@X:X(.W.(.@XOX%XOX/.E.L.R.(.Q.O., T ^ T O O O j R R K X.@X$X#X+X+XXXXXK.d p d p f K T.E.XXXXXX^.^.` p g h g g u F E.K.E.L.Y.J.G.F 3 3 ~ R.X.X.L. .R.E sXPXLXPXPXPXPXPXPXPXPXPXPXPXPXPXPXPXPXPXPXPXPXPXPXPXPXPXPXPXPXPXPXPXPXPXPXPXPXPXPXPXPXPXPXPXPXPXPXPXPXPXPXPXPXPXPXPXPXPXPXPXPXPXPXPXPXPXPXPXPXPXPXPXPXPXPXPXPXPXPXPXPXPXPXPXPXPXPXPXPXPXPXPXPXPXPXPXPXPXPXPXPXPXPXPXPXPXPXPXPXPXPXPXPXPXPXPXPXPXPXPXPXPXPXPXPXPXPXPXPXPXPXPXPXPXPXPXPXPXPXPXPXPXPXPXPXPXPXPXPXPXPXPXPXPXPXPXPXPXPXPXPXPXPXPXPXPXPXPXPXPXPXPXPXPXPXPXPXPXPXPXPXPXPXPXPXPXPXPXPXPXPXPXPXPXPXPXPXPXPXPXPXPXPXPXPXPXPXPXPXPXPXPXPXPXPXPXPXPXPXPXPXPXPXPXPXPXPXPXPXPXPXPXPXPXPXPXPXPXPX",
"^.W.(.R.E.E.| p i i i F Y.Y.OX%X%XOX@XR.h z x z x h g %XXXOXOXOXOXOX} j x h ! ;X:X@X:X:X:X,X+.^ { { { { / / / , ^ ~.Q.Q... .(.).).(.).).R.L.Q.OX$X/.L.R.R.).(.(..X$XOX.XOX$X*X$X:X>X(.(.(.x X.E 5 { { { { +.T O x @XX.; @.{ { { { O.O 4 W.J R ..E.G Q.~ / +.{ { { +.4 O m @X;., , , , , T , O j L.| Q H.W.~ Q.~ ^ +.{ { { { 4 O m @X;.T { { { / +.T O j Q. .H.J K.} /.*XXXoX#X#X+X X+X>X$XE.E.R.).@X/./.:X>X@X/.).:X:X*X$XOXW. .Q.).Q.O.T T / T O . @ j R R E L.$X#X+X+XOXOXOXK.p p h d f F F.Y.oX/. X/./.` i d h p i : x E.K.Y.K.E.L.F.x 3 g ~ L. .L.L.R.X.G aXPXLXPXPXPXPXPXPXPXPXPXPXPXPXPXPXPXPXPXPXPXPXPXPXPXPXPXPXPXPXPXPXPXPXPXPXPXPXPXPXPXPXPXPXPXPXPXPXPXPXPXPXPXPXPXPXPXPXPXPXPXPXPXPXPXPXPXPXPXPXPXPXPXPXPXPXPXPXPXPXPXPXPXPXPXPXPXPXPXPXPXPXPXPXPXPXPXPXPXPXPXPXPXPXPXPXPXPXPXPXPXPXPXPXPXPXPXPXPXPXPXPXPXPXPXPXPXPXPXPXPXPXPXPXPXPXPXPXPXPXPXPXPXPXPXPXPXPXPXPXPXPXPXPXPXPXPXPXPXPXPXPXPXPXPXPXPXPXPXPXPXPXPXPXPXPXPXPXPXPXPXPXPXPXPXPXPXPXPXPXPXPXPXPXPXPXPXPXPXPXPXPXPXPXPXPXPXPXPXPXPXPXPXPXPXPXPXPXPXPXPXPXPXPXPXPXPXPXPXPXPXPXPXPXPXPXPXPXPXPX",
"W.(.^.^.(.E.E i i p u D Y.W.OXOX%X/.%XK.g j x j h g p @X%XOX#X#XOX).} z x j ! @X;X@X@X&X:X,X+.{ / { / / { { / T ^ ~.Q.H. .R.).:X).:X:X;XR.R.E.$X3X/.E.R._.(././.#X*X$X)..X*X>X:X>X:XE.|  .| ).~ T { { { { +.T O G *X@.[ @.{ { { +.^ O i Y.H...c ..! .X~ ^ +.{ { { +.T O R @X;., , , / , , , O j E. .! E ! ! @X~ ^ +.{ { { +.4 O ~ wXI.j +.{ { { { T O j Q.H.H.z L.} Y.1X#XOX#X+XoXW.+X:X$X^.E.(.@X)./.).:X>X).).(.$X$X*X$X).(.H.Q.).~.o.T / / T O O @ 4 R x R R.@X+X+X+XOXXXOXG.d p d p f F D.E.OXXXXXXX/.| i g h h g 2 z E.K.K.Y.Y.J.A.m 3 3 E L. .X. . .R.E sXPXPXPXPXPXPXPXPXPXPXPXPXPXPXPXPXPXPXPXPXPXPXPXPXPXPXPXPXPXPXPXPXPXPXPXPXPXPXPXPXPXPXPXPXPXPXPXPXPXPXPXPXPXPXPXPXPXPXPXPXPXPXPXPXPXPXPXPXPXPXPXPXPXPXPXPXPXPXPXPXPXPXPXPXPXPXPXPXPXPXPXPXPXPXPXPXPXPXPXPXPXPXPXPXPXPXPXPXPXPXPXPXPXPXPXPXPXPXPXPXPXPXPXPXPXPXPXPXPXPXPXPXPXPXPXPXPXPXPXPXPXPXPXPXPXPXPXPXPXPXPXPXPXPXPXPXPXPXPXPXPXPXPXPXPXPXPXPXPXPXPXPXPXPXPXPXPXPXPXPXPXPXPXPXPXPXPXPXPXPXPXPXPXPXPXPXPXPXPXPXPXPXPXPXPXPXPXPXPXPXPXPXPXPXPXPXPXPXPXPXPXPXPXPXPXPXPXPXPXPXPXPXPXPXPXPXPXPXPXPX",
"^.^.(.E.^.R.` i 2 i u D Y.E.).#X%XOX#XL.g z j x z g p %XOX%X#XOXXXOX .h x j ! ;X;X%X%X%X@X;X@.^ { { / / { / / 4 o.<X~.Q.R.R.;X).@X,X;X:XQ.W.Q.@X*XOXR.R.(.(.(.(.$X3X%XXXOX>X:X>X%X:X .K K...R.~ 5 { { { { +.^ O D +XY.; +.+.{ @.+.+.O 4 I.! | | Q.-.;.~ T +.{ { { +.j O x :X .> , / , , T , O j L.| | J..X/.Q.~ / +.{ { { +.T O ~ wX;.j { { { { +.T O 4 (.~ | ^.%X).Y.*X/.XXOXOXoXW.oX&X#XE.R.^.)././.).:X>X/./.).%X$X:X%XOXW.L.E.).Q.o.4 / / T ; O @ 4 R x R L.$X@X#XXXOXXX.XK.d i d f 3 z F.Y.OXXX/.^./.! i g p g i : j W.J.K.G.K.I.H.x : 4 R X. . .L.L.L.J sXPXPXPXPXPXPXPXPXPXPXPXPXPXPXPXPXPXPXPXPXPXPXPXPXPXPXPXPXPXPXPXPXPXPXPXPXPXPXPXPXPXPXPXPXPXPXPXPXPXPXPXPXPXPXPXPXPXPXPXPXPXPXPXPXPXPXPXPXPXPXPXPXPXPXPXPXPXPXPXPXPXPXPXPXPXPXPXPXPXPXPXPXPXPXPXPXPXPXPXPXPXPXPXPXPXPXPXPXPXPXPXPXPXPXPXPXPXPXPXPXPXPXPXPXPXPXPXPXPXPXPXPXPXPXPXPXPXPXPXPXPXPXPXPXPXPXPXPXPXPXPXPXPXPXPXPXPXPXPXPXPXPXPXPXPXPXPXPXPXPXPXPXPXPXPXPXPXPXPXPXPXPXPXPXPXPXPXPXPXPXPXPXPXPXPXPXPXPXPXPXPXPXPXPXPXPXPXPXPXPXPXPXPXPXPXPXPXPXPXPXPXPXPXPXPXPXPXPXPXPXPXPXPXPXPXPXPXPXPXPX",
"(.^.^.(.E.Y.K 3 u i u D K.^./.OX_.OX%XL.g g c z j g p %X).XXOXOXOXOX! h x g ~ ).:X%X;X%X;X;XO.{ / { { { { { / T o.).Q.Q. .R.).@X,X:X@X,X/.R.R.$X:X%XE.K._.).W.^.#X>X#XXX/.$X>X$X1X%XJ.(.1X(.R.R 5 { { { { +.T O F +XK.; +.{ { { +.+.O i W.!  .).:X).;X~ T +.{ { { +.T O x @X .4 , / / / / 4 O j L.D.J.^.$X/..X! ^ +.{ { { { T O i Q.~ T +.{ { { { T O 4 F.| L.Y.XX^.^.#XXX-X#XoXW.W..X#X%XK.(.Q.).W.Q.W.@XOXW.R.(.@X^./.OX).).H.R.).)...4 T ^ T O . O 3 j R x R.%X@X%XOXOX)..XG.i i i u u D F.Y.XX/.XX(.(.! 2 i i i i : g R.L.J.K.K.H.K.x > : R o. .F.J.F.X.J aXPXPXPXPXPXPXPXPXPXPXPXPXPXPXPXPXPXPXPXPXPXPXPXPXPXPXPXPXPXPXPXPXPXPXPXPXPXPXPXPXPXPXPXPXPXPXPXPXPXPXPXPXPXPXPXPXPXPXPXPXPXPXPXPXPXPXPXPXPXPXPXPXPXPXPXPXPXPXPXPXPXPXPXPXPXPXPXPXPXPXPXPXPXPXPXPXPXPXPXPXPXPXPXPXPXPXPXPXPXPXPXPXPXPXPXPXPXPXPXPXPXPXPXPXPXPXPXPXPXPXPXPXPXPXPXPXPXPXPXPXPXPXPXPXPXPXPXPXPXPXPXPXPXPXPXPXPXPXPXPXPXPXPXPXPXPXPXPXPXPXPXPXPXPXPXPXPXPXPXPXPXPXPXPXPXPXPXPXPXPXPXPXPXPXPXPXPXPXPXPXPXPXPXPXPXPXPXPXPXPXPXPXPXPXPXPXPXPXPXPXPXPXPXPXPXPXPXPXPXPXPXPXPXPXPXPXPXPXPXPX",
"(.^./.^.(.E.' p u u 8 z K.^.XX%XOXOX%XK.d j c g z p g OXXXOXOX#XOX+X} h x j ~ ).,X%X:X:X,X;X@./ / { / { / { / 4 ^ Q.Q.H. .L.~.)./.).;XW.K.K.W.@X1X).E.R.E.).(./.%X$XOX_./.$X*X$X%X$X^.L.(.E./.E 5 @.{ { { +.T O h /.F.; +.{ { { +.+.O 3 H.F.E.W..X.X@X~ T { { { { <XT O g @X .4 +.{ / / ^ T ; 8 L.J.^. X-X.X@X! ^ +.{ { { +.T O m [.;.4 +.{ { / +.T O i L.| ^.(.^./.XX$X=X&X#X=X X/.XX3X$XK.(.W.)./.Q.W.:X$X/.W.XX>X.X/.%X$X/.L.W.%X,Xo.T T ^ 4 O . O 3 R x R L.%X@X%X)./.OXXXG.3 u 2 2 * z F.Y.XX/. X(./.E : 3 i 3 i > h K.F.L.K.J.H.K.d > : R .. .F.H.J.L.J 4XPXIXPXPXPXPXPXPXPXPXPXPXPXPXPXPXPXPXPXPXPXPXPXPXPXPXPXPXPXPXPXPXPXPXPXPXPXPXPXPXPXPXPXPXPXPXPXPXPXPXPXPXPXPXPXPXPXPXPXPXPXPXPXPXPXPXPXPXPXPXPXPXPXPXPXPXPXPXPXPXPXPXPXPXPXPXPXPXPXPXPXPXPXPXPXPXPXPXPXPXPXPXPXPXPXPXPXPXPXPXPXPXPXPXPXPXPXPXPXPXPXPXPXPXPXPXPXPXPXPXPXPXPXPXPXPXPXPXPXPXPXPXPXPXPXPXPXPXPXPXPXPXPXPXPXPXPXPXPXPXPXPXPXPXPXPXPXPXPXPXPXPXPXPXPXPXPXPXPXPXPXPXPXPXPXPXPXPXPXPXPXPXPXPXPXPXPXPXPXPXPXPXPXPXPXPXPXPXPXPXPXPXPXPXPXPXPXPXPXPXPXPXPXPXPXPXPXPXPXPXPXPXPXPXPXPXPXPXPXPX",
"^./.W.^.E.Y.Y u : 2 : z Y.Y.XXOX%X/.%X..p j j g h p p ).OXOX_.#X+XoXA.g j i E ).,X_.%X:X,X,X@.^ / { { { / { / , Q.;X).Q...X._.).).~.)./.R.R.Q.@X$X)./.(./.)./.).%X$X%XXXXX%X*X>X$X1X(.(.^.oX#XE , @.{ { ^ +.4 O x +XH.; ^ +.+.{ +.T . i H.H.)./.+X+X,X;.4 ^ +./ +.+.i O G @XR.4 T ^ ^ +.^ , O ~ J.J.+X-X#X&X&XX.4 +.+.+.+.o.@ O ;.,XQ.j ^ +.{ +.O.4 ; x K.A._.^./.#XXX#X=X#X-X#X^. XOX>X%XE.E.(.@X@X(./.:X>X@X/./.>X@X.XOX$X/.L.W.@X,X~ 4 4 , O O O O ; j R x L.@X$XOX/.XX+X.X! : & * * $ d T.Y./.^.oX X^.G * 2 > : > $ u D.S.J.K.K.H.;.p % : h ~ L.H.F.F.K.E sXPXPXPXPXPXPXPXPXPXPXPXPXPXPXPXPXPXPXPXPXPXPXPXPXPXPXPXPXPXPXPXPXPXPXPXPXPXPXPXPXPXPXPXPXPXPXPXPXPXPXPXPXPXPXPXPXPXPXPXPXPXPXPXPXPXPXPXPXPXPXPXPXPXPXPXPXPXPXPXPXPXPXPXPXPXPXPXPXPXPXPXPXPXPXPXPXPXPXPXPXPXPXPXPXPXPXPXPXPXPXPXPXPXPXPXPXPXPXPXPXPXPXPXPXPXPXPXPXPXPXPXPXPXPXPXPXPXPXPXPXPXPXPXPXPXPXPXPXPXPXPXPXPXPXPXPXPXPXPXPXPXPXPXPXPXPXPXPXPXPXPXPXPXPXPXPXPXPXPXPXPXPXPXPXPXPXPXPXPXPXPXPXPXPXPXPXPXPXPXPXPXPXPXPXPXPXPXPXPXPXPXPXPXPXPXPXPXPXPXPXPXPXPXPXPXPXPXPXPXPXPXPXPXPXPXPXPXPXPXPX",
"E.^.E.^.^.Y.G : : : * b J.Y.XXXXXX_.%X..3 g g g p p u /./.).OX#X+XOXW 2 3 3 J _.;X%X$X:X:X,X@.^ { { / { { +.T 4 Q.;X_.R...X.).).).).:X).).Q.W./.@X)./.(./.%X(.).%X>X$XOXXX$X*X&X*X*XXX^._.-XoXK.5 T O.+.^ T > j W @X%Xj R +.+.<X^ > x !  . .).(.+X$X@XQ.R O.+.+.^ 4 j ! ! OX).E ~ T ^ ^ , 3 ~ } F.J.XXE.oX$XXX(.o.O.^ +.R ; h E.;.@X@X~ o.R O.^ , 3 Q.! F.Y (.E.^.OXXX#X#X-X#X#X^./.+X>X$X^.(.(.OX@X/./.*X:XOX/.OX*X$X$X@X%X/.K.(._.%XR.3 % O O o @ @ ; j x x } %XOXXXXX^.I.;.d % $ $ - - 6 H J.^.^.^.T.3.d $ $ % + + X = N F D.J.J.F.Q 2 X $ : i d J  . .F.K aXPXLXPXPXPXPXPXPXPXPXPXPXPXPXPXPXPXPXPXPXPXPXPXPXPXPXPXPXPXPXPXPXPXPXPXPXPXPXPXPXPXPXPXPXPXPXPXPXPXPXPXPXPXPXPXPXPXPXPXPXPXPXPXPXPXPXPXPXPXPXPXPXPXPXPXPXPXPXPXPXPXPXPXPXPXPXPXPXPXPXPXPXPXPXPXPXPXPXPXPXPXPXPXPXPXPXPXPXPXPXPXPXPXPXPXPXPXPXPXPXPXPXPXPXPXPXPXPXPXPXPXPXPXPXPXPXPXPXPXPXPXPXPXPXPXPXPXPXPXPXPXPXPXPXPXPXPXPXPXPXPXPXPXPXPXPXPXPXPXPXPXPXPXPXPXPXPXPXPXPXPXPXPXPXPXPXPXPXPXPXPXPXPXPXPXPXPXPXPXPXPXPXPXPXPXPXPXPXPXPXPXPXPXPXPXPXPXPXPXPXPXPXPXPXPXPXPXPXPXPXPXPXPXPXPXPXPXPXPXPX",
"(.(.E.(.L.L.z & % & % s Y.!.XX%X%XXXOX| 3 3 i 3 3 2 2  XoXXXXX#X/.(.J 2 3 > x ~.%X;X%X%X$X:X~.4 , ^ ^ ^ / T 4 , Q.).).R...R.).@X).).).@XW.R.W.@X$X%XOX).).@X)./.:X:X#X.X.X&X*X&X*X#X^.Y.E. X XE.o.R , R , O h @XW ^.(. .o.> ~ 4 O > H.~ X...R.L.)..X/.Q.H.~ 4 i ; O j H.! K.R. .~ > ; @ O j  . .F.| !.T.!./.W.(.Q.~ > O O o D I.;.;.Q.;...2 @ O O h } A.L.J Y. .E.#XOX+X+X#XoX#XY.K.^.$XOXL.K.R.)./.R.K.OX+X.X/./..X.X@X+X/.(.L.L.(.R...z : X O O @ @ @ j j g W /.XX_. XD.a v u 6 9 6 a 6 6 N Z.J.^.^.` 9 q 9 9 9 a u 9 a u < } F.F.F.` u * 9 9 6 * Y F. .F.K 3XPXPXPXPXPXPXPXPXPXPXPXPXPXPXPXPXPXPXPXPXPXPXPXPXPXPXPXPXPXPXPXPXPXPXPXPXPXPXPXPXPXPXPXPXPXPXPXPXPXPXPXPXPXPXPXPXPXPXPXPXPXPXPXPXPXPXPXPXPXPXPXPXPXPXPXPXPXPXPXPXPXPXPXPXPXPXPXPXPXPXPXPXPXPXPXPXPXPXPXPXPXPXPXPXPXPXPXPXPXPXPXPXPXPXPXPXPXPXPXPXPXPXPXPXPXPXPXPXPXPXPXPXPXPXPXPXPXPXPXPXPXPXPXPXPXPXPXPXPXPXPXPXPXPXPXPXPXPXPXPXPXPXPXPXPXPXPXPXPXPXPXPXPXPXPXPXPXPXPXPXPXPXPXPXPXPXPXPXPXPXPXPXPXPXPXPXPXPXPXPXPXPXPXPXPXPXPXPXPXPXPXPXPXPXPXPXPXPXPXPXPXPXPXPXPXPXPXPXPXPXPXPXPXPXPXPXPXPXPXPX",
"(.K.E.J. .K 8 % $ - - 0 3.!.XXXX^.^.Y.D & & > & & = * ` !.XX XOX)./.z + & $ 2 Y  .^.OXOX%X%XR.& O O ; , 4 , , j o.;X).R.L.R.).;X).).@X@XW.K.W..X%XOX^.E.).@X(.(.).$XOX X.X#X$X&X&X+XXXE.(.^.^.oX .~ g O O > ! !  .J.K.} H.z + X > G H. . ..._.../.%X_.(.Q.H.x @ @ i -.} ! K.A.W Q.! > > h H.R.L.} J.oXE. X%XW.L.W.).H.p : P J.F.! H.;.~ ` } p : G K.G.F.| J (.J.^.#XoX#X+X-X#XXXY.L.^.%X/.F.L.^.@XW.K.K./.&XOX.XXX$X>X&X$XOX/.L.E.OX(.L.g i 8 % @ @ O @ j x z  .$X%XXXoXT.s v $.C v $.n 0 9 P Y.(.(..XT.9 v S $.$.v n %.n q s T.K.J.J.Z.D s C v v u K F. .K.E sXPXLXPXPXPXPXPXPXPXPXPXPXPXPXPXPXPXPXPXPXPXPXPXPXPXPXPXPXPXPXPXPXPXPXPXPXPXPXPXPXPXPXPXPXPXPXPXPXPXPXPXPXPXPXPXPXPXPXPXPXPXPXPXPXPXPXPXPXPXPXPXPXPXPXPXPXPXPXPXPXPXPXPXPXPXPXPXPXPXPXPXPXPXPXPXPXPXPXPXPXPXPXPXPXPXPXPXPXPXPXPXPXPXPXPXPXPXPXPXPXPXPXPXPXPXPXPXPXPXPXPXPXPXPXPXPXPXPXPXPXPXPXPXPXPXPXPXPXPXPXPXPXPXPXPXPXPXPXPXPXPXPXPXPXPXPXPXPXPXPXPXPXPXPXPXPXPXPXPXPXPXPXPXPXPXPXPXPXPXPXPXPXPXPXPXPXPXPXPXPXPXPXPXPXPXPXPXPXPXPXPXPXPXPXPXPXPXPXPXPXPXPXPXPXPXPXPXPXPXPXPXPXPXPXPXPXPXPXPXPX",
"L.!.J.D p f % = = 0 6 6 I T. X!.^.S.N M M a f f 9 s C N H Y.oXXX.X XD a I d b b H Y /.OX#X#XW.: O O O ; 4 4 3 4 Q.).~.R. .L.).).@X@X:X@XQ.W.@X:X#X/.L. .E.W.E.K.E.OXXX/..X#X$X#X+XOXXXOX(.E.Y.| R.W.Q.x g H.H.F z K.Y.3 Y R.! F ;.W.R. .E | (...(.).R. .K./.).! G F.K.j g W.} u ~ H.H.-.K.K.R.} J F.^.J./.OXK.E ~ R.~.E.G.K. .i i Q.-.8 h | F.K.H.K.G.} K K K.L./.$X XOXoX#X#XXX^.E./.%X).K.L.K..X/.K.^.OX>X#XXX&X>X>X>X>X$X).F.K./._.K.: : i % @ O O @ z c c  .#XOXXX-XU.C n S $.S S e n a H E.Q.(.XXD.L $.e #.$.S #.e q C L | } L.T.| N v v C v s Y F. .F.E hXPXPXPXPXPXPXPXPXPXPXPXPXPXPXPXPXPXPXPXPXPXPXPXPXPXPXPXPXPXPXPXPXPXPXPXPXPXPXPXPXPXPXPXPXPXPXPXPXPXPXPXPXPXPXPXPXPXPXPXPXPXPXPXPXPXPXPXPXPXPXPXPXPXPXPXPXPXPXPXPXPXPXPXPXPXPXPXPXPXPXPXPXPXPXPXPXPXPXPXPXPXPXPXPXPXPXPXPXPXPXPXPXPXPXPXPXPXPXPXPXPXPXPXPXPXPXPXPXPXPXPXPXPXPXPXPXPXPXPXPXPXPXPXPXPXPXPXPXPXPXPXPXPXPXPXPXPXPXPXPXPXPXPXPXPXPXPXPXPXPXPXPXPXPXPXPXPXPXPXPXPXPXPXPXPXPXPXPXPXPXPXPXPXPXPXPXPXPXPXPXPXPXPXPXPXPXPXPXPXPXPXPXPXPXPXPXPXPXPXPXPXPXPXPXPXPXPXPXPXPXPXPXPXPXPXPXPXPXPXPX",
"E.E.^.D a n n v n $.v v -.[. X+X+XU.v S $.0.%.S %.2.%.M L  X-X#XoXoX&.n 6.%.C 3.C Y %XXXOX1X_.2 $ > i 4 4 ; @ > R.).(.R.L.R.).%X:X>X,X>X[.W.@X>XOXE.F.} K.E.K.K./.#XXX/._.#X#X%X+X+X/.^..X^.X.c R  .X...R.~ E > 3 E.L.& g E  .R.~ H. . .E ..L.L.(.)._...E ~ R.E.E.K.L.x z L.} l E ! Q.K.L. .~ W ! A.W.W.@X%X). .~ R ~  .X.X. .~ E -. .z '  . .H.! | | | J W J.| K.OX(. XoXXX#X^.F.L.(.OXL.} |  .W.E.K.^./.&X+X^.XX%XOX%X#X%X(. .L.(.L.T.2 @ 2 > O X o @ g c c ..%XXXXX-X'.C %.S e e e S C 9 P W.Q.)./.S.b 0.=.t e e e e 2.C s T.L.F.F.Z.l N N 9 a s Y | |  .W sXPXPXPXPXPXPXPXPXPXPXPXPXPXPXPXPXPXPXPXPXPXPXPXPXPXPXPXPXPXPXPXPXPXPXPXPXPXPXPXPXPXPXPXPXPXPXPXPXPXPXPXPXPXPXPXPXPXPXPXPXPXPXPXPXPXPXPXPXPXPXPXPXPXPXPXPXPXPXPXPXPXPXPXPXPXPXPXPXPXPXPXPXPXPXPXPXPXPXPXPXPXPXPXPXPXPXPXPXPXPXPXPXPXPXPXPXPXPXPXPXPXPXPXPXPXPXPXPXPXPXPXPXPXPXPXPXPXPXPXPXPXPXPXPXPXPXPXPXPXPXPXPXPXPXPXPXPXPXPXPXPXPXPXPXPXPXPXPXPXPXPXPXPXPXPXPXPXPXPXPXPXPXPXPXPXPXPXPXPXPXPXPXPXPXPXPXPXPXPXPXPXPXPXPXPXPXPXPXPXPXPXPXPXPXPXPXPXPXPXPXPXPXPXPXPXPXPXPXPXPXPXPXPXPXPXPXPXPXPXPX",
"^.^.Y.I 6 a n #.$.e e n Z.[.XX@XoX'.%.S t $.=.$.1.Z M C 5. X.XXXXXoX5.%.C $.%.$.S U.XX%X%X%X(.3 > > 4 : @ O ; 3 o.~._.Q.H.K.W.@X:X:X>X,X[.W.@X>X%X(.L.F.L.E. .K  .^._.E.E.XXXXXX/.^.E.K.F.......x j R ......o. .K  ...| H.X. . ...R ....| ` Y F E  . .X.~ R E E | X.R.E.L. .L.X.H.H.H.~ E E ! } ! J G R K W E  .R...R R ..X.Q.X.o.H.L... ... ...E R E W | z z z K K J J.^.^.XXF.d z F x p 3 z | (.W.K.E.^./.E.K.K.^.(.Y.E.K.J.| } (.^...3 & + @ X O X O g l g | %X).(.oX!.s M %.e e S M q 9 Y K.E.W.(.F.f s S *.e e e =.N u f  .J. .F.Z.N * s s b u c | ....J sXPXLXPXPXPXPXPXPXPXPXPXPXPXPXPXPXPXPXPXPXPXPXPXPXPXPXPXPXPXPXPXPXPXPXPXPXPXPXPXPXPXPXPXPXPXPXPXPXPXPXPXPXPXPXPXPXPXPXPXPXPXPXPXPXPXPXPXPXPXPXPXPXPXPXPXPXPXPXPXPXPXPXPXPXPXPXPXPXPXPXPXPXPXPXPXPXPXPXPXPXPXPXPXPXPXPXPXPXPXPXPXPXPXPXPXPXPXPXPXPXPXPXPXPXPXPXPXPXPXPXPXPXPXPXPXPXPXPXPXPXPXPXPXPXPXPXPXPXPXPXPXPXPXPXPXPXPXPXPXPXPXPXPXPXPXPXPXPXPXPXPXPXPXPXPXPXPXPXPXPXPXPXPXPXPXPXPXPXPXPXPXPXPXPXPXPXPXPXPXPXPXPXPXPXPXPXPXPXPXPXPXPXPXPXPXPXPXPXPXPXPXPXPXPXPXPXPXPXPXPXPXPXPXPXPXPXPXPXPXPX",
"E.E.Y.` n e e #.6 #.%.s I W.XX.XXXY.&.6.$.#.$.$.t S 0.6.I Y.oX/. X XU %.6.S S S 5.U.#XOX_.%X_.> @ > > O @ 3 > 3 ..Q.E.R. .L./.OX@X;XW.Q.H.Q.).:X_.!.L.F.L.L.} g g z x h p F.(.E.E.F.z u u p c K X...j 5 c .. .E ~ R.X.E E  . ...R ..~ x x p 2 & & p g x ~ ~ x x x E ..E ]  . .x G ..~ ! E ! Q ! z i p : % > 3 p c ~ ..R c c ....~ ~  .c x ..| E J W J D d f i l u g c  .(.^.(.J 2 i 3 p g h K F.+X%X^.W././.E.E.E.(.R._.E.E.L. .L.(.^.L.i % < + O + X O g 5 3 c _._.^.XXT.f f L n 0 I a u u F |  .R.E. .i d a I $.q r %.f u i W |  . .z u * f p i 2 K ..| ..c *XPXPXPXPXPXPXPXPXPXPXPXPXPXPXPXPXPXPXPXPXPXPXPXPXPXPXPXPXPXPXPXPXPXPXPXPXPXPXPXPXPXPXPXPXPXPXPXPXPXPXPXPXPXPXPXPXPXPXPXPXPXPXPXPXPXPXPXPXPXPXPXPXPXPXPXPXPXPXPXPXPXPXPXPXPXPXPXPXPXPXPXPXPXPXPXPXPXPXPXPXPXPXPXPXPXPXPXPXPXPXPXPXPXPXPXPXPXPXPXPXPXPXPXPXPXPXPXPXPXPXPXPXPXPXPXPXPXPXPXPXPXPXPXPXPXPXPXPXPXPXPXPXPXPXPXPXPXPXPXPXPXPXPXPXPXPXPXPXPXPXPXPXPXPXPXPXPXPXPXPXPXPXPXPXPXPXPXPXPXPXPXPXPXPXPXPXPXPXPXPXPXPXPXPXPXPXPXPXPXPXPXPXPXPXPXPXPXPXPXPXPXPXPXPXPXPXPXPXPXPXPXPXPXPXPXPXPXPXPXPX",
"E.K.Y.N 8 $.e 7 a %.a u U W./.)./.J.D D P.*.#.e t 0.3.N z W.XX.XXX^.I d 3.A s 5.D U _._.:X:XR.& > @ O > 3 3 > >  .R.L.} } F.).Q.Q.o.~ ~ ~ ~ ;.Q.E.E.F. .K.E. .J K z z g 3 ` L.K.Y.J 2 * % 2 i 2 p E ....R 4 E R c R J c K ~ c | | E E g 2 u 2 & @ 3 g g 3 E .. ...x x J E J x x R E E ! H.H.Q g 2 i 3 : % & g g & g | ....O.x R ~ ~ E E E J E ] } W Y 2 u p 2 2 & < h J L.Y.T.p 3 g x x | J E L.XX#X(.^./.W.E.R.E.E.E.E.E.Y.L.T.T.^.^.L.u : 3 & X o O @ 3 3 j c ..R.R.(.L.f u b b a N 9 u * z x R  .R...p f u s L 9 I d 2 2 i E | E c i h 2 < d u * c x ] R 3 =XPXIXPXPXPXPXPXPXPXPXPXPXPXPXPXPXPXPXPXPXPXPXPXPXPXPXPXPXPXPXPXPXPXPXPXPXPXPXPXPXPXPXPXPXPXPXPXPXPXPXPXPXPXPXPXPXPXPXPXPXPXPXPXPXPXPXPXPXPXPXPXPXPXPXPXPXPXPXPXPXPXPXPXPXPXPXPXPXPXPXPXPXPXPXPXPXPXPXPXPXPXPXPXPXPXPXPXPXPXPXPXPXPXPXPXPXPXPXPXPXPXPXPXPXPXPXPXPXPXPXPXPXPXPXPXPXPXPXPXPXPXPXPXPXPXPXPXPXPXPXPXPXPXPXPXPXPXPXPXPXPXPXPXPXPXPXPXPXPXPXPXPXPXPXPXPXPXPXPXPXPXPXPXPXPXPXPXPXPXPXPXPXPXPXPXPXPXPXPXPXPXPXPXPXPXPXPXPXPXPXPXPXPXPXPXPXPXPXPXPXPXPXPXPXPXPXPXPXPXPXPXPXPXPXPXPXPXPXPXPX",
"R.L.L.z 9 s M q C 9 u u G G.^.(./.F.h h h 6.$.e %.3.l z z L.^.(./.F.z d H I s T.f ..~._.).:X .: @ O 3 3 > & > >  .L.J. .} J._._.Q.o.~ ~ ~ Q.H.W.(.L.J.F.Y.E. .| ..| J z p z | | ` z 2 & & < f p + g W E .. .c j | E R E c | ~ } W W h & u 3 2 2 2 3 c g + i Q W ~  .J x ....| ..J E ..! E -.m : 8 i : 8 i p x F % > J K j ....c R ....| J K W J d P b - 2 f & : p p z K | | z : 3 j x E ~ } W H..X%X/.(..X/.E.R.E.R.E.Y.E.E.L.T. .L.T.` < 2 d u + o @ 3 ; 3 O.....E .. .| 2 2 2 h h f & : % g W E .. .~ 2 3 u u D f Y 2 2 : : K x z g j E p * i u % z c j i : >XPXIXPXPXPXPXPXPXPXPXPXPXPXPXPXPXPXPXPXPXPXPXPXPXPXPXPXPXPXPXPXPXPXPXPXPXPXPXPXPXPXPXPXPXPXPXPXPXPXPXPXPXPXPXPXPXPXPXPXPXPXPXPXPXPXPXPXPXPXPXPXPXPXPXPXPXPXPXPXPXPXPXPXPXPXPXPXPXPXPXPXPXPXPXPXPXPXPXPXPXPXPXPXPXPXPXPXPXPXPXPXPXPXPXPXPXPXPXPXPXPXPXPXPXPXPXPXPXPXPXPXPXPXPXPXPXPXPXPXPXPXPXPXPXPXPXPXPXPXPXPXPXPXPXPXPXPXPXPXPXPXPXPXPXPXPXPXPXPXPXPXPXPXPXPXPXPXPXPXPXPXPXPXPXPXPXPXPXPXPXPXPXPXPXPXPXPXPXPXPXPXPXPXPXPXPXPXPXPXPXPXPXPXPXPXPXPXPXPXPXPXPXPXPXPXPXPXPXPXPXPXPXPXPXPXPXPXPXPXPX",
"..L.F.h * a v 0 s * 6 2 x E L.E.R. .g g g I 2.s 3.N p h g  .E.K. .J J g d I z H p | ~.R.~...~ R @ > g j > O : % | L.L.| } } E.R.Q.Q.o.R ~ ~ o.R.(.E.L.F.L.K. .W } | E x p 2 z F F h * 3 3 i c p o & W g 3 ~ ..R j  . .J x E ! D : d 8 X 2 : 2 z c x E h O & F i : h ..| x ~ o.E E J ! g : a 8 + u i : i F G E G $ + p : > 3 ....x E ..x x E G 8 $ % 6 X < 2 & < g x W E G E 3 % 3 j x K E W  .K..X@X/.OX).W.R.R.E.R.K.R.E.K.J.T.T.} } K + X & * X O < 2 2 g ..E ..| R | J 2 & * g h % % % % F  .E J E E > : 2 : i F f & : & & i i h z z x F * 8 : % 3 c 2 4 j >XPXPXPXPXPXPXPXPXPXPXPXPXPXPXPXPXPXPXPXPXPXPXPXPXPXPXPXPXPXPXPXPXPXPXPXPXPXPXPXPXPXPXPXPXPXPXPXPXPXPXPXPXPXPXPXPXPXPXPXPXPXPXPXPXPXPXPXPXPXPXPXPXPXPXPXPXPXPXPXPXPXPXPXPXPXPXPXPXPXPXPXPXPXPXPXPXPXPXPXPXPXPXPXPXPXPXPXPXPXPXPXPXPXPXPXPXPXPXPXPXPXPXPXPXPXPXPXPXPXPXPXPXPXPXPXPXPXPXPXPXPXPXPXPXPXPXPXPXPXPXPXPXPXPXPXPXPXPXPXPXPXPXPXPXPXPXPXPXPXPXPXPXPXPXPXPXPXPXPXPXPXPXPXPXPXPXPXPXPXPXPXPXPXPXPXPXPXPXPXPXPXPXPXPXPXPXPXPXPXPXPXPXPXPXPXPXPXPXPXPXPXPXPXPXPXPXPXPXPXPXPXPXPXPXPXPXPXPXPXPX",
"| ..| 3 & * d d 6 * % > F ..|  .X.| p g p p H D H f p 3 4 |  .| W ....l 2 H K h 3 x X.X.c ~  .R.j 3 j z 2 o O & } L.F.} | | R.Q.Q.o.~ ^ ^ ~  .R.^.E.L.F.L.K.L.E J K c h p 2 2 z z u < h c p z u @ $ : @ & > J  .x j E j x ! g % X - + $ u & 3 x z g x h % - % + % % j ~ R R F x E G i % $ $ X $ u : % p G z D G i X O + @ > 3 E ..x x x E x * % $ X o $ p & % 3 h g z J x x % > j j j j x ! R.Y.OX$XOX.X@XW.Y.K.K.E.E.Y.K.K.L...| } ..' & . o O X % 2 2 g | ..E |  .G F g % % % & u $ $ $ i D.| | J Y J & % > & % g % % > $ $ * f z z F G W L * + X & % @ 3 8 >XPXPXPXPXPXPXPXPXPXPXPXPXPXPXPXPXPXPXPXPXPXPXPXPXPXPXPXPXPXPXPXPXPXPXPXPXPXPXPXPXPXPXPXPXPXPXPXPXPXPXPXPXPXPXPXPXPXPXPXPXPXPXPXPXPXPXPXPXPXPXPXPXPXPXPXPXPXPXPXPXPXPXPXPXPXPXPXPXPXPXPXPXPXPXPXPXPXPXPXPXPXPXPXPXPXPXPXPXPXPXPXPXPXPXPXPXPXPXPXPXPXPXPXPXPXPXPXPXPXPXPXPXPXPXPXPXPXPXPXPXPXPXPXPXPXPXPXPXPXPXPXPXPXPXPXPXPXPXPXPXPXPXPXPXPXPXPXPXPXPXPXPXPXPXPXPXPXPXPXPXPXPXPXPXPXPXPXPXPXPXPXPXPXPXPXPXPXPXPXPXPXPXPXPXPXPXPXPXPXPXPXPXPXPXPXPXPXPXPXPXPXPXPXPXPXPXPXPXPXPXPXPXPXPXPXPXPXPXPXPX",
"z K x 2 % % u f % $ % g  .| | ..| K 2 i p i z U d 3 3 3 3 c K J ....R...2 z | 3 3 c X.c j X. .L.X.i 3 p O O + &  .K.F.} | | E.R.Q.o.~ ^ R ~ R.Q.^.E.F.F.L.L.L.W x g h z g 2 & 2 p 2 p z z z z D d $ + & > > > x ~ h x i  .g % % % $ $ u * u h h g z c J d % + : : & > j ..W E F E 2 % * % + $ 8 8 % u P h z J G W h + : 3 : > p ~ ..G x E 2 & 8 8 = * * u $ i ' H K } }  .! > 4 R E E ~ E } K.E.+X#XOXOX@XW.E.H.R.R.E.R.E.L.L.} T.T.| Y & o o o + 2 $ &  .^.^.F.G D p : * O + X + $ $ - - ` -XoX.XY.D s = $ $ $ $ % + + + + + $ 9 * D A.^..X[.6 $ $ $ + @ 2 $ +XPXIXPXPXPXPXPXPXPXPXPXPXPXPXPXPXPXPXPXPXPXPXPXPXPXPXPXPXPXPXPXPXPXPXPXPXPXPXPXPXPXPXPXPXPXPXPXPXPXPXPXPXPXPXPXPXPXPXPXPXPXPXPXPXPXPXPXPXPXPXPXPXPXPXPXPXPXPXPXPXPXPXPXPXPXPXPXPXPXPXPXPXPXPXPXPXPXPXPXPXPXPXPXPXPXPXPXPXPXPXPXPXPXPXPXPXPXPXPXPXPXPXPXPXPXPXPXPXPXPXPXPXPXPXPXPXPXPXPXPXPXPXPXPXPXPXPXPXPXPXPXPXPXPXPXPXPXPXPXPXPXPXPXPXPXPXPXPXPXPXPXPXPXPXPXPXPXPXPXPXPXPXPXPXPXPXPXPXPXPXPXPXPXPXPXPXPXPXPXPXPXPXPXPXPXPXPXPXPXPXPXPXPXPXPXPXPXPXPXPXPXPXPXPXPXPXPXPXPXPXPXPXPXPXPXPXPXPXPXPX",
"x d d & + + % * $ - * Y | | | | ` c < : 3 > 3 G 3 < 2 & & p H K K ..K.E.z < h @ @ 3 j 2 ..}  .} K.Y.2 @ + + + & } K.L.F.| } R.Q.Q.o.^ ^ ~ ~ Q.W.^.^.T.} L.L.F.} x F J K K F 2 * * d F.A.! F.F.Y W p : g p 3 3 3 ;.~ G G x 8 : i m 8 8 * % m ! F ! E.} ! ! j i d j j i 8 E ~ E ! p i i h i 8 8 : % % D ! G H.W. .! } g g x j h 4 j G g E 8 i p i a 8 i $ @ $ p | x  .E. .R.| @ g  ..... .~ W K.E.XX@XW.@X@X/.R.G.R.W.W.E.L.L.L.D.| | | z & o o o X * $ $ T.oX=XT.u b u a f a f u 8 8 a v # L 1X-X&X|.v 6 %.s s d i d p g p f 9 M C 6 C U.Y.+XD.6 C b u p i 8 8 -XPXIXPXPXPXPXPXPXPXPXPXPXPXPXPXPXPXPXPXPXPXPXPXPXPXPXPXPXPXPXPXPXPXPXPXPXPXPXPXPXPXPXPXPXPXPXPXPXPXPXPXPXPXPXPXPXPXPXPXPXPXPXPXPXPXPXPXPXPXPXPXPXPXPXPXPXPXPXPXPXPXPXPXPXPXPXPXPXPXPXPXPXPXPXPXPXPXPXPXPXPXPXPXPXPXPXPXPXPXPXPXPXPXPXPXPXPXPXPXPXPXPXPXPXPXPXPXPXPXPXPXPXPXPXPXPXPXPXPXPXPXPXPXPXPXPXPXPXPXPXPXPXPXPXPXPXPXPXPXPXPXPXPXPXPXPXPXPXPXPXPXPXPXPXPXPXPXPXPXPXPXPXPXPXPXPXPXPXPXPXPXPXPXPXPXPXPXPXPXPXPXPXPXPXPXPXPXPXPXPXPXPXPXPXPXPXPXPXPXPXPXPXPXPXPXPXPXPXPXPXPXPXPXPXPXPXPXPXPXPX",
"f & % + O X X - - X b oXXX^.U._ N u $ % & @ % > % @ + % $ 9 M H T.oX1XaXT.$ = $ @ % % : g h J Y.>X>Xp % 2 @ + 2 | K.L. .! } K.R.o.Q.^ ~ ~ ~ Q.Q.XX(.J.F.J.K.G.} G W ..| K J p % % d D.F.} G.G.W G h g g 3 g h > j i : E > h g 8 : 8 % O + p F E H.W.} J j : p j : j m > > > : i > g g 8 i i % O + & p z F ! R.} E z i g : i F : > % % 8 > i i % 8 8 $ o O < p z F |  .} L.p O g ~ J ~  . . .K.W.@X@X/././.Q.R.H.E.Q.E.R.K.L.F. .} } T.K & X X . o * % * T. X8X5.s 0.$.N b D m N b $.0.$.y C =XoX-X'.v v =.t.S L H z x z D S $.r.$.q N U.'.oX3.q $.$.b h i n v -XPXPXPXPXPXPXPXPXPXPXPXPXPXPXPXPXPXPXPXPXPXPXPXPXPXPXPXPXPXPXPXPXPXPXPXPXPXPXPXPXPXPXPXPXPXPXPXPXPXPXPXPXPXPXPXPXPXPXPXPXPXPXPXPXPXPXPXPXPXPXPXPXPXPXPXPXPXPXPXPXPXPXPXPXPXPXPXPXPXPXPXPXPXPXPXPXPXPXPXPXPXPXPXPXPXPXPXPXPXPXPXPXPXPXPXPXPXPXPXPXPXPXPXPXPXPXPXPXPXPXPXPXPXPXPXPXPXPXPXPXPXPXPXPXPXPXPXPXPXPXPXPXPXPXPXPXPXPXPXPXPXPXPXPXPXPXPXPXPXPXPXPXPXPXPXPXPXPXPXPXPXPXPXPXPXPXPXPXPXPXPXPXPXPXPXPXPXPXPXPXPXPXPXPXPXPXPXPXPXPXPXPXPXPXPXPXPXPXPXPXPXPXPXPXPXPXPXPXPXPXPXPXPXPXPXPXPXPXPXPX",
"* 9 u : : 9 8 a v 7 L 8XeX=X-X%.s L b s b h g h h l z N l %.C M !.1X1XeX` k U.D z G F G h I -.Y.aXoXu + + + O > E H.L.F.} } H.R.Q.H.H.~ ~ H.H.W./.(.Y.K.K.K.F.A.J J | Y z z u + * d Y F.A.A.A.} W g g p > i g % O X O % % i : % 8 % o o % D ! G  .K.! ~ ~ i : i : i i % O O O O > i 8 : : % . o % i x G J } E.} ! G 3 i : : i & O O O X + : 8 * * $ . X & g x K J | | T.E.p + j ~ E E |  .} K.R.).@X/.).W.W.R.G.H.W.E.E.E.K.K.H.T.D.F.Y & X - X X % : p Z.oX-X9.e S 1.0.6.b v M 6.r.$.#.q I -XoXoXU.S #.#.$.=.6.L D F l C 0.$.#.e e N I.Y.oX&.q e $.%.d n *.a qXPXIXPXPXPXPXPXPXPXPXPXPXPXPXPXPXPXPXPXPXPXPXPXPXPXPXPXPXPXPXPXPXPXPXPXPXPXPXPXPXPXPXPXPXPXPXPXPXPXPXPXPXPXPXPXPXPXPXPXPXPXPXPXPXPXPXPXPXPXPXPXPXPXPXPXPXPXPXPXPXPXPXPXPXPXPXPXPXPXPXPXPXPXPXPXPXPXPXPXPXPXPXPXPXPXPXPXPXPXPXPXPXPXPXPXPXPXPXPXPXPXPXPXPXPXPXPXPXPXPXPXPXPXPXPXPXPXPXPXPXPXPXPXPXPXPXPXPXPXPXPXPXPXPXPXPXPXPXPXPXPXPXPXPXPXPXPXPXPXPXPXPXPXPXPXPXPXPXPXPXPXPXPXPXPXPXPXPXPXPXPXPXPXPXPXPXPXPXPXPXPXPXPXPXPXPXPXPXPXPXPXPXPXPXPXPXPXPXPXPXPXPXPXPXPXPXPXPXPXPXPXPXPXPXPXPXPXPXPXPX",
"v 0 d m h d v *.*.e I -X&X-X-X%.t r.].%.L W W Y ` Y I I 0.t.$.A {.=X1XeX3.C ].U.I A.Y P &.`.$.P.eX[.% + O + X 2 W H.H.F.~ | R.R.Q.Q.Q.~ ~  .H.^./.^.Y.K.Y.Y.F.| K | W J F z i $ 3 z Y D.| A.} } } J h g 3 2 > + O O O o $ : & : > O O : F W G F !  .! ! H.! j : i i % O X O O O + % : 3 + X O % i G J J E J } ! W } W g g > > + . o X X X X $ % + : % : g K | K ' | }  .L.K > J E x x E } } K.E.).@X/.).).W.R.R.R.E.E.E.R.K.G.A. .| F.Y * + + X X & * d D.oX-X`.$.e #.#.t.S #.#.t.e #.#.e %.-XXXoX'.*.$.#.#.#.0.%.N d v $.$.e #.e S 3.S.W..X&.s S e =.n n #.7 8XPXPXPXPXPXPXPXPXPXPXPXPXPXPXPXPXPXPXPXPXPXPXPXPXPXPXPXPXPXPXPXPXPXPXPXPXPXPXPXPXPXPXPXPXPXPXPXPXPXPXPXPXPXPXPXPXPXPXPXPXPXPXPXPXPXPXPXPXPXPXPXPXPXPXPXPXPXPXPXPXPXPXPXPXPXPXPXPXPXPXPXPXPXPXPXPXPXPXPXPXPXPXPXPXPXPXPXPXPXPXPXPXPXPXPXPXPXPXPXPXPXPXPXPXPXPXPXPXPXPXPXPXPXPXPXPXPXPXPXPXPXPXPXPXPXPXPXPXPXPXPXPXPXPXPXPXPXPXPXPXPXPXPXPXPXPXPXPXPXPXPXPXPXPXPXPXPXPXPXPXPXPXPXPXPXPXPXPXPXPXPXPXPXPXPXPXPXPXPXPXPXPXPXPXPXPXPXPXPXPXPXPXPXPXPXPXPXPXPXPXPXPXPXPXPXPXPXPXPXPXPXPXPXPXPXPXPXPXPXPX",
"=.0.v h D &.0.=.#.e $.oX-X-X8X=.t #.r.C.`.T.I $.I %.u.u.r.$.#.$.!.-XeX1X6.N $.6.'.Y C `.}.*.S 6.eX.XO O O O O : ! H.H.H.W  .R.R.Q.;.Q.;.Q.;.Q.Q.^.^.Y.J.K.Y.F.| G | | J F z i * i z ` G.} F.L.} } } J z g i * o O O o O O O + % 2 > z E | J E K ! L.} !  .H.E z z x : o O O o O O X @ + % h h z G E W ! E } R.F.!  .| W x x x + O o o O o o O X & } ' K J | | | J  .Y.L.L.| z E E x x ..W W ..} K.W.R.W.W.Q.E.K.E.E.E.R.R.K.G.F.A.} F.U * + $ O X & * p A./.+X{.*.#.#.#.r.=.#.C.#.#.#.=.A I #X_.@XY.%.6.$.#.#.#.=.r.$.=.#.#.e e $.I Y Y.E.^.` s C e $.$.#.#.7 8XPXPXPXPXPXPXPXPXPXPXPXPXPXPXPXPXPXPXPXPXPXPXPXPXPXPXPXPXPXPXPXPXPXPXPXPXPXPXPXPXPXPXPXPXPXPXPXPXPXPXPXPXPXPXPXPXPXPXPXPXPXPXPXPXPXPXPXPXPXPXPXPXPXPXPXPXPXPXPXPXPXPXPXPXPXPXPXPXPXPXPXPXPXPXPXPXPXPXPXPXPXPXPXPXPXPXPXPXPXPXPXPXPXPXPXPXPXPXPXPXPXPXPXPXPXPXPXPXPXPXPXPXPXPXPXPXPXPXPXPXPXPXPXPXPXPXPXPXPXPXPXPXPXPXPXPXPXPXPXPXPXPXPXPXPXPXPXPXPXPXPXPXPXPXPXPXPXPXPXPXPXPXPXPXPXPXPXPXPXPXPXPXPXPXPXPXPXPXPXPXPXPXPXPXPXPXPXPXPXPXPXPXPXPXPXPXPXPXPXPXPXPXPXPXPXPXPXPXPXPXPXPXPXPXPXPXPXPXPXPX",
"e =.S s n =.=.e e $.&.+X@X&XoX6.#.#.#.#.r.t.C :.C 2.b.#.#.#.$.t.U.-X1XeX6.%.C $.t.0.S 0.=.S A '.eXE.O $ + O O : G ;.H. .W ! H.R.Q.Q.;.Q.Q.;.;.).XX/.E.G.K.K.F.W F W W K z p i p D D S.Y.J.K.F.} } W E E E  .G O . O o O . X X :  .J J c E E | E } R. . . .} } ! !  .g X . O O O o O O X u F.} J ! ! ! E Y  .G.H.A.| W E | E ..& . o o O . O O X i | ! | | E | | |  .L.L.L.| c K x c E ~ E W | J ! H. .E.W.R.R.R.R.W.E.W.W.K.H.} F.G.F.Q 8 $ $ $ X * * * A./.@XU.A =.#.#.#.#.r.#.#.e #.0.S _ XXOXOXW.D I 0.$.e #.#.#.#.#.#.#.e $.&.N P L.E.^.S.s C n e #.e e e 8XPXIXPXPXPXPXPXPXPXPXPXPXPXPXPXPXPXPXPXPXPXPXPXPXPXPXPXPXPXPXPXPXPXPXPXPXPXPXPXPXPXPXPXPXPXPXPXPXPXPXPXPXPXPXPXPXPXPXPXPXPXPXPXPXPXPXPXPXPXPXPXPXPXPXPXPXPXPXPXPXPXPXPXPXPXPXPXPXPXPXPXPXPXPXPXPXPXPXPXPXPXPXPXPXPXPXPXPXPXPXPXPXPXPXPXPXPXPXPXPXPXPXPXPXPXPXPXPXPXPXPXPXPXPXPXPXPXPXPXPXPXPXPXPXPXPXPXPXPXPXPXPXPXPXPXPXPXPXPXPXPXPXPXPXPXPXPXPXPXPXPXPXPXPXPXPXPXPXPXPXPXPXPXPXPXPXPXPXPXPXPXPXPXPXPXPXPXPXPXPXPXPXPXPXPXPXPXPXPXPXPXPXPXPXPXPXPXPXPXPXPXPXPXPXPXPXPXPXPXPXPXPXPXPXPXPXPXPXPXPX",
"e $.$.e #.r.#.e $.%.;.&X@X$X-X3.<.#.#.#.#.s.r.#.%.u.=.#.#.$.<.6. X=X>XwX3.6.=.#.r.u.r.<.$.S 2.}.1X(.@ % % @ O % E H. . .| ..L.^.Q.Q.[.[.W.H.Q.Q..X/.J.G.Y.Y.L.U F F K F h i p F H F U J.L.F.F.W E | | E E F.E % . . o O . O + i J W K | | E E | } L.H.W J W } ! ! W J : O o O . O o O : h E E E ! ! Y J Q R.E.J.| K E | J J J x > O . . . . + 2 K E J | K ..K J } J.L.J.L.| J F x E E ..| J W J  .H.H.R.W.).E.R.R.E.E.R.E.R.G.} F.J.G.Q 8 $ $ - X & & : S./.$X XN $.=.#.#.#.#.#.#.#.0.$.d 3.-XXX@XW.G z D 9.:.#.#.#.#.#.#.e 0.%.N b Y J.R./.A.d b %.#.e e n n 8XPXIXPXPXPXPXPXPXPXPXPXPXPXPXPXPXPXPXPXPXPXPXPXPXPXPXPXPXPXPXPXPXPXPXPXPXPXPXPXPXPXPXPXPXPXPXPXPXPXPXPXPXPXPXPXPXPXPXPXPXPXPXPXPXPXPXPXPXPXPXPXPXPXPXPXPXPXPXPXPXPXPXPXPXPXPXPXPXPXPXPXPXPXPXPXPXPXPXPXPXPXPXPXPXPXPXPXPXPXPXPXPXPXPXPXPXPXPXPXPXPXPXPXPXPXPXPXPXPXPXPXPXPXPXPXPXPXPXPXPXPXPXPXPXPXPXPXPXPXPXPXPXPXPXPXPXPXPXPXPXPXPXPXPXPXPXPXPXPXPXPXPXPXPXPXPXPXPXPXPXPXPXPXPXPXPXPXPXPXPXPXPXPXPXPXPXPXPXPXPXPXPXPXPXPXPXPXPXPXPXPXPXPXPXPXPXPXPXPXPXPXPXPXPXPXPXPXPXPXPXPXPXPXPXPXPXPXPXPXPX",
"e #.#.#.#.#.#.#.*.s -.&X#X#X*X3.A i.r.#.#.#.r.C.r.$.#.#.=.t.2.3.oX*X>XaXD.I {.$.#.r.r.$.#.2.3.Y.sX/.@ > > > O > W H.H.} | } E.(.[.I.Q.[.E.A.H.W.^.W.J.F.K.W.F.Q x K J F z l F F G G | K.F.J.K.L. .J E ..W E J J > O . . . + 3 K J J ..E | | J  .} R.H. .W W E  .W E E J p > O O O % i z E G J W ! E ! Q } F.K. . . .K x E J x E ~ h : % > 2 g z x J J E J J | } } L.L.L. .E J K K E E | ..K W E F.H. .R.W.E.R.R.K.R.E.W.W.R.H.} A.F.H.! u % % + O * 8 u A.^.$X^.b C *.t.#.#.#.#.#.u.C I h Y #XOX@XW.G F z N 0.=.#.#.#.#.#.=.I D D h Y L.E./.} p g L #.#.e #.a -XPXPXPXPXPXPXPXPXPXPXPXPXPXPXPXPXPXPXPXPXPXPXPXPXPXPXPXPXPXPXPXPXPXPXPXPXPXPXPXPXPXPXPXPXPXPXPXPXPXPXPXPXPXPXPXPXPXPXPXPXPXPXPXPXPXPXPXPXPXPXPXPXPXPXPXPXPXPXPXPXPXPXPXPXPXPXPXPXPXPXPXPXPXPXPXPXPXPXPXPXPXPXPXPXPXPXPXPXPXPXPXPXPXPXPXPXPXPXPXPXPXPXPXPXPXPXPXPXPXPXPXPXPXPXPXPXPXPXPXPXPXPXPXPXPXPXPXPXPXPXPXPXPXPXPXPXPXPXPXPXPXPXPXPXPXPXPXPXPXPXPXPXPXPXPXPXPXPXPXPXPXPXPXPXPXPXPXPXPXPXPXPXPXPXPXPXPXPXPXPXPXPXPXPXPXPXPXPXPXPXPXPXPXPXPXPXPXPXPXPXPXPXPXPXPXPXPXPXPXPXPXPXPXPXPXPXPXPXPXPX",
"#.#.#.#.#.#.$.=.M f | 1XXX#X#XD.L L t.r.#.#.r.#.#.r.#.1.u.U F Z.oX*X>XwXS.D 6.u.$.#.#.r.=.9.D ^.4XW.@ > > % @ % ~ L. .} |  .W.(.^.(.E.(.K.G.K.E.^.Y.L.F.K.J.L.W z F F F h x K H Y F Y F.F.K.L.| L. .] W E K W E R 8 % > > i K x c c ~ W J | K.| ! L. .} R.H.E E G x E G E x d j j m E x x K J E J W F.K.} } K.F.F.^...J c x x K F E E E E G x F E | J K J ..K. .| L.L.L.F.J J J E J E | } K J |  .H.L.R.W.E.K.H.K.R.Q./.W.E.K.F.A.F.G.| u & % - X * : p D.^.#X^.h D C 6.#.e #.#.r.*.N P g ' #X#X+X XG F x z I 0.#.#.#.#.#.$.D F z h K J.Y.^.F.p g L $.e e C f $XPXIXPXPXPXPXPXPXPXPXPXPXPXPXPXPXPXPXPXPXPXPXPXPXPXPXPXPXPXPXPXPXPXPXPXPXPXPXPXPXPXPXPXPXPXPXPXPXPXPXPXPXPXPXPXPXPXPXPXPXPXPXPXPXPXPXPXPXPXPXPXPXPXPXPXPXPXPXPXPXPXPXPXPXPXPXPXPXPXPXPXPXPXPXPXPXPXPXPXPXPXPXPXPXPXPXPXPXPXPXPXPXPXPXPXPXPXPXPXPXPXPXPXPXPXPXPXPXPXPXPXPXPXPXPXPXPXPXPXPXPXPXPXPXPXPXPXPXPXPXPXPXPXPXPXPXPXPXPXPXPXPXPXPXPXPXPXPXPXPXPXPXPXPXPXPXPXPXPXPXPXPXPXPXPXPXPXPXPXPXPXPXPXPXPXPXPXPXPXPXPXPXPXPXPXPXPXPXPXPXPXPXPXPXPXPXPXPXPXPXPXPXPXPXPXPXPXPXPXPXPXPXPXPXPXPXPXPXPXPX",
"n #.#.#.#.#.*.n d d D.#X2X-X*X} J K P t.r.#.#.C.r.#.r.`.I P K | +X*X1X3XD.D U 6.u.#.r.#.y.L z E.>X).@ % > @ O > E  . .} | F.R.(.E.^.!.E.Y.G.K.W.(.Y.F.D.G.G.F.` z x G F z F K K G z H | } K.F.J ..E. .W F R E R E j m E ~ F x E J J J E  .(.H.W ! L.} W  .E.K. .E G W ~ E m x ! ~ E E ~ | K x K F.R.W.F.! G.Y. .| L.K.R...K J  .! R G E E R J ~ R...E | L.Y.^.| | K.R.K.J.| Y ..| E | ....| | W  .G.L.(.).E.K.K.R.W.W.W.(.E.H.H.L.J.F.U u & & + + & & i A.XX#X^.h F D %.=.#.#.#.u.$.N D h ` OX@X&X XP D x F D 3.r.#.#.#.$.$.N z z h J G.Y.oXT.p g D C e S C i &XPXPXPXPXPXPXPXPXPXPXPXPXPXPXPXPXPXPXPXPXPXPXPXPXPXPXPXPXPXPXPXPXPXPXPXPXPXPXPXPXPXPXPXPXPXPXPXPXPXPXPXPXPXPXPXPXPXPXPXPXPXPXPXPXPXPXPXPXPXPXPXPXPXPXPXPXPXPXPXPXPXPXPXPXPXPXPXPXPXPXPXPXPXPXPXPXPXPXPXPXPXPXPXPXPXPXPXPXPXPXPXPXPXPXPXPXPXPXPXPXPXPXPXPXPXPXPXPXPXPXPXPXPXPXPXPXPXPXPXPXPXPXPXPXPXPXPXPXPXPXPXPXPXPXPXPXPXPXPXPXPXPXPXPXPXPXPXPXPXPXPXPXPXPXPXPXPXPXPXPXPXPXPXPXPXPXPXPXPXPXPXPXPXPXPXPXPXPXPXPXPXPXPXPXPXPXPXPXPXPXPXPXPXPXPXPXPXPXPXPXPXPXPXPXPXPXPXPXPXPXPXPXPXPXPXPXPXPXPXPX",
"n $.#.#.#.#.=.m z d D.#X%X#X=X| x J F _ u.#.#.C.#.#.u.-.F E K Q +X=X=X3X .F U 0.b.#.#.r.y.b z R.4X).@ > > ; O > } L. .} } F.E.^.^.^.^.^.W.R.W.W.(.W.J.F.J.J.F.Y F F J K J J J K Y F Y K.E.Y.K.W | E.R.L...E ~ ..R x E R E R G L. .` |  .K.(. .| } L. .} } R.K.H.F.} ! ! E x R G E ~ E ~ ..J | } K.E.E.F.A.J.Y.A.|  .J.L.A. .} } ! E x E E R E ....| L. .| } L.| } F.K.H.R.| | } | W } } | Y W | } L.F.E.(.E.R.R.W.W.W.(.(.E.L.H.H.F.H.Y & X $ X X & & < | oX=X^.h F F L t.#.#.$.t.C L H h J @X@X+X.XP F h F F I r.#.#.t 0.A D z z g K J.Y.oXI.p g d I e S L u &XPXPXPXPXPXPXPXPXPXPXPXPXPXPXPXPXPXPXPXPXPXPXPXPXPXPXPXPXPXPXPXPXPXPXPXPXPXPXPXPXPXPXPXPXPXPXPXPXPXPXPXPXPXPXPXPXPXPXPXPXPXPXPXPXPXPXPXPXPXPXPXPXPXPXPXPXPXPXPXPXPXPXPXPXPXPXPXPXPXPXPXPXPXPXPXPXPXPXPXPXPXPXPXPXPXPXPXPXPXPXPXPXPXPXPXPXPXPXPXPXPXPXPXPXPXPXPXPXPXPXPXPXPXPXPXPXPXPXPXPXPXPXPXPXPXPXPXPXPXPXPXPXPXPXPXPXPXPXPXPXPXPXPXPXPXPXPXPXPXPXPXPXPXPXPXPXPXPXPXPXPXPXPXPXPXPXPXPXPXPXPXPXPXPXPXPXPXPXPXPXPXPXPXPXPXPXPXPXPXPXPXPXPXPXPXPXPXPXPXPXPXPXPXPXPXPXPXPXPXPXPXPXPXPXPXPXPXPXPXPX",
"n 0.e e e #.$.a g p U.&X%XOX#X` F K K Y r.r.#.#.#.C.9.K E Y P Q +X=X3X1X| H U 3.{.$.#.i.3.h z Q.4X@XO % @ % % 8 ~ L.K. . .F.E.^.E.(.^.(.Y.Y.Y.W./.E.F.F.L.J.F.Y F F J Y U Q Y Y Y G J L.L.L. .E | F.}  .F.L.| E E E E E G x E W J } L.K K | W J W } | | | } W K ! Q ! ! E R G R R E ~ ~ J  .L.| K W F.| } F.G.Q K | ' z K  .F.W G E R E J J J ~ | | L.| z | H.W } F.R.L.H.W E | W K | | | Y ` W } J.F.^./.(.E.R.W.Q./.).(.E.L. .F.H.F.J i 2 u u * : * u Z. X#X Xz F D n 0.=.e 0.2.C N D d J #X+X@XoXY m h z F L r.#.e $.3.N N h z z K Y.Y. XS.p d d L C C L u &XPXIXPXPXPXPXPXPXPXPXPXPXPXPXPXPXPXPXPXPXPXPXPXPXPXPXPXPXPXPXPXPXPXPXPXPXPXPXPXPXPXPXPXPXPXPXPXPXPXPXPXPXPXPXPXPXPXPXPXPXPXPXPXPXPXPXPXPXPXPXPXPXPXPXPXPXPXPXPXPXPXPXPXPXPXPXPXPXPXPXPXPXPXPXPXPXPXPXPXPXPXPXPXPXPXPXPXPXPXPXPXPXPXPXPXPXPXPXPXPXPXPXPXPXPXPXPXPXPXPXPXPXPXPXPXPXPXPXPXPXPXPXPXPXPXPXPXPXPXPXPXPXPXPXPXPXPXPXPXPXPXPXPXPXPXPXPXPXPXPXPXPXPXPXPXPXPXPXPXPXPXPXPXPXPXPXPXPXPXPXPXPXPXPXPXPXPXPXPXPXPXPXPXPXPXPXPXPXPXPXPXPXPXPXPXPXPXPXPXPXPXPXPXPXPXPXPXPXPXPXPXPXPXPXPXPXPXPXPXPX",
"b %.S e e 0.D h g d T.-X+X#X$XQ F J J K &.y.$.#.#.u.5.K J G P } +X=XwXwXD.D U Y U.0.$.t.I z z R.>X[.% @ > > O >  .L.K.}  .F.Y.^.W.^.^.^.E.K.K.(./.(.F. .T.L.F.Y D G Y K G D J W G D K G.K.K.H.! }  .J !  .L. .E E E J E J E E K | J.F.K z J | W |  .} } } ~ J J | .. . .| E E E E ~ E ~ W  .F.| K | } F.A.A.J.| | | ` K W } L.} E ~ E x E E E | ~ K.L.A.| J  .} } H.R.K.K.! !  .} W | A.| Y | | A.L. .(.OX/.(.K.(.).(.).).E.K.}  .F. .Q i * 2 * % * & f Q ^.=X^.h F D I %.0.e t.L I N D d J %X#X+X XP h h z F D &.$.e %.I N l z j g K L.!./.S.d d d C L N D u &XPXLXPXPXPXPXPXPXPXPXPXPXPXPXPXPXPXPXPXPXPXPXPXPXPXPXPXPXPXPXPXPXPXPXPXPXPXPXPXPXPXPXPXPXPXPXPXPXPXPXPXPXPXPXPXPXPXPXPXPXPXPXPXPXPXPXPXPXPXPXPXPXPXPXPXPXPXPXPXPXPXPXPXPXPXPXPXPXPXPXPXPXPXPXPXPXPXPXPXPXPXPXPXPXPXPXPXPXPXPXPXPXPXPXPXPXPXPXPXPXPXPXPXPXPXPXPXPXPXPXPXPXPXPXPXPXPXPXPXPXPXPXPXPXPXPXPXPXPXPXPXPXPXPXPXPXPXPXPXPXPXPXPXPXPXPXPXPXPXPXPXPXPXPXPXPXPXPXPXPXPXPXPXPXPXPXPXPXPXPXPXPXPXPXPXPXPXPXPXPXPXPXPXPXPXPXPXPXPXPXPXPXPXPXPXPXPXPXPXPXPXPXPXPXPXPXPXPXPXPXPXPXPXPXPXPXPXPXPXPX",
"d C $.e $.6.d h h d J.=X#X-X$XW F J J K H `.=.#.#.u.` J x E P Q +X>X>X>XS.P Y I 5.6.$.U.H F c Q.4X;Xm G x h : % ! K.H.} | H.^./.^.^./.^.^.Y.Y.(./.E.} F.J.Y.F.| G J Y J P F Y Z.Y h W W.R.E.H.F.! ! }  .H. .L.W E E E J J W E E |  .|  .W G E | W L.L.F.| ' J | | | } F.} E E E ~ E ~ ! L...|  . .Y J A.F.F.Y.F.| K E | W W !  .~ } | E J E ..} K.F. .| | | | } F.H.E.E.R.E !  .} ! |  .| U | | } L.F.E.OX).(.R./.@X/./.(.E.H.F.A.H.} Q u & % + X % & f W oX#X Xh D D D L 6.$.6.L P D D z J /.%X+X^.P z h h F D I 3.M %.L D F x c h x A.E. XG.p d g h P D N u =XPXPXPXPXPXPXPXPXPXPXPXPXPXPXPXPXPXPXPXPXPXPXPXPXPXPXPXPXPXPXPXPXPXPXPXPXPXPXPXPXPXPXPXPXPXPXPXPXPXPXPXPXPXPXPXPXPXPXPXPXPXPXPXPXPXPXPXPXPXPXPXPXPXPXPXPXPXPXPXPXPXPXPXPXPXPXPXPXPXPXPXPXPXPXPXPXPXPXPXPXPXPXPXPXPXPXPXPXPXPXPXPXPXPXPXPXPXPXPXPXPXPXPXPXPXPXPXPXPXPXPXPXPXPXPXPXPXPXPXPXPXPXPXPXPXPXPXPXPXPXPXPXPXPXPXPXPXPXPXPXPXPXPXPXPXPXPXPXPXPXPXPXPXPXPXPXPXPXPXPXPXPXPXPXPXPXPXPXPXPXPXPXPXPXPXPXPXPXPXPXPXPXPXPXPXPXPXPXPXPXPXPXPXPXPXPXPXPXPXPXPXPXPXPXPXPXPXPXPXPXPXPXPXPXPXPXPXPXPXPX",
"s C %.e *.I N h g d T.&XoX#X#XW x K K K P 3.t.t r.6.Y E R J G ! @X>X>X3XD.G Y H 3.U.6.T.F x z ~.,X).% : : > % > } R.L. .A.F.W. X^.^./.^.Y.K.K.^./.^.} F.K.E.J.U G Y Y Y Y G Y Z.Y d Q E.R.E.H.} J W K.L.H.G  .R.} W E E E ~ W H. .E | } H.J F E W } } } K J K J E K | K.L.} ! E ! !  .R.L.| | |  .T.J W | Z.J.} ` K } F.| } J } R.L.~ K K W  .K.K.W } | | L.| J ! } K.R.G.z J ! W W W Q W J Q | } J.L.^.).).(.R./.).).(.(.E.K.K.F. .} U f * & $ + & * p |  X#X Xh F F L D 6.3.&.D D D F d J XX@X+X^.G z d h m F D Z.N U D z z j z g F F.Y.^.G.p d h d J G d u &XPXIXPXPXPXPXPXPXPXPXPXPXPXPXPXPXPXPXPXPXPXPXPXPXPXPXPXPXPXPXPXPXPXPXPXPXPXPXPXPXPXPXPXPXPXPXPXPXPXPXPXPXPXPXPXPXPXPXPXPXPXPXPXPXPXPXPXPXPXPXPXPXPXPXPXPXPXPXPXPXPXPXPXPXPXPXPXPXPXPXPXPXPXPXPXPXPXPXPXPXPXPXPXPXPXPXPXPXPXPXPXPXPXPXPXPXPXPXPXPXPXPXPXPXPXPXPXPXPXPXPXPXPXPXPXPXPXPXPXPXPXPXPXPXPXPXPXPXPXPXPXPXPXPXPXPXPXPXPXPXPXPXPXPXPXPXPXPXPXPXPXPXPXPXPXPXPXPXPXPXPXPXPXPXPXPXPXPXPXPXPXPXPXPXPXPXPXPXPXPXPXPXPXPXPXPXPXPXPXPXPXPXPXPXPXPXPXPXPXPXPXPXPXPXPXPXPXPXPXPXPXPXPXPXPXPXPXPXPXPX",
"d b 2.v 6.b m h h h Y.$X-XXX+XW z K K K G I P.A 5.6.Y J x G G } +X>X>XwXA.G K Y Y U.P.3.F x c Q.,X).+ > > > > >  .R.L.L.A. .W.^.W.W././.W.J.K.E./.(.J.F.Y.^.Y.| D J K G K h G Y h i G K.G.K. .W E K.F.E F.h Y R. .| J W | | F.K.| J W W } F.E J K  .} J x F K c K K J }  . .! W E ! K.W.A.J ..| K  .} K Y Q J.U ` |  .K K J x L.H.L.} J W J J.K.F.W U J F J J J W  .K.H.L.g x ! E W W } | Y | |  .L.F.(.OXXXE.K./.).(.W.).W.R.H.} } } Y i * : $ X * * i Y oX$X Xl D G G D U Y.Y D D H F z J XX#X#X XP h g h F F D -.3.Y z z z z c g F  .Y.(.F.f p d d J Y p u &XPXPXPXPXPXPXPXPXPXPXPXPXPXPXPXPXPXPXPXPXPXPXPXPXPXPXPXPXPXPXPXPXPXPXPXPXPXPXPXPXPXPXPXPXPXPXPXPXPXPXPXPXPXPXPXPXPXPXPXPXPXPXPXPXPXPXPXPXPXPXPXPXPXPXPXPXPXPXPXPXPXPXPXPXPXPXPXPXPXPXPXPXPXPXPXPXPXPXPXPXPXPXPXPXPXPXPXPXPXPXPXPXPXPXPXPXPXPXPXPXPXPXPXPXPXPXPXPXPXPXPXPXPXPXPXPXPXPXPXPXPXPXPXPXPXPXPXPXPXPXPXPXPXPXPXPXPXPXPXPXPXPXPXPXPXPXPXPXPXPXPXPXPXPXPXPXPXPXPXPXPXPXPXPXPXPXPXPXPXPXPXPXPXPXPXPXPXPXPXPXPXPXPXPXPXPXPXPXPXPXPXPXPXPXPXPXPXPXPXPXPXPXPXPXPXPXPXPXPXPXPXPXPXPXPXPXPXPXPXPX",
"d d P L 3.d h h p g G.+X+XXX#XW x K J K K K S.3.3.Y J x E G G  .+X$X>X>XS.G J Y Y Y.Y.| K K x (.4X).% > > : > : ! K.R.H. .F.W.^.^.^.^./.Y.F.K.^././.Y.Y.OXXX[.A.z G Y Y G d G Y d u G K.F.K. .J G E G F J x Y Q J E } A.Q A.W W E F F z x F G G K  .| J K g g z z x K K K E W W J W | W E K J J K z F K U | S.J K z d z z z J W F J | | J F.| G W Y D x F z h K W } R.L.L.E G } E W W } } W | } } L.L.(.%X).W.R./.).(.@X/.W.R.H.!  . .U u : * - X * & u Y .X#X.Xz D D D G Y Y.Y D F G F h Y XX#X+X.XJ h g h z F z G W.J z x z j h g z | L.^.F.i p d p z K g u $XPXIXPXPXPXPXPXPXPXPXPXPXPXPXPXPXPXPXPXPXPXPXPXPXPXPXPXPXPXPXPXPXPXPXPXPXPXPXPXPXPXPXPXPXPXPXPXPXPXPXPXPXPXPXPXPXPXPXPXPXPXPXPXPXPXPXPXPXPXPXPXPXPXPXPXPXPXPXPXPXPXPXPXPXPXPXPXPXPXPXPXPXPXPXPXPXPXPXPXPXPXPXPXPXPXPXPXPXPXPXPXPXPXPXPXPXPXPXPXPXPXPXPXPXPXPXPXPXPXPXPXPXPXPXPXPXPXPXPXPXPXPXPXPXPXPXPXPXPXPXPXPXPXPXPXPXPXPXPXPXPXPXPXPXPXPXPXPXPXPXPXPXPXPXPXPXPXPXPXPXPXPXPXPXPXPXPXPXPXPXPXPXPXPXPXPXPXPXPXPXPXPXPXPXPXPXPXPXPXPXPXPXPXPXPXPXPXPXPXPXPXPXPXPXPXPXPXPXPXPXPXPXPXPXPXPXPXPXPXPX",
"f p G D.Y p h d d p G.#X+X+X#XW G G G K K F | Y.Z.J G E x G F ! @X:X>X>XH.G P W Y J.R.J J K F (.>X@X% > > : > i } R.K.F.} J.^.^.W./.^.XXY.F.Y./.XX/.E.W.+XOX.X} D Y Y K K G Y K z p J J.H.K.} E x p x F F F G z D Y F.| F.Q F x F h g z j p h E K |  .| K h z z z z K x z K J J W W K x F x c F F z z J U | G.W Y z h z z z z E K F | | U F.U D P K F z c F c J W W L.H.L.G E J J J W | Q J | | | T.F.F.K.L.F.| ! ! ! } ! E J F d F Y Y u X X X X * % 2 J .X$XXXz z K G G Y G.G D F D F z Y OX#XOX^.Y z g h z x x z H.F z c z g g 3 c | L.(.J.2 3 p i l z i * oXPXPXPXPXPXPXPXPXPXPXPXPXPXPXPXPXPXPXPXPXPXPXPXPXPXPXPXPXPXPXPXPXPXPXPXPXPXPXPXPXPXPXPXPXPXPXPXPXPXPXPXPXPXPXPXPXPXPXPXPXPXPXPXPXPXPXPXPXPXPXPXPXPXPXPXPXPXPXPXPXPXPXPXPXPXPXPXPXPXPXPXPXPXPXPXPXPXPXPXPXPXPXPXPXPXPXPXPXPXPXPXPXPXPXPXPXPXPXPXPXPXPXPXPXPXPXPXPXPXPXPXPXPXPXPXPXPXPXPXPXPXPXPXPXPXPXPXPXPXPXPXPXPXPXPXPXPXPXPXPXPXPXPXPXPXPXPXPXPXPXPXPXPXPXPXPXPXPXPXPXPXPXPXPXPXPXPXPXPXPXPXPXPXPXPXPXPXPXPXPXPXPXPXPXPXPXPXPXPXPXPXPXPXPXPXPXPXPXPXPXPXPXPXPXPXPXPXPXPXPXPXPXPXPXPXPXPXPXPXPX",
"i p D K.z p d z p f F.#XoXOX#XW x G F K K K | (.} K G G G F x W +X>X>X>XQ F G W J L.R.G J J K (.aXW.% : > : > 3 H.R.R. .} F.^.W.^.W.W. XF.| K.^.^.^.W. XXXOXXXQ F Y G K K F z z z d K F.} L.W G x h z h h F D F z F U Q A.G F z g g h z z h h x x W | F h z x z j x z z z z x J K z z z z z c z h z l x x K W K z h l g h z z x z z K ` | Y K D z z c z z z z F K K } }  .G c x G F E Y F Y W Y | F.| W ` ` | J h D J J G Y F F h z Y | u $ = $ + & @ + F XX#XE.p d z z h l z z z h d d i K +X#X+XW.G p i g h j g j z g p p p 3 3 3 l E L./.F.2 * 2 3 3 2 3 & OXPXIXPXPXPXPXPXPXPXPXPXPXPXPXPXPXPXPXPXPXPXPXPXPXPXPXPXPXPXPXPXPXPXPXPXPXPXPXPXPXPXPXPXPXPXPXPXPXPXPXPXPXPXPXPXPXPXPXPXPXPXPXPXPXPXPXPXPXPXPXPXPXPXPXPXPXPXPXPXPXPXPXPXPXPXPXPXPXPXPXPXPXPXPXPXPXPXPXPXPXPXPXPXPXPXPXPXPXPXPXPXPXPXPXPXPXPXPXPXPXPXPXPXPXPXPXPXPXPXPXPXPXPXPXPXPXPXPXPXPXPXPXPXPXPXPXPXPXPXPXPXPXPXPXPXPXPXPXPXPXPXPXPXPXPXPXPXPXPXPXPXPXPXPXPXPXPXPXPXPXPXPXPXPXPXPXPXPXPXPXPXPXPXPXPXPXPXPXPXPXPXPXPXPXPXPXPXPXPXPXPXPXPXPXPXPXPXPXPXPXPXPXPXPXPXPXPXPXPXPXPXPXPXPXPXPXPXPXPXPX",
"f d h F.g h d d f i F.#X#XOXXXJ z F x G K x K L.! J E G F x z ! @X,X>X>X! x F E G ~ L.x J c x _.4X.XO + + $ + : ! ! F p g h J K J K F D h d F U Q Q W U G.Y.} D z K K K z D d d h d F Z.W Y K z h h z z F z h z c d F Q Y F z h h h z F D z F j x W J x x x x K F F x x F K G W W F J J J K x J x K x K W W | J W K K J J Y K W W W K } F.D.Q } W W | J | | |  .|  .F.}  .! J E ! W F.F.J Y.Y.} J.K.J.W.(.-X-X-X X XoX-X&X=X&X.XY.J.Y.D.f * f f < 2 2 3 Y #X/.Y.} } A.J.A.A.Q Q ` U Y K F Y XXoX+XY. .} !  . .~ F.H. .H. .X.L. ...} | J L.^.J.J E |  .R.K.L.| sXPXPXPXPXPXPXPXPXPXPXPXPXPXPXPXPXPXPXPXPXPXPXPXPXPXPXPXPXPXPXPXPXPXPXPXPXPXPXPXPXPXPXPXPXPXPXPXPXPXPXPXPXPXPXPXPXPXPXPXPXPXPXPXPXPXPXPXPXPXPXPXPXPXPXPXPXPXPXPXPXPXPXPXPXPXPXPXPXPXPXPXPXPXPXPXPXPXPXPXPXPXPXPXPXPXPXPXPXPXPXPXPXPXPXPXPXPXPXPXPXPXPXPXPXPXPXPXPXPXPXPXPXPXPXPXPXPXPXPXPXPXPXPXPXPXPXPXPXPXPXPXPXPXPXPXPXPXPXPXPXPXPXPXPXPXPXPXPXPXPXPXPXPXPXPXPXPXPXPXPXPXPXPXPXPXPXPXPXPXPXPXPXPXPXPXPXPXPXPXPXPXPXPXPXPXPXPXPXPXPXPXPXPXPXPXPXPXPXPXPXPXPXPXPXPXPXPXPXPXPXPXPXPXPXPXPXPXPXPXPX",
"2 3 i z i i i f u 2 F.%XOX/._.x g z j z z x x J K x x x z z z K (.%X3X:X| g j x x x R c x x z ..@X.X& 2 2 f & 2 F.} z h F W | W Y K K Y Y A.T.Y.Y.Y.J.A.Y.W.A.J K K F K K J K K K K | A.J | F.F.F.G.K.G.H. .L... .L.H.K.G.L.E.L.K.| | T.Y.L.F.L.F.L.} F.F.J.L.A.-.} H. .A. .} F. .W | K.K.| | F.K.E.L. .J. .F.F.K.L.E.^.J. .K.^.E.^.J.} F.A.K.E.Y.R.E.(.(.XX(.Y.K.K.(.K.E.| | | | } F.| F J.E.Y.E.^.^./.^.^.{.!.` 3.I I Y Y &.S.Y.oXoXY.H u f 9 2 p g h } (.$X$X$X*X*XOX$X$X$X$X#XXX.X.XW.J.+X#X+XXX.XQ.W./.;X).;X%X).).).).(.E.K.E.L.K.E.(.E.}  .L...E x .. .hXPXPXPXPXPXPXPXPXPXPXPXPXPXPXPXPXPXPXPXPXPXPXPXPXPXPXPXPXPXPXPXPXPXPXPXPXPXPXPXPXPXPXPXPXPXPXPXPXPXPXPXPXPXPXPXPXPXPXPXPXPXPXPXPXPXPXPXPXPXPXPXPXPXPXPXPXPXPXPXPXPXPXPXPXPXPXPXPXPXPXPXPXPXPXPXPXPXPXPXPXPXPXPXPXPXPXPXPXPXPXPXPXPXPXPXPXPXPXPXPXPXPXPXPXPXPXPXPXPXPXPXPXPXPXPXPXPXPXPXPXPXPXPXPXPXPXPXPXPXPXPXPXPXPXPXPXPXPXPXPXPXPXPXPXPXPXPXPXPXPXPXPXPXPXPXPXPXPXPXPXPXPXPXPXPXPXPXPXPXPXPXPXPXPXPXPXPXPXPXPXPXPXPXPXPXPXPXPXPXPXPXPXPXPXPXPXPXPXPXPXPXPXPXPXPXPXPXPXPXPXPXPXPXPXPXPXPXPXPXPX",
"F F x G G K F D D l ` $X#X(.T.} | !  ... . .L.L.K.L.L...F.} F.L.K.#X3X:XL.L.R.Q.Q._.)._.~._._._.:XOXp l h z i h K.R.E.R.K.W.(..X^.E.!.^.^.!. XoXoX[.Y.Y.^.XX^.} H K | | | K | J.S.J U A.} D.A.} Q K./.Y.F.} Q.R.X.} J H.} F }  .L.| L.J.Y.J.` | |  .L.} | J.E.Y.K.G.J.G.F.F.F.H.F.| F.K.(.} } E.Y.(.} Y J.Y.E.K.F.| J.L.J.E.J Y ` F K J.^.} J | | F._.^.T.J.` | XX/.%X%X%XE K.| K.(./.^.Y } !.E./.OX(.^.3.V ( k 0 9 = = 9 $ 6 Z.oXoX^. XH u 9 2 & c c z  .(.$X:X*X:X>XG | W././.W.E.Y.Y.J.J.oX+X+XXX).L. .K.Q.Q.Q.(./._.(.E. .K | K.K.E.Y.E.K.L.T...| p 3 X.X.dXPXPXPXPXPXPXPXPXPXPXPXPXPXPXPXPXPXPXPXPXPXPXPXPXPXPXPXPXPXPXPXPXPXPXPXPXPXPXPXPXPXPXPXPXPXPXPXPXPXPXPXPXPXPXPXPXPXPXPXPXPXPXPXPXPXPXPXPXPXPXPXPXPXPXPXPXPXPXPXPXPXPXPXPXPXPXPXPXPXPXPXPXPXPXPXPXPXPXPXPXPXPXPXPXPXPXPXPXPXPXPXPXPXPXPXPXPXPXPXPXPXPXPXPXPXPXPXPXPXPXPXPXPXPXPXPXPXPXPXPXPXPXPXPXPXPXPXPXPXPXPXPXPXPXPXPXPXPXPXPXPXPXPXPXPXPXPXPXPXPXPXPXPXPXPXPXPXPXPXPXPXPXPXPXPXPXPXPXPXPXPXPXPXPXPXPXPXPXPXPXPXPXPXPXPXPXPXPXPXPXPXPXPXPXPXPXPXPXPXPXPXPXPXPXPXPXPXPXPXPXPXPXPXPXPXPXPXPXPXPX",
"W.%X$X%X&X#X+X XXXE.T.#XOXOX/.$X%X).:X3X3X3X5X3X5X3X3X3X:X%X%XOXOX%X3X%X).).).,X,X,X).~.:X).%X:X>X/.u p i l p F R.K.Y.(.R.H D H H l H N H 2.3.3.U D.Y.K.^.XXY.| J | (.).^.J J ^.F.Y Y.#X#XXXXXY.A.G.J.| .XR. .R.X. .W..X.XQ G z : | %XE.T.} T./. X#X#XOXY.K.W.Y..X.XY.H.A.F.W..XXX/.G.F.K.F.Y.(.L.L.F.^.%XoX$X1X).L.} } Y.XX` K F J J.$X%X).L.L.| } oXoXJ.T.K.XX#XXX%X$X$X| Y.(.%XOX/.XX| Z.^.^.XX%X^.!.3._ ( B w y # # # # = Z.oXoXoX^.H 9 u < < c E c  .).$X*X>X$X3X} | OX%X$X&X#X+XoXW.Y.OX#XOX@X@X/.Q.).@X@X@X%X$X@X).).W.| L.(.Y.E.!.W.W.Y.E.(.X.c j X. .hXPXIXPXPXPXPXPXPXPXPXPXPXPXPXPXPXPXPXPXPXPXPXPXPXPXPXPXPXPXPXPXPXPXPXPXPXPXPXPXPXPXPXPXPXPXPXPXPXPXPXPXPXPXPXPXPXPXPXPXPXPXPXPXPXPXPXPXPXPXPXPXPXPXPXPXPXPXPXPXPXPXPXPXPXPXPXPXPXPXPXPXPXPXPXPXPXPXPXPXPXPXPXPXPXPXPXPXPXPXPXPXPXPXPXPXPXPXPXPXPXPXPXPXPXPXPXPXPXPXPXPXPXPXPXPXPXPXPXPXPXPXPXPXPXPXPXPXPXPXPXPXPXPXPXPXPXPXPXPXPXPXPXPXPXPXPXPXPXPXPXPXPXPXPXPXPXPXPXPXPXPXPXPXPXPXPXPXPXPXPXPXPXPXPXPXPXPXPXPXPXPXPXPXPXPXPXPXPXPXPXPXPXPXPXPXPXPXPXPXPXPXPXPXPXPXPXPXPXPXPXPXPXPXPXPXPXPXPXPXPX",
" .h W K.W.Y.W.^.Y.S.E.OX#X$X%X%XE.H.E.).)._.%X:X%X%X,X).R.L.(.OX*X$X:X3X).W.).).).~.J R ,X:X3X:X3X(.u f f f p F E.^._.XX^.d * < < 9 s s V H V N s 3. X!. X#X_.K.L.T.(.XX%XE.F.Y.| U ^.*X+X%X+X/./.K.K.A./.(.Q.R.H.R.&X+X&XoX XF.L.L.!.^.E.Y.^.oX/.#XXXXXXXY.^.W.Y.W.oXW.J.W.XXXX.X+X.XW./.XXI.W.#XOXXX#XXXOX$X/.^.#X/.%X(.L.(.$X^.XXXX/.#X).$X).XX#X!.E.-X1X#X1XXXXX%X%X3X..| ).%X/.#X(.` F.XX^.XX#XoX!.5._ ( V r e # o X o $ &.#XoXoX X' u 0 f > p g 4 ~ W.OX$X$X@X:XW F (./.OXXX.X XW.G.J..X+XoX/.(.E.K./.).).@X.X@X/./.(.K.x F F.A.F.L.K.K.J.L. .' 3 > E E 3XPXPXPXPXPXPXPXPXPXPXPXPXPXPXPXPXPXPXPXPXPXPXPXPXPXPXPXPXPXPXPXPXPXPXPXPXPXPXPXPXPXPXPXPXPXPXPXPXPXPXPXPXPXPXPXPXPXPXPXPXPXPXPXPXPXPXPXPXPXPXPXPXPXPXPXPXPXPXPXPXPXPXPXPXPXPXPXPXPXPXPXPXPXPXPXPXPXPXPXPXPXPXPXPXPXPXPXPXPXPXPXPXPXPXPXPXPXPXPXPXPXPXPXPXPXPXPXPXPXPXPXPXPXPXPXPXPXPXPXPXPXPXPXPXPXPXPXPXPXPXPXPXPXPXPXPXPXPXPXPXPXPXPXPXPXPXPXPXPXPXPXPXPXPXPXPXPXPXPXPXPXPXPXPXPXPXPXPXPXPXPXPXPXPXPXPXPXPXPXPXPXPXPXPXPXPXPXPXPXPXPXPXPXPXPXPXPXPXPXPXPXPXPXPXPXPXPXPXPXPXPXPXPXPXPXPXPXPXPXPX",
"L.h E R./. XXX.X^.Y.XX+XOX%X%X%X%XE.).%X:X:X>X:X:X3X:X%X_.R.%X*X*X1X3X3X:X:X:X,X:X:X . .5X:X5X5X1X(.f 2 f 3 f ' ^.(.(.(.^.f # - - # 0 M V V I I N 5.^. XXXOX(.L...T./.OX*X).E.D.} J.^.$X#X#XXXXX$X$X#X.XW.(.;X,X;X,X:X@X#X&X.X:X(.^.^.^.*X#X#X#X/.#XXXOX%X*X3X&XW.+X>X&X>X>X&X+X$X>X&X>X$X#XXX+X$X&X#X#X#XXX#X/.#X#X%X%X/.#X| XXY.J.=XXXOX%X(._./.T. X X!.^.3.!.XX^./.OXOXL.(.(.^.E.(.T.K T.OXoX/.-X X^.5.2.( ) S M q # - o * P.XX.X/. XI s k f i : > > g ~ K.W.E.R.W.i g  .G.K.J.G.F.A.Y Y } A.S.H.! E G ~  .H.H.;.H.! W J G d z J G K J W Y D p 3 g 3 + c R aXPXPXPXPXPXPXPXPXPXPXPXPXPXPXPXPXPXPXPXPXPXPXPXPXPXPXPXPXPXPXPXPXPXPXPXPXPXPXPXPXPXPXPXPXPXPXPXPXPXPXPXPXPXPXPXPXPXPXPXPXPXPXPXPXPXPXPXPXPXPXPXPXPXPXPXPXPXPXPXPXPXPXPXPXPXPXPXPXPXPXPXPXPXPXPXPXPXPXPXPXPXPXPXPXPXPXPXPXPXPXPXPXPXPXPXPXPXPXPXPXPXPXPXPXPXPXPXPXPXPXPXPXPXPXPXPXPXPXPXPXPXPXPXPXPXPXPXPXPXPXPXPXPXPXPXPXPXPXPXPXPXPXPXPXPXPXPXPXPXPXPXPXPXPXPXPXPXPXPXPXPXPXPXPXPXPXPXPXPXPXPXPXPXPXPXPXPXPXPXPXPXPXPXPXPXPXPXPXPXPXPXPXPXPXPXPXPXPXPXPXPXPXPXPXPXPXPXPXPXPXPXPXPXPXPXPXPXPXPXPX",
"K.c | R.^..X X.X XY.^.%X#X$X$X%X%X).).:X:X>X:X3X:X:X3X%X(.E.%X#X%X%X%X:X%X%X:X@X).~.R R :X).%X%X%XE.l f 2 k p H ^.(.(.XXE.k o o o o 0 N A I 2.I N P.!.^.XXXX/.J.K | ^.^.^.Y.F.XXW.S.Y..X(.^.W..X^.^.Y.G.#X~.o.~.o.Q.,XW..XH.J E 3  .*XE.Y.Y.^.T.F.A.L.L./.A.h D .X! 8 i i p Y G.A.h u u : 2 G.D.* D Y.T.F.` F.F.L.(.OX(.XX(.z F F G G W.).X.R. .| T.!.oXY.!.T.F.S.S.J.F.L.K./.L.L.J.K.L.Y J.Y.^.XXOX X!.T.2.>.A A B M q y * N Y.oX^./. XH 9 6 = d K.E > H.).>X>X:X@X>XJ Y F h h D D z d D J.oX.XW./.[.W.H.h u u u 8 8 i : : g ! K.L.K.E.[..X/.J $ % u F 2 R.L.dXPXIXPXPXPXPXPXPXPXPXPXPXPXPXPXPXPXPXPXPXPXPXPXPXPXPXPXPXPXPXPXPXPXPXPXPXPXPXPXPXPXPXPXPXPXPXPXPXPXPXPXPXPXPXPXPXPXPXPXPXPXPXPXPXPXPXPXPXPXPXPXPXPXPXPXPXPXPXPXPXPXPXPXPXPXPXPXPXPXPXPXPXPXPXPXPXPXPXPXPXPXPXPXPXPXPXPXPXPXPXPXPXPXPXPXPXPXPXPXPXPXPXPXPXPXPXPXPXPXPXPXPXPXPXPXPXPXPXPXPXPXPXPXPXPXPXPXPXPXPXPXPXPXPXPXPXPXPXPXPXPXPXPXPXPXPXPXPXPXPXPXPXPXPXPXPXPXPXPXPXPXPXPXPXPXPXPXPXPXPXPXPXPXPXPXPXPXPXPXPXPXPXPXPXPXPXPXPXPXPXPXPXPXPXPXPXPXPXPXPXPXPXPXPXPXPXPXPXPXPXPXPXPXPXPXPXPXPXPXPX",
"W 3 z | F.K.J.Y.J.S.T.Y.Y.E.(.E.K.H.E.).).).).#X)././.(. .| L.L.Y.^.^.E.R.L.R.L.L.~ j j ~.Q.E._._.J.c 0 f l f H ^.(.(.Y.J.l $ - - # s V 2.A 2.2.V 3.U.Y.^././.L.F K F. .} | } XXJ.U F.J.A.F.J.Y.Y.!.Y.F.).o.+.o.o.o.Q.o.R.E E 3 4 J K } W.Y.Y.U.T.E.^.Y.+XJ % 3 x i % @ % $ G [.W.j > 3 5 3 j 2 o f  X X^. XOXOX%XOX).#XF.K F K K P Z.$X:X(.R.L.Z.U.U.!.!.U.5.-X=X1XaXaXaXW.Y.>X3X3X3X3XY.J.^.^.XX#XoXoXU._ ( ( ) >.M w B N H Y.+X.XW.oXU = = - + H.~ @ ! 4X>X4X3XaXaXK G.P D D z D D h D W.aX3XwX>X>X@X[.m u a u i i u u 2 h } F./.^./.+X+X+Xd % 6 8 W <  .E.dXPXPXPXPXPXPXPXPXPXPXPXPXPXPXPXPXPXPXPXPXPXPXPXPXPXPXPXPXPXPXPXPXPXPXPXPXPXPXPXPXPXPXPXPXPXPXPXPXPXPXPXPXPXPXPXPXPXPXPXPXPXPXPXPXPXPXPXPXPXPXPXPXPXPXPXPXPXPXPXPXPXPXPXPXPXPXPXPXPXPXPXPXPXPXPXPXPXPXPXPXPXPXPXPXPXPXPXPXPXPXPXPXPXPXPXPXPXPXPXPXPXPXPXPXPXPXPXPXPXPXPXPXPXPXPXPXPXPXPXPXPXPXPXPXPXPXPXPXPXPXPXPXPXPXPXPXPXPXPXPXPXPXPXPXPXPXPXPXPXPXPXPXPXPXPXPXPXPXPXPXPXPXPXPXPXPXPXPXPXPXPXPXPXPXPXPXPXPXPXPXPXPXPXPXPXPXPXPXPXPXPXPXPXPXPXPXPXPXPXPXPXPXPXPXPXPXPXPXPXPXPXPXPXPXPXPXPXPXPXPX",
"| 3 F p : u u * * d J.K.J.E.E.(.^.R.W x z D F F F F z x | Y./.^.XX%X%X$X/.z g g g j E  .5X:X1X1X1X3X' 2 k f p c L.E.Y.(.Y.V V M k M B V A A _ I V T.Y.Y._././.^.L.(.1X>X1X%Xx Y L S.1X3X1X3X3X1XoX XY.~ Q.o.+.o.+.o.Q.sX,XE R g g c 2 ..^.'.oXsXaX5XsXaX>XJ 4 X.<X;X^ R j % Y fX.X3 o.6X<X<Xo.3 X i J.=X5X3X3XaX*X^.(.#X| z K Y G U K ^.@XX.Q.L.T.!.{.w.!.U.3.Y.aX>X&X3X4Xd p #X$X1X1X-XD.J.XX/.XX#XXX^.5.>.( ) A A r r B s A Y.+X.XW.+X` 9 6 $   i ~ @ > ).>X4X3XaXXXF ^.G D G D z D D h Q &XwX>X>X>X.XK.D 8 i a u u u u u h  .} R.^./.+X:X;.$ * % :  .p K K.hXPXPXPXPXPXPXPXPXPXPXPXPXPXPXPXPXPXPXPXPXPXPXPXPXPXPXPXPXPXPXPXPXPXPXPXPXPXPXPXPXPXPXPXPXPXPXPXPXPXPXPXPXPXPXPXPXPXPXPXPXPXPXPXPXPXPXPXPXPXPXPXPXPXPXPXPXPXPXPXPXPXPXPXPXPXPXPXPXPXPXPXPXPXPXPXPXPXPXPXPXPXPXPXPXPXPXPXPXPXPXPXPXPXPXPXPXPXPXPXPXPXPXPXPXPXPXPXPXPXPXPXPXPXPXPXPXPXPXPXPXPXPXPXPXPXPXPXPXPXPXPXPXPXPXPXPXPXPXPXPXPXPXPXPXPXPXPXPXPXPXPXPXPXPXPXPXPXPXPXPXPXPXPXPXPXPXPXPXPXPXPXPXPXPXPXPXPXPXPXPXPXPXPXPXPXPXPXPXPXPXPXPXPXPXPXPXPXPXPXPXPXPXPXPXPXPXPXPXPXPXPXPXPXPXPXPXPXPXPXPX"
};
