/* XPM */
static char *clouds2[] = {
/* columns rows colors chars-per-pixel */
"1380 337 124 2 ",
"   c #BBDADF",
".  c #97DDE9",
"X  c #9FDEED",
"o  c #9DDFF1",
"O  c #A4DCE5",
"+  c #ACDCE3",
"@  c #A4DFEC",
"#  c #ACDEEC",
"$  c #B3DCE3",
"%  c #BBDEE4",
"&  c #B5DFED",
"*  c #B9DFEC",
"=  c #A7DFF1",
"-  c #ADDFF1",
";  c #9BE5E6",
":  c #96E2EF",
">  c #9EE2EC",
",  c #9FE8EF",
"<  c #8FECFE",
"1  c #94E7F7",
"2  c #9DE5F4",
"3  c #95EBF6",
"4  c #9DEAF5",
"5  c #96E7FD",
"6  c #9CE7FD",
"7  c #97E9FF",
"8  c #9CE9FF",
"9  c #9EF1F7",
"0  c #95F0FE",
"q  c #9DF0FE",
"w  c #A7E2E7",
"e  c #AEE2E7",
"r  c #A4E3EE",
"t  c #ABE3ED",
"y  c #A5E8ED",
"u  c #ADE9EE",
"i  c #B4E0E6",
"p  c #BCE1E3",
"a  c #B3E4ED",
"s  c #BBE5ED",
"d  c #B5EAEE",
"f  c #BCEAEE",
"g  c #A4E4F4",
"h  c #ABE5F4",
"j  c #A4EAF5",
"k  c #ACEAF5",
"l  c #A2E6FB",
"z  c #ABE6F9",
"x  c #A3EBFF",
"c  c #ABEDFF",
"v  c #B3E5F3",
"b  c #BAE6F3",
"n  c #B4EAF5",
"m  c #BBEBF4",
"M  c #B3E6FA",
"N  c #BBE7F9",
"B  c #B4EFFF",
"V  c #BBEEFC",
"C  c #A4F0F7",
"Z  c #ACF0F5",
"A  c #A4F1FD",
"S  c #ADF1FE",
"D  c #B4F1F5",
"F  c #BCF1F5",
"G  c #B6F0FE",
"H  c #BBF1FF",
"J  c #B2F8FF",
"K  c #BBF8FF",
"L  c #C3DEE5",
"P  c #C2E3E6",
"I  c #CAE2E6",
"U  c #C2E5EC",
"Y  c #CAE7EC",
"T  c #C4EAED",
"R  c #CBEBED",
"E  c #D1E3E5",
"W  c #D3E7EC",
"Q  c #DBE6EB",
"!  c #D2E9EE",
"~  c #DCECEF",
"^  c #CEF0EF",
"/  c #C2E6F3",
"(  c #C4ECF4",
")  c #CBEDF5",
"_  c #C4E7FA",
"`  c #C3EEFB",
"'  c #CBEEFA",
"]  c #D3E7F0",
"[  c #D3EEF4",
"{  c #DBEEF4",
"}  c #D2EEFA",
"|  c #D9EFFA",
" . c #C4F1F6",
".. c #CCF1F6",
"X. c #C3F2FF",
"o. c #CBF4FF",
"O. c #C5F9FF",
"+. c #CCF9FF",
"@. c #D4F2F5",
"#. c #DDF3F6",
"$. c #DAF8F6",
"%. c #D1F6FF",
"&. c #DCF6FD",
"*. c #D5FAFF",
"=. c #DBF9FE",
"-. c #E2F2EF",
";. c #E2EFF3",
":. c #E6EFF8",
">. c #E3F3F6",
",. c #EAF4F6",
"<. c #E3F8F7",
"1. c #ECF9F7",
"2. c #E2F4FB",
"3. c #EAF6FB",
"4. c #E4FCFE",
"5. c #ECFCFE",
"6. c #F1F5F6",
"7. c #FFF7F7",
"8. c #F6FCF5",
"9. c #FDFCF6",
"0. c #F1F6FB",
"q. c #FDF7FB",
"w. c #F4FEFF",
"e. c #FEFFFE",
/* pixels */
"%.%.%.%.%.%.%.%.%.%.%.+.%.%.%.%.%.%.%.%.%.%.%.%.%.%.%.%.+.%.%.%.%.%.+.%.%.%.%.%.%.%.+.%.o.%.%.o.%.%.o.@.o.%.o.o.o.%.%.o.%.%.o.%.o.%.%.%.o.%.%.+.o.%.o.%.o.%.' o.%.o.o.+.%.o.%.o.o.o.%.o.%.o.o.o.%.o.%.o.o.%.o.o.+.o.%.o.o.%.o.o.o.o.+.+.o.O.o.o.+.+.o.+.+.o.o. .+.o.o.o.o.O.X.o.o.o.X.o.` o.X.o.o.o.o.` ' o.X.X.o.o.X.o.o.o.o.` o.X.o.o.o.' o.' o.o.X.o.X.o.o.o.o.o.o.o.X.` o.o.o.X.o.o.X.o.X.o.O.O.X.o.O.X.o.o.X.X.X.o.X.o.X.X.X.o.X.o.X.X.o.X.X.X.X.X.X.o.X.O.` X.X.X.X.o.` X.X.X.X.X.X.O.X.X.O.X.X.X.X.X.X.X.X.X.X.X.O.X.X.X.O. .X. .X.X.X.X.X.X.X.X.X.X.X.O.X.X.X.` H X.X.X.X.X.X.X.` X.X.X.X.X.X.X.X.V X.X.H X.X.X.X.X.X.` V X.X.X.X.X.X.X.H V X.H X.V X.` H X.V X.X.X.V X.X.V X.X.X.V X.V X.X.H H X.H X.X.H X.X.H H H X.H V H H H H X.V H H H H X.H H X.X.H H H H X.H H H X.V H H H H H H H V H H X.H H H H H H H H X.H H H H H H H H H K H H G H G H J H H D G H D H G H H G H H G H H F H G H H G G H B H B V G H H B H H B H H B H H B H H B H V G H H G G H H G G H G G G G G G G G G G G J H G G G G G G G D V G G B B G G B H D B H G H B G G G B G G B J B B B V D H B B B H H H B B B B G G B B B B B G B B B B B B B B G B B B G B G B B B B B B B G B B B B B G B B B B B G G B B B B B B B G B G B B B G B G B B B B B B B B B B B B B B B B G c B G c G G c G G S B G S S S G c B c G c G c c B c G c c B c G B c c B c c G c c B c G c G c c B c B c c B c G c B c c B c c G S c S c S S c S c S c S c c S c c S c S S c S c G S c S S S c S S S G S S S S G c c c c c c c c c c c c c c c c M c c B c c c c c c c c c c c x c c c c z c c c c c c c x c c c c c c c x c c c c S c c x S c x k S c k A c c x S c c c c c S x S c x c k S c c c c x S c c x c c c c c c x c c x c x c z x c c x c c x c c l c x c x x c x x c c c x c x c c x c c c l c c x c c x c c l c c x c c c c x c c c l c x c l c l c x c x c x c x c l c l c x c l c x z l c x z x c c x c x c l c l c x c x x c x S x x x x x x x k c x x x x x x c x x c x x c x c x x x S x x k A x x x x x c S x x c x x S x x k A x x c x S x x x x k x x x x x x x x z x x x x x x x x x x x x x x x x A x x x x x x x x x x x x x x A x x x x x x x x A x x x x x x x x x x x x x x x A x x x x x x x x x A x x A 8 x x x 8 x 8 x x x 8 x 8 x x x 8 A 8 x 8 x 8 8 x 8 x 8 x 8 x x A 8 x x 8 x 8 x 8 8 A 8 x 8 x x 8 x x 8 x x 8 A 8 A 8 8 x 8 8 x 8 8 x 8 x 8 A x 8 x x x 8 x 8 x 8 x 8 8 A 8 x 8 x x 8 x 8 x 8 x 8 x 8 A 8 x x 8 x 8 x 8 x x 8 x 8 8 x 8 A 8 x x 8 x x 8 x x 8 q C 8 8 x q 8 8 A 8 8 A 8 8 8 x x 8 A x x 8 A 8 x 8 x x 8 x 8 x 8 x 8 x x x x 8 x x 8 x 8 x x 8 8 8 8 x 8 x 8 8 x 6 8 x 8 x 8 x 8 x 8 8 x 8 8 x 8 8 8 x 6 x 8 A 8 8 8 q x 8 8 x x 8 8 8 8 x q x 8 x 8 8 8 q 8 8 8 8 q 8 x 8 x 8 8 q 8 q 8 x x 8 q 8 q 8 8 8 A 8 q x 8 x 8 x 8 q 8 8 x q x 8 x 8 q 8 q 8 8 x 8 8 x 8 x 8 8 A 8 8 8 q x 8 A 8 8 8 q 8 q x 8 x 8 x 8 8 8 8 x 8 8 x x 8 8 8 8 8 q x 8 8 x ",
"%.%.%.%.%.%.%.+.%.%.%.%.%.%.%.%.%.%.%.%.%.%.%.%.%.%.+.%.%.%.%.%.%.+.%.%.%.o.+.%.%.o.%.%.%.o.%.o.o.%.%.o.%.%.%.@.o.%...%.%.o.o.%.%.o.o.%.o.%.%.%.%.' %.o.%.o.%.o.o.o.o.%.o.o.o.o.o.%.o.o.o.o.o.%.o.o.%.o.o.o.o.%.%.o.o.o.+.o.o.%.o.o.o.o.o.o.o.O.o.o.o.o.o.o.o.o.O.o.o.+.o.o.o.o.X.' o.o.X.o.' o.o.X.o.o.o.X.o.o.X.' o.o.` o.o.o.' o.o.X.o.X.X.o.X.o.' o.o.o.o.` ' o.' o.o.o.o.X.' o.X.o.o.X.o.X.X.o.X.O.o.X.X.X.o.X.X.X.X.X.o.X.X.X.X.X.o.X.X.X.X.o.X.o.O.o.X.o.X.X.` o.X.X.X.X.X.X.X.X.X.X.X.o.X.X.X.X.O.X.X.X.X.X.X.X.X.X.X.X.X.X.X.X.X.X.O.X.X.X.X.X.X.X.X.X.X.` X.X.X.X.X.X.X.X.X.X.X.H X.H ` H X.H X.X.X.X.X.X.H X.H X.X.H X.X.X.H X.X.X.X.X.X.` X.X.V H X.V X.X.X.V X.V X.H X.X.V X.X.X.H H H H X.H K H H H H H X.X.H K X.X.H X.H H H X.H X.H H V H X.V H H H H H V H H H H H H H H X.H H H X.H H H H H H X.H H H H H H H H H H X.H X.X.H H H G H H H H H H H H H H H H G H G G H H D J H G H H G V G G H G H G G G G G V H B B H H B H B B H H B G G G G G G J G G G G G G H H G G H H G G H G H H G G G G G G G G G G G G H G G G B G G B D B G F B G G G G G G B B G G B B V G G G G G B B B B B B B G B G B B B G c G G B G c B G B B B B G B B G G B B B G B G B B B G B G B B B B B B G B G B G B B B B B G B B B B B B B B B M B B c B B B B B M c B S c S c S G c S B c G c B G c c c c c B c c B B S c B B c c c c G G c c G c B B c c c B c c B c G c B B c c c B c G c c B c B c S c S c S G c c S S c G S c S S S G c c S c S S c S c c S G c S c c S c S S c c c c c c B M c c c c c c c c c c c c c c c c c c c z c z c c c c z z c c c c c c c c c c c x c x c c c S k c S x k c x c c c c c c c S c c c c x c k A c c k c c c c c x c x S x c c c c c c c c x k A c c c x c x x c c x x c c x x c c x x c c c c c z c c x l c c x c x x c c l c x x c c x c x x c c x x z c x c x c c x c c x c l c x c x z x c l c l c x c x c x c l c x c x c x c x c x x z l c x c x c x x x x x x x x x x c x c x x A x x x c x c x x x A x x x x x x k x x x x x x x c x c x x x x x x x k x x x x x c x x x x x x x x x x x j x k x x x x x l c x x x x x x x x A x x x x x x x x x A x x x x x x A x x x x x x x x x A x x x x x x x A x x x x x A x x x x x x x x x x A x x x x x 8 x x x 8 x A x x 8 8 x A 8 x 8 8 x x 8 x 8 A 8 x x 8 A x 8 8 x A 8 8 x x 8 8 x x 8 x x 8 x 8 x 8 x A 8 8 x x 8 x 8 x 8 x x 8 x A 8 x x 8 x 8 x 8 x x 8 8 x A 8 x 8 x 8 x x 8 x x 8 8 x x 8 x x A 8 8 x x 8 x 8 8 x x 8 8 A x 8 x 8 x x 8 A 8 x 8 x x 8 8 A x 8 8 x 8 x A 8 8 x x 8 8 A A 8 A 8 x 8 x 8 8 x x 8 8 x x 8 8 x x A x 8 8 x x 8 8 A x 8 8 x 8 x 8 x 8 x x 8 8 x 6 x x 8 8 x 8 x 8 8 6 x x 8 x 8 x 6 8 x x 8 8 x 8 x 8 8 x 8 8 8 8 x 8 q x 8 A 8 8 8 8 8 q 8 8 x 8 x x q x 8 8 8 q 8 8 x 8 x 8 x 8 8 x 8 x 8 x 8 8 8 x 8 8 8 8 q 8 8 8 x q 8 8 x 8 8 x 8 x 8 x 8 8 q 8 x q 8 A 8 8 8 x 8 8 8 8 8 8 x 8 x x 8 8 8 x q q 8 8 A 8 8 8 x 8 q x 8 x q x 8 8 8 q 8 ",
"%.%.%.%.%.%.%.%.%.%.%.%.%.%.%.%.%.%.o.%.%.%.%.%.%.%.%.%.%.%.%.%.%.%.%.%.%.%.%.%.%.%.%.%.o.o.%.%.%.o.o.%.%.o.+.o.%.%.o.%.o.%.%.%.%.%.%.%.%.%.o.' } o.' %.' %.%.o.%.o.%.o.o.o.%.o.+.o.o.o.%.+.%.o.o.o.o.o.o.%.o.o.o.%.o.o.%.o.o.o.+.O.o.o.+.o.+.+.o.+.+.O.o.O.o.o.o.o.o. .o.o.o.X.o.o.` o.o.X.o.X.o.o.o.` o.o.o.X.o.o.o.o.o.o.X.o.o.X.' o.o.o.' o.' o.X.o.' X.o.o.o.' X.o.X.o.o.' o.X.o.X.o.X.o.o.O.X.o.O.o.X.o.X.X.o.X.o.o.X.X.X.X.o.X.X.X.o.X.o.o.X.X.X.X.X.X.o.X.X.X.X.X.X.X.X.O.X.X.X.X.X.X.X.X.X.X.X.X.X.X.X.X.X.X.X.X.X.X.o.X.X.H o.X.X.X.X.X.X.O.X.X.O.X.X.X.X.X.X.X.X.X.X.X.V X.X.X.X.X.X.X.X.X.X.X.H H X.H X.X.X.X.X.X.X.X.X.X.H X.X.X.O.V X.H X.X.X.V X.X.X.X.V X.X.X.X.V X.` X.V V X.X.H X.X.H H X.X.H X.X.H H X.H H X.H H V X.H H H H H H X.H H H H H H H X.H H H H X.H H X.H H H H H H H H H H H X.H V H H X.H H H H X.H H H H H X.H H G H D H G H H G G H G D H H G G H H H H H G H H G G H G H H G V G G H H G G H B H G H H B H H G G H B G H B H H G G G G H G H J H H G G H H G H G G H G G G G G G G B G B G G G B B G G G G G G G H G G G G H G G G B B G G B V G V B G G B V B G B G G B G B B B B B B B G B B B B G B B B B B B B B B B B B B B B B c G B G B B B B B B B G G B B B B B B G G B G B B G G B c B G k B k G B B B B M B B B k B B c G S c c S c S S c G S c G c B B c c B B c c B c c c B B c c c G c c G c c c B B c c B c B c B c c c c B c B c B S G B c c c S G S S c G S S c G S c G S c S c G c S B S c S c c G S c S c c S c c S S c S B c c c c c c c c c B c c c c c c c c c c B c c c z c z c c c c c z c c c c x c x c c c c x k c c c k c c c c x c S c c c c c S x c c x c c c c c c x c x c c c c S c c c c x c c c c S c c c k c c x c k c x c c c c x c c c c c c l c c c c c c x x c x x c c x z c x c c x c x x c c x c c x x c c c c c x c c x x c c x x c l c l c x z l c x c x c x c x z l c x z x c x c x c x c x c l c c x c x c x c l x x c x x c k x k x x x x c x c c x k x x A x c A x c x x c k x A c x c x c x c x x A k x x x x x x A x c x c x x c x c x c k A x x x l x x x x l x x x x x l c x x x c x x x x x A x x x x x x x x x x x x x x x A x x x x A x x x x x x x x x x x x x A x x x x A x x x x A x x x x x x x x x 8 x 8 A 8 A q x 8 x 8 8 x 8 x 8 x 8 8 x x 8 x x 8 x x x 8 A x 8 8 x x 8 x 8 x 8 x x x 8 x x 8 A x 8 8 x A 8 8 x x 8 x x 8 x A 8 x x x 8 A x 8 x x 8 8 x x 8 8 A x 8 A x 8 x x x 8 A 8 x 8 x x 8 8 A x 8 x x x x x A 8 x A 8 8 x A x x 8 x x 8 x x 8 8 A x 8 8 x A A 8 q 8 A A 8 x q 8 A 8 9 x A x 8 x 8 x 8 x x x 8 x A x x 8 x 8 x x 8 8 8 x 8 x 8 x 8 8 x 8 x x 8 8 x 8 x 8 x 8 x x 8 8 x 6 x x 8 8 x x 8 x 8 x 6 8 x 8 x 8 x x 8 x 8 8 8 x q x 8 8 q 8 8 8 x x x 8 x 8 x 8 x x 8 x q x 8 x x 8 x 8 x 8 8 8 x 8 8 q 8 8 8 x 8 8 8 x 8 x x 8 x q 8 8 x 8 8 8 x 8 8 q 8 8 q x 8 q 8 8 x 8 8 8 8 8 8 8 x 8 x 8 8 8 8 q 8 8 q 8 8 x 8 8 8 q 8 8 q x 8 8 q x 8 x q x 8 x x ",
"%.%.%.+.%.%.%.%.%.%.%.%.%.%.%.%.%.%.%.%.+.%.%.%.%.%.%.%.%.%.%.%.o.%.%.o.+.%.o.%.%.+.%.%.%.%.%.o.o.%.%.o.o.%.%.@.o.%.%.o.%.o.@.o.o.%.o.o.o.%.%.%.o.%.o.o.%.o.o.%.o.o.o.o.%.%.o.o.o.%.o.%.o.o.o.o.o.%.o.+.o.o.%.o.o.o.o.%.o.o.o.%.o.o.+.+.o.o.o.o.o.o.o.o.O.o.o.o.o.o.O.o.X.o.o.o.X.o.o.o.o.' o.o.o.X.o.o.o.X.' o.o.X.' X.X.X.' o.o.o.X.X.X.o.X.o.X.o.X.o.o.o.X.` o.o.o.o.o.o.o.X.o.o.X.o.O.o.X.o.o.O.o.X.X.X.X.X.X.X.X.X.X.X.o.X.X.X.o.o.X.X.X.X.X.X.X.o.o.X.X.X.o.` X.X.X.X.X.' X.X.X.X.X.X.X.X.X.O.X.X.X.X.X.X.O.X.X.X.O.X.X.X. . .O.X.X.X.X.X.X.X.X.X.X.X.X.O.X.H X.X.` X.H X.X.X.X.X.X.X.X.X.H X.H X.X.X.X.X.X.X.H X.H X.X.H H X.X.X.H X.X.H X.X.V X.V X.X.X.X.V H X.V H X.V X.X.H H X.X.X.V H H X.K H X.H H H K X.H H H X.H X.H H H X.V X.H H X.H H V X.H X.H H H H H H H H H H H H H H H X.H H H X.H H H H H H H H H V X.H H H H H H H H H G H H H G F G G H H G H H H G H H H D G G H H G H H G H G V G G G H V G G G V G H H B G B H H B H V G H V G H B G G H G H J G G G G G G G J G G J G G G H G G B G G G G G G H B G G G G B H B G B G G B G G B B G B G G G G G G B B G B G H B B B B B B B B B B B G B G G B G B G B B B B G B G G B G B B G B G G B G B G B B B G B B G G B G c B B B G B G B c B B B B B B B B B B G B B B B B B B B B B B B J c B G c B G c G G c G G c G G c B c c G c G c c B c c B B S c B B c c B B c c B B S c B c G c c B c S B B G c B c B c c c c G c S c S c c S c c c S c S S c S S c S c S c S c S c S c S c B S S G c S S c c S c c c c c c c c c c c c c B c c c c z c c c c c c c c c c c c z c c c c c z c c c c c k x c c c c c c A S x c c c c x c c c c x k c c c c k x c c c c c c c c c x c k x c c c c c c c x k c c c A c c S c x c c k x x c c x c x x x c c x l x c x l c c c c c x c c c x c x z c x c c c x c x z c c c l x x c c x c c x c x c c c c x c x c x c x c l c l c l c x c x c x c x z x c l c l c l c x x c l c x z x c x c x x x x A x A x c x x x x x x x A x x k x x x k x x x x A x x x x x x x x x c x x x k A x c x c x x x x x x x x x x x x x x x x k x k x x x x c x x x x x x x x x x x x x x x x x x x x A x x x x A A x x x x x x x x x x x x x x x x x A x x x x A x x x x x x x x x x x x x A x x A x x x x A 8 x x x x x A 8 x x x A 8 x x 8 A 8 8 x x 8 x 8 x 8 x 8 x x x 8 8 x x x 8 A 8 A 8 x x 8 x 8 8 x 8 x 8 x x 8 8 x 8 x x 8 x x 8 x 8 x x 8 x 8 8 A 8 x x 8 x 8 8 x 8 x A 8 x 8 x 8 x x A 8 8 x x 8 x x 8 x 8 8 x 8 x 8 8 x x 8 8 x 8 x x 8 x 8 8 x x 8 x 8 x 8 8 8 x 8 8 8 A 8 8 C 8 8 x 8 8 8 x x 8 x 8 A 8 8 8 x x 8 8 8 x 8 x x 8 x x x 8 x 8 x 8 8 l 8 8 6 8 x x 8 8 8 x 8 x 8 6 x x 8 x 8 8 8 x 6 6 x 8 x 8 x x 8 x 6 x 8 8 q 8 8 A 8 8 8 8 8 8 x x 8 q 8 8 q 8 8 8 8 q 8 8 8 8 8 8 q 8 8 8 8 q 8 x 8 q 8 8 x 8 x 8 x q 8 x q 8 8 8 8 q 8 8 x 8 8 8 x q 8 8 x 8 x x 8 x 8 8 x 8 8 8 x q x 8 x q 8 q 8 x x 8 x x 8 x 8 x 8 8 8 A 8 x 8 x 8 8 8 x 8 8 8 8 8 8 q 8 8 ",
"%.%.%.%.%.%.%.%.%.%.%.%.+.%.%.%.%.%.%.%.%.%.%.%.%.%.%.%.%.%.%.%.%.o.%.+.%.o.%.%.%.o.%.o.o.%.%.o.%.%.o.%.o.%.o.%.%.%.o.%.o.o.%.o.%.o.%.%.%.o.%.o.%.o.%.o.o.%.%.' o.o.o.+.o.o.%.o.o.o.%.o.o.%.o.%.%.o.o.%.o.o.o.%.%.o.%.o.o.o.o.o.+.o.O.o.o.o.+.o.o.+.O.o.o.o.o.O.o.o.o.X.o.o.o.X.o.X.o.o.o.X.o.X.` o.X.o.o.o.o.o.o.X.o.X.o.` o.o.o.' X.o.X.o.` o.o.o.X.o.o.X.o.o.o.X.o.X.o.o.X.o.X.o.X.O.o.X.o.o.X.O.o.O.X.X.o.X.o.X.o.X.X.X.X.X.X.X.o.X.X.X.X.X.X.X.X.X.X.o.o.X.X.` o.X.X.X.X.X.O.X.X.X.X.X.X.X.X.X.X.X.X.X.O.X.X.X.O.X.X.X.X.X.X.X. .X.X.X.O.X.X.X.X.O.X.X.X.X.X.V X.X.X.X.X.H X.X.X.X.X.X.X.X.X.X.X.X.X.V H X.X.H X.V X.H X.X.X.X.H X.X.X.X.H X.V X.V X.H X.H ` X.H ` X.X.X.V X.V X.X.V X.` X.X.H H H X.H H X.H H K X.H X.H K V H H H X.H X.H X.V H H X.V H H V X.H H H H H H X.H H H X.H H H H H H H H H H H H H H H H X.H H H H H V H H H H H G H H J H G H H D G H H J H H H H H H H H G H G H G H G H H V H B H H B B H B G G H G G H G H G V B H H B H H G H G G G G H G G G G G G H H G H G G G G G G G G G G F G H D B G G D G D B B G H G G G G B G G D B G G G B G G B V B H V B B V B G B B B G B B B B B B B G B B B B B B B G B G B B B G B B B B B B B B B B B B B B G B B B B G B B G B B B B G G B G B B B B G B B B B B M B B B B B B M S B B B c G c S G c G c S G c c G S G c G G c B c c G G c c c c c B c c G c c c c B c c B c G c c c G c B c c c c B c G c c B B c c B S c c S c S c S S c S c c S S c c S c S S c c G S S G c S S S c S c S c S S c S c c M c c c c B c c M c c c c c c c c c c c c c z c c c c c z c c c c c z c c c S x k c c x c c c c c x c c c c c k x c c k x c c S c c S c c c c c c S c c c c x c c c c x S c c S c c x c c c c c c S k x c x c x x c c l l c c x x c c c x c x c c x c c x c c x x c x c c c c c c l c x c c c x c c c x x c x c c x c x c x x c x c x c x c x z x c x c x c x c x c l c l c x c x c x c x c c l c l c x c x k x x x x x c x x x x x x x x x x x x x x x x x c x x x k A x x k x c x x x x k x x S x x x x x c x x x x c A x k x c A x x x k x k x x k x x x x x x x l x x x A x x x A x x x x x x A x x x A x x x x x x x x x x x x x x x x x x x A x x x A x x x x x x x x x x x x x x x x x A x x A x x x x 8 x 8 A 8 x 8 x 8 x 8 8 x 8 x x 8 x x x 8 8 x x 8 x 8 x 8 x 8 x 8 x 8 8 x x 8 8 x 8 x 8 x x 8 x x A 8 x x x x 8 x x 8 x 8 x 8 8 x 8 x x 8 A 8 x x x x 8 x 8 x 8 x 8 x 8 8 x 8 x 8 A 8 8 x x 8 8 x 8 x 8 x 8 A x 8 8 A x x 8 x 8 x 8 x x 8 x 8 x x x x 8 A x x 8 x 8 8 A 4 q x A 8 x x 8 8 x q 8 A x x 8 x 8 x 8 A 8 x x 8 x x x 8 x 8 x 8 8 x 8 8 8 x 6 8 8 x 8 x x 6 x 6 x 8 8 x 8 8 8 x 8 x x 8 8 8 x 8 8 8 8 x x 8 8 8 x 6 8 x 8 x x 8 x 8 q 8 q 8 x 8 x 8 8 x A 8 x 8 x 8 q x 8 x 8 x 8 x 8 A q x 8 8 x 8 8 x 8 x A x 8 8 x 8 8 8 q 8 8 x x 8 8 A 8 8 8 8 8 8 8 x 8 A 8 8 x 8 8 q q 8 8 8 x 8 x 8 q 8 q 8 8 q 8 8 8 8 q 8 8 x 8 x x 8 x 8 q 8 q 8 x 8 x 8 8 x x 8 ",
"%.%.%.%.%.%.+.%.%.%.%.%.%.%.%.%.%.%.%.%.%.%.%.%.%.%.%.%.%.%.%.%.%.%.%.%.%.%.%.%.%.%.%.%.%.o.%.%.@.o.%.%.o.@.%.o.o...%.%.%.%.%.%.%.o.%.o.o.%.o.%.%.o.o.} %.o.o.%.%.o.%.o.o.+.o.o.%.o.o.o.o.o.o.o.%.o.o.%.%.o.+.o.o.o.o.+.+.%.o.%.o.o.o.o.o.o.O.o.o.O.+.o.o.o.o.o.o.o.o.o.o.o.o.o.o.o.o.` o.o.' o.X.o.' o.o.X.X.' o.' o.o.o.o.o.X.o.X.o.o.o.o.o.o.X.o.' o.o.o.o.` ' o.o.' ` o.' o.o.o.o.o.o.o.X.X.o.X.X.X.X.o.X.X.X.X.X.X.X.o.X.o.X.o.X.X.X.o.X.o.X.o.o.X.X.X.X.X.X.X.X.` o.` X.X.X.X.X.X.X.X.X.O.X.X.X.X.X.O.X.X.X.X.X.X.X.X.X.X.X.O.X.X.X.X.X.X.X.X.X.X.X.X.X.X.X.X.X.X.X.X.X.X.X.X.V X.X.H X.X.H X.X.H X.X.X.X.X.X.X.X.X.X.H X.X.H X.X.X.V X.X.H X.X.H ` X.V X.H H X.X.X.V X.X.X.V X.V X.X.H H X.H X.H H X.X.H X.X.H H X.H H X.X.H X.H H H V H H H H X.H H V X.H H H H X.H H H H H H H H H H H H X.H H H X.H H X.H H V H H H H H H H X.H H V H H H G H H H H H H H H G G H H H J H H G G G F G H G H G H B B H H H B B H H H H V H G V G G V B G G H B B H B H G G G H G G G G G H H G G J G G G G G G G G H B G B G B G B B H G B V G G G H G B G G B G H G G B G G B G G G G B G B B B V B B B B G B B B G B B G B G B B G B G B G B B B B B G B B B G B B G G B G B B G B G B G B B B G B c B G B B G B B B B B B B G B G c B B B M B B B B B k B B B B B c B G c S B c c S G c c G G c B c c c c c G c B c c c B G B c c B B c c B B G c B c c B c c B c B G c B G G c c B c B B c c B S c c S G c c S S c B S c S S c c G S G S c c S S c S c c S S c c S S G c S B c c S c c c c c c c c B c c c c c c c c c c c c c c c c c c c c c c c c c c c c c c z c c S x c c k c c x c c c S x S c A c c x S c c c x c c x c x c S x x k c S x c c c c A c c x S c k x c c c c x c c x k c c c c z c c x x c c c x z c x x c x c c x x c l x c c x c c c x c x c x x c c x c c x l c c x c c c x x z c x c c l c c l c l c l c l c x c x c l c l c l c l c x c x c l c l z x c l x c x c x z x c x x S x A k x x x A k x S x A k c x S x x c x c x x x c x x S x x x x x c x x A x c x x c x c x x x A k x x k x x x x x c x x A x x x x x x x x x x x x x c x x x x x x x x x x x x x x x x x x A x x x x x A x A x x x A x x x x x x x x x x x A x x A x x A x A x x x A x x x x x x x x x x x 8 x x 8 8 x x 8 x x 8 x x 8 8 x 8 A x 8 8 x x 8 8 x A 8 8 x 8 x x x 8 x x 8 8 A x x x 8 x x 8 x A 8 8 x x 8 8 x x 8 x x 8 x 8 A x x A 8 x x 8 x x 8 8 x A 8 x x x 8 A x x x x x x 8 8 x x 8 x A x 8 x 8 8 x x 8 8 x x 8 8 x x 8 x A x 8 x x 8 x x 8 8 x x 8 8 A q 8 C A 8 x 8 8 8 8 8 q A A 8 8 x 8 8 A x 8 x x x 8 x 8 8 A x 8 8 8 8 x 8 8 x 8 8 x 8 6 6 x 8 6 x 8 8 x 8 x 8 x x 8 8 x x 8 x 8 6 x x 8 6 x x 6 x 8 6 x 8 x 8 x 8 x q 8 8 q 8 8 8 x 8 x x 8 8 q 8 8 8 8 8 q x 8 8 8 8 8 8 q 8 8 8 8 8 x x 8 8 q q 8 8 q 8 8 x q 8 8 q x 8 x 8 8 8 8 8 8 8 x x q 8 x q 8 8 8 8 x 8 q x 8 8 x 8 x x q 8 8 8 x 8 x x 8 x x 8 x 8 x 8 x q 8 8 q 8 8 8 x 8 x x 8 8 8 q 8 8 q ",
"%.%.%.+.%.%.%.%.%.%.%.%.%.%.%.%.%.%.%.+.%.%.%.%.%.%.+.%.%.%.%.%.%.+.%.%.%.%.+.%.%.+.o.%.%.o.%.o.o.%.o.o.o.o.%.%.%.o.%.o.o.%.o.@.%.%.%.o.} o.o.o.o.%.o.o.' %.o.o.o.o.o.%.o.o.%.o.o.o.o.o.o.%.o.+.o.%.o.o.o.%.o.%.o.o.%.o.%.o.o.o.o.+.O.o.+.o.o.+.o.o.o.o.O.o.o. .o.o.o.o.o.o.o.o.' X.o.o.X.o.o.o.o.X.o.X.' o.o.o.X.o.X.o.X.o.o.' o.o.o.X.' X.o.X.o.o.o.o.' o.o.o.X.o.o.o.X.o.X.o.o.X.X.o.O.X.O.o.X.o.X.O.X.X.X.o.X.o.o.X.o.X.X.X.X.X.X.X.o.X.X.X.X.X.X.X.X.X.o.X.X.o.X.X.` X.o.` X.X.X.X.X.X.X.X.X.O.X.X.X.X.X.X.X.X.X.X.X.X.X.X.X. . .O.X.X.X.X.O.X.X.X.X.X.O.X.X.X.X.X.X.X.X.X.X.X.H X.X.X.X.` X.X.H X.X.X.X.X.X.X.X.X.X.X.X.X.X.X.X.X.H X.H X.X.X.X.` H V X.X.X.X.X.H X.H V X.X.X.H X.X.H V X.H H X.H H X.H H H X.H X.X.H X.H H H H X.H H X.H X.H X.H X.H X.H H H H H H H H X.H H X.H H H X.V H H H V H H H V H H H X.H H H H X.H H H H V H H G H F G G H H G G H H H H H G H F G G H H G H H H J H H B V G G B H B H H B B H H B G V V G B H H G G H H H B B J H G G G H G H J H H G H G G G H G G B B V D G G B G G G G G G G G G G B H G G D G G G G G B B G G G G B B B J B V B B B V B B B B B B B B B B G B B B B B B B B B B G B G B B B G B G c B G B B B G B G B B B B B B B G B B G B B B B B G B G B B G B G B B B B B B B B B B B B B B B B B B G c G c G c S G c c G S G S c S B B c G B c c G B B c B c c B G c c B B c c B c c B c G B G B c c c c B c c B S B B c c B B c c B G c S S S c G S S c c S c S S c S c S c S c c S c S c c c S c c c S S c c S S c c c c c c c c c c c c c c c c c c c c c c c z c c c c c z c c c z c c c c c c c c c c c x c S x c c k c x c x k c x c c c c c c c k x c k x S c c c c x c x c c c S c k c c x k x S c c c c c k c x c c x c x k x c c c c c x x c c c c x c c x c z x c c x c x c c x l c c l x c x c x x c c l x c c x l c c c c x c c x c x c x z x c x c x c l c l c x z x c x z x c x c x c x z x c x c x c z x c l c l c l x x x x x x x x c x x c x x x x x x x A c x x x c x c x x x x x x A c x c x x x x x x x x x x c c x S x x x x x x x c x c x x x x x k x x x k x c l x c x x x x x x x x x x x A A x x x x A x x x x x A A x x x x x A x x x x A A x x x x x x x x x x x A x x x x x A x x x x x x x x x x x x x A 8 x x x x 8 A 8 x 8 A 8 x A 8 x 8 8 x A 8 8 x A x 8 x x x 8 A 8 A 8 x 8 x x 8 A 8 x x 8 A 8 x 8 x x 8 8 8 x 8 x 8 A 8 x x x x x 8 A 8 8 x x 8 8 A 8 8 8 x x 8 8 x x 8 8 x 8 x 8 x x 8 x 8 x 8 x 8 A x A 8 x x x 8 8 x x 8 8 A x 8 x x 8 x 8 x 8 x 8 8 8 x x 8 x 8 x 8 8 A A 8 q x q 4 8 x 8 x 8 8 x 8 x 8 A 8 x 8 x x x 8 8 x 8 x 8 x x 8 8 x x 8 8 x x x 8 x 8 x x 8 8 x 8 x 8 x x 8 8 8 x 8 x x 8 x x x 8 x 8 x x 8 6 x 8 x q 8 8 x 8 x x 8 8 q 8 8 8 x 8 8 q x x 8 x 8 8 q 8 x 8 8 8 A A 8 x q x 8 8 8 8 8 8 x x 8 x q 8 8 8 A 8 q x 8 8 q A x 8 x 8 8 8 8 x 8 8 8 x 8 8 q x 8 8 q x 8 8 q 8 x 8 x 8 q 8 8 8 8 q 8 8 x 8 x q 8 8 x 8 x 8 x 8 q 8 8 8 x 8 A 8 x x 8 ",
"%.%.%.%.%.%.%.%.%.%.+.%.%.%.%.%.%.%.%.%.%.%.%.%.%.%.%.%.%.%.+.%.%.%.%.o.%.o.%.%.%.%.%.%.+.@.%.o.%.o.%.%.%.%.o.%.%.%.o.%.%.o.%.o.%.o.%.%.o.%.} o.%.' %.o.%.o.' %.%.o.o.o.%.o.%.o.%.o.+.%.o.o.%.o.o.o.o.+.o.o.o.o.o.%.o.o.o.o.o.%.o.+.o.o.+.o.o.+.o.O.o.o.o.o.o.o.O.o.O.o.o.o.X.o.o.o.X.X.' o.X.' o.' o.o.o.X.X.o.' o.o.' o.o.o.X.X.o.' o.o.o.o.o.' X.o.X.X.o.X.o.o.o.X.o.o.o.o.X.X.o.o.O.o.X.X.o.O.X.X.o.X.o.X.X.X.X.X.X.X.X.X.o.X.o.X.o.X.X.o.X.X.o.X.o.X.X.X.` ` X.X.X.o.X.X.X.X.X.X.X.O.X.X.X.X.X.X.X.X.X.X.X.X.X.X.X.X.X.X.O.X.X.X.X.X.X.X.X.X.X.X.X.X.X.X.X.X.X.X.X.H ` X.X.X.X.X.` X.X.X.X.X.X.X.X.H X.X.H X.H X.H X.H X.X.X.H X.X.H ` ` X.` H H X.X.X.X.V X.V X.H ` X.V X.H ` X.H ` X.X.X.X.H K X.X.H K X.H H H X.H H X.H X.H H H V X.H H H H V H H H H H H H X.H H H H V H H V H H H H H H H H X.H H H X.H H H H H H X.H H H H H H H V H H G G H F G G H H G G H G G F G G H H G H H G H G H H H H G H G H B H H B H H B G G H G G H H G G V H G H B H H H G G G H J G G G G G G G G H G G G G G B B G G G G G G B H B G H B G G B G B G H B B H B D H G G G G B D B B B B V B V B B B B G B G B G B G B B B B G B G B B G B B B B B B G B B B B G B B B G B B B B B B G B G B G B B B B B G B G B B B B B G B B B B B G B B B M c B B B B B B B B B B k c S G c G G c G B c B c c B B c c B c c c B c c G c c c G c B c B c c B S c G c c B c c c c c G c B c B c c B c c c G c B c c G c S S c c S S c c S G c S S c S c S c S B S S c G c S S S c G S c c S c c c G c c c c B c c c c c c c c c c B c z z c c c z c z c z c c x c c z c c c z c z c c c x c c c c c S c c A c c c c c c c c c c c x S c A c c S c c c c c c c S k x c c x c c c c c c c c c x c S x S c c c x k c c c c x x c c x c c c x x c c l c c x c c x c c c x c x c c x c c c c c c x c c x c c c x c c x x c x c x z c l c x c x c l c x z x c x c x c x c x c x c x z x c l x c c x z x c l x c x c x c x c c x c x x c x c x x x x c x c x c x x k x x A x x x x x c x c x c x A x x x x c x c x A k x x x x x x x c x c x x S x x x x x c x x j x x x x x x x x x x x l c x x A x x x x x x x x x x x x x x x x x x x x x x x x x x x x x x x x x x A x x x x x x x x x x x x x x x x x A x x A x x x A x 8 x x 8 8 x x 8 A 8 x 8 x x 8 x x 8 x 8 x x A 8 8 x x 8 x 8 x 8 x 8 A 8 x x 8 x 8 x 8 8 x 8 x 8 x 8 8 x x x 8 A 8 A 8 x 8 8 x 8 8 x 8 x x 8 x 8 x 8 x x x 8 8 x 8 x 8 x x 8 A 8 x 8 x A 8 x 8 x 8 x 8 x 8 x x 8 x x x x 8 x 8 x 8 x 8 8 A 8 A 8 A 8 x x x 8 8 x 8 A q 8 x 8 8 A x 8 x x 8 q x q x x 8 x 8 x 8 x 8 x 8 A 8 x x 8 x 8 x 8 8 x x 8 8 x x 8 8 8 x 6 x 6 8 8 x 6 x 8 x 8 8 x 8 x 8 x 8 8 x 6 8 8 x 8 x 8 8 8 x 8 x 8 8 x 8 8 q 8 q 8 x 8 x 8 q 8 8 x 8 8 8 q 8 8 x 8 8 x q x 8 8 8 8 8 8 8 8 q x 8 x 8 8 8 8 8 8 x 8 8 8 x 8 x 8 x 8 8 8 8 q q x 8 x 8 q x q 8 8 8 x 8 8 x 8 x 8 x 8 8 8 q 8 x 8 x 8 A 8 8 x 8 8 q 8 8 x 8 8 q 8 q 8 x 8 x 8 q 8 8 8 8 8 8 8 ",
"+.%.%.%.%.+.%.%.%.%.%.%.%.%.+.%.%.%.%.%.%.%.%.+.%.+.%.%.%.%.%.%.%.%.%.+.%.%.%.%.%.%.%.o.%.o.%.%.o.+.o.%.o.@.%.o.o.%.%.o.%.@.+.o.%.o.%.%.o.o.' o.' %.%.' o.%.o.o.o.%.o.o.%.o.+.o.o.o.o.o.o.o.o.o.o.o.o.o.o.o.o.o.o.%.o.o.o.o.o.%.o.+.o.o.o.+.o.o.O.o.o.o.O.o.o.o.o. .+.o.o.o.o.o.X.o.X.o.X.o.o.o.o.o.o.X.X.o.` o.X.o.' X.o.o.o.' X.o.o.o.o.X.' X.o.X.o.X.o.o.o.o.X.` o.o.o.X.o.o.X.X.O.X.O.X.o.O. .O.X.X.X.X.X.X.X.o.o.X.X.X.X.o.X.X.o.X.o.X.X.X.X.X.X.X.o.X.X.` X.X.o.` X.X.' X.X.X.X.X.X.X.X.X.X.X.X.X.X.X.X.X.X.O.X.X.X.X.X.X.X.O. . .K X.X.X.X.X.X.X.O.X.V X.X.H X.X.X.X.` X.X.X.X.X.X.X.X.X.X.X.X.X.H X.H X.X.X.X.V X.X.H X.H X.X.X.X.` X.V X.X.X.V V X.X.X.X.X.V X.X.H X.X.X.X.V X.X.X.V V K X.X.H H X.X.H X.H H X.H H K X.X.V H H H H X.V H H H H H V H H H H H H H H H H H H H H X.H H H H H H H H H H H H H H H H X.H H H H H H H H H V G H H G H J H H H H H G G H G K D H G H F G H H H B G H G V B H H B H H B H H B V G H H B H G H B H H B H H B H G G G H H H G G H G G H G G H G G H G G B G G G G G G B G G B H G G B G B G H G G G G G G G G B B G G B G G G G B G B B V B B B B B B B B B B B G B G B B B B G B G B G B B B B B G B G B G B G B G B B B B B B B B B G B G B G B B B B B B B B B B G B B B B B M c B B B c B c B c c B B B B c G c G S c G c G S c G c B c B c B c c B c B S c c c B c B c c B c c B c c B c B B c c G B S c B B B c B c c B c G B c B c c B c c G S c S c S G S c G c S c S S S c S S c G S S S c S c c S c S c c c S S S c c c c c c M c c c c c c c c c M c c c c z c c c z c c c c c c c c c c c c c c c z c c c x c c c c c x k S c x c c A k c c k x c c c c S x S c x c x S c A c c k S c c c x c c c x c c c c x S c c x x c c c x c c c c c x c c x c x c c c x l c x c c x c z x l c c c l c c l x c l x c x c x c c c x c c c c x x c c c x l c l c x c x c l c l c x x c c x l x z c x c x c l c l x c c x c x c x c l c x z x c l x x x x c x c x S x x x x x x c c x x A x x x k x S x k x c x c x c x x c x x x x k A x S x x A x S C x x x x c x x x x x x C x x x x l k x x j x c x x x x x x x A x x x x x A x x x x x x A x x x x x A x x x x x x x x x x A x A x x x x x x x x A x x x x x x x A x x x x x A x x x x x x x A 8 x x x 8 8 x 8 x 8 x x 8 x 8 8 x x 8 x x x x x 8 x 8 x 8 A 8 8 8 x 8 8 x x 8 x x 8 A x x 8 A 8 A x 8 8 x x 8 x 8 x 8 x x 8 A x 8 A x 8 x 8 x 8 x 8 x 8 x x 8 x 8 x x x 8 A x 8 x x 8 8 x 8 8 x q 8 A 8 q A 8 q 8 8 A 8 q x 8 A 8 x x 8 x 8 x 8 x x 8 8 x A 8 x 8 x x x 8 x x A x x x x x 8 x 8 x x 8 x 8 8 x x 8 x 8 x 8 8 x 8 8 x 8 x 8 x 8 x 8 x 8 q 8 8 x 8 x 8 8 8 q x 8 x 8 x 8 8 8 q 8 x 8 x 8 x 8 x 6 6 8 8 x 8 8 x 6 8 8 q 8 8 x 8 x 8 x 8 x x 8 x 8 8 8 x 8 x 8 8 q 8 8 8 A x 8 q 8 8 8 8 8 8 x x 8 x 8 x 8 q 8 8 x 8 8 x 8 x 8 x 8 8 8 q 8 8 x x 8 x x 8 q 8 8 8 q x 8 x 8 x 8 q 8 8 q 8 8 8 x 8 x 8 8 8 8 q 8 8 x x 8 q 8 8 x 8 x 8 x 8 x 8 8 q 8 x 8 x 8 ",
"%.%.%.%.%.%.%.%.+.%.%.%.%.%.%.%.%.%.%.+.%.%.%.%.%.%.%.%.%.+.%.%.o.%.%.%.%.o.o.%.+.%.%.%.%.o...%.%.@.%.%.%.o.%.%.o.%.o.%.%.o.%.%.%.%.o.%.' %.%.o.%.o.o.%.%.o.} %.o.o.%.+.o.o.o.%.o.%.o.%.%.o.%.o.o.%.o.%.o.%.o.%.o.o.%.o.%.o.+.o.o.O.o.+.o.O.O.o...o.o.O.o.o.o.+.o.o.o.o.o.o.o.o.o.o.o.o.' o.X.o.' X.o.o.o.o.o.o.o.o.o.o.o.X.o.X.o.o.` o.o.o.o.o.o.' o.o.` o.` X.o.o.` o.o.X.o.X.o.o.O.o.o.X.O.X.X.o.o.X.o.X.o.X.X.X.X.X.X.o.X.X.o.X.X.X.X.X.o.X.o.X.o.X.X.X.X.X.X.X.X.X.X.X.X.X.X.X.O.X.X.O.X.X.O.X.X.X.X.X.X.O.X.X.O.X.X.X.X.X.X.X.X.X.X.X.X.X.O.X.X.O.X.X.X.X.X.` X.X.X.X.X.X.H X.X.X.X.X.X.H X.H ` X.X.X.X.X.X.H X.X.X.X.X.X.X.X.X.H X.H X.V V V X.X.X.X.V V V X.X.H V X.` H V X.H X.H ` X.X.X.H H H K H H X.H X.X.H H X.X.H H H H X.V X.H H X.H X.H H X.H X.X.H H H X.H H H X.V H H H H H H H H H X.H H H H X.H H H H H H H H H H X.H H H V F H G H H H G G J H G F H H H H H G G H H G J H V H G G H G H B B H B H H B B H G G G G G V G V H H B H B B H H G G G G J G G G G G G G H J G G B B G G G F B G H B G G G G B G G G H G G G B G G V D G B G G G G G G G G G G B B B V B M B B V B G B G G B G B B B c G G B B B B B B B G B B G B B B B B B B B B B G B G B G B G B B B B B B B G B G B G B G B B G B B B G G B B B B c B B B B B B B B B c B B c G G c S G G c c G G c c c c G c c G c B c B B c B c c c G B c G c c G B c B c c B c c c c B c c S c c B c c B c c G c G c c B S c S S c S c c c S c S c S S c c S c S S c c S c G c S S c S G c S c c k c c S c B c c c c c c c c c c c c c c z c c c c c c c c c c z c c c c c l c c z c c c c c S k c S x c c c c c c c c c c c c c S c c c x c k c c c c c c c c k c c c x c c c c x c c c x c k c c c c c k c k x c k k x l x c c x x c c x c x c c c c c x c c x c c c c x x c c c c c x c c c c x c c l x c c x x c c z x l x c c x c x c l c x c x c x c z l c c c c x x c l c x c x c c l c l l c x z x c l c x c x c c x c x x x x x x x c x c x x x x x x k c x x x x x x x x x x x x x c x x x x S x x c x x x x k x x x x A x A x x x A j x x x x x k x x x x x x l x x x c x x l x x x x x x x x x x x x x x x x A x x x x x x x A x x A x x x x x x x x x x x A x x x x x x x A x x x x x A x x x x x x A x x x 8 x 8 8 8 x x 8 8 x x 8 8 x 8 A A 8 8 x x 8 8 x x x 8 x 8 x 8 x x x 8 x A 8 8 x 8 x x 8 8 x x 8 x 8 x x x x 8 x 8 x 8 x 8 x x 8 8 x 8 x x 8 x x x 8 A x A 8 x x 8 A x 8 8 x 8 x x 8 8 x A 8 x x 8 8 x 8 x x 8 8 8 x 8 A x 4 8 A 8 x 8 x x 8 x x x 8 x A x x 8 x 8 x A 8 8 x 8 x 8 8 A 8 x 8 x 8 x x 8 x 8 x x 8 8 x 8 x 8 x x 8 x 8 8 q x 8 8 q 8 q 8 8 8 x 8 8 8 8 x 8 x 8 8 8 8 q x 8 x 8 x 8 8 x 6 x 8 x 8 x 8 x x 8 8 x 8 x x 8 x 8 q 8 8 8 q 8 8 q 8 q 8 8 A 8 q 8 8 q x 8 x 8 8 8 8 8 8 x 8 x q x q 8 8 q 8 q 8 8 8 x q 8 8 x 8 q x 8 8 q x x 8 x 8 q 8 8 8 8 x 8 x q x 8 8 8 x q 8 8 x 8 x 8 x 8 q 8 8 q 8 x x 8 x 8 q 8 8 8 x 8 q 8 8 x 8 q 8 8 A 8 x 8 8 q x 8 ",
"%.%.%.%.%.%.%.%.%.%.%.%.%.%.%.%.%.%.%.%.%.%.%.%.%.%.%.%.%.%.%.%.+.%.%.o.%.%.%.%.%.%.o.%.o.%.%...o.%.%.o.o.%.%.o.%.%.o.%.%.o.o.%.%.o.o.%.%.o.%.%.o.%.%.o.o.o.%.o.o.o.o.o.%.o.%.o.o.%.o.o.o.o.o.%.%.o.o.o.%.o.o.o.o.+.o.o.o.%.o.%.+.o.o.o.o.+.o.o.O.o.o.o.o.o.o. .O.o.O.o.X.+.o.o.o.o.X.o.X.o.o.' X.o.o.' ' X.o.X.X.X.o.X.o.X.o.o.o.` o.' ` o.` X.X.o.` o.o.o.o.o.O.o.o.X.o.O.X.o.X.O.X.o.o.O.o.X.O.X.O.o.X.X.o.` O.X.X.X.X.o.X.o.X.X.X.o.o.X.o.O.X.X.X.o.X.X.o.` X.X.X.X.` X.X.X.X.X.X.X.X.X.X.X.X.X.X.X.X.X.X.X.X.X.X.X.X.X.O.X. .X.O.O.X.X.X.X.X.X.X.X.X.X.X.X.H X.X.X.X.H X.X.X.X.X.` X.X.X.X.H X.X.H X.X.H X.X.X.X.H X.H H X.X.X.X.H X.X.H X.X.X.V X.X.V X.X.X.X.` H V X.` X.X.X.X.V H X.X.H H H H X.X.H H H K H X.H H X.H H X.H X.H H H H H V H H X.X.H H H H H H X.H H H X.H H H X.H H X.H X.H H H X.V H X.V H H X.H H H H V H H H H V H V G H G H F G G H H H H H H G H D D H H G G H H G G G G V G G G H H H B B G V H G G H H G G V G G B H B H H B H B G G G G G G G G G G G J H G G H D G G B G G B G G G G G D H G G G B V D G G B G G B G B G G B F G G G G J M B G B V B B B B B B G B B B B B B G G B G B B G B G B G B B B G c B B G B B B G B B B B B B B B B G G B B G B G B B B B B G B B B G B B B B B B B B B c B c B B c c c B c B c B c B G c c G G c S G c c c c c G G c B c G c c c B c G B c G B c c S c B G c c c B c G c c B B c G c G c B c c B B c S c c c c B B c c S S c S c c S G S c S S S c G S c c S c S S c S S c S S c S c c S c S c S c c c B c c c c c c B c c c c c c c c c c c c c c c c z c z z c c c c c z c c c c c c c c c c x c c x c x S x S S x c c c x c c x c c c c c c S c c c c c c c c c c x S c c S k c c c x A c k S c c k x c c c x c k c x c x c z c x c c x x c l x c c x c x x c c x c c c x x c c c c l x c x c c x x c x c c x l c l c x z x c x c x c x z l c x z c x c x x c x c z x c l c x c x c x c x c x c x c x c x c x c l x x k A x x A x c x k x c x x k c x A k x c x S x x x x x c x x x x x x c x A k x x x x c x c x A x A x x x x A x x x x x x j A x x x x x x x x x x c l l x x c x x x x x A x x x x A x x x x x x x x A x x x x x x x x x A x x x x A x A x x x x x x x x A x x x x x x x x x x x x x A x x x x x 8 8 x x 8 x x x 8 x A x x x x 8 x x 8 8 x 8 8 8 A 8 x x x 8 x 8 x A 8 8 x x 8 x 8 8 x x 8 8 x 8 x x 8 8 A 8 x x x 8 x x 8 8 x x 8 8 A x 8 x 8 8 x x 8 8 x x 8 A 8 8 x x 8 8 x 8 x x 8 x x x 8 A 8 A 8 8 A 8 A A A 8 8 x 8 8 A x 8 8 x x 8 x 8 x 8 x 8 8 x x 8 x 8 8 x 8 x 8 x x 8 8 x 8 x x 8 8 x 8 x x x 8 x 8 x 8 8 x 8 8 x 8 q x 8 8 x 8 8 8 8 8 x x 8 8 q x 8 8 8 8 8 x 8 x 8 8 q A 8 x 8 8 x 8 8 8 x 8 8 x 8 x x 6 x x 8 A 8 x 8 x 8 x x x 8 8 8 8 8 8 x q 8 x 8 x 8 8 q 8 8 x 8 8 x 8 8 A 8 8 8 8 x x 8 x x 8 x 8 A 8 x 8 q 8 x 8 x 8 8 8 q 8 8 8 x x 8 x 8 8 8 8 8 A 8 8 q 8 8 x 8 x 8 8 8 q x x 8 8 8 8 8 8 8 q 8 x 8 x 8 x 8 x 8 x 8 8 x x 8 8 8 8 x 8 8 8 q ",
"%.%.%.%.%.%.%.%.%.%.%.%.%.%.%.%.%.%.%.%.%.%.%.%.%.%.%.%.%.%.%.%.%.%.%.%.%.+.%.o.%.o.%.o.%.%.o.%.o.%.o.%.%.o.%.o...%.%.o.%.%.o.%.%.o.%.%.o.%.' o.%.o.o.%.' %.' %.%.o.%.o.o.o.o.o.+.o.o.%.%.o.o.+.%.o.o.%.o.+.o.%.%.o.o.%.o.o.o.o.o.o.+.o.o.o.o.+.o.o.o.O. .o.O.o. .o.o.o.o.o.o.o.X.o.X.' o.o.X.o.X.o.X.o.o.o.o.o.o.' o.o.o.' o.X.o.o.X.o.o.o.o.o.' o.o.o.o.X.o.X.o.X.o.o.o.X.o.o.O.o.X.O.X.X.O.O.X.O.X.X.o.X.X.X.X.o.X.o.X.X.X.X.o.X.X.X.X.X.X.X.o.X.X.X.o.X.X.X.X.` o.X.o.X.X.X.X.X.X.X.X.X.X.X.X.X.X.O.X.X.X.X.X.X.X.X.X.X.X.X.X.X. .X.X.X.X.O.X.X.X.X.X.X.X.X.X.X.X.X.X.X.X.X.X.X.H X.X.H ` X.X.X.X.X.H X.X.X.X.H X.X.X.X.X.X.H X.X.X.X.V X.V X.V X.X.H X.V X.H V X.X.X.X.H H V V X.X.X.H ` X.H X.X.H H X.X.H X.H H X.H H X.H H H V H H X.H X.X.H H V X.H V X.H H H H H H H H H H H H H H H H H H H H H H H H H H H H H V X.H H H X.H X.V H H H G H G H H H G G G H G G H H H H G H H H H G H G H G H G V H G H B H H G H B H V G G V H G G H B H H B H H B H G H J H H G G H G H G H G G G G H B G H B G G G B G D V B B G G G G G G B F G G G G H B G G G G B G G B G G G G B B B B V B B V B B B B G B B B B B B B B B B B B B G B B B G B B B G B B B G B G B G B G B B B B B G c B B G B B B B B G B B B B G B G G B G B B c B B c B B B c B B B c B B B c S G c c G c c B G c B B c c c c G c B c B c c c c B c c B c B B c c B S B c B B c B c c B c B c B c B B S c B B B c B c G c B S c c B S S S c S c S c c c S c G c S c S c c G S c S c B S c S c c S k c c S c c c c c c c c c c c B c c c c c c c z c c c z c c c c c c c c z c z c c c c c c x c S x S k x c c c c c c c k c x c c c S x c c c c c x x k c x c x c c x c c c S k c c x S c c c c c c x c c c c c c x c x c x c c c x c x l c c l c c c c c x c l c c c x x c c x x c c x x c x c c x c l c c c c l c c x c c x c c x c l z x c l c x c x c x x c l c x z c l x c x c x z x z l c z x l c x z x c l c l c x c c x x x x S k x x x A x x x x A x x x x x x x x x c c A x x A k k x c x x x x x c x c x x x x x A x x x c A x A x C x x x x x x x x x k x x k x x x x x x x x x x x A x x x x x x x x x x x A x x x x x x x A x x x x x x x x x x x x x x x x x x A x x x x x x x A x x x x x x x x x x x x x x x x x x 8 A 8 A 8 x x 8 8 8 x 8 x 8 x x A 8 x x x 8 A 8 x 8 x 8 x 8 x x x x 8 x 8 x 8 x x 8 A 8 x 8 x 8 x 8 A 8 x 8 A 8 8 x 8 x x 8 x 8 8 x 8 A 8 x 8 x x 8 x 8 8 x x 8 x 8 A 8 x x 8 A 8 x 8 x A 8 8 C 8 8 8 A 8 8 8 A 8 A 8 8 x 8 x x 8 A 8 x 8 x 8 x 8 x 8 x 8 x x 8 A 8 x x 8 x x 8 x x 8 x A 8 x 8 x 8 x x x 8 x 8 8 x 8 8 x 8 8 q q 8 8 x 8 A q 8 x 8 x 8 8 q 8 x x q 8 8 8 8 x 8 8 8 8 q x 8 x 8 x 6 x 8 8 x 6 8 x 8 x 8 8 8 8 q 8 8 8 q 8 8 x 8 8 A q 8 x x 8 8 8 8 x 8 8 x q 8 q 8 x x x 8 A 8 8 8 8 8 8 8 q 8 8 8 8 8 x 8 8 q q 8 8 x x 8 8 x q 8 q 8 8 q 8 x x 8 8 8 x 8 x 8 q 8 8 8 8 x 8 x 8 8 x 8 q x 8 A x x 8 8 q 8 8 8 8 8 8 q q 8 q 8 8 x 8 A A 8 x 8 ",
"%.%.%.%.%.%.%.%.%.%.+.%.%.%.%.+.%.%.%.%.%.%.%.%.%.%.%.%.%.%.%.%.%.%.%.o.%.%.%.%.%.o.%.o.%.%.o.%.%.%.o.%.o.@.o.%.o.%.%.o.o.%.o.%.o.%.%.o.o.%.o.%.' o.%.o.' %.o.o.o.o.o.%.o.o.%.o.o.o.o.+.o.o.o.o.o.o.%.o.o.+.o.o.o.o.o.%.o.o.o.%.+.o.o.o.o.o.o.+.o.o.o.o.o.o.O.o.+.o.o.o.o.o.o.X.o.o.o.o.X.o.o.X.o.X.o.o.o.X.o.X.X.o.X.' o.o.` o.' o.X.X.X.o.X.' X.o.X.o.o.o.X.' X.o.o.X.o.X.O.X.o.X.X.O.o.X.X.o.o.X.o.X.X.X.X.X.X.X.X.X.X.X.X.o.X.X.X.X.o.X.o.X.X.X.X.X.X.` X.` X.X.X.X.o.` ' X.X.X.O.X.X.X.X.X.X.X.X.X.X.X.X.X.X.X.X.X.X.O.X.X.X.X.o.X.X.X.X.X.X.X.X.X.X.X.H X.X.X.X.` X.X.X.X.X.X.X.X.H X.X.X.H X.X.H X.X.X.X.X.X.X.X.X.X.X.H X.X.X.X.X.X.X.H H H X.X.X.X.H X.X.` X.X.V X.H X.X.X.X.X.V X.V X.X.X.H H H K X.X.X.H H H H H H  .X.H H H H H H H H X.V H H H X.H H X.H H H X.H H H X.H H H X.H H H H X.V H X.H H H H H H H X.H H H H H H H V H V H G H H H G H F H G H H H H H G H G D H H G G H V H G B G G H G G H G G H G G H H B H G H B H B H H B H G G H H H G G G H G G G G H G G G H G G G G G G G G G H G G G G H G G G B H G G G G G H G H G B H G G G J B G G B D G G V B B B B B B B G B G B B G B G G B G B B B B B B G B G B B G B B B B G B B G B B B B B G B B B B B G B B B B G G B G B B G B G B B B B c B B B c B B B c B c B B c B B B c B c G c S B S B c G c c B c B c c G c B c S c B c G c B c c c B c G c G c c c B c c c S B c c G c c c B c B c c c c c B c B c G c c S c S c G c S S S c S G S B S c S c G S S c G S c S S c c S S c c G c c S c c S c c c c c c c B c c c c c B c c c c z c c c c c c c x c c c c c c c z c c c c z c c c c c c c c c c c c x S c c c c c x c k S c c c c x S c c x c c c A c c c c x c c c x S k c c c x c c c c x c x c x k c c c x c c x c c x c c x z c x c c x c c x x x c c x x x c x c c x c c c c x c c x c x c c c x c c x c x c l x c l c l c x z x c x c z x c l c x c x c x c l c l c x c x c x c x c x z x z x c x c x x k A x x x x x x x x x x x x x x x S x x A x x x x x x x x c x A x x x k x x x x x x x S x c x x x c x S x x x A x C j j x x x x x x x x x l x x x l x x x c x x x x x x x A x x A x x x x x x x x A x x x x x x x x x x x x x A x x x x x x x x x x x x x x x x x A x x x x A 8 x x x 4 x 4 x 8 x x 8 x 8 x 8 8 A 8 x x 8 x 8 8 x x 8 8 x x 8 8 8 x 8 A 8 x x x 8 x 8 x 8 A 8 A x x x 8 x 8 x x 8 A 8 x x 8 x x 8 x x A x 8 x x 8 x x x A 8 x x 8 x x 8 x 8 A x 8 x 8 x x x x 8 x 8 x x 8 8 x 8 9 x 8 8 x 4 8 A 8 8 x q A 8 8 x 8 x 8 x x 8 x A 8 x x 8 x 8 x x 8 A 8 x 8 x 8 x 8 8 x 8 8 x 6 8 8 x 8 8 x 8 8 8 x 6 x x 6 8 x A 8 8 8 8 8 q 8 8 8 q x x 8 q 8 8 x 8 x 8 q x 8 q 8 q 8 x 8 x 8 6 x 8 8 8 x 6 x 8 6 x 8 8 8 x 8 8 A 8 8 8 x 8 x x x 8 8 q 8 x x 8 8 x 8 8 x 8 x x 8 x 8 q 8 q 8 8 x 8 8 8 x 8 x x 8 x 8 x q x 8 x 8 8 8 8 8 8 8 8 8 q 8 q x 8 8 8 x 8 8 A 8 x 8 8 8 8 8 x 8 8 A q 8 8 x x 8 8 8 q 8 8 x 8 x 8 q 8 x 8 A 8 x x 8 x 8 x 8 q 8 x 8 8 8 8 8 ",
"%.%.%.%.%.+.%.%.%.%.%.%.%.%.%.%.%.%.+.%.%.%.%.%.%.%.%.%.%.%.%.%.%.o.%.%.+.%.%.+.%.o...o.o.%.%.%.o.%.%...%.%.%.o.%.o.%.%.@.o.%.o.%.%.' %.%.' %.o.%.o.' %.%.o.o.%.%.o.o.o.o.%.o.o.o.%.%.o.o.%.%.o.+.o.o.o.o.%.%.o.+.%.o.o.%.o.o.o.o.o.+.O.o.+.o.o.o.O. .o.o.o.o.o.o.o.o.O.O.o.' o.o.` ` o.' o.o.o.o.' X.o.o.` o.' o.o.o.o.X.o.o.o.o.X.o.o.o.o.o.o.o.o.o.' X.' o.o.X.o.O.o.o.o.o.X.o.O.o.O.X.O.O.X.O.X.o.X.o.X.o.X.X.o.X.o.o.X.X.X.o.X.o.X.X.X.X.X.X.o.X.o.o.X.X.X.o.X.X.X.X.X.X.X.X.O.X.X.X.X.O.X.X.X.O.X.O.X.X.X.X.X.X.X.X.X.X.X.X.X.F X.X.X.X.O.X.X.X.X.X.X.X.X.` X.X.X.X.H H ` X.X.X.X.X.X.X.X.X.X.X.X.V X.H X.H X.H X.H X.X.X.X.V H X.X.H X.` X.` X.H V X.X.V X.H V X.X.H ` X.X.V V X.V X.X.X.H H H X.X.H H H H H X. .X.H H V H H H X.X.V X.H H H X.H H X.H H H V H H H H H H H V H H H H H H H H H H H H H H X.H H V H H H H X.H H H H H H H G H H J H G G H H H J H H D H G H H K H H H H H G G H H V G G V G G V H G V V G G H B H V H G H B H H B V G G B G G G H G G G H G G G H G G G H B G H B B G G B G G B G B G H B G G B G G G B B G B G G B G B G B B G G B G B G B B B M B V B B B B B B B B B B B B B B G B B G B B B B G G c B G B B B B G c G G B B G B B B G B G B B B G B B B B B B B B B B B B M B B B B B B B B c B B B B B B B c B c B B G S c G G c S G c B c B B c c G B c c B c G B c c c G B B c c c B c c B G c B G B c c B B c c B B c B S c B G c B c B c c c B c c G S S c S c S c S c c c S c S c S c S c S c c G c c S G c c S c c c S c c c c c c c c B c c c c c c c c c c c c c c c c z c c z c c c c c z c c c c c c c c c c c c c c x c x k c c c k c c c c c c c c x x S k c c c c c c c c x c k c c x c c c c x c c S x c c c c c c c c k c c c c x x c c x x c x c c x c c x x c x x c l c c c c c x c c z c c x c c l c x c x c x c x x c x c c x x c l c x c c l c x c x c x c l z x x c x c x c l c l c x c x c x c x c l c x z x c x c x c l c x z x x x x c x c x c x c x x S c x x c x x x k x x x c A k x c x x x x x S x A c x c x x c x x x x x A A x x x C x x x 8 x C x C x x x x j x x k x c x x x x x x x x x A x x x x x x x x x x A x x x x x x A x x x x x A x x x x A x x x x x A x x x x A x x x x x x x x x x x x x x x x x x x x x x 8 8 A x 8 8 x x 8 x x 8 A x x x 8 8 A x 8 x A x x 8 x 8 x 8 x 8 x x 8 8 A 8 x x 8 8 A x 8 x x 8 x x x 8 x x 8 8 A 8 8 x 8 x 8 8 x 8 x 8 8 x 8 8 A x 8 x x x 8 x x 8 x x 8 8 x 8 x x 8 8 A A 8 x 8 x q A 8 q x 8 8 C 8 x 8 8 C 8 x 8 A 8 8 A 8 8 x x 8 x x A 8 8 A 8 x x x 8 A x 8 x 8 8 x 8 x x 8 8 x x 6 8 x x 8 x 8 8 x x 8 8 8 8 x x 8 x x x 8 8 8 8 8 8 x q 8 8 x x 8 q 8 8 x 8 x 8 8 8 8 x 8 8 x 8 x x 8 x x 8 x 8 x 6 x 8 8 8 x 8 8 q 8 8 q x 8 8 x 8 8 x 8 8 q q 8 8 x x q 8 8 8 x 8 x 8 q x 8 8 x q 8 8 q 8 8 8 8 8 8 q 8 8 x x A 8 x 8 x 8 x 8 8 8 x q 8 8 x x 8 q 8 8 x x 8 8 q 8 8 8 x q 8 8 8 q x 8 x 8 8 8 8 x 8 q 8 8 8 q 8 8 q 8 8 x q 8 x 8 8 8 x x 8 ",
"%.%.%.%.%.%.%.%.%.%.%.%.%.%.%.%.%.%.%.%.+.%.%.%.%.%.%.%.%.+.%.%.%.%.%.+.%.o.%.%.%.o.' o.%.%.%.o.o.%.%.o.%.o.o.%.%...%.o.o.%.%.o.%.o.o.} o.%.%.o.o.} %.o.o.%.o.o.o.o.+.%.o.o.o.%.o.o.o.o.o.o.o.o.o.o.%.o.o.o.o.%.o.%.o.o.o.%.+.%.o.+.o.+.O.o.+.o.o.o.+.o.o.o.X.o.o.O.o. .X.X.o.o.o.o.o.o.X.o.X.X.X.o.o.' o.o.o.X.' X.X.o.o.o.` o.o.o.o.X.' X.X.o.' o.X.o.o.o.` o.o.o.X.o.X.o.O.O.X.O.X.X.o.X.O.O.o.X.O. .X.X.X.o.o.X.X.X.X.o.X.o.X.X.X.o.X.o.o.X.o.X.X.X.X.X.X.` ` X.X.X.X.o.` X.X.X.X.X.X.X.X.X.X.X.X.X.X.X.X.X.X.X.O.X.o.X.X.X.X. . .X.X.X.X.X.X.X.X. .X.` X.X.X.X.H X.X.X.X.X.X.X.X.X.X.X.X.X.H X.X.H X.X.X.X.X.X.X.H H X.X.` X.X.X.X.V X.X.V H ` ` H V X.` X.H H X.X.` X.V H X.X.V X.X.X.H H H X.X.K H X.X.H X.K H H X.V H V X.V H H H H H X.H H H H H H H H H H H H H H H H H H H H H H H V H H H H H H H H H H H X.H H H H H H H V V H H H H H H F G H H H G H G G H G H H G H H G G H H D H B B H G H B H V G V G H B G G G G G G G G H B B H H B G H B H G G G J G G G J G G G G G G J G D G G G G G G G B H B G B G G B G G G G B F G G H B G G G G G G B B G B G G B G V B B B B B B B G c G B B G G B B B G B G B B B B G B B B B G B B G B G B B B B c B G B G B G B B B B B B B B G B B G B B G B B c B B B B B B B B c B B B c B c B c B c B B B c c G S c c c G c c c c c c B c c c B B c B c c G G c c c c c B c G c c G c c B c c B B c c B B c c c B c B c G B c c B c B c S B c G c S S c c G S c c S c S S c S c c G S S c S c S S c c S S c S c S S S S c S c c B c c c c c c c M c c c c c z c x c z c z c c c c c c z c c c c c c c k c c c c c x c x S c A c c c c c c c c c c k c c c x A c c c c S c c c c x S c c c c S x c c c c c c x k S c c S c c x c x x c c c k c x c z x c c x x c x c c c c c c x x c c l x c c x x c c x l c c x c c x l c c c z x x c x c c c l c l x c x c x c x c x c x c c x c l z x c l z x c l c l z x z x c x c l c l c x c x c l c x x x c x x x x x x x x c x x x x x x x x c x x S x x x x x x x x c x c x x x x x x k A x x x x x c A x x A x x x x x x x x x x x x k x x x x x x x l c x x x x x A x x x x x x x x x x x x x x A x A x x x x x x x x x x x x x x x x x A x x x x x x x x x x x x x x x x x x x x x x 8 x x x x x 8 x x 8 8 A x 8 x 8 x 8 x 8 8 x 8 x A 8 8 x x 8 8 x A x x 8 8 x x 8 x x x x 8 x 8 x x 8 8 8 A 8 x x 8 x x 8 8 x x x 8 x x 8 x 8 8 x 8 x x 8 x x A 8 8 x x 8 x x 8 x 8 8 8 x x 8 x 8 x x x 8 x x A 8 8 x A 8 8 x A 8 x q 8 A x q 8 x 8 x x 8 x x x 8 8 x x 8 x x x x 8 8 8 x x 8 8 8 x x x x 8 8 8 x x 8 8 x x 8 8 8 x 8 x 6 8 x 8 x x 8 8 q 8 8 8 8 8 A x 8 8 8 8 8 x 8 8 A 8 8 8 q 8 8 A x 8 x 8 x x 6 x 8 6 x 8 x 8 8 8 x x 8 8 x 8 8 x 8 x 8 x 8 8 q 8 8 8 x 8 8 8 8 8 8 x 8 8 x 8 8 8 q 8 8 x 8 8 q q 8 8 x 8 x x 8 8 8 x 8 x 8 8 8 8 8 q 8 8 x 8 x 8 x 8 8 8 8 x 8 8 x 8 8 q 8 8 q x x 8 x q 8 8 x 8 A 8 q x 8 8 q x 8 8 8 8 x q 8 8 x x 8 8 q 8 8 8 8 8 x 8 8 8 8 ",
"%.%.+.%.%.%.%.%.%.%.%.%.%.%.%.%.%.%.%.%.%.%.%.%.%.%.+.%.%.%.%.%.%.o.%.%.%.%.%.%.%.o.o.@.o.%.%.o.%.%.o.%.o.%.%.%.o.%.%...%.%.o.%.o.o.%.o.o.%.%.o.%.o.o.%.%.' %.%.o.%.o.o.o.%.+.o.o.%.%.o.%.o.%.o.%.o.%.o.o.%.o.o.o.o.%.o.o.o.o.o.o.O.o.o.o.+.o.O.o.o.O.o.o.o.o.o.o.o.o.o.o.o.o.X.o.` X.o.o.o.o.' o.o.X.o.o.` o.o.o.o.o.o.` o.X.o.o.` o.o.o.o.o.o.X.o.X.o.X.o.o.o.X.o.o.X.o.X.X.o.X.o.o.O.O.X.X.o.O.X.O.X.o.X.X.X.X.X.o.X.X.X.X.X.o.X.X.X.X.X.X.X.X.X.X.o.o.X.X.X.X.X.X.' X.X.X.X.X.X.X.X.X.o.X.X.X.X.X.X.X.X.X.X.X.O.X.X.X.X.X.X.X.X.X.O.X.X.X.X.X.X.X.X.H ` X.X.X.X.X.X.X.X.X.X.H X.` X.X.` X.H X.X.X.X.X.H X.H X.X.X.X.X.X.X.H X.H X.X.H X.X.V X.X.H X.X.X.H H X.` X.V H X.X.X.V X.X.H X.V X.` H H X.H H X.H H X.H X.H H H H H H H X.V X.H H H X.V X.H V X.H X.H H X.H H H X.V H H X.H H H H X.H X.H H H V X.H H H H H H H X.H H H H H V H H H G G H G H G H F F G H H G H H G H G G H H G G H B H H B G V H G G H G H B H G H V G H V G H H B H H B H G V H G H G G H H G G H G H J H G H H G V G G B G V D G B G G G F G G G B G G B G G G G B D H B G B G G B D G G G G G G B B M B B V V B B G B B B G c B B G B B B B B G B B G B G B B B B B B B B G B B G B B B B B B B B G B G B G B B B G B B B B B B B B B B B k B B B c B c B B B c B B B B c B B B G c c G G S c G k B B c B c B B B c c B c B c c c B G c B G c B c c B c c B c c G c B c c G c c G c c B c B c c c B c G c B B c S c S c S c S c S S S c S G c S S c S c S c S c S G c S S c S G c c c k c c k S c c c c c c c c c c c c c c c c c c c c c c c c c c z c c c z c c c c z c c c c k A c c k S c c c c c x x S c x c S x S c c c c c c S x c k x c c c c k S x x S k c c c c x c c c c x S x k x S c c k c k x x c x c c x c l c c x c c c x x c l c x c c x c c l c c x c c x c c x c z x c c x c x c c c l c c x x c x c c x z x c l c l c l c x l c x c x c x c x c x c x c x c x c l c x c x c l c l c x c x c x c x x A k x x S x x x c A k x x c x c x x x x c x c x x A k x x x x x c x c x x x x x c x k A x x x A x x A C x x x C x x x x x x x x k x x x c x x x x x x x x x x x A x x x x x A x x x x x x x x x x x x A x x x x A x x x x x x x x x x A x x x x x x x x A x x x x A x x x x x x x 8 x x x x 8 x x 8 x x 8 x 8 A 8 x x 8 x x 8 x 8 x 8 x x 8 x 8 x 8 x x 8 A x 8 8 x x 8 x 8 8 x x x 8 x 8 8 x 8 x 8 A 8 x 8 x 8 x A 8 x A 8 x x 8 x 8 x 8 x x 8 8 A 8 8 x 8 A x A 8 8 x 8 A 8 x 8 x x 8 8 8 A 8 8 x q 8 A 8 8 A 8 8 x 8 x 8 A x 8 x 8 x 8 A 8 x 8 x 8 8 x 8 x x x 8 8 x 8 x 8 8 8 8 6 x x 8 8 x x 8 8 x 6 x 8 x 8 x 8 8 8 q 8 8 8 x 8 x q x 8 8 q 8 x x x 8 8 q 8 8 8 x x 8 x 8 8 8 q 8 x 8 8 x 8 x 8 8 x 8 x 6 x 8 x 8 q 8 x x 8 q 8 q 8 8 x 8 x 8 q 8 q x 8 x x 8 8 q 8 8 q x x 8 x 8 8 8 8 x 8 x 8 8 q 8 q 8 x 8 x q 8 8 A 8 x q 8 x 8 8 q 8 8 x q x x 8 8 q 8 q 8 x 8 x x 8 8 8 q 8 8 x 8 8 8 8 x 8 x 8 x 8 8 q 8 x 8 x 8 x 8 8 8 8 x 8 x 8 x 8 q 8 q x 8 A ",
"%.%.%.%.%.%.%.%.%.%.%.o.%.%.%.%.%.%.%.%.%.+.%.%.%.%.%.%.%.%.%.%.%.%.%.%.%.%.o.%.o.%.o.%.%...%.%.o.o.@.o.%.%.o.%.%.o.%.%.o.%.%.o.+.o.%.o.%.o.o.%.o.%.o.o.%.o.o.o.o.o.o.+.o.o.o.o.o.o.o.o.o.o.o.%.o.o.o.o.+.+.o.o.o.o.+.+.O.o.o.o.+.o.o.o.o.o.O.o.o.o.o.o.o.o.o.o.o.o.o.o.o.X.X.o.o.o.' o.o.o.o.X.o.o.o.X.' o.X.o.` o.o.o.o.o.X.o.o.X.o.o.o.o.o.' X.o.X.o.' X.o.o.o.X.O. .O.X.X.O.o.X.o.O.O.o.X.X.X.X.o.X.X.X.X.X.X.o.X.o.X.X.X.o.X.X.o.X.X.X.X.X.X.` X.X.` X.X.X.X.X.X.X.X.X.X.X.X.X.O.X.X.X.X.X.X.X.X.X.X.X.X.O.X.X.X.X.X.X.X.O.X.X.X.X.X.X.X.O.X.X.X.X.X.X.X.X.X.H X.X.X.X.X.X.X.X.X.X.X.X.X.X.X.X.X.H X.X.H X.X.X.X.X.X.V X.H X.V X.X.V X.X.V H X.X.X.H X.V X.H X.H H X.H H X.H H X.K H X.X.H X.X.H X.H H X.X.H X.X.H H H H H X.V H H H X.V H H H H X.H H X.H X.H H H X.H H H X.H H H X.H H H H H H H H H X.H H H H H H H X.H V H G H G G H H H G H H G H H J G H H G J F H G H H G H G H H G H H B H B H H B H H H G G H V G H G H B H H B H H B H H G G V G G G H G G G H G G H G H H G G B G G G G G D B H B H G G G G G G G B G B G G B H V G B G B G V G G B B B V B B B B B V B B B B B B B B G B G B G B B B G B G B B B B B B B G B B B B B G B G B G B B B B B B B B G B B G B G G c G B G G G G G B B k G B B B B B B B B B c c B B c G S c G c c B S G c G c G S G B c c B c B c c c c B c B c B c c B c B c c B c c B c G c c B c B B c B G c B G B c c G B S c B c c B c B c c B S c S c G S c S S c S S c S G S c S S c S G c S B c c c B c c c B c c c c c c c c c c c c c c c c B c c c c c B c c z c c c z c x c c c x c c c c c c c x c c x c S c c c c x c S x c S c c c c x c c c c c c c c c c x k S c k A c x c c c x c c S c S c c S c x c c x c c x c x z c c x c c x c c x c z x c c x c c c x c c l x c x x c x x c c x c c x c x x c c c x x c c c l c x z x c x c c l z x c l c x x c l c x z x z x c x c x c x c c l c l c x c x A x x x c x c x x x S x c x A k S x x k x x S x k A x x x x x x x x x x x x x c x S x x c x x x A k x x x x x x c x x A x A x S x x x x x x C x x x x C x x x x x x x x x x A x x x x x x x A x x x x x x A x x x x x A x x x x x x x A x x x A x x x x A x x x x A x x x x x x x x x x x x x x x 8 x x x 8 8 x 8 x x 8 8 x x 8 8 A 8 x 8 8 x 8 x 8 x 8 x x x x 8 x 8 x 8 x x 8 x 8 x 8 x x A 8 8 A 8 x 8 x x 8 x 8 x 8 x 8 x A A 8 x x A 8 x x 8 x 8 x 8 x x 8 8 x x 8 A 8 x 8 x x 8 x x x 8 x x x 8 x 8 x 8 x x 8 A 8 x 8 x 8 q x 8 q x 8 8 A 8 A 8 8 8 C q 8 x x x 8 A x x q x x 8 x 8 A x x 6 x 8 8 8 x 8 6 8 x 8 8 8 x 6 x 8 8 x 8 x 6 x x 8 x 8 x 8 x 8 8 8 8 q 8 q 8 8 8 x x 8 q 8 8 8 8 q 8 8 x x 8 x q 8 q 8 8 8 x x 8 8 8 8 8 x 8 A 8 x 8 q 8 8 x 8 x 8 q 8 q 8 8 x 8 8 8 x x 8 8 x 8 x q x 8 8 8 q 8 8 x x q 8 q 8 8 8 8 8 8 8 8 8 8 x 8 8 8 8 q x 8 x 8 8 q 8 x 8 x 8 x 8 A x 8 q 8 8 x x 8 8 A x q 8 x 8 A 8 x 8 A x 8 q 8 x A 8 A 8 A 8 x 8 x q x 8 x q x 8 q 8 x q x 8 8 A 8 x 8 x q 8 A ",
"%.%.%.o.%.%.%.%.%.%.%.%.%.%.%.%.%.+.%.%.%.%.%.%.%.%.%.%.%.%.%.%.%.%.o.%.+.%.%.%.%.o.@.%.%.%.o.o.%.%.o.%.o.%.%...o.%.o.%.%.o.o.%.%.o.o.o.o.o.o.o.o.o.o.%.o.o.%.o.%.o.%.o.%.%.o.%.o.%.o.%.o.%.o.o.o.o.o.O.o.o.O.+.+.o.o.o.o.o.+.o.+.o.O.o.+.o.o.O.X.o.X.o.X.o.o.o.o.X.o.o.o.o.o.' X.o.X.o.o.X.' o.' X.o.o.o.X.o.o.X.o.` o.` o.' o.o.o.o.` o.` o.X.o.o.X.' o.o.o.X.o.O. .O.o.O.o.o.O.O.X.X.X.X.o.o.X.o.X.X.X.o.X.o.X.X.X.X.o.X.X.X.X.o.X.X.X.o.X.o.X.X.X.o.X.X.` o.X.X.X.X.X.X.O.X.X.X.X.X.O.X.X.X.X.O.X.X.X.X.X.X.X.X.X.X.X.X.X.X.O.X.X.X.X.X.X.X.` X.X.X.X.` H X.X.X.X.X.X.X.X.V ` X.X.X.X.X.V X.X.H X.X.X.X.X.X.H X.H X.X.X.X.X.X.X.V X.X.H X.X.` X.V X.H ` X.X.H H X.X.H H X.K X.X.H H X.H K X.H H K H X.H H H H H H X.H X.H X.H H H X.H V X.H X.H H V H X.V H H H H H V H H H H H H H V H H H H H V X.H H H H H H H X.H H H H G G H H H H H J H G G H H D G H H G F H H H G H G G H H H H G H H B B H H B B H H B G V H B H G G G B H H B H B B H H B H G G H G H J G G H J G H J G G G G G B G G G B B H G B G G G B B G G B G H G G G G B G B G B V V B B B B G V G B B V V V B B B M V B B G B B B B B B B G B B B B B B B G B G B B B G B G B B B B B B B B G B G G B G B B B B B B B B G G G B G G c B B B B B B B B M B B B B B B B B c G S c G S G B B c c G c S B c c c c G c S c B G G c c B c c c G B c B S B c c B c G B c c B c c c S c c c c c c c B c c c c B c B G c c c B S c c S c S S c S c c G c S G c c S S c c S S c S c c c c S c c c c c c c c c c c B c c B c c c c c c c c c c c c c c z c c c c c c S k c c c c c S x c x c S k c c c k x c x k S c c c k x c A k c c c c S x c x c x c c c c c c c c c S k c c c c c c c x c c x c c x z c l x c c c c x x c c x c c x l c c x x c x c x c c x x c c c c c c c c x l c c x c c c c x x c c c c x x c x c x c x z x x c x c x c l c c l c x c x c x c x c l z x c l x c x c x c l c c x c x x x x x k x x x x x x x x x x A x c x x x x c x k A x c S x x c A k x x x x k x x x x S x x x S x c x A x c x c x k x x x x x C x x x x x A x x j x x x A x x A x x x x x x A x x x x x A x x x x x x x x x x x x x x A x x x x x x x x x x x x x x x x x x x x x x A x x x x x x x x x 8 A 8 8 8 x x 8 A 8 x x x x 8 A x 8 A 8 x x 8 x 8 x 8 A x 8 8 x x 8 x x A 8 8 x x 8 8 x A 8 8 x x 8 x x x 8 x x x x 8 x 8 x 8 8 8 x x 8 8 x 8 x x 8 x x A 8 8 x x 8 8 x x x 8 A x 8 A 8 8 A x 8 8 8 x 8 x 8 x A x x 8 x 8 A 8 x x 8 x 8 8 A x 8 A 8 8 A x 8 x 8 8 x x 8 8 x 8 x 8 x x 8 8 x 8 8 x 8 x x x 8 x x x 6 x x x 8 x 8 x 8 8 x 8 x 8 8 x 8 6 x x 8 x 8 q 8 8 8 8 8 8 x 8 8 x 8 x 8 8 q 8 x 8 8 8 8 8 8 x 8 x x q 8 8 q 8 x x q 8 8 8 8 8 8 x 8 q 8 8 x x 8 x 8 x 8 8 q 8 x 8 q x 8 8 q 8 8 8 8 x x 8 x 8 8 8 8 x 8 x x q x x 8 x 8 q 8 8 x x q x 8 8 8 8 q x 8 8 8 8 A q 8 8 8 q 8 x 8 8 q 8 A 8 8 8 8 8 q 8 8 8 q 8 8 8 A x 8 8 8 8 8 x 8 8 q 8 8 x 8 8 8 x 8 8 x 8 8 8 x 8 A 8 8 q 8 8 8 x 8 ",
"%.%.%.%.%.%.%.%.%.%.%.%.%.%.%.%.%.%.%.%.%.%.%.%.%.%.%.%.%.%.%.%.+.%.%.+.%.%.+.%.%.o.%.o.o.%.o.%.%.%.%.%.o.%.%.o.%.%.o...o.%.%.@.o.%.o.o.%.o.%.o.%.o.o.o.o.+.o.%.o.o.o.%.o.o.+.o.%.o.o.o.%.o.o.o.+.o.+.+.o.o.o.o.O.o.o.o.o.o.+.o.O.o.o.o.+.o.o.o.o.o.o.o.o.o.o.o.o.o.X.o.' X.X.o.o.' o.X.X.o.o.o.o.X.' X.o.o.o.X.o.o.o.o.o.o.X.o.o.` o.` o.o.o.o.o.' o.o.o.X.o.o. .O.o.o.X.O.X.X.X.o.o.O.o.X.O.X.X.X.X.X.X.o.X.X.X.o.X.X.X.o.X.o.X.X.X.X.o.X.X.X.X.o.X.X.X.X.X.X.X.X.X.O.X.X.X.X.X.X.X.X.X.X.X.X.X.X.X.X.X.X.X.X.X.X.X.X.X.X.X.X.X.X.X.X.O.X.X.X.` X.X.X.X.X.X.X.X.X.X.X.X.X.X.X.H X.X.X.X.X.X.X.X.V X.H X.H H X.X.X.X.X.X.X.X.X.V V X.X.V X.V X.X.H V X.X.` H V X.H X.K X.H X.H H H H X.H H H H H X.X.H K X.X.H X.H H H X.H H H X.H X.H H H H H V X.H X.H H H H H H X.H H H X.H H H X.H H H X.H X.H H H H V H H X.H H H H V H H H H D G G H F H G H J H H H G H G H H G H H G H H G H G G H H G B H H B H H H H B V G G V G G V G V V G B B H H H B B H G V V G H G G G H G G G G G G G G G G B B G G G B G G G H B H B H D G G G G G G D H G G G B G V G H B G V G B V B V B B B B B B V B B V B G B G B G G B B G B G B B G B B B G c B B B B G B B B B G B B G B B B B B B G B B B B B G B B B B G B G B B B M B B B B B B B B B B B B B c B c S c S c G c c G S G S B c c B B c c B B c B c c B G c c G G c c c B c c G G c B c c c B c c G G c B c c B B c G c c B B c G c c B c G B c c B S B S c S c S c c S c S c S S c c G S c S c S c B c c B G c c c c c c c c c c c c c c c c M c c B c c c c c c c c c z c c c c c x S c c c x S x c S S k S c c c x S c c S c c c c c c c c x c c c c k x c S k S c c c S x c c c c S c S c c k S c x c x c c c c c x x c c x c x x c x c c l x c c c c c x c c x c c l c c c c c z x x c l x c c x z c x c x x c c x x c c x c c x c x c l c l c c x c x c x c x x c x c x c x c l c l c x c x c z x c l z x c x x x x c x x c x A x c x x x x x x c x c x x x x x x x x S x x x x x x A x c x c x x A x c x c x x c x x c x x k x x x x c x x x x x x x x x x x x j x C A x x C x x x x x A x x x x x x x x x x x x A x x x x x x x x x x A x x A x x x A x x x x A x x x x x A x x x x A x x x x x x x x l x x x x 8 x A 8 8 x 8 x x 8 8 x x 8 x 8 x x 8 x A x 8 x 8 x 8 8 x 8 x 8 x 8 8 A x 8 8 A x 8 8 x x 8 x 8 x 8 x 8 A 8 8 x 8 A x x 8 x x x 8 x x 8 8 x x 8 A 8 8 x x 8 8 x x 8 8 x 8 8 x 8 8 x x 8 8 x A 8 x x x 8 x 8 8 x x 8 x x 8 x 4 8 A A 8 x 8 9 A 8 q x 8 8 A A x 8 A x 8 x x 8 x 8 8 x x x 8 x 8 x x 8 8 x x 8 8 8 x 8 8 8 x 8 6 x x 8 x 8 6 x 6 8 x 8 8 x 8 x 8 x 8 8 q x 8 8 8 8 8 x 8 8 8 8 x 8 8 q q x 8 x 8 8 q 8 8 x x 8 8 8 8 8 q 8 A 8 x 8 x 8 x 8 x 8 8 8 q 8 8 q x 8 8 q 8 x 8 x 8 8 8 8 8 A 8 q 8 8 q x x 8 8 8 q 8 A 8 8 8 A 8 x 8 8 8 8 8 8 8 x 8 x 8 8 q x 8 x 8 8 8 x 8 8 x q 8 8 A 8 8 x 8 8 x x 8 8 x x 8 8 x 8 8 q 8 8 x 8 x x 8 x 8 q 8 8 8 q 8 8 8 q 8 A 8 8 8 8 x x 8 x x 8 8 8 8 ",
"%.%.%.%.%.%.%.%.%.%.%.%.%.%.%.%.%.%.%.%.%.%.%.%.%.+.%.%.%.+.%.%.%.%.%.%.o.%.%.%.o.%.o.%.%.o.%.%.o.o.%.o.%.o.%.o.%.o.%.%.%.%.o.o.o.o.%.o.o.+.o.o.o.o.o.%.%.o.o.o.%.o.o.o.%.o.o.o.+.o.%.o.o.+.%.o.o.o.o.o.+.+.o.o.o.o.+.+.+.o.o.O.o.o.o.+.o.o.o. .o.X.o.o.o.o.X.o.o.X.o.o.o.o.o.o.o.X.o.X.' o.X.' ' o.o.o.X.o.' o.o.` o.X.` X.o.o.o.X.o.o.X.o.` o.X.o.X.o.o.X.o.X.X.o.X.O.o.X.o.O.O.X.X.O.o.X.o.X.X.o.X.o.X.X.X.o.X.o.X.o.X.X.X.X.X.o.X.o.X.X.X.o.` X.X.` o.` X.X.X.O.X.X.X.X.X.X.X.X.X.X.X.X.X.O.X.X.o.X.X.X.O.X.X.X.X.O.X.X.X.X.X.X.X.X.X.X.X.X.X.X.X.H X.X.H X.X.` X.X.H ` X.X.X.X.V X.X.X.X.X.X.X.X.X.X.X.X.X.X.H X.H X.H X.H X.X.X.V X.X.V X.V X.X.X.H X.X.X.X.H H H X.H H H H X.X.H H X.X.H H H H X.H X.H H K X.X.H V H H X.H H V H X.H X.H H H H H V X.H X.H H H H H H H H H H H H H H H H H H H H H X.H H H H H H H X.H H G H H H H H G H H H F H H G H G G H H G H G H G H H H H J H H G H B H H B H B B H G H G G H G G G H G G H H B H G H B H G H G H G G H G G G G H G G G H G G F B G G B H G H B G D B G G G B B H B G D V B B G G V B B B B B B V B B B H B B V B M B V B B B B B B B B B B G c B B B B B B G B B G B B G G B G B B B B G B B G B B B B B G B B B B G G B B B B G B B B B G G B B B B B B c B B B B c B B B c G c S S G G G c B B c B c G c B c G c G c B c B c B S c B c B c c c G c c B c c B c c c G B c G B c c B c B G c c c B c B c c B c B G c B c B c c G c S c S c S c G S c S c S c c S S c c S c G c S c c c c c c c c c c c M c c c c c c c c c c B c c c c c c c c c c c c c c c z c c c c c c c k c c x c c x c c c c c x c c c c x c x c c c c x c c x S c c x c c c S x k S c x c x k c x x c S x c k c c c x c c x c c x c c c x x c c c x c c l x x c x c c x c x c c x l x c x c x c c c c x c c c x c x z c c c c z c x c x c c l c l c x c x l c l c x z x c c x z x c l c l c x c x z x c l x c x c x c l c c x x x A k x x x x x x x c c x x x x x x c x c c x c x x x x c c x x k x x x x x c x x x x x x x x x c x x x x c x x c x x c x j C x x x x A j x x x x 4 x x x x x x x x x x x x A x x x A x x x x x x x x A x x A x x x x x x x x x x x x x x x x x x x x x x x x A x x x x x x x x x x x x x x 8 x 8 x x x x 8 x 8 A 8 x 8 x 8 x 8 x x 8 x 8 x 8 A x x x 8 A 8 A 8 x x 8 x x x 8 x x x 8 8 x 8 x 8 x 8 A 8 x A 8 x 8 x 8 x 8 8 8 A 8 x 8 x x 8 x 8 x A 8 x x x A 8 x x 8 x x x x 8 x 8 x x 8 8 x 8 A 8 x 8 x A 8 x 8 x 8 x 8 q x 8 8 x q 8 x 8 x 8 8 q x 8 8 8 x x 8 x 8 x x x 8 x x 8 8 x 8 8 8 8 x 8 6 8 x 8 x 8 x 6 x 8 x x 8 8 x 8 8 x 8 8 x 8 x 8 8 x 8 8 q 8 x x 8 8 x x x x 8 x 8 x 8 x 8 x 8 8 8 8 8 8 x 8 x 8 8 8 8 8 x x 8 x 8 x 8 q 8 8 8 8 8 8 q 8 x 8 x x 8 x 8 x 8 8 q q 8 8 x 8 A 8 8 x 8 x 8 8 8 8 8 A 8 8 x 8 8 8 A 8 8 8 q q x 8 x x x 8 q 8 8 x 8 8 q 8 8 8 x q 8 8 x 8 x 8 8 8 x 8 q 8 x x q 8 8 x q 8 8 8 x 8 x 8 q 8 8 q 8 8 8 x 8 A 8 x 8 A 8 8 x 8 8 x 8 q 8 8 q 8 8 8 x x q ",
"%.%.%.%.+.%.%.%.%.%.%.%.%.%.%.%.%.%.+.%.%.%.%.+.%.%.%.%.%.%.%.%.o.%.o.%.o.%.%.%.%.%.o.@.%.@.o.o.%.o.%.o.%.@.%.@.%.o...%.o.o.%.%.o.%.o.%.o.%.o.%.o.+.%.o.o.o.%.o.o.%.o.o.o.o.%.%.%.o.%.o.o.+.o.o.o.+.o.O.o.o.o.+.+.O.o.o.o.o.+.o.o.o.o.o.o.o.O.o.o.o.o.o.X.o.o.o.o.X.o.o.o.X.o.o.o.o.o.` ` o.o.o.X.o.' X.o.o.o.o.o.X.o.X.o.X.o.' o.' o.o.o.o.' o.o.o.o.o.o.X.` o.o.O. .X.o.O.X.X.o.o.X.O.X.o.O.X.X.X.X.o.X.X.X.o.X.X.o.X.X.X.X.X.X.o.X.o.X.X.X.o.X.X.X.o.X.X.X.` X.X.X.X.X.X.O.X.o.X.X.O.X.X.X.X.X.O.X.X.X.X.X.X.X.X.X.X.X.X.X.O.X.X.X.X.X.X.X.X.X.X.X.H X.X.X.X.X.H X.X.H X.X.X.X.X.X.X.` X.H X.X.X.X.X.X.X.X.X.X.H X.X.H X.X.H V X.X.X.H H X.X.X.` H V X.V V X.H K X.H X.H H X.X.X.H X.H H X.H X.H H X.H H H X.H H X.H H H H H X.H H H X.H X.H H X.H H H X.H H H V H H X.V H H H V H H X.H H H H H H V H H X.H H H H V H H X.H H D G H G G H H G H H G G H F J H H G H D H H H G G G H G G H V H B V G G H B H G H V H G V G G B H G H H H B H V G G G H G H B G G G J G H G G H G G H G G G B G V G G G B F G G G B G B G B G G G G G H G G B V G B B V B V B B B B B B B B B V B B V B B B B B G G B B B G B B G B G G B G B B B G B B B B B B B B G B B B G G B G B G c G G B B B B B B G B B B B B G G B c c B B B B B k B c B B B c c B c c S G c c G c B G S c G c c B c c B c S c B c c B c B c B c c B B c c B B c G c c B c c B c c B c B c B c c c G c S B c c B c c c c c G c c B c S G c S S S c G S c S S G c S S c S S c S S c S c c B c c c c c c c c c c c c c c B c c c c c c z c c c c c c z c c c z c c c x x S c x c A c c c c S c c c x c c c c c x S c c c c c x c c x c S x c c c c c c c c c c c c c c S x c c c c c x x c c c c c c x c c c l c x c c c c x c c x c c c x x c c l l c c x x c c c x c l c c x x c c x x c c c x c c x x x c x c z x x x z x c x c x c c x c x c x c l l c x c x c c x x c l c x c l c c x c x c x z x x k x x x x x x c x c x x x x x x c c x x x x x x x x x x k A x x x c x x x x x c x x x x c c x x x x c S x x c x S x x x x x x x x x x x x x x x x x x x x x x x x x x x x x x x x A x A x x x x A x x x x x x x x x x x A x x x x x A x x x x x x x x x x x x A x x x x A x x x x x l x x x x 8 A 8 x x 8 x 8 x 8 x x x x 8 x 8 x 8 x x 8 A 8 x 8 x 8 x x 8 x 8 x x 8 8 8 x 8 8 A x 8 8 x x 8 x x 8 A 8 x 8 8 8 8 x 8 A 8 x x x 8 x 8 x x A 8 8 x A 8 8 8 x 8 8 x 8 8 8 x x 8 8 x 8 x 8 A 8 x x x 8 x 8 x 8 8 8 8 x 8 x 8 A x C 8 8 x 8 q x 8 A 8 x x 8 8 4 x x x 8 x x 8 x 8 x 8 x 8 x 8 8 x x 6 x 8 8 x 6 8 x 8 x 8 8 x 6 8 8 x 8 x 6 x 8 x 8 x 8 x x 8 x 6 x 8 q 8 8 x x x x l l x 6 x 6 x 8 x 8 8 8 x 8 x q 8 8 x 8 x 8 8 q 8 8 x 8 x 8 q 8 x 8 A 8 x x 8 8 x 8 x 8 A 8 8 A 8 8 8 8 8 q 8 8 8 q x x 8 8 q 8 q x 8 8 q 8 8 8 8 A 8 8 8 x 8 8 8 q 8 8 x 8 8 q 8 x x x 8 x 8 x 8 8 8 x 8 8 8 x q x 8 8 8 x 8 8 x 8 q 8 x 8 A 8 x x 8 x q x 8 8 x 8 x x 8 x 8 8 8 8 8 x x 8 q x 8 q 8 8 8 8 x q 8 8 x ",
"%.%.%.%.%.%.%.%.%.%.+.%.%.%.%.%.%.%.%.%.%.%.%.%.%.%.%.%.%.%.%.%.%.%.%.%.%.%.%.+.%.o.%.o.o.%.+.%.o.@.o.%.+.o.o.%.o.%.%.o.%.%.@.o.o.%.o.o.o.o.o.o.o.%.o.o.o.%.o.o.o.o.%.+.o.%.o.o.o.o.o.o.%.o.%.o.o.o.o.+.O.o.o.o.o.o.o.o.o.o.O.o.+.+.o.O.o.+.o.X.` o.o.X.o.o.o.o.o.o.o.o.o.o.' X.o.X.o.o.o.o.X.o.o.o.o.o.X.o.` o.' o.o.' o.o.o.X.X.o.X.o.X.o.X.X.o.X.X.' ' o.o.o.o.o.O.o.X.O.O.o.X.O.o.X.X.o.X.o.X.o.X.X.o.X.X.X.X.o.X.X.o.o.X.o.X.X.X.X.o.X.X.X.` o.X.X.' X.X.o.X.X.X.X.X.X.X.X.X.X.X.X.X.X.X.X.X.X.X.O.X.X.X.X.O.X.X.X.o.X.X.X.X.X.O.X.X.X.X.X.X.X.X.X.X.X.X.X.X.X.X.X.X.X.X.X.X.X.X.H X.X.X.X.` X.H X.V X.X.H X.X.X.X.X.X.X.X.X.X.V V X.` X.V H X.X.X.H X.X.X.X.H H X.H X.X.H H H H K X.H H X.H X.X.H H X.H X.X.X.K H H X.V X.H H H X.H H H H H H X.H H V H X.H X.H H H H H H H X.H H H H H H H H H X.H H H H H H H X.H H H H G H H G H H H J H G G H H H H H G H D K H G H G G H H B H G B H B H G H V G H G V G G B H G G H H H V G B B H H G H V H G V B H H G H H G H G G G G G G G G G B G D G B G G B G H B G G G G H G G G B G B G G H B B B H G B G G B V V B V B B V B B B B V B B V B B B B B G B B B B B B B B B B B G B B G B G B B G B B G B B B B B B B B B B B B G B G B G B B B B B B G B B B B B B B B B B B B B B B B B S G S S c G G c B B c G G c G c c B B c c B c G G c c B c c c G G c c c G c c B B c c G c G c B c c B c B S c B B c B c c B B c G c c B B c G c c B c c S c S c S c c S c G c S c c G S c S S c G c c c c c c c c M c c c B B c c c c c c c c c c c c c c z c z c c z c c c z c c c c k c c c k c c c x x c x c c c c x k c c k c c c c k S S k S c c S k x x c k c c x c x c c x c c S k x c c k c c c c c c c c c c x x c x c c l x c c x c x x c z c c x c c c c c z c x c x x c c c x c c x c c x c x c x c x c c c z c x c c c c x c x z x c l x c l c l c x c c x c l x c l c z x c x c x c x l c l c l c x c x x x A x S k A x x x x c x c x x x x x x S x A x x S x x x c x x c x x x x S x x x c x x x x x c x x x x x x x x x k x c x c x x x C x x C j x C x x x x x x C x x A x x x x A x x x x x x x x x x x x x A x x x x A x x x x x x x x x x x A x A x x x A x x x x x x x x x x x x l x x x 8 l x x 8 8 x x 8 8 A 8 x A 8 8 A x 8 A 8 x x 8 x x x x 8 8 x 8 8 x x x 8 x A x x 8 x x 8 8 x x 8 x A 8 x x 8 x x x x x x 8 x 8 x 8 x x x 8 x A 8 8 x x x 8 x x x 8 x A 8 x x x x 8 x A 8 x x x 8 x x x 8 A 8 A 8 x x x x 8 x 8 x 8 x 8 x q 8 A 8 8 x 8 8 4 q A x q 8 8 8 x 8 8 x 8 A 8 x 8 x 6 8 x 8 8 x 8 x x 8 x 8 6 x x 8 x 8 8 x 8 8 x 8 x 8 x 8 x 8 x 8 8 x x 8 8 8 8 x x 6 x x l x x x x l x x q 8 8 x 8 A 8 q 8 x q 8 8 8 q x 8 x 8 8 8 8 8 x q 8 8 8 q 8 8 q q 8 8 q 8 8 8 x 8 8 x 8 x x 8 x x 8 8 8 8 q x 8 x 8 8 8 x 8 x 8 8 x 8 8 8 x 8 8 8 x 8 x q 8 8 x 8 x 8 8 8 8 8 8 x q 8 x 8 q 8 A 8 8 8 8 8 A 8 q 8 8 x 8 8 x 8 8 8 q 8 8 8 8 8 8 8 x 8 q 8 8 8 8 x x q x 8 8 x 8 8 8 8 x 8 x 8 8 x 8 q 8 ",
"%.%.%.%.%.%.%.%.%.%.%.%.+.%.%.%.%.%.%.%.%.%.%.%.%.%.%.%.%.%.%.%.%.%.+.%.%.%.%.o.%.o.o.%.o.%.%.o.%.%.o.%.%.%.o.o.%.%.%.%.%.%.o.%.o.o.o.%.o.%.%.+.o.o.o.o.+.o.o.o.o.o.o.o.o.o.o.o.o.o.%.o.o.o.o.%.+.o.o.o.o.o.+.o.o.+.o.O.+.o.o.+.o.o.o.o.o.O.o.o.o.o.o.o.o.o.X.+.o.o.o.X.' X.o.o.o.o.o.` X.o.' o.X.' X.X.o.o.o.o.X.o.o.o.X.o.o.o.X.o.X.o.o.o.o.o.o.o.o.o.o.o.X.X.o.X.O. .X.o.O.o.O.o.O.X.X.X.o.X.o.X.X.X.X.o.X.o.X.X.O.X.X.X.X.X.o.X.X.X.X.o.X.o.X.X.` o.X.X.X.X.X.X.X.X.X.X.X.O.X.X.X.X.X.X.X.X.X.X.X.X.X.X.O.X.X.X.X.X.X.X.X.X.X.X.X.X.X.X.X.X.H X.X.` X.X.` X.X.H X.X.X.` X.X.X.X.X.X.X.X.H X.H X.X.H H X.X.X.X.V H X.X.X.X.X.X.V X.X.V X.X.V ` H X.V X.` X.V X.H H X.H H X.H H X.X.H K X.H X.H X.K H X.X.H H H X.H X.V X.H X.X.V X.H H H X.V H H H H H H X.H H H H H H H X.H H H H H H H X.H X.H H H H H H H X.H H H H H H H G H H H H H H H G H H G G H H G H H H H H H H H H B B H G V V G H H B B G G V H G G G H V G G V H B B H H B H B G H G B G V G G G G G G G J G G G G J H H G D B G G H G G G G G G G B G G G D B B H B G B G G B V G B B B G G B B B B B B B B B B B B B B M B B B B B B B B B B B G B B B G G c B B B B B B B G B c G G B G B G B B G B G B G B G B B B B B B B B B B B B B B B G G M B B B B B B B B B c B B c G S B S S c c B S G c c B c c B c B B c B c c G B B c G c G c c B c c B B c c B B c c G G c c B c c B c B c G B c B B c G c B c c c c c c B B c S c c S G c S c S c c S S c c S c S S c S c c S c B c c c c c c c c c c c c c c M c c c B c c c c c c c c c z c c c c c c c z c S c c c c c x c c c x c c c k c c x A c x S c c c c S x c x c x c c c c c x A c c c x k c x A c c k S c c c S c c c c c x c c c c c c c x c c x x c c l c c z c x x c c x c c x x c c c c c c x c x x c z x c x c c x l c c l c c c x c c x c c x c l c x c x c z x c l c x c x x c x c z c c l x c l c x z l c c x c x c x c x x x c x x x x x x A c x x A x x x x x x x c x k k A x c x x x x x x x x k A x c c x k x x x x A c x x k c x k x c x A x x x x x j C x x x x C x x x j x C x x x x x x x A x x x x x x x x x A x x x x x x x x x x x x x x x x x x A x x x x A x x x x A x x x x x x x A x x x x x x x l l x l x 8 x x 8 8 x A 8 x 8 8 x x 8 x x 8 x x 8 x x 8 x 8 A x 8 A 8 x 8 8 x x 8 8 x A x 8 x x 8 8 A x 8 x 8 8 x A 8 x 8 8 x x x 8 x 8 x 8 A 8 8 8 x x 8 8 x x 8 8 x x x x x x 8 8 A A 8 8 x x 8 8 8 x 8 x 8 8 x x x x 8 8 A x x x 8 8 A 8 A q x x 8 9 x 8 A A 8 8 x 8 x A 8 x x 8 x x x 8 x 8 x x 8 8 x 8 x 8 x 8 x x 8 x 8 8 x 8 x x 8 x 6 x 8 8 8 x 8 6 8 x 6 x 8 8 x A 8 8 8 8 8 x 8 x x l x 8 x 8 8 8 x q 8 8 8 8 8 8 A 8 x q x 8 8 x 8 8 q 8 x 8 8 8 x q 8 8 x x 8 x 8 8 8 A 8 8 q x 8 x 8 8 q 8 8 8 8 8 x x 8 8 q 8 8 x 8 x 8 x 8 q 8 x 8 q 8 x x A 8 8 8 8 x q 8 8 8 8 x q x 8 x 8 8 x q x 8 x 8 8 x A 8 8 8 8 x q 8 8 8 8 8 8 8 8 x A 8 8 x A 8 8 q 8 8 8 A 8 x 8 8 8 8 q 8 8 8 A 8 8 x A 8 x 8 8 x x 8 ",
"%.%.+.%.%.%.%.%.%.%.%.%.%.%.%.%.%.%.%.%.%.%.%.%.%.%.+.%.%.%.%.o.%.o.%.%.o.%.%.%.%.%.o.%.%.o.%.%.o.%.%.o.%.o.%.%.%.o.o.%.o.o.%.o.o.o.o.+.o.o.o.o.o.%.o.%.o.%.o.%.%.o.%.o.o.%.o.%.+.%.o.o.%.o.o.o.+.o.o.+.o.O.+.o.o.+.o.o.+.o.o.+.o.O.o.+.o.o.o.o.X.o.o.X.o.o.o.o.X.o.o.o.o.o.X.` o.X.o.o.o.o.X.o.o.o.o.o.' X.o.X.o.o.X.o.o.' o.X.o.' o.o.o.` o.X.' X.o.X.X.o.o.o.o.O. .O.O.o.X.X.X.X.O.o.o.O.X.o.X.X.o.X.X.X.X.X.X.o.X.X.o.X.X.o.X.X.o.X.X.X.X.X.X.X.X.X.X.X.X.X.X.X.X.O.X.X.X.X.X.X.X.X.X.O.X.X.X.X.X.X.X.X.X.X.X.X.X.O.X.X.X.X.O.X.X.X.X.O.X.X.X.X.X.X.X.X.H X.X.X.` X.X.X.X.H X.X.` X.X.X.X.X.X.X.X.X.X.X.X.H X.X.X.X.X.H H X.H X.V X.X.H X.X.X.H X.X.X.H X.V H X.H H X.K H X.H H X.H H X.H H X.H H X.H K H X.H H H X.H H H H H H H H V X.H H X.H X.V X.H V H H H H X.H H H H H H H X.H H V H H H H H H X.H H H H H H H X.H H G H G H G H D H F H G H H G H G G G H G G H G G H H B H G H G H H B H H G H G G G H G H G G H G B H H B H H B H V G G H H G G H G H G G H G G H G G H G G B H B G B B G G B G G B H D H B G H B B G G G F G G G B B H G V B V B B V B B B V M B V B B V B V B B G B G B B G B G B B G B B B B G B G B G B B B B B G B B B B B B B G B B B B B B B B B G B G B G B B B B B B B B k B B B B B B B B B B B B B c G S S c G c G B B B c c B c G c c B c c B c B c c c c B c B c c B c G B c c B S c c B c c B c B S G c c B c B c c G c B c c B c c G B c G B c c B c S S S c S c S S c G c S S S c S c B S c S c S c c c c B c c c c c c c c c c c c c c c c c c c c z c c c c c c c c c c z c c c x c c c c x c c c c k S c c A c c c c c c c c c x c c c c c c c c x c c c c c c c c S c c S k c c A k c x c S x k x c x c c c c x x c x c c l c c x c c x c x x c c x c c x x c c x x c x l c c x c c x c c c x c x c c x c c x l x c x c x x l c l c x c l c z x c x c l c x z z x c l c x x x c x c x c x c x x z x c l c l c x c x x x c x c x k x x x k x c c x k A x x x x x x x x c x c x x c x c x x x x x x A x S x x k x x x A x x x x x x x x x k x x x x x x C x x x x x C x x x x x x x x x x x x x x x A x x x x x x A x x x x x x A x x x x x A x x x x x x x 8 x x x x x x x x A x x x x x x x A x l 8 x x x x 8 A 8 x x x 8 x x 8 x x 8 8 x 8 8 8 x 8 A 8 8 x 8 x 8 x x 8 x 8 A 8 x 8 x x 8 x 8 x x 8 x 8 x 8 x 8 x 8 x 8 x 8 x x 8 A 8 x 8 x x x 8 x x x 8 8 x 8 x 8 x x 8 A 8 8 x 8 x x 8 8 x x 8 8 x x x 8 A x x 8 x 8 x 8 x x 8 x 8 x 8 x 8 x 8 8 A 8 x q 8 A 8 8 x 8 q x 8 8 x 8 x 8 x 8 8 x 6 x 8 8 x x 6 8 6 x 8 8 x 6 x 8 8 x 6 x 8 6 x 8 x 8 x 8 x 6 x 8 x 8 x 8 8 x 8 8 8 8 8 8 x 8 8 8 8 8 8 8 8 8 x q 8 8 x 8 x q x 8 8 8 8 8 x 8 x x 8 x 8 8 q 8 x 8 x 8 x 8 8 8 8 8 8 x 8 8 8 8 x 8 q 8 8 x 8 x 8 8 x q 8 8 8 x 8 x 8 x q 8 8 8 8 x 8 q x x 8 q 8 x 8 x 8 q 8 8 x x 8 q 8 8 8 8 x 8 8 8 8 8 8 8 8 8 8 8 8 x 8 8 8 8 8 x 8 8 x 8 8 8 8 8 8 8 8 8 8 8 x 8 8 8 8 8 8 8 8 x 8 8 x 8 8 8 8 8 8 8 8 8 8 8 8 8 8 ",
"%.%.%.%.%.%.%.%.%.%.%.%.%.+.%.%.%.%.%.%.%.+.%.%.%.%.%.%.%.%.%.%.%.%.o.%.%.+.%.%.o.%.%.o.%.o.%.o.%.o.@.o.%.+.%.%.o.%.o.%.%.%...%.o.o.o.%.o.%.+.%.o.%.o.%.o.%.o.%.o.o.o.%.o.o.o.o.%.o.o.o.o.%.o.o.O.o.o.+.+.o.o.o.o.o.o.+.+.o.O.o.o.o.+.o.o.o.o.O.o.o.o.o.o.o.X.o.o.o.X.o.o.o.o.X.X.o.o.o.' X.o.X.o.X.o.X.X.o.o.o.X.o.X.o.o.o.o.o.X.o.o.o.' o.o.' o.o.o.X.X.' X.o. .O.X.o.X.O.O.X.X.O.o.o.X.X.X.X.o.X.o.X.o.X.X.X.X.X.X.X.X.X.o.X.o.O.X.o.X.o.X.o.X.X.X.X.X.X.X.X.X.X.X.X.X.X.O.X.X.X.X.X.X.X.X.X.X.X.X.O.O.X.X.X.X.X.X.X.X.X.X.X.H  .O.O.X.X.X.X.X.X.X.X.H X.` X.X.X.X.X.X.X.X.X.X.X.X.X.X.X.X.X.H X.H X.H X.X.X.X.X.X.X.X.X.H X.X.X.X.V H X.X.X.V V X.H X.V X.X.H X.X.H X.X.H H X.H H X.H H H X.H X.X.H H X.H H H X.H H X.H X.H H X.H X.H H X.H H V H H H H H V H H H H H H H H H H H H H X.H H H H X.H H H H H V H H X.H H V V H F G H H H G H H H G H H H G H H G H G H F H H G H G G H G H B G H V H G V H G V G G G V G G V G G H V G G B H H B H H B H H B G H G G G G G J G H G G G G B H G B H G G G G G G G G G G B G G G D V G G G G G B G B G H B B B V B B B B B B B B V B B V B B V B G B G G c B B B G B B B B B B B G B G B B B G B B B B B B B B G c B B B B B G B G B B G B B B B B B B B B B B B B B B M B B B B B B B B B c G S S B c c G c c c c c c G c c B G c c B c G B c G c c G G c c G c B G c c B c G c B c c B c B c B c c B c B c B c c B c B c c B c B c G c c B c S S B c S S c S c S S c S c S G c c G c c S G c c c c c c c c c c M c c c c c c c c c c B c c c c c c c c c c z c z z c c c z c c c x c c c S c c A c c S k c c c c x c c c c x x S c c x c c c c c c x c c c c c x k S c x c c c c x k c c c A c c c x c x c x c c l c c c x c c c x c c x x c c c x c c x x c c x x c x l c x c x c c z x l c c c l c c l x c x c c x c x c x c x c x c x x x c x c l c x c x c x c x c x c c l c l c x c l c l c x z c x c x c x x x c x c x x c x k A x x x x x x x k x x S x c c x x x x x A x x x x x x c x S x c x x x x x x x x c x c x x x k x x x k x x x x A x x x x x x x x x A x x A x x x x x A x x x x A x x x x x x x x x x x x x x x x x A x x x x x x x x x x x x x x x x x A x x x A x x x x x 8 x x x x x x 8 x 8 x 8 8 x 8 x 8 x x 8 A 8 x x x 8 x x 8 x x 8 A 8 x 8 x x 8 x 8 x x x 8 A x 8 x 8 x 8 x 8 x A x x x 8 x 8 x 8 x x 8 x x A 8 8 x x 8 x 8 x x x 8 A 8 x 8 x x x 8 x x 8 x 8 x x x 8 x 8 x 8 x 8 x 8 A 8 x 8 x A 8 x 8 x x x x 8 A 8 x x x 8 x x 8 x 8 8 l 8 x 8 x 8 x x 8 x 8 8 x 6 x x 6 x 8 x 8 6 x 8 8 x 8 8 8 x 8 x 6 x 8 8 q 8 8 8 x 8 x 8 x 8 x 8 8 8 8 8 q 8 8 q 8 8 8 x q x A 8 q 8 8 8 x 8 8 x x 8 8 x 8 q 8 8 x 8 q 8 x 8 8 8 8 q 8 8 q x 8 8 x 8 x x x 8 8 8 q 8 8 8 8 x 8 x 8 8 q x 8 8 8 8 8 x 8 x 6 8 8 8 x 8 x x 8 x 8 x 8 x 8 8 8 x 6 8 8 l 8 8 8 8 x 8 8 8 8 x 8 8 6 8 8 6 8 8 8 8 8 l 8 8 8 6 8 x 8 8 8 8 x 8 8 x 8 8 8 8 6 8 8 8 x 8 8 8 x 8 8 8 8 8 8 l 8 8 6 8 8 8 6 x 8 8 8 8 8 ",
"%.+.%.%.%.%.%.%.%.%.+.%.%.%.%.%.%.%.+.%.%.%.%.%.%.%.%.%.%.%.%.%.%.+.%.%.%.%.%.o.%.o.o.@.o.%.o.@.%.%.o.%.o.@.o.o.o.%.%.o.o.' o.o.o.%.o.o.o.o.%.o.o.o.o.o.o.o.o.o.%.o.o.o.o.%.o.%.o.+.%.o.o.o.%.o.o.o.o.o.o.o.+.O.o.+.o.o.o.o.o.o.+.o.O.o.O.o.o. .o.O.X.o.o.o.o.o.X.' o.o.` o.' o.' o.X.o.o.o.o.` o.o.o.' o.o.` o.o.' o.o.' X.o.X.' o.o.X.o.X.o.X.o.X.' o.o.o.o.o.o.X. .O.X.O.O.o.o.O.X.X.X.O.X.o.X.X.X.X.X.X.X.o.X.o.X.o.X.o.X.X.X.X.X.X.X.X.X.X.X.X.X.' X.X.' X.X.X.o.X.X.X.X.X.X.X.O.X.X.X.X.X.X.X.X.X.X.X.X.X.X.X.X.X.X.O.X.X.X.X.X.X.X.X.` X.X.X.X.H X.X.X.X.X.X.X.X.X.V X.X.X.X.` H X.X.` X.X.X.X.X.X.X.X.H V X.X.H X.X.X.X.X.V X.X.` X.V X.X.X.` X.X.V H X.X.K H H H K H X.K H X.H H X.H X.X.H H X.H H X.X.H H H X.V H H H H V H H X.H H H H X.H X.H X.H X.H X.H H H X.H H X.H H H H V H H H H H H H H X.H H H H H H X.H V G H H G G H H D H G H G H D H G G H G H H J H G G V V G G V B H V G G B H G G V H G H G G H H G H G B H G H G H H H B B H B H H G G G H H G H H G G G G G G G G G G G B G B B H B G F B H B G G G G G G B G D V B V V B B B V G B B V B B V B M B B B B B M B B B B B B B G B G B B G B B G B G B G B B G B B B B G B G B B G B B G G B G B B B B B B B B B B G B B B G B k B B B B k M B B B B B B B B c B B c S S c G G c B B c B G c c B G c c B B c c c c G c B c c c B c c c c c c B c c c B c c B c G c B c G c c G c B c c B S c c B B c c B B c c B S c S c c S c S S c G c c S c S S c S S c S S c c S c c c c c c c c c c c B c c B c c c c c c c c c c c z c z c c c c c c c c c c c k S S c c x x c c k c c c x c c c c c c c c k S c S c c c c c S c c S k c S x c c c c c c c c c c c c S c x c k c x c k c x z c c l c x x c c x l c c x x c c c l x c c x c c x x c c c c c c c x c c x x c c c x x c c x c c c z x z x l c c l l c l c c z c c l c x c l c l c x z l c l c x z c x c x c x c x c x c x x z l c x x x c x x x x x x x x x x x c x A k x A x x x x x x x x c x c k x x c x c x x x x x x x c x c x c x A x x x x x x x x x x x x x x x 8 x x x A x x A x x x x x x x x x x x x x x x x x A x x x x x A x x x x A A x x x x x x x x x x x A x x x x x A x x x x x x x x x x x x x x x l x x 8 l x x 8 x 8 x x 8 A 8 x x 8 x 8 A 8 8 x x 8 8 A x 8 x 8 8 x x 8 8 x 8 A x 8 8 x 8 x x 8 8 x x x x 8 x 8 8 A x 8 8 x x 8 8 x A 8 8 x x x 8 x x x 8 8 8 A 8 x 8 x x 8 8 A x 8 8 x x 8 8 8 x x x 8 A x A 8 x x x 8 8 x 8 x 8 x x 8 8 x x 8 8 x 8 x x 8 8 x 8 x x 8 8 8 x 8 8 8 8 6 8 x x 8 x 8 8 8 8 x 8 x x 8 8 x 6 x x 6 8 x 8 x 8 8 x 8 x x q 8 8 q 8 8 8 8 q x A 8 q 8 0 8 q 8 A 8 8 8 8 8 8 8 q 8 8 8 8 x 8 q x 8 8 8 8 x q 8 8 x q 8 8 x x 8 x 8 x 8 8 8 8 8 q 8 8 q x 8 x 8 x 8 A 8 q 8 8 q x 8 x 8 x 8 x 8 8 8 8 8 8 x 8 8 8 8 6 8 8 6 6 8 6 8 8 8 8 8 8 8 8 8 8 6 6 6 6 6 6 8 6 8 6 x 8 6 x 8 x 8 8 8 8 8 l 8 8 8 6 8 l 8 8 6 8 8 8 8 6 x 8 x 6 8 8 6 6 x 8 6 x 8 8 8 8 8 8 8 8 x 8 6 8 8 6 8 8 8 8 8 ",
"%.%.%.%.+.%.%.%.%.%.%.%.%.%.%.%.%.%.%.%.%.%.%.%.%.%.%.%.%.%.%.%.%.%.%.%.%.o.o.%.%.%.o.%.%.%.o.o.o.%.o.%.%.o.o.%.@.o.%.%.%.' @.o.o.o.o.o.o.o.%.o.o.%.o.o.o.%.%.o.o.o.o.%.%.o.o.+.o.o.o.%.o.o.o.+.+.o.+.o.o.+.o.+.+.o.o.O.o.+.O.+.o.o.o.+.o.o. .o.o.o.o.o.X.o.o.o.o.o.o.o.' o.X.o.X.o.o.' o.o.` o.` o.X.o.o.' o.X.X.X.o.X.o.X.' o.X.o.' o.o.o.' o.X.o.o.o.o.o.o.X.o.O.o.o.X.O.X.o.O.X.o.X.o.X.o.X.X.X.o.X.o.X.X.X.o.X.X.X.X.X.X.X.X.o.X.o.X.o.X.X.` o.X.X.o.` X.X.X.X.X.X.X.X.X.X.X.X.O.X.X.X.X.X.X.X.X.X.X.X.X.X.X.O.X.X.X.O.X.X.X.X.X.X.O.X.X.X.X.X.` X.X.X.X.X.X.X.V X.X.H X.X.X.X.X.X.X.X.H X.X.H X.H X.X.X.H X.X.X.X.X.H X.` V X.V X.X.H H X.H X.H X.X.X.V X.H H H X.H X.X.H H X.X.H X.X.K H H K H H X.K H H H H H H H V X.H H X.H H V X.H V X.H H H X.H H H H H H V H H H H H H H X.H H H H H V H H V H H H H H H H H H H V H G G H H G G H H H H G G H H G H H G G H G G H B H B H G H B H G G G H G G H G G H B V G V G G G V V G V H G G B H B H H B H B G H G G G H G G H G G H G G G G B D G G G G D G G G G G G G G G B G G B B H G B G B G B V G V B V B V B B B V B V B B V B B B B B G B B B G B B B B B B G B B B G c G B B G B G G B B B G B B G B B B B G B B G B G B B G B G B B B B B B B B B B B G G B B B B B B B B B B c B c S G c S B B c B c B c G c c c B c c B B G c c c B B c c B c B G c c B c B B c S B B c c B c c c G G c c c B c B c c B G c c G B c c B B c c B c G S S G c S S c S S c S c c S c S S c c S G c c c c c c B c c c c c c c c c c c c c c c c c M c c c c c c c c c z c c c c x c c x c x c c x c c c x c c x x c x k S c c c S x x k c c c S k x c c c c c x x c c x x S x S k x x c c x c c c c c c c x c c c c x x c c x c c l x c c x c c x x c x c x c z c c c c c x c x x c x c c x c c x x c x c x c c c x c c l c c x c x c x c x x c x l c x c x c x c x c x c x c x c x l c x z x z l c l c x c c x c x c x k x A k S x x c x x c x c A c x x c x x x x x x x x k x x A x x x c x x x A x x x x c x x x x x x k x A c x x x x j j x x x x x x x A x x x x x x x x x A x x x A x x x x x A x x x x x x x x x x x x x x x x x x x x x x x A x x A x x A x A x x x A x x x x x x x x A x x l x x l l x x l x 8 x A 8 x x x A 8 8 x x 8 x x x 8 8 A x 8 8 x 8 x x 8 x x A 8 x x 8 x 8 x 8 A 8 x A 8 A 8 x x 8 x x 8 8 x x 8 8 A x 8 8 x 8 8 8 A 8 x 8 x 8 A x x 8 x x 8 8 A x 8 8 x x 8 x x x 8 A 8 x 8 x 8 8 x x 8 8 x x 8 8 x x 8 8 x x 8 8 x x 8 x 8 8 x x 8 x 8 x 6 8 6 x 8 x 8 8 x 8 x x 6 8 8 8 x 8 6 x 8 8 x 8 x 8 x 8 x x 8 8 x 8 x 8 8 q 8 8 x x 8 x x 8 A 8 q 8 8 8 0 q 8 7 8 8 8 8 8 8 8 x 8 8 q 8 8 x q x 8 8 q 8 x 8 8 8 8 8 8 8 x q 8 A 8 x 8 8 8 x 8 q x 8 8 x 8 8 q x 8 x 8 8 8 x 8 x 8 x q 8 x 8 8 x 8 x 8 8 x 8 8 8 8 x x 8 8 6 8 8 8 x 6 8 x 8 8 8 8 8 8 6 8 8 6 8 6 8 6 8 8 8 8 8 8 6 8 8 8 8 8 6 x 8 8 x 6 6 8 8 8 8 8 8 8 8 8 6 8 6 x 8 8 8 6 6 8 x 8 x 8 x 8 6 8 8 8 6 8 x 6 6 8 6 8 x 8 8 x ",
"%.%.%.%.%.%.%.%.%.%.%.%.%.%.%.%.%.%.%.%.%.%.%.%.%.+.%.%.%.%.%.%.%.o.%.+.%.%.o.%.o.%.%.o.%.o.%.%.%.o.%.o.%.%.%.%.+.%.o.%.%.%.o.o.o.o.o.%.%.o.+.%.o.o.%.+.o.o.o.o.o.%.+.o.o.o.%.o.%.o.o.o.%.o.%.o.o.o.o.O.o.O.o.o.o.o.+.o.o.o.o.o.+.+.o.o.o.o.+.O.o.X.o.o.o.o.o.X.o.X.' X.o.X.o.o.o.o.X.o.X.o.o.o.o.o.o.o.o.X.o.X.o.o.o.' o.o.o.X.o.o.X.o.X.o.X.o.o.' ` o.o.X.o.X. .O.X.o.O.o.X.O.o.X.O.O.X.X.X.X.X.o.X.X.X.X.o.X.X.X.X.o.X.o.X.o.X.X.X.X.X.X.o.o.X.X.X.X.X.X.X.` O.X.X.X.O.X.X.X.X.X.X.X.X.X.O.X.X.X.X.X.X.X.X.X.X.X.X.X.X.X.X.X.X.X.X.X.X.X.X.X.X.H X.X.X.X.X.H X.X.X.X.X.` X.X.X.X.H ` X.X.X.X.X.X.X.X.V X.X.X.X.X.H X.X.X.H X.X.X.V X.H ` X.X.X.X.V X.V X.X.X.H X.X.H H H X.H X.H H X.H H H X.H X.X.H H X.X.H X.H X.V H X.H H H H X.V H H H X.H H V X.H H H X.H H H X.H V X.H H H H H H H X.H H X.H H X.H H H X.H H H H H V H H H G H H G H H H F J H H H G H F G H H H H G H H G H B H G H B G H G H G V B H H B H G G H B H G H G H G G V G H B H H B H G G J H G G G G G G G G G B G G G G H H B G G G V G B G G B G G B G H G G G G G G G B G V B B B G B B B B B V B B B B B B B V B B V B B G B B B B G G B G B c B B G B B B B B B B B B B B G B B B B G B G B B B B B B B G B B B B B B B B B B B B B B c B B c B B B M B c B c B B c S S G S B c B B c B c B c B c B c B c c c c B c B c c G c c B c c B G c B c c G c B c c B c G c B c c B c B c B c G B c c B c c c B S c c G B c S c S c c S c c S c S G G c S c G c S S S c S S c c c B c c c c c c c c c c c c c c c c c c c c c z z c c c c c c c c c c z c c c c c c c c k S c x c c c S c c S c x c x c c c c c c c c x c c x c S x S k c c c c c c c c S c S c S k c S x S c x k c c l c x c c x c c c x c c x c c c l c c c c x c c x l c c l x c z c x c c l c c c x c c c c c x c x x c x x c x l c x z x z x c c l c x l c x z x z x c l c l c l c x z c x c x c x c x c x c l x c l c x x A x x x x x x x c x x x x x x x x x c x c x c x k A x x x c S x x x x c x k x c A k x x x A x S x x x k x x x k x x k x x x x x x A x x x x x x x x x x x x x x x x x A x x x x x x x x x A A x x x A x x x x x x A x x x A x x x x x x x x x x x x x x x x x x x x x x x x x x x 6 x x x 8 8 x x 8 x 8 x 8 8 x x 8 8 x 8 x 8 x x 8 x 8 x 8 A 8 x x 8 x 8 x 8 8 A 8 x 8 x 8 x x 8 x 8 x 8 8 x 8 8 x x x 8 A x 8 x x x 8 x x x 8 A 8 x 8 x 8 8 x x 8 8 x x 8 8 x x 8 8 A 8 x 8 A 8 x 8 x 8 x x 8 8 x x x 8 A x 8 x x A 8 8 x A x 8 x 8 x x 8 x x 8 x 8 x 8 x 8 x 8 x x 8 x 8 8 x 8 x x 8 x x 6 x x 8 x 8 x 8 x 8 8 x x 8 x 6 8 x 8 x 8 8 8 8 8 8 8 8 x 8 x 8 q 7 8 8 8 q q 8 8 x q 8 x q x 8 A 8 8 8 8 8 8 x q 8 x 8 x 8 A 8 q 8 8 x 8 8 8 q x 8 x q 8 x 8 A 8 8 x 8 8 q 8 8 x A 8 8 8 8 8 8 8 8 8 x 8 8 x 8 8 x 8 x x 8 8 8 8 8 x 8 8 8 8 8 8 8 8 8 8 8 l 8 8 6 6 8 6 8 6 8 8 8 8 8 8 l x 8 8 8 8 x 8 8 8 8 8 8 8 6 8 8 x 6 8 8 8 x 8 8 8 8 8 6 x 8 8 8 6 8 8 8 8 8 x 6 8 6 x 8 8 8 x 8 8 6 8 8 8 8 ",
"%.%.%.%.%.%.%.%.%.%.%.%.%.%.%.%.%.%.%.%.%.%.%.%.%.%.%.%.%.%.+.%.%.+.%.%.o.o.%.o.%.%.o.@.o.%.%.o.%.o.%.@.@.o.%.o.o.%.%.o.o.%.o.o.o.o.%.o.o.%.o.%.o.+.o.%.o.o.o.+.%.o.%.o.o.o.o.o.%.o.o.o.%.o.%.+.o.+.o.O.o.o.+.o.o.+.O.o.o.o.+.o.O.o.+.o.o.o.o.o.o.o.X.o.o.o.o.o.o.X.X.o.X.X.o.o.' X.o.X.o.X.o.X.` X.o.o.o.o.X.' X.o.` o.' o.X.o.' o.X.X.o.X.X.o.X.X.o.o.o.` o.o. .O.X.O.o.o.X.O.X.o.O.o.o.X.o.X.o.X.X.X.X.o.X.o.X.o.X.X.X.o.X.X.X.o.X.X.o.X.X.X.X.X.X.X.X.o.X.o.X.X.O.X.X.X.X.X.X.X.X.X.X.X.X.X.X.X.X.X.X.X.X.O.X.X.X.X.X.X.X.X. .X.X.X.X.X.X.X.X.` X.X.X.X.X.X.X.` X.X.X.X.X.X.X.X.X.X.X.X.X.H X.X.X.V X.X.X.X.H X.X.X.K X.X.H H X.H X.X.V X.V ` H H X.` H X.V X.H H X.X.X.H X.X.K H H K H X.H H X.H H X.H X.X.H V H H X.H X.V H X.H X.H H H H X.H X.H H H X.H H H H H H X.H H V H H H H X.H H H H H H H H H H H H H H H V H H G H H G H F J F G H G H G H G H G H H G G H H H H B H H H B H H B B H B G G H B G H G G H G G H H G H B H G G V H B H H H G G H G G G H G G J H G G G G G G H B B G F G G B B G H G H G B G V G G B G G B H G G V G B H B B B H V B B V B B N B B B V B B B B B B B B G B B G B B B B B G G B B G B B B B G B G G B B G B G B G G B G B B B B B B G B G B B B B B B G B B B B M B B G G B B B B B B B B c B B B S G G c G S c B c B G c c G c c B c B B c B c c c c B c B c B c c B c c c c B c c B c G B c c G c c c B c B c S B c c G c B c G B c G B c G B c c S c S c G c S c S c G c S c S c c S c c c c c c c c c c B c c c B c c c c c c z c c c c c c c c c z c c x c z c c c c c c c c c x S c c c x c c c c x c c x c c c x c c c c c x S c x c c k S c c c c c x c c c c c c x c c c k S k S c c x k x k x c c x c c x c c x c x c z c c x c x c c x x x c x c c x c l c c c x c c x c c x x x z c x x c c x c c x c c x z x c x z x c l c l c x c x c x c x c l c l c x c x c x c x x c x c l c l c x c c x x z c l x x x x x x x x x k A c A k x c c x S x x x x x x x x x x x x x x x x x x x S x x A x x x c x k c x c x c x c x x k x x k x x x x x x x x x x x A x x x x A x x x A x x x x x x x x x A x x x x x A x x x x x x x x x x x x A x x x x A x x x x x x x x x x x x x x j 8 8 x x x l x x l l x x x 8 A 8 x x 8 x 8 A 8 x x x 8 8 x x x x x 8 A x x 8 x 8 x x 8 x 8 x 8 x 8 x x x x 8 x 8 A 8 x 8 x 8 x x 8 8 x x 8 8 A 8 8 8 x x 8 8 8 x 8 A 8 x x x 8 8 x x x 8 A x 8 A x x 8 8 A x x 8 x 8 A 8 8 8 x x 8 8 x x 8 x 8 x 8 8 x x 8 8 8 8 x 8 8 6 x 8 8 8 8 x 8 x 8 8 x x 8 8 x x 6 8 x x 6 x 8 x 8 8 x 8 8 6 8 x 8 8 8 x 8 8 x 8 x q 8 8 x 8 x 8 8 8 x x 8 8 8 q 8 8 8 8 8 8 8 x x x 8 8 8 8 x 6 8 8 x 8 x q 8 8 x 8 A 8 A 8 x 8 x 8 x 8 8 x 8 x 8 8 q 8 x 8 q 8 8 A 8 A 8 8 A q x 8 8 8 x 8 8 x 4 6 x 8 8 8 8 8 x 8 x 6 8 8 6 6 8 8 8 8 8 8 l 8 8 8 8 8 6 8 8 8 6 6 8 8 6 x 8 8 6 6 8 8 8 x 6 8 8 8 8 8 8 8 8 x 6 6 8 8 x 8 8 l 8 8 x x 6 8 8 6 8 8 6 x 6 8 8 6 8 8 8 8 8 8 8 8 x 6 8 8 8 8 6 8 x 8 6 8 8 ",
"%.%.%.%.%.%.%.%.%.%.%.%.%.%.%.%.%.%.%.%.%.%.%.%.%.%.+.%.%.%.%.%.%.%.%.o.%.%.%.%.o.%.%.o.%.o.%.+.o.%.o.o.o.%.o.%.%.%.o.%.%...%...o.%.o.o.o.o.o.o.%.o.o.o.%.o.%.o.o.o.o.o.o.%.o.%.o.o.o.%.o.o.o.o.o.o.o.+.o.+.o.o.o.O.+.o.+.o.o.o.o.o.o.o.o.O.o.o.o.X.o.o.o.o.o.o.o.o.o.' o.o.X.' o.o.o.o.' o.o.' o.o.` o.` o.o.o.o.o.o.o.X.o.' o.o.X.o.o.o.o.o.' o.o.X.' o.o.o.X.X.o.o. .X.O.o.X.O.o.X.X.X.X.X.X.X.X.o.X.X.X.X.X.X.X.o.X.X.X.o.X.X.X.X.o.X.X.X.o.X.X.X.X.X.` X.X.X.X.X.X.X.X.X.X.X.X.X.X.X.O.X.X.O.X.X.X.X.X.X.X.X.X.X.O.X.X.X.X.X.H X.X.X.X.X.X.X.X.X.X.` X.X.X.H X.X.X.X.X.H X.H X.X.X.X.X.X.X.X.H X.X.H X.X.H X.X.X.X.X.X.X.H H ` ` X.X.X.X.H H X.X.V X.X.X.V H H X.H K H H H H X.X.H X.X.H H X.H H X.H H H K H X.H X.H H H H H V H H X.H X.V V H H H H X.V H X.H H V H H H H X.H H H H H H H H H V X.H H H X.H H H V H H V H D K G H H G H H H G H G G H H G H G H H H D H G H B B H H H B B H H H H V G G H G G V H G V V G G G B H B G H G B H H B G V V G G H G J G H G G B B B G B B D G G G B G G G G H G B B G G G D G G G G G B G G B B B B G G V B G B B B B B B B B B B B M B V B B G B B B B B B B G B G B B B G B B B B G B B B B c G B B B B B B c B B B B G B G B B B B G B G B M B k G B B B B B B k B B c B B B B B B c B c B S S c G G c B B B c c B B c c B c c c S G c B B G c c B c c c G G c B G G c c B c G B c c B c c c G B c c G B c c B c c B c c c c c c c c c c B c S S c c S S c S c S S S c S S S c S k c S S S c c c c c c c B c c c c c M c c c c c c c z c c c c c c c c c c z c c z c z c c k S c c x k S c c c c S k S S c x k S c c c S x c c c c c x S x c c c c c c c x k c c c k c c c c x x c S x c c x c k c c c c l c x c c x c c x x c c l c c x z c c c c x c c x c c x x c x c c x c c c c c x c c l c c x c c l l c x c x c x c x c x c x z x c l c l c x c x c x c l c x z x c c l c l c x c x z x c l x c x c c x S x x c x c x x x x x x x x x x x x c x c x x c x c x S c x A k c x k x x x x k x c x x x x x x x x x x x x x x x x x j x x A x x A x x A x x x x x x x x x x x x x x A x x x x x x x x x x x x x x x x A x x x x x x x x x x x x x A x x x x A x x x x A x x 8 x x x x x x x 8 x x x x x l x 8 x x 8 A x x 8 x 8 x 8 x x 8 x 8 8 x x 8 8 A 8 x x 8 8 x x 8 x x 8 x x 8 8 x A 8 x 8 x 8 x 8 x x 8 x x 8 8 A x 8 x x x 8 x A x x x x 8 x x 8 8 x x 8 8 x x 8 8 x 8 x 8 x x 8 8 x x 8 x 8 x x x x 8 x x 8 8 x x 8 8 A x x 8 x 8 x x 8 8 x x 8 8 x x 8 8 x 8 8 x 8 6 x x 8 8 x x 8 8 x x 8 8 x x 6 x x 8 x 8 x x 8 8 x 8 8 x 8 8 x q 8 8 8 q x q 8 8 q 8 x 8 x x 8 8 x x l x l x x x x 8 l l 8 8 q 8 8 8 x q 8 8 x 8 8 8 8 8 8 8 8 8 A 8 q 8 8 x 8 8 8 x 8 8 x x q 8 A 8 8 8 x 8 8 q 8 4 8 8 8 8 8 8 8 8 8 8 8 8 6 8 8 8 x 8 8 l 8 x 8 8 8 8 8 x 8 6 x x 6 x 8 x 8 8 x 8 8 8 x x 6 x 8 8 8 6 8 8 6 x 8 6 8 8 8 x 6 8 8 8 8 8 8 8 6 8 6 8 8 8 6 6 x 8 8 8 8 8 6 8 6 8 6 8 l 8 6 8 8 6 x 6 x 8 8 6 x 8 8 ",
"+.%.%.%.%.%.%.%.%.%.%.%.%.%.%.%.%.%.+.%.%.%.%.%.%.%.%.%.%.%.%.%.%.o...%.%.o.o.%.%.o...%.%.o.%.@.%.%.%.%.o.%.%.o...%.o.%.%...o.} +.o.o.o.%.o.o.+.o.%.o.%.%.o.%.o.o.%.%.o.%.o.o.o.o.+.%.o.o.o.%.o.+.o.o.o.o.o.+.o.o.+.o.o.o.O.o.+.o.o.+.O.o.o.o.o.o.o.X.o.X.o.o.o.' X.X.o.X.' o.o.o.X.o.o.o.X.X.o.X.' o.o.o.o.o.X.' o.o.X.' o.X.o.o.o.o.o.' X.X.o.X.' o.o.o.X.o.X.o.o.o.O.o.X.X.o.O.X.o.X.X.X.X.o.o.X.X.X.X.o.X.o.X.X.X.X.X.X.X.X.X.X.o.X.o.X.o.X.' X.X.` X.X.X.X.X.X.X.X.X.X.X.X.X.O.X.X.X.X.X.X.X.X.X.X.X.X.X.X.X.X.X.X.X.X.X.O.` X.X.X. .X.X.H X.X.H X.X.X.X.X.X.X.X.X.X.X.X.X.X.X.X.X.X.X.X.` X.X.X.X.X.X.H X.X.H X.X.H X.H ` X.X.` H V V X.` X.X.X.X.V V X.X.H X.X.H H X.X.H H H H H H X.H X.X.H H X.H X.X.H X.H H H H V X.H H X.H H V H H X.H V X.H V H H X.H H H X.H H H H H H H X.H H V H X.H H H X.H H H X.H H H H V H H H H G H G H H G G G H F H H J H H G H G H G G H B H H B B H B H H B B H G H H G H B V G G V G G G V V G H V H G G H B H G G G G G H H G G H H G B F F B H G G G G G B G G G G B G B H D G G G G G H D B G G B G H V G V B G B V V B B B B B B B B V V B B V B B B G B G B G B B B B B G B B B B G B B G B G B B B G B G B G B B G B G B G B B B B G B B B B B B B B c M B c B B B B B B B B B G B B B B B B B c S G c c c c B c c G B c c B B c c G c c c c B c c B G c c B S c c c B c c B S B B c c B S B c B B c c G B c c B G c c B c B B c c G c c B c B c S c S S S c S G S c S c S c S c c S c S c c c k c c c c c c c c c c c c c B c c c c c c c c z c c x c c c z c z c c c c z c z c c x c c S c c c c c k c c x c x S c c c c c k c S k c c c c c c c c c x c x S c A c c c S c c c c k A c c x c c c x k c c c c c c x c l x c x c c x l c x c x c c x l c c x c x x c x c c l x c c l x c x c x c c l x c c x c x c x c x c l c l z x c l c l c l c x z x c x c l z x c x c l c l x z x c l c x c c c l x c x c x x x x c k x x x S x c x x x x x x c k x x x A k S x x x x x x x x x x x A x c x c x x x x S x x x x c x A k S x x x x x x x x x x x x x A x x x x x A x x x x x x x x x x x x A x x x x x x A x x x x x x x x x x A x x x x x x x A x x x x x A x x x x x x x x x x x 8 x j 8 x l x x l x 8 x x 8 x x 8 8 A 8 x x 8 8 x x 8 x x 8 x 8 8 8 x x 8 x 8 x A x 8 x x 8 x 8 x 8 x 8 8 8 8 x x x 8 x A 8 A 8 x 8 x x 8 8 x x 8 8 x x 8 8 x 8 A x 8 8 x A 8 8 x x 8 8 x x 8 8 A x 8 8 x x 8 x 8 x x x 8 8 x x 8 8 x A 8 8 x x 8 8 x x 8 x 8 8 x x 8 8 x x x 8 x x x 8 x 8 8 x 8 8 8 x 8 8 x 8 8 8 x 6 8 8 x x 8 8 x 8 x 8 x x 8 x 8 x 8 8 A 8 x 8 A x q 8 x x 8 8 8 8 x x 6 x x x l l l x l l x l l l x x 8 4 8 8 8 8 x 8 8 A 8 x 8 8 8 8 8 8 8 x 8 8 x 8 A 8 A 8 8 q 8 8 8 x 8 x q 8 8 8 x 4 8 8 x 8 8 6 8 l 8 8 6 8 8 6 8 8 8 8 8 6 8 8 8 6 8 8 8 x 8 6 8 8 8 x 6 6 8 8 8 x 8 6 8 8 8 x 8 6 8 8 8 8 8 6 x 8 6 8 8 8 6 8 8 x 8 x 6 8 8 6 8 x 8 8 8 8 x 8 8 x 6 6 8 8 x 8 8 8 x 8 8 x 8 8 8 6 8 8 8 8 8 8 8 6 8 ",
"%.%.%.%.+.%.%.%.%.%.+.%.%.%.%.+.%.%.%.%.%.%.%.+.%.%.%.%.%.%.%.%.%.%.%.%.o.%.%.' %.o.%.%.o.%.o.%.o.o.%.o.%.o.%.%.o.%.%.o.%.%.o.o.o.%.o.%.o.o.o.%.o.o.o.o.o.o.o.o.+.o.o.o.o.+.o.%.%.o.o.o.o.%.o.o.O.o.+.o.+.o.O.o.o.o.o.+.o.+.o.o.+.o.o.o.o.O.o.o.o.o.o.o.o.o.o.X.o.o.o.o.o.o.X.o.o.X.' X.o.o.o.o.o.o.o.X.X.o.' o.o.X.o.o.X.X.o.o.o.X.' X.o.o.o.o.o.o.X.o.o.X.o.o. .O.o.X.O.O.X.O.o.X.O.O.X.o.X.X.X.O.X.o.O.X.X.X.o.X.o.X.o.X.o.X.o.X.X.X.X.X.X.X.X.X.X.o.X.X.' X.X.X.X.X.X.X.O.X.X.X.o.X.X.X.X.X.X.O.X.X.X.X.O.X.X.o.X.X.X.X.X.X.X.X.X.X.X.H X.X.` X.X.X.H X.X.X.X.X.H X.X.` X.X.X.X.` X.H X.X.X.X.H X.H X.X.X.X.X.X.X.X.X.X.X.V X.H H X.X.X.H X.` H V X.X.X.X.H X.H H X.K H H X.X.H X.X.H H H X.H K X.H H X.H X.H H H X.H X.H H H H X.H X.H H X.H X.H H X.H H H H H H H H H X.H H H H H H H X.H H H H H H H H H H H V H V H H H H G H G H G G H H H G H G H F H D H D K H H G H H H B H H B H H B H H B G V G G V H G G H G G H H G G H G G G V G G V G H G H H G G G G G G G G B B B B B G G B B H G G G B G G G G G B B H B G G B B H G G F G B B B B B V G B B B B V B B V M B B B B B B B B B B B B B B G B G B B B G B G B B B B B B B G B B B B B B B G B G B B B B B B G B B G B G B B B k G B B B B B B B B B M B B B k B c B B B c c B c S G S G S B B c c c c B c B S B c B G c B c B S c B c B c B B c B c B c c B c c B c c B c c G c B c c c c G c B c c G c c G c B c B G c B c B c G S c c S c S c G c S c S c G c c c c c S c S c B c c c c c c c c c c c c c c c z c c c z c c c c c z c c c c c c c c c c c c c c c x c c c c x c S x c c c c c c c x c S x c x c c c c x c c k A c c k S c c c c x c x S c x c c c c c c c c c c c x x c x c c c c x c c x c c x c c x c c c x c c x c l c c x c c c x c c x c x c c x c c c x c c x c x c c l c l c x c x c x c x c x c x c x c x c x z x c x c l c x c x c c x c x c x z x x x c c l c x z k x x x A x x c x x x x x c c x x x x A c x x x x x x A k x c x x c x c x x x x x x x c x x c x A k x x x x x x x x k x x x x x x x x x x x x x x x x x x x x A x x x A x x x x x A x x x x x x x x x A x x x x x x x x A x x x x x x x x x x x x x x x A x x x x x x x x x x x x x x 8 x x x x 8 x 8 x x 8 x 8 x 8 x x 8 A 8 A A 8 x x x 8 8 x 8 x x 8 8 A x 8 x 8 A 8 A 8 x x x x 8 x 8 x x 8 x 8 A 8 x 8 x x x x 8 A 8 x 8 x x 8 x 8 x 8 x 8 x x x A 8 x 8 x x 8 x 8 x x x x 8 x 8 A 8 x 8 x A 8 A 8 x 8 x x x x 8 x 8 x x 8 8 x x 8 8 x x 8 8 8 x 8 8 8 x 8 x 8 8 x x 6 8 x x 6 8 x x 8 8 x 8 8 8 x 8 8 x 6 x 8 8 x 8 x 8 x 8 8 8 8 8 8 8 8 8 8 4 8 x 4 x x x z l l z z z h z - h z k z z k j x x j x A 8 4 q 8 8 8 x 8 x 8 q x x 8 8 x x 8 8 8 8 8 8 x x 8 8 8 8 8 8 8 8 x 8 8 8 8 8 8 8 8 x 8 8 8 8 x 8 8 x 8 8 8 8 l x 8 6 8 6 6 6 6 6 8 6 8 8 8 6 8 8 8 8 6 6 6 8 6 8 6 6 8 8 6 8 l 8 8 8 6 6 x 8 8 6 x 8 8 6 6 8 8 8 6 8 8 6 8 l 8 8 8 8 8 6 8 x 6 8 8 x 6 8 6 8 8 6 8 x 6 8 8 8 8 l 8 6 x x 6 ",
"%.%.%.%.%.%.+.%.%.%.%.%.%.%.%.%.%.+.%.%.%.%.%.%.%.+.%.o.%.%.%.%.o.%.o.%.o.o.%.o.%.o.%.%.o.@.o.%...o.%.%.%.o.%.%.o.%.o.%.o.o.%.o.o.o.%.o.%.o.o.%.o.%.o.o.%.o.+.%.o.o.%.o.o.o.o.o.%.o.o.o.o.o.%.o.o.+.o.+.+.o.o.o.o.o.o.o.o.O.o.o.o.o.o.o.o.O.o.o.o.X.o.o.o.o.o.o.X.' X.o.o.` o.o.o.' o.' X.o.X.o.o.X.o.o.o.' o.o.` o.` o.X.o.o.o.o.o.' X.o.o.` X.o.o.o.o.X.' X.o.o.X.o.O.X.o.X.O.X.X.X.X.X.o.X.o.O.X.X.X.X.X.O.X.X.X.X.X.X.X.X.X.X.X.X.X.X.o.X.` ' X.X.X.X.X.' X.X.X.X.X.X.X.X.X.X.X.X.X.X.X.O.X.X.X.X.X.O.X.X.X.X.X.X.X.X.X.X.X.X.O.X.X.X.X.X.X.X.` X.X.V X.X.X.X.H X.H X.H X.X.X.H X.X.H X.X.X.X.H X.H X.X.X.X.X.X.X.X.X.H H X.X.X.X.H V X.X.X.X.X.X.V H X.X.X.K H X.H H X.K H X.H H H X.X.H X.H X.H H H X.X.H H V H H V H H H H V H H H X.H H H H H H H X.H H V H H H H X.H H H H H H H H H H X.H H H X.H H H H V V H H V H V H G H H G F J H G H H G G H H G H H F J V B H H H H B V G G H B H H B H G H G G H G H B H G H G G G H G G H G G J G G G G G G J H G G J V G G G G G B B G G H G G G B G G G G H G G G G G G B H V B G V V B V B V B B B B V V B B V B M B B B B B B B B B B B B B G B B G B B B G B G B G B B B B B B B B B G B G B B B B B B G G B B B B B G B B c B B G B B B B B B B G k S G B B B B B B c G B c B S c B S c G c c G c G c G B c B c G B c B c c B c S B c B c G c c c c B c G c c B c G c c c c B c G c c c G B c G B c c B S c c S S c G c c S c S S c c S S c G c G c S c S G c S S S c G c c c c c c c c c c c c c c c M c c M c c c B c c c c c z c c c c c c z c c c x c z c c c c c c c c x c A c c x c c c c x c c c c c c c c c c x c c c x c c c c c c k c c c x c S k c c k c c c c c c c x c c x c x c c x c c x l c c x c c x c c x c c x c c c l x c x c x c c c l c z x x c x x c c x c c z x c c x c x c l c l c l c x z x c c x c x c l c l l c l c x c x c z x c l c x c x x x x x x c x c x x k x c x c x A x c x x k A x c x x x x x x S x c x c x x x x S x x k x x S x k x x c x x k x x c c x x x x x 8 x x x x x C x x A x x x x x x A x x x x x x x x x x x x x x x x A x x x x x x x x x x x x x x x A x x A x x x x x x x x A x x x x x x x l x x x l l x x x 8 x 8 A 8 x 8 x 8 x x 8 x 8 x 8 A 8 x x x x 8 x x 8 8 x x 8 x 8 x 8 x x 8 A 8 A 8 x x 8 x 8 x 8 x 8 x 8 8 x x x 8 A 8 x x 8 x 8 x 8 8 8 x 8 8 x x 8 x x A 8 x x 8 x x 8 A x 8 x 8 x 8 8 x 8 8 x x 8 A x 8 x A 8 8 x 8 x 8 A 8 8 x 8 x 8 x x 8 x 8 A 8 8 x 8 x 8 8 x 8 6 x 8 8 8 x 8 8 8 x 8 8 x x 6 x q 8 8 8 8 8 8 x 8 x 8 8 8 8 8 x 6 x 8 8 x 8 8 8 4 x 8 x x x 4 8 8 8 8 8 q 8 8 q 8 x j x j r w r t a m m m ( o.o...o...o.( T d s v t r y y 4 9 4 4 8 8 8 x x 6 7 8 8 6 z l l 8 8 8 8 7 8 8 6 l x 8 x 6 6 x 8 6 8 8 6 x 8 6 6 8 6 8 6 x 6 8 8 x 6 8 8 8 8 l 8 8 6 x 6 8 8 x x 6 8 8 x 6 8 6 8 6 8 6 8 x 8 6 8 x 6 8 8 8 8 6 8 8 8 x 6 8 8 8 6 x 6 8 8 x 6 8 8 x x 8 8 8 8 8 8 8 6 x 6 8 8 8 x 8 8 6 8 8 8 6 6 x 8 6 8 8 6 8 8 6 8 8 8 8 ",
"%.o.%.%.%.%.%.%.%.%.%.%.%.%.%.%.%.%.%.o.%.+.%.%.%.%.%.%.%.o.%.+.%.o.@.o.%.%.%.%.%.o.o.%.%.o.%.%.%.%.%.o.%...o.%.%.o.%.o.@.o.%...o.%.o.o.+.o.o.%.o.o.o.+.o.o.o.o.o.%.o.+.o.%.o.%.o.o.o.%.o.%.o.o.o.o.o.o.o.o.O.+.+.+.o.o.o.o.+.+.O.o.O. .o.o.o.O.o.o.o.o.o.o.X.o.o.o.o.o.o.o.o.X.o.X.o.X.o.o.X.' ' o.o.X.o.X.X.o.o.o.X.o.o.o.' X.X.o.o.o.o.X.o.o.o.` ` o.o.o.o.o.X.o.o.X.X.O.O.X.O.X.X.O.X.o.' X.X.X.O.O.O.O.X.X.O.X.O.o.o.X.o.o.o.X.o.X.` X.X.X.X.X.X.` X.X.X.X.X.O.O.X.X.X.X.X.X.X.X.X.X.O.X.X.X.X.X.X.X.X.X.X.X.X.X.X.O.X.X.X.X.X.X.X.X.X.H X.X.X.H X.X.X.X.X.X.X.X.X.X.X.H X.X.X.X.X.X.X.H X.X.X.X.X.X.X.H X.H X.H X.H ` X.X.V V X.X.X.X.V V V V X.X.X.X.V H H X.X.H X.H H X.X.H X.H H H H H X.H H H V H H H H X.H X.X.H X.H H X.H H H H H H X.H H V H H H H X.H H H H H H H X.V H H X.H H H V H H H H H H H H H H H H H H H G F G G H H H G H G H H H H G H H G H G G H H B B H H G G H G H B H H B G V V G G V B H G V V G G G G G H J G H H H H G G H H G H G H G G G G B G G H G G G B G B G G H G B G B G G B F B G G B G G B B G B G B B B V B B B B B B B B B V B B V B V B V V B B V G c B B B B B G B B B B B B B G B G B G B G B B B B G B G B B B B B B G B G B B B B B B B B B B B B B B S B B c c c B c c S B c S G c G G S B G c S G c S c G S c B c B c c G c G c c B B c c G B c c B G c c B B c c B B c c B G c c B B c B c c c c c c G G c c S S c c S c S S S G c c S S c c S c S S S c S c c S c c c S c c c c c c M c c B c c c c c c c c c c c c c c c c c c c c c c z z c c c c c c z c c c c c c z c c c c c k c c c c c c c c c S x c x c x c c c c c c k S c x x c c c A c x S k c c x c c S c x c x c x x c x c c c c x x c c x c c x x z c x x c l c c x x c x c c c c c x c c x x c x c c c c c c c x c c l c x x c c x c x c x c x c x c x c x x z l c x c x c c x c x c l c x x c x c x c l c c x c x x x x x c x A x x x x x x x x x x x x x x x c x c x x x x x x x k x x c x x x A x c x x A x x x x x A x x x x x x c x S C j x C x x j x x x x x x x x x x x x x x A x x x x x A x x x x x x x x x A x x x x x A A x x x x x x x x x x x x A x x x x x x x x x x x x x x x x x 8 x l l x x x x 8 8 x x 8 8 A x x 8 x 8 x x 8 8 x x 8 8 A A 8 8 x x x 8 x 8 8 x 8 x 8 x x x A 8 x x x 8 x 8 x x 8 8 8 x 8 x x 8 A x A 8 x x x x x x 8 8 x A 8 8 x x 8 x 8 8 x x 8 x 8 x 8 x x 8 A x 8 8 x 8 q A 8 8 x A 8 A 8 x 8 x x 8 x 8 A x 8 8 x x 8 x 8 8 x 6 x x 8 x x 8 x x x 6 x x x 6 x x 8 8 x 8 8 x 8 8 x q x 8 q 8 8 A 8 x x 8 8 8 8 8 8 q 4 8 A 4 x 8 4 x 8 4 q q q 3 5 7 q x x j g h v B  .*.*.=.=.4.4.5.w.5.0.5.w.5.5.4.4.=.%.+. .D u , ; 4 4 q 8 x 6 x x 8 8 x x l l l l 8 8 0 8 8 8 x x 6 8 6 8 8 8 8 8 8 6 8 8 8 x 8 8 8 8 8 6 x 6 8 8 8 6 6 x 8 8 8 8 8 8 8 8 8 6 6 8 8 8 6 8 6 x 8 x 8 8 8 6 6 x 8 8 6 8 6 x 8 x 8 6 8 8 8 6 6 x 8 8 8 8 8 6 x 8 8 6 6 8 8 l 8 6 x 6 8 8 8 6 8 8 6 6 6 x 8 8 x 8 8 8 8 x 8 6 x 8 8 x 6 8 8 8 ",
"%.%.%.%.%.%.%.%.%.%.%.+.%.%.%.%.o.%.%.%.o.%.%.o.%.o.%.%.+.%.%.%.%.o.%.%.o.+.o.%.o.%.o.%.o.%.%.o.%...o.%.o.%.%.o.%.o.%.%.o.%.o.%.o.o.+.o.%.o.%.o.o.o.%.o.%.o.o.o.o.o.o.o.%.+.o.o.o.%.o.+.+.o.o.o.O.o.o.o.o.+.o.o.o.O.+.O.+.o.o.o.o.o.o.o.o.o.o. .o.o.o.X.o.X.o.o.o.o.X.o.o.X.o.o.o.o.o.o.` o.o.o.o.X.' o.o.o.' o.o.o.o.o.o.X.o.o.o.o.o.X.' o.o.X.o.o.o.o.o.o.X.o.X.o.o.O.X.X.O.O.X.X.X.o.o.X.o.X.X.X.X.X.X.X.X.X.X.o.X.` X.' X.X.X.X.X.o.X.X.o.X.X.X.X.o.o.` X.X.X.X.X.X.X.X.O.X.X.O.X.X.X.X.X.X.X.X.X.O.X.X.X.X.X.X.X.X.X.X.X.X.X.X.X.X.X.X.X.X.X.X.X.X.X.X.X.X.X.X.X.X.X.X.X.X.` H H X.H X.H X.X.H X.X.H X.X.H X.X.H X.X.` X.V X.X.X.V X.V H X.X.H H X.` H X.` K H H H X.H H X.H H X.X.H X.X.H X.H H H H H H V H X.H X.H H V X.H H H H H H H H H H H X.H H H H H H H H H H H H H H H X.H H V X.H H X.H H H X.V V H H V V H V H H H G H H G H H H G H G G H F G H G H H H B B H H B B H V H G G V G G V B H H G G V G G H B G H G H J H G H G G G G G G G G G G G G H G B G G G G B G G B G B G H G G B G B G G B G G B H G H D B B G B B B B H B V B V V B B B B V V B B B B B B V B B B B B B B G B B G B G B B B G B G B G B G B B B B B B B G B B B G B B G c G B G B B B B B B G B B B B k B M B B G S B B B B B B G c G S B c G c c G G c G c S B G c G c S B c c S c c c c B G c c c B c c B B c c B G c c S B c c B B c c B c c c c B G c c B c c c G c S c S G c S S S S c G c S c G S S S c S c S c S S c S S S c S S c c c B c c c c c c c c c c c c c c c c c c c c z z c c c z c c c c c c c c c c c c c c z c x c c c c c c c c c c S c S c c k S k S c c c k c c c c c c k S c c x c c c S c c c c x x c x S c c c c c c c l l c l c c c x c x c c x c c c c c c x c c x c c x x c x x c x c c x c c x x c l x c c x x c x x c c x c c x x z l c x c x c x c l c c x c x c x c l x c l c x z x z c x c x z x c l x x k A x S x x x x S x x x A x x x c x S x c x c x k x c x x k x c k x A x c x x c x c x x x x x c x c x S x x x x x x x x x x x x x x x x x x x x x x x A x x x x x x x x x x x A x x A x x A x x x x x x x x A x x x x x A x x x x 8 x x A x x x x x x x x x x x x x x x x x x x x x x 8 x x x 8 8 x x 8 x x x A 8 x 8 x x 8 8 8 x 8 8 x x 8 8 x x 8 8 x 8 8 x 8 x x x 8 x 8 8 x x 8 8 A 8 x A 8 x x x 8 x x 8 x x 8 8 x x 8 8 x 8 A 8 A x 8 8 x 8 8 x 8 x 8 x 8 8 A x 8 A x 8 x x x 8 x x 8 8 A 8 q 8 q 8 8 x 8 x x 8 x x x x 8 8 x A 8 x x 8 x x 8 x 8 8 x 8 x 8 8 8 x 8 8 8 x x 8 8 x x 8 8 8 q x A 8 8 8 8 x x 8 8 8 q 8 x x 8 8 8 8 x 8 4 8 8 8 8 x 8 8 q 7 8 8 8 x j x j k v m ( o.=.4.4.5.5.w.w.w.w.w.e.w.w.w.w.w.w.w.w.5.5.=.*...F m h y g j x 8 8 8 q 4 8 x x l x 6 8 8 8 8 8 8 8 x 8 8 8 8 8 6 x 6 x 6 8 8 8 8 x 6 8 8 8 8 8 8 x 8 8 6 8 6 8 8 8 x 8 8 6 8 8 x 6 8 8 8 8 8 8 8 l 8 6 8 8 8 8 8 x 6 8 8 8 6 6 8 8 x 6 8 8 8 8 8 x 8 8 8 6 8 6 8 x 8 8 8 8 8 6 x 8 8 8 8 8 x 6 x 8 8 8 8 x 6 6 8 8 8 6 8 6 8 6 8 6 8 8 8 8 l ",
"%.%.%.%.%.%.%.%.%.%.%.%.%.%.+.%.%.%.%.+.%.%.%.%.%.%.%.o.%.%.%.%.o.%.%.o.%.@.%.o.%.o.@.%.%.o.o.%.%.%.o.%.%.%.o.%.o.@.o.%...' %.o.o.%.o.%.o.o.o.o.%.o.%.o.o.o.%.o.o.%.o.%.o.o.o.%.o.o.%.o.o.%.o.%.o.+.O.+.o.o.+.o.o.o.o.o.+.o.o.o.O.o.o.+. .o.o.O.X.o.o.o.o.o.X.o.X.X.o.' ' o.X.X.X.o.` o.o.o.X.o.o.o.X.X.o.X.X.o.X.o.X.' ' o.X.o.o.X.' o.o.X.o.o.o.X.` o.X.o.` o.o.o.X.o.o.O.X.o.O.X.O.X.X.o.X.o.X.o.o.X.X.o.o.X.o.` o.X.o.X.o.X.X.X.X.o.X.X.X.X.X.X.X.X.X.X.X.X.X.X.X.X.X.X.X.X.X.X.X.X.X.X.X.X.X.X.X.X.X.X.X.X.X.O.X.X.X.O.X.X.X.X.X.X.X.` X.X.X.X.X.X.X.X.X.H X.H X.V X.H X.X.X.X.X.X.X.X.X.X.X.X.X.V X.X.X.X.V X.X.X.X.H X.H X.V X.V X.X.X.X.` X.` X.H X.H X.X.X.H X.H H X.H H X.H K H H K X.H X.H X.H X.H X.H H H V X.H H H H H X.H H V X.H H H H H H V X.H H H H X.H H X.H H H H H H H H H H H H H H H H H H H H H V H H H H G H H G H G H D H H F J H H G G H H G H H B H H B H H G G V G G G H G H G G V H G G H V H G G G G H G G G G G G H G G G G H H G G G G G H B G G G G V F G G G B G D B G H G G G G G G G B B G B H V B B H B G B B B B V B B B B B B B B V B V B M B B B B V M B B G B B B B B B G B B B B B B c B B G B G B G c G G B B B B B G B B B B G B G B B B B B B B B M J B B c B S G B c c B B S c G c G c G c S S c S G B S c G c G B c B c B B c B B c c B B c c B B c B S B c c B B c c B G c c G B c B B c G c c B G c B B c c B c S S c G c S c c S c S c S S c S c S c S c G c c S c S c G c S c B c c c c c c c c c B c c c c B c c c c c c B c c c z c c c c c c z c z c c c c c c z c c c c c k c x c c x c c x k x c c c x S x c c x S x S c c S x c S x c c c c x c c c c c S c c c c x c x c c x c c c x c x x c l c z c x c c x x x c l c c x c l c c c c z c x c x z c c x c c c c c x l c c x c c x c c l c c c x c x z x c l c l c x x c l c x z x c z x c x c x c c l c l c x c x c k x x x x x c x c x x x x c k x x c x x x x x x x x A x x x A x x x A x x x x x x x x x x c x c x x x x x x c x c x k A c A x k x x C x x C x x x A x x x x x x x x A x x x x A x x x x x x x x x x x A x x x x x x x x x x x x x x x A x x x x x x x A x x x A x x x x x x x x l x l x x x l x 8 x x 8 8 A x 8 8 8 x 8 x 8 x A x x 8 A x x 8 x x x 8 x A 8 x x 8 x 8 x 8 x 8 x x 8 x 8 x 8 A 8 8 x 8 A 8 x 8 x 8 x 8 x x 8 x 8 x 8 x 8 x 8 x x x 8 x x x A 8 x x 8 x 8 8 x 8 x A 8 x 8 A 8 x x x 8 8 x x 8 C A 8 x 8 x x 8 A 8 8 x x 8 8 x 8 x x 8 x 8 8 x 8 6 x 8 x 6 x 8 x 8 x 8 8 8 x 6 8 8 8 x 8 8 x 8 A 8 q 8 q 8 x 8 8 x 8 8 8 x A 8 x 8 8 8 A 8 8 q 8 q q 7 5 8 x x z h v N +.&.4.5.w.w.w.w.w.w.w.e.e.e.e.e.q.e.e.e.e.e.w.w.w.w.w.5.4.=.o.b h g j 8 8 8 q 8 x 8 8 8 8 8 8 8 8 8 8 8 x 8 8 8 8 6 x 8 8 8 8 8 8 6 x 6 8 8 8 l 8 8 8 8 6 6 8 x 8 8 8 6 8 6 6 x 8 8 6 8 8 8 6 6 x 8 8 8 8 8 8 6 x 8 8 8 6 8 x 6 8 8 x 8 8 6 x 8 6 8 8 6 6 8 8 6 x 8 8 8 6 8 8 6 8 8 8 6 6 x 6 8 8 8 8 6 6 x x 8 6 8 8 8 6 8 6 x x 8 8 8 8 8 x 6 8 8 ",
"%.%.%.%.%.%.%.%.%.%.+.%.%.%.%.%.%.%.%.+.%.o.%.+.%.%.%.o.%.+.%.o.%...o.%.%.o.%.%.o.%.o.o.%.o.%.%.o.%.%.%.o.%.o.%.%.+.%.o.%.o.@.o.o.o.%.o.o.o.o.%.o.o.o.%.o.o.o.%.o.%.%.o.o.o.o.o.o.%.o.o.o.o.o.o.o.o.+.o.o.+.O.o.o.o.+.o.o.+.o.O.o.O...o.o.o.o.o.o.o.o.X.o.X.o.o.o.o.X.o.' X.' o.o.o.' o.o.o.o.X.o.' X.o.X.o.X.' o.o.o.' o.X.' X.X.o.o.X.o.' o.' o.o.o.o.o.o.o.o.o.X.X.X.o.X.X.X.X.X.o.X.X.X.o.X.o.` o.` X.o.` ` X.o.` o.X.o.X.X.o.X.X.X.X.X.X.X.X.X.X.X.X.X.O.X.X.X.X.X.X.o.X.X.X.O.X.X.o.X.X.X.X.X.X.X.o.X.X.O.X.X.X.X.X.X.X.X.X.X.X.O.X.X.X.V ` H X.X.` X.X.X.X.X.H X.H X.` H H X.X.X.X.X.X.X.X.X.X.X.H X.X.X.X.X.H X.X.V X.` X.X.V X.X.X.V V H V X.X.X.X.V V H H H X.H X.X.H X.K H H X.H H X.H H X.H V H H H H X.V H H X.H H H H H H H H H H H H H H H X.H H H H H H H H H H H X.H H H X.H H H H H H X.H H H V V H G H H V V G J H H G H F G H G H G H G H H H G H G B H G V B H H B H B B H H G H G V G G G G V H G G G V G G G H G G G H G J H G G J H G J G H G G G B F G H G G D G G B G G D V G G G B B G G B G H G B G B B B V V G B V V B B V B B B B M B B V B B B B B V B B V B B V G B B B G B G B G B B B B G G B G B B G B B B B G B G B B B B B B B B B B B B B B B B B B G B B B B B k B B k c B B B c c G c c G G c G S G c G c G c G c G c c c B G c c B c c c B c c c B G c c c c c B c c c c G c B c c B c c B c c c B B c c B c B c c c c S c S c c c S c c S c S c S S c B c S S S S c S S S c S S c S c c c c c c c B c c c c c B c c c c c c c c c c c c x c z c z c c c c c c c c c c z c c c c c c z x c S c c c x S k S c c c c c c c c c c c c k c x c c c c x c c c x S c x S c x c x c c c k S c c S c x c x c c c x c c x c c x c x l c c c x c c c l c x c c c x c c x c c x c x c c c x c c x x c c c c c x c c x x c x c l c x c x c x c x c z x c l c x c x x c l c z c x l c l c x c x c x A x c x A x x x x c x x x x x x k A c x x x c x x x x x x x x x c x x x x c x x x c c x x x x x x k S x x x x c x x x x x c x x x C x x x x j x x x x x x x A x x x x x x x x x x x x x A x x x x x x x x x x A x x x A A x x x x x x x x x x x x x x x x x A x x x x x l x x x x l 6 x l x l 8 x x 8 A x 8 8 A x 8 x 8 x 8 x 8 x 8 x 8 8 x x 8 8 x 8 8 8 x A 8 A x 8 x 8 x x 8 x 8 x 8 x 8 x x x x 8 x 8 x x 8 x 8 x 8 x x 8 x x 8 x 8 A 8 x 8 x 8 x 8 8 x 8 A x 8 x x A 8 8 x 8 x 8 x x 8 x 8 9 8 8 x 8 C x 8 8 x x 8 x 8 x 8 x 8 A x x x 8 x 8 x 6 x 8 x 8 x 8 8 x 8 8 x 8 x 6 8 x 8 8 x 6 x q 8 8 x 8 q 8 8 8 8 x 8 8 q 8 8 8 x 8 8 8 x 8 8 8 A 8 q 8 8 8 q 8 q x x 2 w n X.%.4.w.w.w.e.e.w.e.e.e.e.e.e.q.e.q.e.e.e.e.e.e.e.e.9.e.e.e.e.w.w.w.4.+.X.h > j A 8 8 8 4 8 8 8 8 8 8 8 8 8 8 8 8 l 8 8 8 8 6 x 8 8 6 8 8 8 x 6 8 8 8 6 x 6 8 8 8 6 x 6 8 x 8 8 6 6 8 8 6 x 8 8 6 8 x x 6 8 6 8 8 8 8 6 x 6 8 8 8 6 x 8 8 6 8 8 8 8 6 8 6 8 6 6 x 8 6 8 x 6 8 8 8 x 8 8 8 x 6 8 8 x 8 8 8 6 8 6 8 6 8 6 x 8 8 8 6 8 8 8 l 8 8 8 6 8 6 8 6 ",
"%.%.%.%.%.%.%.%.%.%.%.%.%.%.%.%.o.%.%.%.%.%.%.%.+.%.%.%.%.%.%.%.o.%.%.o.o.%.%.o.%.%.%.%.%.%...o.%.o.o.+.o.%.%.o.o.@.o.%.o.%.o.o.o.%.o.o.o.%.o.o.%.o.o.o.%.o.o.o.o.o.o.o.o.%.o.%.o.o.o.%.%.o.%.o.+.o.o.O.o.+.o.o.+.o.+.o.o.+.o.+.o.o.o.o.o.o.o.o.o.o.o.o.o.o.o.o.X.' o.o.o.o.o.X.X.o.X.X.o.` o.o.o.X.o.o.o.o.o.o.o.` X.o.o.o.o.o.' o.o.o.o.X.X.o.` o.` X.' X.o.X.o.X.o.O.O.O.o.O.X.o.X.X.X.o.X.o.X.o.o.o.' o.o.o.o.` o.X.' o.o.` X.O.X.O.X.O.X.X.X.X.X.X.X.X.X.X.X.X.X.X.X.X.O.X.X.X.X.X.X.X.X.X.X.X.X.X.X.X.X.X.X.X.X.X.X.X.X.X.X.X.X.X.X.X.X.X.X.X.X.H X.X.` X.H X.X.X.X.X.X.X.X.X.X.H X.H X.H X.H X.H X.X.X.H X.X.X.X.X.V H X.V X.X.H H ` X.X.X.X.X.H V X.X.X.H X.K X.H H H X.H H X.X.H X.X.H X.H H H H H X.H H H X.H H H X.H X.H H V X.H H H X.H H V H H H H V X.H H H X.H H H H H H H H H H H X.H H H H H H H H V H H V H H H H G F H G G H H H G H G H H G H H G H H B H G H B B H B H H B H G G G H G H G H G G V G H H G G G G G G G G H H G H G H G H G G G G H G G B G B G B G B G G H G G G G G G F G B H G G B G G G V G B G B B G B G B B G V B V B B B M B B B B V B B B V B B B B B B B G B B B B B B G B B B B B G B B B B B B G B B B B B G B G B G G B B G B G B B G B B B B B B B B B J c B B c B B B G c S G S c G c c G G c G c c S B S G S B c c B B c c B B c G c c c c B c B G c c G G c c c B c c B B S B c S B B c c B G c B c c B G c S S c G S S c S G c S c S c S G c S S c c B S c c G S c G c c S c c c c c c c c c c c M c c c c c c c c c c c c c c c c c c c c c c z c c z c c c c c z c z c c c c x c c x c c c x c c x c x c c x x c c c A c c c c S c c c x c c x k c k c c c c c c c c x S c x c c c x x c x c c x c x x c x c c c x c c x x c c x c c x x c x c x c x c x c c l x c x x c c x x c l x c c x c c c c l c x c l c x z x c l x c x c x c l c c x c x x x c x x c x c l c x z x x x x k x c x x x k x x S c x x x x x A k x x x x S x x c x c x x x S x x x S x x x x x S x A x A x x k x x x A c x c x x c x x x x x x x A x x x A x x x x x x A x x x x x x x x x A x x x x x A x x x x x x x x x x x x x x A x x x A x x x x x x x x x x x x x x x x x l x x x x x x x x x 8 x x 8 8 x x 8 8 x 8 x x x 8 x x A 8 x A 8 8 x x 8 A x x x 8 x 8 x x 8 x 8 8 A 8 x 8 A 8 x x 8 x 8 8 x A 8 8 x 8 A x x 8 x A 8 8 x x 8 8 x x 8 x x 8 x x 8 8 x 8 x 8 x 8 x x 8 8 x A 8 8 x x 8 8 x q x 8 8 q 8 x 8 x x 8 x 8 A 8 x 8 x 8 8 x x 8 8 x 8 8 8 x 8 x 6 8 x 8 x x 6 8 x 8 x x 8 x 8 x 8 q 8 x 8 x 8 x 8 8 q x 8 x 8 8 q 8 A 8 8 8 x 8 8 8 8 q 0 8 8 q 4 g x k N %.=.5.w.w.e.e.q.q.q.e.e.q.e.q.e.e.e.q.e.q.e.q.e.e.9.9.9.9.9.9.q.e.q.e.w.5.=.o.n h g g j g 8 8 0 0 8 8 8 x 8 8 8 8 8 8 8 x 8 8 8 6 8 6 x 8 8 8 8 8 6 6 x 8 8 8 8 6 x 8 8 8 6 6 8 6 x 8 6 8 x 6 8 6 x 8 6 8 8 8 8 8 6 6 x 8 8 8 8 8 6 8 6 8 8 8 8 8 l 6 x 8 x x 8 8 8 6 x 8 8 6 8 6 x 6 8 x 6 6 8 8 8 6 8 6 x x 8 8 8 8 8 8 6 6 x 8 x 8 8 8 8 8 l 8 x 8 x 8 8 ",
"%.%.%.%.%.%.%.%.%.%.%.%.%.%.%.%.+.%.%.o.o.%.+.%.o.%.%.%.%.o.%.%.%.%.%.%.%.%.o.%.%.o.%.o.o.%.o.%.%.o.%.@.%.%.o.%.%.%.o.%.o.%.%.o.o.o.o.%.%.o.o.o.o.%.o.%.o.%.o.%.o.%.%.o.o.%.o.o.o.%.o.o.o.o.o.%.o.+.o.o.o.o.O.o.o.o.O.o.o.o.+.o.o.o.o. .O.o.o.o.o.o.o.o.o.o.o.o.o.o.o.o.o.o.` o.o.' o.o.o.o.o.` o.o.o.X.' o.X.o.o.o.' o.X.' X.X.X.X.o.X.o.o.o.o.o.o.o.o.o.X.' o.o.O.X.O.X.o.o.X.X.X.X.X.X.X.X.X.' o.` o.o.X.X.o.X.o.` X.X.X.X.X.X.X.X.X.X.X.X.X.X.X.O.X.O.K X.X.X.X.X.O.X.X.X.X.X.X.X.X.X.X.X.X.O.X.X.X.O.X.X.X.X.o.X.O.X.X.O.X.X.X.X.X.X.X.X.X.X.X.X.X.X.X.X.X.X.X.H X.X.H X.H X.X.X.H H X.X.` X.X.X.X.V X.X.H X.H H X.X.X.H ` ` X.` H H X.X.V H ` ` H V X.X.V X.X.H H X.H H K X.H X.H H X.H K H X.H X.V X.H X.H H H H H H H H H H H X.H H H X.H H H X.H H H H H H H H H H H H H H H H H H H H H H H H H H H H H V H H H H V H G H H G H H H G H F H H H G H G D H G H G V G G H H H H H H H H B G G V G G H V G G G G G G G V G H J H H G G J G G H G G G H G J H G G G G G G G G H B H D G B B G B G B G G G B G D V G G G G B G B H V G G V G V B V V B B M B B B B V B B B B B B B M B B B G B G B B B G B G B G B B B B B B G B G G B G B B B G B G B B B B B B B G B B B B M G B B G B B B B B B B B c B B B c B G S G c S c S c G c c G c S G c c G c B c S B c c B B c G c c G G c B c B c c B c c G c B c G c B c c B G c B c c B c S c c B B B c c B c S S c c S G S S S S c c G S c S c c G c S S c G c c S c S c S c c c M c c c B c c c c c c c c c c c c c c c c c z c c c c c z z c c c c x z c c c c c c c z c c x c k c c c S c x c c c c S k k S c c x c c c c k S x c A c c c x S c S c c c x c k A c x c c S x c x l c c c x c z x c c x c c c c x x c z x c x c x x c l c c x c c x l c c x c x c c x c z c z c c c c c x c c x x x c x c l c x z l c x c c x c l z x c l x z l c c c c l c l z c c x c x x x c x x x x x x x A x x x x x x x x x x x x x k A x c x x x x c x c x x k x x x x x x x c x k x x x x A c x c c x x x x x x x x x x x x x x x A x x x x x x x x x x x x A x x A x x x 8 x x x x x x x A x x x A x x x x x x A x x A x x x x x x A x x x x x x x x x x x x x x x l l x 8 l x l x 8 8 x x x 8 x x x 8 x 8 x 8 8 8 x x 8 8 A x 8 x x A 8 8 x x 8 x 8 x 8 x x A 8 x x x x x 8 8 x x 8 A 8 8 x x 8 A 8 8 x x 8 8 A A x 8 x x x 8 A 8 x 8 A 8 x x 8 8 x 8 x x 8 x x x x 8 x x x 8 x A A 8 8 A 8 8 x x 8 A 8 x x x x x 8 8 x x 8 x 8 x 8 x x x 6 x x 8 x x 8 x 8 x 8 8 x x 6 x 8 x 8 q 8 8 x x 8 x 8 8 q x 8 x 8 x 8 8 q 8 8 8 x 8 x 8 x 8 8 8 8 8 8 x g h F +.=.5.w.w.e.9.q.q.q.e.q.e.e.e.e.e.9.9.e.e.e.e.9.e.e.e.e.e.e.9.9.9.q.q.e.q.e.w.5.5.4.( $ h g g 7 4 7 7 8 8 6 l 8 8 8 8 7 8 8 6 8 6 8 6 8 8 8 8 l 6 8 8 8 8 8 8 8 8 8 8 8 8 8 8 x 8 l 8 8 8 x 6 x 8 8 8 8 8 8 l 8 8 8 8 x 8 8 x 8 8 8 6 x 8 8 x 6 8 6 8 8 8 8 l 8 6 8 8 8 8 8 x 6 8 8 8 6 6 x 6 8 8 8 8 6 6 x 8 6 8 8 8 6 8 8 8 8 6 8 6 x 6 8 8 8 8 8 6 x 8 6 6 8 ",
"%.%.+.%.+.%.%.%.%.%.%.%.%.%.%.+.%.%.%.%.%.%.%.%.%.%.%.+.%.%.+.%.%.o.o.%.o.o.o.@.o.@.o.%.%.o.%.%.o.%.%.o.o.%.@.o.%.o.%.o.} o.o.@.o.%.o.o.+.o.%.o.o.+.o.o.o.o.+.o.o.o.o.+.o.o.o.%.o.o.%.o.%.+.o.o.o.o.o.+.+.o.o.+.o.+.o.o.o.O.o.o.O.O.o.o.o.o.o.X.o.o.X.o.X.o.o.o.o.X.' X.X.o.o.o.X.o.o.X.' X.o.o.X.o.' o.o.X.o.o.o.X.X.o.o.o.o.o.o.o.o.' o.X.` o.o.X.o.` o.o.o.X.X.o.O.o.X.O.O.X.X.o.X.o.X.o.X.o.X.` o.X.X.X.' ` o.X.X.o.X.o.X.o.O.X.O.o.X.X.X.X.X.X.O.X.X.X.X.X.X.O.X.X.X.X.X.X.X.X.X.O.X.X.O.X.X.X.X.X.X.X.X.X.X.X.X.X.X.X.X.X.X.O.X.X.V X.X.X.X.X.X.X.X.H X.X.H X.X.X.X.X.X.X.H X.X.X.X.X.X.X.H X.H ` X.X.X.X.X.X.X.X.V X.X.X.H H X.X.X.V X.X.X.X.H X.X.X.H X.H H X.H H X.X.H X.H H H X.H H X.H X.H H H H H V X.V X.H X.V X.H H H H H H H H H H H H H H H X.H H H H X.H H V X.H H X.V H H X.H H H H X.H H H H H H H V V H H H H G H H G H G H H J H G H D K H G H H H G H B H B H B B H B B H H V H G V G G G B H H G V H G G G G H G G G G H G G G G G G G G H G G H G B G G G B G G G B G G H G G G G H B G G G G G G B G G B V B B B G B B B B B B B V B B B V B V B B V B B V B B V B B V B B B B B G B B B B c G G B B G B B B B B B B B c G B B B B B G B G B G B B B G B B G B G c B B B B B B S B B B c B c B c G c S G G c G c S G c G G c G G c B c c B c c G c c G c c B c c B c c c G B c B c c B G c c B c B c c c B c c G c B c c B c S c G B c c B S c S c S c c S c S c S c S c S S c S S c S c S S c S c S S c c c c c c c c c c c c c c c c c c c B M c c c c c c c z c c c c c c z c c c c c z c c c c c c c c c c c c x k c S x c c c x S c S x c c c c x c x c c c k c c c c c c x c c c c c c c c c c x c c c c c c x x c c x c l c c x c x x c c x c c c x c c x z c c x c c l c c x c x c c c x c c x x c x x c x x c c x c z c l c l c x c x c x c l l c x c x c x c c x c x l c x c x c x x l c x z A c x x x S x c x c x x x c x A c x S x x c x c x x x x c x A k x x x x x A x c c x k A x x x x x c x c x x x x x x x c x A k x x C j x x C x A x x x x x A x x x x A x x x x x x x x x A x x x x x x A x x x x x x x x x x x x x x x x x x x A x x x x x A x x x x x x x x x x 8 x x x x x x x x 8 A 8 x 8 x 8 x 8 A 8 A 8 x x x 8 x 8 x 8 x x 8 x 8 x x 8 x 8 8 A 8 x 8 x 8 x 8 8 x 8 A 8 x 8 x x 8 x x x 8 x 8 x x 8 8 x x 8 8 x x 8 x 8 x 8 A 8 x 8 x x 8 x A 8 x x 8 x 8 x 8 x x 8 x 8 A 8 8 8 8 A 8 A A 8 8 A 8 x 8 8 x 8 x 8 x x 8 x 8 x 8 x 8 8 8 x 8 8 x 8 6 x 6 x 8 8 x 8 x 8 8 x 6 x 8 x 8 8 8 q 8 8 x 8 x 8 8 q 8 8 x 8 8 x 8 8 8 8 8 x 8 8 q 8 8 j k a m =.5.5.w.w.e.e.q.e.9.e.e.q.9.9.9.9.9.e.e.9.e.9.e.e.e.e.w.e.e.8.w.9.e.e.q.e.q.e.e.w.w.w.5.&.* h h j 8 3 0 8 8 x l l x 8 7 7 8 8 6 8 x 8 8 6 x 8 8 8 x 8 6 6 8 6 x 6 8 l 8 8 6 8 8 8 8 8 8 8 8 8 8 6 8 8 8 8 8 8 8 8 x 6 6 8 8 6 6 8 x 6 8 8 x 8 8 6 8 x 8 8 8 8 8 8 8 8 6 8 8 8 6 8 x 6 8 8 8 8 8 8 8 6 x 8 8 8 8 8 8 6 x 8 8 l 8 8 8 8 8 8 8 6 x 8 8 8 8 6 6 x x 8 ",
"%.%.%.%.%.%.%.%.%.%.%.+.%.%.%.%.%.%.%.+.%.o.%.%.%.+.%.o.%.%.%.o.%.o.%.%.%.o.%.@.+.%.o.%.o.%.%.o.%.o.@.o.%.o.%.%.%.o.o.%.o.%.o.%.o.o.+.o.o.%.o.+.%.o.%.+.%.o.o.o.o.+.o.%.o.o.%.o.%.o.%.o.o.%.o.%.+.O.+.o.o.o.o.+.o.+.o.O.o.o.o.+.o.o.o.O.o.o.o.o.o.o.o.o.o.` o.` o.o.o.o.o.X.o.X.o.o.o.o.o.' o.X.o.o.X.' X.o.o.X.o.o.' o.o.X.o.X.O.o.o.X.o.X.o.o.o.X.o.X.o.o.X.o.X.o.O.O.X.O.o.O.o.X.o.X.o.X.X.X.X.o.+.o.X.X.X.X.X.O.X.O.X.o.O.X.X.X.X.o.X.o.X.X.X.X.X.o.X.X.O.K X.X.X.X.X.X.X.X.o.X.X.X.X.X.X.X.X.X.X.X.X.X.X.X.X.X.X.X.X.X.X.X.X.X.X.X.H X.X.X.X.H X.X.X.X.X.X.X.X.H X.X.X.X.X.X.X.X.` X.H X.H X.X.X.X.X.X.X.H X.X.V V X.H X.H X.H X.H X.X.X.V V X.X.X.H X.V X.H X.H H X.H H X.H X.X.H H H X.H H X.H X.V H H X.H H V X.H X.H X.H H H V H H H H H H H H H X.H H H H H H X.H H H H V H H H H H H H H H H H V H H H V H H H V H V H G H H H G H H G H G G H G G H H H G H G H G G H H B H B H B B H B H H B H H B H V H G H B H G G H G G H G G G H G J G H G J G G H H G B G G B F B G G B F G G G B G B G G B H F G B G G B D V V G V G B B B V B B V V B B V B B B V B B B B B B B B B B B B B B B B G B G G B G B G B G B G B G B G B G B G B G B B G B G B B B G c B G B B B k B B B B B B B B B B B k G c G c B B B c B c G c B B B B B G B c B B c B c B M B c c B G c c G c c B c c B c G B c c G c c c G c B B c G B c G c c B c G c c B B c c B c G c B S S c S c G S c S c G S c S c c S c S c S c S S c S S c c c c c c c c B c c c c c c c c c c B c c c c c c c c z c c c c z c c c z c c c z c c c z c c c c c z c x S c x c A c c c c x S c x c c x S c c x c c c c c k c c c x c c c x c c c x S c c k c c c c c x c c x c c x c z x c c x c c c x x c c c c x x c c l c x c c x c l x c c x c c c x x c z c x c c c x c c x l c z x c l c c x x x c x c c x c x c x c x c x c x x c x c l c l c c x c x c x c x c x x x x x x k x k A c x x x k c x c x k x x S c x x x k x x c x c x c x x x x x x x x k x c x x c x c x x x x x x x x j k x x x x x j C 8 x j A x x x x A x x x x x x x x x A x A x x x x x x x x x x x x A x x x x x A x x x x x A x x x x x A x A x A x x x x l x 8 x l x x x x x l 8 x l x x 8 x 8 x x x x x 8 x 8 x 8 x 8 x 8 A 8 x 8 x 8 x x 8 x 8 A 8 x x x x x 8 A 8 x x 8 x 8 x x x x 8 x 8 A 8 x x 8 A 8 x x 8 x 8 x A 8 x x x 8 8 x 8 x 8 x x 8 x 8 8 x x 8 x 8 A 8 A 8 x 8 x 8 x x 8 x x 8 A 8 8 x x 8 x 8 x x 8 A x 6 x 8 8 x x 8 x 6 x 8 x 8 x 8 8 x 8 x 6 8 x 8 8 x 8 8 x 6 8 8 x 8 x 8 8 q 8 x 8 8 x q x 8 A 8 4 4 8 A 8 q 8 A 8 8 x 6 j x x @ f %.4.5.5.w.w.e.8.q.9.e.e.e.e.e.9.e.e.8.9.e.e.e.e.w.e.w.e.w.w.w.w.w.e.w.e.e.e.e.e.e.e.e.e.w.w.w.&.` @ r j 4 7 4 8 x 6 l 8 8 8 8 8 x 6 x 6 8 8 x 8 x 6 8 8 8 8 x 8 8 8 8 x 8 8 8 x 6 6 8 8 x 6 8 x 6 8 8 8 x l 8 x 8 6 8 8 8 x 8 8 8 x 8 l 8 8 8 6 8 8 8 8 l 8 8 8 x 6 6 8 x x 6 x 8 8 6 8 8 6 8 6 8 8 8 8 8 8 8 6 8 8 8 l 8 8 8 8 8 6 x 6 8 8 x 8 8 8 6 8 8 8 8 8 8 8 l ",
"%.%.%.+.%.%.%.%.%.%.%.%.%.%.%.%.%.o.%.%.%.%.o.%.%.%.%.%.%.%.%.%.o.%.%...o.%.%.o.%.o.o.%.+.@.o.%.o.%.o.%.o.@.o.o.%.%.%.%.%.....o.%.o.%.o.o.o.%.o.o.o.o.o.o.o.%.+.%.o.o.o.%.o.o.o.o.o.+.o.o.o.o.+.o.o.o.o.+.o.o.O.o.o.o.+.+.o.o.o.o.o.o.o. .+.o.o.X.o.o.X.o.o.` o.` o.` X.o.' o.o.o.X.X.' X.o.o.o.X.o.o.o.o.o.' o.X.X.o.X.o.' o.o.o.X.o.o.o.o.X.X.X.o.O.o.o.X.X.o.O.o.X.o.X.o.X.O.X.X.X.X.X.X.o.X.X.O.X.X.X.O.X.X.X.X.X.X.X.X.X.X.o.` X.X.X.X.X.X.X.X.X.X.X.X.X.X.X.X.X.X.X.X.X.X.X.X.X.O.X.X.X.X.X.X.O.X.X.X.X.X.X.O.O.X.X.O.O.o.X.X.X.` X.X.X.X.X.` X.X.X.X.X.V X.X.X.X.H X.H X.H X.X.H X.X.X.X.H X.X.H H X.X.X.V X.X.X.` X.H ` ` X.V X.` H X.X.X.X.V X.X.V X.X.H H X.X.H H X.K H H H X.X.H H X.H H H H X.H H H H X.H H H H H H H H H X.H H H X.X.H H V H H H H V X.H H H H H H H X.H H H X.H H V X.H H H X.H H H V H V H H H H G H J H G F H G H H H H H H H G H G J H V G G V G G G V H H H H G H B B H B H H G G G G B H G V G G G G J G G G G G H H G G H H H J G G G G G G G G G G G G G B G G H B G G G G B G G G G G G G G B B G B H B G V B B B B B B B V M B B B B V M V M B V V B V M G B G c B B B B B B B B B B B B B B B B B B B B G B B B B B G B B B G B B B B G B B B B k B B B M B B B G c G c B B c B B c G c c B c B B c G c B c c M B B c B c B B c c c B c c B c G B c B c c B c c G B c c c c c B c c c c G c c B B c c G c B S c c c B c c S G c S c c S c S S c G c S S c G G c c S G c G c c S c S S S c c c c c c c c c B c c M c c c c B c c c c c c z c c c c c c z c c c c c c c z c c x c c c c c c k c c c k c S c x c c c c c c c c c c c c c S c c A c x S k c x c c c c c S k c x c x c c S k c x c x x c c x c x c x x c x c c z c x x c c c x c c x c c x c x c c x c c x x c c c x x c c x x c c x c c c c x c x c x l c c z x c l l c l c x z l c l c x z c l c x c x c x l c l c x z x c x x c x c x x A x x x x c x x x x x x x A x x x x x x c A x x x x A x x c x x A k x c x A x x x x x x x S x c x x k x x x x x x x A x x x A x x x x x x x x x x x x x A x x x x x x x x x x x A A x x A x x x x x x x x x x x x x x x x x A x x x x x x x x x A x x x l x x x 8 x l x x x x x x x 8 8 A x 8 8 A x A 8 x x x 8 x 8 x 8 x x 8 8 A x 8 x 8 x x x 8 x 8 8 x x 8 8 x x 8 8 A x 8 8 x A 8 x x x 8 8 x 8 x 8 x x 8 x x 8 x 8 8 8 x x 8 8 x x 8 8 x 8 A x 8 8 x 8 A 8 x 8 x 8 x 8 x 8 8 A 8 q A 8 8 A q 8 x 8 x 8 x x 8 8 x 8 x x 8 6 x 8 x 8 8 8 x 8 8 8 8 x 8 x 8 8 x x 6 x 8 8 x x 8 x 8 8 q x 8 8 8 A 8 8 8 8 8 8 4 8 x 8 8 8 8 8 8 A 8 l x l = h ( =.5.w.w.w.e.e.9.9.9.9.e.e.e.e.e.w.9.8.e.e.w.e.e.e.e.e.e.e.e.e.e.w.e.e.e.e.e.w.e.e.e.w.q.e.e.e.w.4.*.( h g 2 4 8 x 8 x l 6 8 8 8 8 8 8 8 8 8 8 6 6 8 8 8 8 l 8 8 6 6 x 8 6 6 8 6 8 8 x 8 6 8 8 8 8 8 6 8 8 6 8 8 6 8 8 6 8 8 6 6 8 8 6 8 8 8 8 6 8 6 6 x 8 8 8 8 8 8 8 8 8 6 8 8 6 8 6 x 8 6 x 8 8 8 8 8 l 8 x 8 x 8 8 8 8 8 6 x 6 x 8 8 8 8 8 6 8 6 6 x 8 8 8 6 8 8 8 8 ",
"%.%.%.%.+.%.%.%.%.%.%.%.%.%.%.%.%.%.%.%.%.%.%.%.o.%.o.%.%.%.%.+.%.o.o.%.o.%.%...o.@.%.o.o.%.%.o.%.%.o.%.%.o.o.%.%.%.o.%.o.o.%.o.o.o.o.%.o.o.o.o.o.o.%.o.o.o.%.o.o.%.o.%.o.+.o.o.o.o.%.o.o.%.o.o.o.o.o.o.o.+.o.o.o.+.+.o.o.o.o.o.o.o.o.o.O. .O.o.o.o.o.o.X.X.o.o.o.o.o.o.o.X.` o.o.o.o.o.o.o.X.o.o.' X.o.X.o.X.X.o.o.o.o.X.o.X.o.X.o.o.X.O.o.X.o.o.o.X.X.o.X.o.X.O.X.X.o.X.X.o.o.o.X.o.X.X.X.X.O.X.O.X.X. .X.o.O.O.o.X.O.O.X.O.X.X.` X.` o.X.X.X.X.X.X.X.X.X.X.X.X.X.X.X.X.O.X.X.X.X.X.X.O.X.X.X.X.X.X.X.O.X.X.X.X.X.X.X.X.O.X.X.H X.` X.X.X.X.V X.X.X.X.X.X.X.X.X.X.V X.X.X.X.X.X.X.X.X.H X.H X.X.X.H X.V X.X.X.V X.X.V H V X.X.H V X.X.X.H H X.` H V X.X.X.V V X.H X.K X.H X.H X.X.K H X.H K X.H X.H H H X.V X.X.V H H H X.V H X.H H H X.H H H H H H X.H H H H H H H H H H X.H H H H H H H H H H H H H H X.H H H H H V H H V V H H G H H G G H H G H G D G H H H H H V H G H B H G G H G B V G H B B H H B H B H G G V G H H G H G G G H G G H G G G G G G G G H G G G G G G G G G B H G G H B G H D G B G B D G G G H G H G G B B B B B H B V V B V B V B B B B B B B V B V B B V B B B B B B B B B B B B B B B B G B B B G B B B G B B B G B B G B G B B B B B G B B G B G B B B B B B B M B B B B B G S S B B c B B G B c B B c B B B B B S c B B c c M B c B c c G c B B c c G c B B c c B G c c B c B c B G c c c c c B c c B c B c G c c B c c B B c B c S c c S c S S c S c c S S S S c S S c S S S c S c S S c c c c k B c c c c c c c c c c c c c c c c c c c l c c c c c c c c c c c c c c c c c c c c c z c z c c c c c c c c c c x c c c S c c c k S k c c c k S x x c c c S c c c S x c c x c x c c c c x c c c x c x c c x c c l x c c x c c l x c x x c c l x c x c c x c x x c c c c c l c c c l x c c l c c x c l x c l c c x c x c x l c x z x c x c c x c x c x c x c x c x x c x z l c x z c x c x c l c l k x S x c x x x S x c x x c x c x x c x x x x x c x c x c x x S x k S x x c x k A x x c x x S x x c x x x x x c x x x x x x x x x j C x x x x x x x x x x x x x A x x x A x x x x x A x A x x x x x x x x A x x x A x x x x A x x x x x x x x x x x x x x x A x x 6 x x 6 x x l x 8 x l x x 6 x 8 x 8 x 8 x x 8 8 x x 8 8 A 8 x x x x x 8 x A 8 x 8 x 8 x 8 8 x 8 8 A 8 8 x x 8 8 x 8 x 8 x x 8 8 8 x 8 8 x x x 8 x 8 x 8 8 x 8 x 8 8 x x 8 x x x 8 x A x x x x 8 A x 8 x x 8 8 x x 8 x x x 8 A 8 8 8 8 x 8 x 8 x x 8 x x 8 8 x 8 8 8 x 6 8 x 8 x 8 8 x x 8 8 x x 6 x 8 8 x x 6 8 x x 8 x 8 8 x 8 x 8 8 8 8 8 A 8 8 8 x x x 8 8 x 4 8 x 8 q 8 8 8 l g z h #  .=.5.w.w.w.9.9.9.9.9.9.e.e.e.e.w.w.e.e.e.9.e.e.e.e.e.e.e.e.e.e.e.e.e.e.e.e.e.w.w.e.w.8.e.8.8.e.e.w.w.5.=.( t r 8 j 4 8 8 8 8 8 8 8 8 8 x 8 8 8 8 6 6 8 8 6 8 8 x 6 8 x 6 8 8 8 8 x 8 6 8 8 8 8 8 6 8 8 8 8 8 x 6 8 8 8 8 x 6 x 8 8 6 x 8 6 8 8 6 x 8 6 8 8 8 8 8 x 8 6 8 8 8 8 l 8 8 8 8 8 8 8 6 8 x 8 6 6 6 x 6 8 8 6 8 8 8 6 8 8 8 8 x 8 8 6 6 8 8 x 6 x x 8 6 x 8 8 8 8 ",
"%.%.%.%.%.%.%.%.%.%.%.%.%.%.%.%.%.+.%.o.%.+.%.%.%.%.%.%.%.%.%.+.%.%.o.%.%.o.%.%.%.o.%.%.%.o.%.%.%.o.%.o.%.%.%.%.o.%.%.o.%.@.o.%.%.o.o.o.%.o.%.o.o.%.o.o.o.%.o.o.o.o.o.o.o.%.o.%.o.%.o.o.o.o.%.%.o.+.+.O.O.o.o.+.O.o.o.o.o.+.+.O. .+.O.o.o.o.o.o.o.o.` o.o.' ' X.o.X.o.X.' o.o.o.' X.X.o.X.X.' o.X.o.o.' o.' o.o.X.' o.X.' o.o.' X.o.o.X.o.X.o.o.o.X.o.o.o.o.O.o.X.O.o.X.o.O.o.X.X.o.X.X.X.o.o.X.o.X.X. .O.O.X.X.` ` o.' ` o.` o.o.o.o.` ` ` o.X.X.X.X.X.X.X.O.X.X.X.X.O.X.X.X.X.X.X.X.X.X.X.X.X.X.X.X.X.X.X.X.O.X.X.X.X.X.X.X.X.X.X.X.X.X.X.X.X.X.X.X.X.X.V X.X.X.H X.X.X.H X.H H X.X.H X.X.X.X.X.X.X.X.X.X.X.H X.X.H X.X.X.X.H X.X.X.V ` X.H ` X.H X.X.V X.X.X.X.H H H X.H H H H H X.H H H X.H H V X.H H H H H H H X.H H V X.H H H H H H H H H H H H H H V X.H H H H X.H H H H H H H X.H H H V H H H X.H V H H H V H H V H H H F G H G H H G H F H J H H H G H G B H D G V G H G G V G H G G H V H H H B H H B G V H G G G V G G H J H G H G G H G G G H G G G J G H G B G G G G B G G B G G G G B B G H G B H G B G B G B G B V G V G B B B G B B B B B B V B B B V B B B B B B B B B B B V B B G B G B G B G G B B B B G B B B G B B B G B B B B B B B G B B B B G B B B B B B B B B B B B B c G B B S G k B B B c c c S G S B B B c c c B B M B c B B c c B c B c c G c c c c c B c c B S c B c c G c c c G c B G c B G c B c G c c B c c B B c c G c B c B c S c S S c S G c S S c c S c S S c S c c c S c S S c B c S G c c c c c c c M c c c c c c c c c c c c c c c c c c c c z c z c c c c z c c z c c c c c c c c c z c c c c c x c c c c x k x c c A x c c c c x c c c c c x c c c x k S c c c c c c c c c c x c c c x c c x c x c c c c x c x c c c c c x c c x c c c c x c l c c x c x x c x c l c c c x c c c x c c x c c c x x c l c z x x c c x z x c l x z x c x c l c l c x z c l c x c x c x l c x z x c x c x x x x x x x c x x x x x x x x x S x x x c c x x x x x x x x x x x x x x x x x x x x x c x x x x x A k x x x x x x x k x x k x x x x x x x x C x x A x x x x A x x x x x x x x x x x x x x x x x x x x x x x x x x x x x x x x x A x x x x x x x x A x x x x x x x x l x x x l x l x x l x l x x 8 A x x 8 8 x x 8 x 8 x 8 A 8 8 8 x 8 x 8 x x x A 8 x 8 x x 8 x x 8 x A x 8 x x 8 A x x 8 8 A x x 8 x x 8 A 8 x 8 x x A x 8 x x x x x 8 A 8 A 8 x x 8 8 8 x 8 x x 8 x x 8 x x x 8 x 8 A 8 x 8 8 A C 8 x q 8 A x 8 A 8 8 x 8 x x 8 x 8 x 8 8 x x 8 x 8 x 8 x 8 8 x 8 x x 8 8 x 8 x 8 x 8 x x 6 q 8 8 x q x 8 8 x q 8 8 8 q 8 x x x 4 8 8 0 8 8 8 l h # s o.=.5.w.9.9.9.9.e.e.9.e.e.9.e.w.w.w.e.9.e.e.e.e.e.e.e.e.e.e.e.e.e.e.e.q.q.q.e.e.w.e.w.8.w.8.8.e.e.9.e.w.w.5.*.m v j j x 8 8 8 x 6 8 8 8 6 6 8 8 6 x 8 x 8 8 8 8 8 6 8 8 6 6 x 8 8 8 6 8 x 6 8 8 8 6 x 6 x 6 8 8 6 8 8 8 6 8 8 8 6 6 x 8 6 6 x 8 8 8 8 8 x 8 6 x 6 8 6 6 x 8 8 8 8 8 8 8 8 8 8 8 l x 8 6 8 8 x 8 8 8 6 8 6 x 8 8 x 6 8 6 8 6 8 8 x 8 8 6 8 8 8 6 8 8 8 6 6 x 8 ",
"%.%.%.%.%.%.%.%.%.%.%.%.%.%.%.%.%.+.%.o.o.%.+.%.o.%.%.%.%.%.%.%.o.%.o.%.o.%.%.o.o.%.o.%.%.o.%.o.o.o.%.@.@.+.o.o.%.%.%.o.o.%.o...o.+.o.o.%.o.o.%.o.o.o.o.o.%.o.o.o.%.o.o.o.%.o.o.%.o.o.o.%.o.o.o.+.o.o.o.o.+.o.o.O.o.o.+.+.o.o.+.o.O.o. .+.o.o.o.' o.X.X.o.X.X.o.o.o.o.X.' X.o.o.o.X.o.X.o.X.o.o.` o.o.o.o.o.o.X.o.o.o.' X.o.o.o.o.o.X.o.o.X.o.X.X.o.o.X.X.o.o.O.O.X.o.O.O.o.X.o.o.` X.o.X.X.X.X.O. .O. .o.o.`  . .X.o.o.' o.o.' ' o.' X.o.X.' ` X.X.X.o.X.X.X.X.X.X.X.X.O.X.X.X.X.X.X.O.X.X.X.X.X.X.X.X.X.X.X.X.X.O.X.X.X.X.X.X.X.X.H X.X.X.X.` X.H X.X.H X.X.X.X.H H X.X.X.X.X.X.X.X.X.H X.H X.X.H X.X.X.X.X.X.X.V X.X.V X.` X.X.H ` X.H V X.X.X.` H V X.V V X.H K X.H X.H H X.H H H X.H X.H H H H X.X.H V H H X.H X.H V H H H H H X.V H H X.H H H H V H H X.H H H H H H H H H X.H H H H H H X.H H H H H H V H H V H H V H H H H H G H G H G H H H G H H D G H H B H V G G H B V G G G V G G G G G V G H B H H B H H B V G G H G H G G G G H H G G H J H G G H H G G B H D G H G B G B H G G G G H G G G G G G G B G G G B G G B B B G V B V G B B V B B M B B V B B V B B B B B V B B V B B V B B G B B B B B B G B B G B B B B B B B B B B B G B G B G B G B G B B B G B G B B M B B c B B B B B B B B S B B c B B B B c B B B c B c B B B B c B c B B c B B G c c B c B c G B c B c G c c B c G c c c c B c c B G c c S B c c c B G c B B c c G c c c B c c G c S c S c S c G c S c S c G c c S G c S c S c S c S S c c c c c c c c c c c c c c c c c c c c c c M c c c c z c c z c c c c c x c c c c z c c z c c c z c c c x c c x S c c c S k c c c c c c S c c x c c k S c x S c x S c c c c x c c c c x c c c c c c c k c c x c c x c c c x c c c x c c l c c x c c c x z x l c x c c c c x c z x c x x x c c x x x c c c x c x z x c l c l c x l c x c x c c x x c c l z x z x c x c x l c x z x c x c c l c x k x c x x x x x x x x x A x x x x A x x x k A x x x x x x x x x x A x x c x x x x c x c c x c x A x x x x x x c x c x k x x x k x j k x C x x x x x x x x A x x x x x x x x x x x x x x A x x x x x x x x x x x x x x x x x x x x x x x x x A x x x x A x x x x x x x x l x l x l x 8 x 6 x l x x x l x 8 x x 8 8 x x 8 x 8 A 8 x 8 x x A 8 x 8 x 8 x 8 8 x 8 x 8 x 8 A 8 x A 8 8 x x 8 8 x x 8 8 x 8 x 8 x x 8 8 8 x 8 x 8 x 8 8 x 8 x 8 x x 8 x 8 x 8 8 A 8 x x 8 x 8 8 A 8 8 8 x x 8 8 8 x 8 x 8 x x 4 8 8 x 8 q x 8 8 x 8 x x 8 8 x x 8 x 6 x 8 8 x 8 x 8 x x 8 x x x 8 x 8 8 x 8 8 8 x 8 8 8 x x 8 8 x x 8 x 8 x 8 x 8 8 8 8 8 8 x x j 8 8 8 8 8 q x g w a ' 4.w.w.e.9.e.9.9.e.e.e.e.e.e.e.e.e.w.e.e.9.e.e.e.e.e.e.e.q.e.e.e.e.e.e.e.e.e.e.e.e.e.w.w.w.w.9.w.e.e.w.e.w.w.5.&.( h r j 8 7 4 8 8 8 8 x 8 6 x 8 6 8 8 8 8 8 6 8 8 6 x 8 6 x 6 8 8 8 8 x 8 6 8 x 8 6 8 8 6 8 8 x 8 8 8 x 8 8 8 l 8 8 8 8 x 6 8 8 8 8 8 6 x 8 8 6 8 6 8 8 8 8 6 6 8 8 6 6 8 8 8 x 6 8 8 8 8 8 6 8 8 x 6 8 8 x 6 6 x 8 8 8 8 x 8 6 6 8 8 x 6 8 8 6 8 8 8 8 8 x 6 ",
"%.%.%.%.%.%.%.%.%.%.%.+.%.%.%.%.%.%.%.%.%.%.%.%.%.%.%.+.+.%.%.o.%.o.%.%.o.@.%.o.%.o.%.o.o.%.%.o.%.%.o.o.o.%.%.%...o.o.o.%.' o.%.%.o.%.o.o.+.o.o.o.%.o.%.o.o.o.%.+.o.%.o.o.o.%.o.o.o.o.%.o.o.+.o.o.o.+.O.o.o.o.+.+.o.o.o.o.O.o.o.o.o.o.O.o.o.O.o.o.X.o.o.o.o.o.' o.` o.o.o.o.o.X.o.' o.o.o.' X.o.o.o.o.X.' X.o.' o.X.o.X.' o.o.X.X.o.o.X.o.X.O.o.o.o.X.o.o.X.o.X.X.o.O.X.o.X.o.o.X.o.o.X.o.X.X.O.X.X.o.O.X.o.o.o.' ' ' o.%.' ' ' ` ` ` ' ' X.o.`  .o. .X.X. .o.X.X.X.X.X.X.X.X.O.X.O.X.X.X.X.X.X.X.o.X.O.X.X.X.X.X.X.X.X.X.X.X.X.X.X.X.X.X.X.H X.X.X.X.X.X.X.X.X.X.X.X.X.H ` X.X.H X.X.H X.X.X.X.X.` X.H X.H H X.X.V X.V X.X.H H ` X.H H X.X.X.V H X.X.X.H X.X.X.X.H H X.H X.X.H X.X.K H X.H K X.H X.V H H X.H X.H H H H X.H X.H H H H H H H V H H H H X.H H H H V X.H H H X.H H H H H H H H H H H H H H V H H V H H H V H H V V G G H H F G G H H D H G H H H G D V B F G H H B H G H G G H V H G H H G B H H B H H B H G H H B G G G G H G G J G G G H G G G G H G G G H B G G D H G G G B G B G B G G B G H B G G G G G G G G V H B V G B G B B M B B B B V B B B B B B V V B B B B V B B B B B G B B B G B G B B G B B B B G B G B G G B B G B B B B B B B B B B B G B B B B B B B B B B B B B B B B c G G c B B c B c B c c B B B B B c B c B B M c c B c c B c c B G c B c c B c B B c c G B c c B G c c B B c c B B c c B G c c c B c c B B c c B B c S B S S c S S S c S c S S c c S S c S c S S c G S S c S S c k c B c c c c c c c c B c c B c c c B c c c c c z c c c c c c c c z c c c c z c c c c c c c c z c c c c S c k c k x x c c c x c c c S x x c c c c x S x c c c k c c c c x S k c c c k S x c x k x x c x x x c c x c c l x c c l c c x x x c l c c x c x x c c c x c x c x c c x c c c c c x z c c c c x x z l c x c x c x c x c c x c l c x z x c l x c x c x c l c x c c x c x c l z x x c x c x c x c S x c x x S k x k x x c x k x S x x x x A k c x x A k x x k c x x x x c x x x x x x A x k x x c k A x x x x x x x x x x x x x x x x x x x x x C x x x x x x x x x A x x x x x A x x x x x A x x x x A x x x x A x x x A x x x A x x x x x x x x x x x x A x x x x x x 8 x x x x x x x x 8 x x x x 8 8 x A 8 x x 8 x 8 x 8 x x 8 8 x x 8 8 x 8 x x 8 x x A 8 x 8 x x 8 x x 8 8 x x 8 8 x A 8 x x x 8 x A x x 8 A x 8 8 A x 8 A 8 x 8 8 A x 8 8 x x 8 x x 8 A x x x 8 x x x x 8 A x x 8 A 8 x 8 x 8 A 8 4 4 x 8 4 x 8 x 8 8 x x 8 8 x 8 x 8 x 8 6 x 6 8 8 8 x 8 8 8 x 8 6 x 6 8 x x 8 x 8 x 8 8 x q 8 8 q 8 8 x q 8 q 8 A A x 8 8 8 x x x 8 0 0 8 A 2 # o.4.w.w.e.e.9.e.e.e.e.e.e.e.e.e.e.e.e.e.9.e.9.9.e.e.e.e.e.e.e.e.e.e.e.e.e.e.e.e.e.e.e.e.9.e.e.e.e.e.e.e.e.9.w.e.w.5.*.b @ 8 4 0 7 8 8 l l 6 8 8 8 6 x 8 8 6 x 8 x x 8 8 6 8 8 8 8 8 8 x 6 6 8 8 6 6 8 6 x 8 6 x 6 6 6 8 6 6 8 l 8 8 8 8 8 8 8 8 6 6 8 x 6 8 8 6 6 8 8 6 x 6 x 6 x x 8 8 x x 6 x 8 8 8 6 8 8 6 x 8 8 6 8 8 8 8 6 8 8 8 8 8 6 8 6 8 8 x 8 8 8 8 6 8 8 6 x 8 6 x 8 8 ",
"%.%.%.%.%.%.%.%.%.%.%.%.%.+.%.%.%.o.%.%.%.%.o.%.+.%.+.%.%.%.%.%.@.%.%.o.%.o.%.%.%.o.%.@.%.%.o.o.%.%.%.%.o.%.%.' %.o.o.@...o.%.o.o.o.o.%.o.o.%.o.%.o.+.o.o.%.+.o.o.o.o.o.+.o.o.o.%.o.%.o.%.%.o.%.o.+.+.o.o.o.o.+.+.o.o.o.o.+.+.o.o.o.o.o.o.o.o. .o.o.o.X.' X.X.o.o.X.' X.o.X.o.o.o.X.X.o.X.o.o.' o.X.' o.X.o.o.o.o.X.o.o.o.X.' o.o.X.o.O.X.o.o.O.X.o.o.O.X.o.X.O.X.O.O.o.X.o.o.X.' X.X.X.X.O.X.X.o. . .o.) o.o.o.' ' ' } } } ' } o.' ' ` o.' ` o.` X.X. .o.O. .X.X.X.X.X.X.X.X.X.X.X.X.X.X.X.X.X.X.X.X.X.X.X.X.X.X.X.X.X.H X.X.X.X.X.H ` X.X.X.X.X.H ` X.X.` X.X.X.X.X.X.X.H X.H X.H X.X.X.X.X.X.X.H X.X.X.X.X.X.X.X.V X.X.V V X.H X.X.X.H ` X.V ` H X.V X.` X.V X.H H X.K H X.H H X.H X.X.H X.H H H H H X.H H H H H X.V H H V X.H H H H H H H H X.H H H H H H H H H H H H H H H H H X.H H X.H H X.H H H H G V V H V H V H V H H H D H G D H H J G H H G G H H H B V D B H B H H G H B V G H G B H G G V B H H B B H B H G V V G H G G G G G G G G G G G J H G G G G B G B G G G B G G G D G G G B D G B G B G G G G G B G G G G G B B B B H B V B B M B V B V B B B B B B B B B B B B B B B B B B B B B G B B B B B c G G B c G B B B B B B B B B B B B B B G B G B G B B B G B B B B k B B B B B B G c S G S B c B B c B B c B c B c B B B c B B c B B M B c M c S B c c c B c S B c c c G c c c B B c c B B c c S B c c B B c c B G c c G B c c B B c G c c G c S c G c S c S S S c S G S c S c S S c S G c S S c c S S S c c M c c c c c c c c c M c c c c c c c c c c c c c c z c c c c c z c c c c c c c z c z c c c c c c c c S c c c x c x c c c c c c k S k c c c c c c c x x S S k c c S c c c c c c c x k x k k c c c c x z x x c c x x c c x x c l c c c x c c x c c c c x x c c x c x c x c c x x c c x x c c x x c c x c x c x c x c l z x x c x c l c l c c c c z c x c x c l c l x c x c x c x c c l c x c x c x x x x c x x A x x x x c x c x x x x c x x x x x c x x S x x x x A x x c x c x A x x c x x x x c x S x c x c x x j x x x x k x x x x j x C x x x x x x x x A x x x x x x x x x x x x x A x x x x x x x x A x x x A x x x x A x x x x x x x x x x A x x x x x x x 8 l x l x l x l x x 8 x x l l x 8 A x 8 8 x x 8 x x x x x 8 8 x x x 8 A x A 8 x 8 x x 8 8 8 x x 8 x x 8 8 x x 8 8 A x 8 8 x x 8 8 A x 8 8 x x x 8 x 8 x x 8 x x 8 x x 8 8 x x 8 x 8 x 8 A 8 8 x x x x 8 8 A x 8 8 x x 8 8 A 8 x A 8 q 8 8 8 8 x 8 8 x 8 x 8 8 x 6 8 8 x x 6 8 x 8 8 x 8 8 8 8 x 8 x 8 x 8 x x 8 x 8 x 8 8 x x 8 8 x x 8 x q 8 8 x 8 8 q 8 8 A 8 x x l 8 8 7 0 q 4 j m =.5.w.e.e.9.e.e.e.e.e.e.q.e.e.e.e.e.9.9.9.9.e.e.e.e.w.e.w.e.e.e.e.e.9.e.e.e.8.9.e.e.9.e.e.e.9.e.e.e.e.q.e.9.9.e.e.w.4.o.h j 4 7 0 8 8 l l 8 8 8 6 8 8 x 6 8 6 6 x 6 8 8 8 8 6 8 8 8 l 8 6 8 8 8 x 6 x 8 8 8 x 8 6 8 8 8 x 6 x 8 8 8 8 6 8 6 8 8 8 x 6 8 6 8 8 8 x 8 6 8 8 8 8 6 x 6 8 6 8 x 8 6 8 8 8 8 8 8 6 6 8 8 6 8 8 x 6 8 8 8 6 8 l x 6 8 6 8 8 6 x 8 8 8 8 8 8 6 8 8 6 x 8 ",
"%.%.%.%.+.%.%.%.%.%.%.%.%.%.%.%.%.%.%.o.%.+.%.%.%.%.%.%.%.%.%.o.o.o.o.%.o.%.%.o.o.%.%.o.%.o.%.@.o.o.%.o.%.o.%.%.%.o.%.o.%.%.' %.%.o.o.o.o.%.o.o.o.o.o.%.o.o.%.o.%.o.%.o.%.o.%.o.o.o.o.+.o.o.o.o.o.O.o.o.+.o.o.O.o.o.O.+.o.o.o.O.o.o.o.O.o.o.o.+.o.X.' o.o.o.o.o.' o.o.o.o.` o.` o.o.' o.o.o.o.X.o.o.X.X.o.o.X.o.o.' o.X.o.o.X.o.o.o.X.o.o.o.X.o.X.o.o.X.o.o.X.o.O.X.X.X.O.X.O.o.X.o.X.o.X.O.O. .+.....) ) %.&.$.4.4.4.4.4.4.4.2.&.&.} ) ) ` ' o.o.X.o.X. .H X.O.O.X.X.X.X.X.X.X.X.X.X.X.X.X.X.O.X.X.X.X.O.X.X.X.X.X.X.X.X. .X.X.X.X.X.X.X.X.X.X.X.X.X.X.X.X.X.X.H X.X.H X.X.X.X.X.X.X.X.H X.V X.X.X.X.H X.X.H X.V X.X.H X.X.X.X.V X.V X.X.X.H X.X.H X.X.X.H X.X.H X.H H X.H H X.H H H X.H H X.H V X.H X.H H V X.H X.H H X.H H H H X.H H H X.H H H H H H H X.H H H H H X.H H V X.H H H H H H H V H H H V H V V H H V H H H H H H H H G H H H H H H G H H G H H H V B V G B H H B H B H G V G G H B H G G H B H H B H G H G G H G H J G H G G G G H G G H G H G G G G G B G G B H H B G B V G G G B G H B G H D B V D G G H B G G V B G V B B B G V B B B B B B B V M B V B B V M B V B B V M B V B G B G B B B G B G B B B B G B G S B G G B B B B B B G B G B B B B B B B G B B B B c G B B c S B k G k B c G c G c B B B c B B c B B B c c B c c M c c B c B c B c c B c B c G B c B c B c c B B c B S B c c B c B c c G c B c B c c B c c S c B c c G c B c c S c S c G c S c S c G c S c S c S c c S c c S c G c S S c c c c c c B c c c c c c c c c c c c c B c c c c c z c c c c z c x c c z c c c z c c c c c c c c c c c c c c x c c S c c c c x c c c A x c c c c x c c c c c c x c c c c c c c x c S x c c c c x c c l c c c x c c x c c x c z c x c c x c c x x c z x c x c c x c c l c c x c l c c c x c c x c c l c x c l c l c l c x c x c z x c l c x c x x l x x l c l c x c x c c l c l c l c x x c l c l c x k x x x x c x c x c x x x x x x c x c x x x c x c x x x x c x c x k x x x x x x k x c x x c x x x x x x x x x c x x k x x x x x x x x C x x x x x x x A x x x x x x x x x A x x x x x x x x x x A x x x x x x x x x x x x x x x x A x x x x A x x x x x x x x x x x x x x x x 8 x x l l x x x x 8 x x 8 x 8 x 8 A 8 8 x 8 x 8 A 8 8 x x 8 x 8 x 8 A 8 8 x x x 8 x x 8 x 8 x 8 x A x 8 x x 8 x 8 x x 8 8 x x 8 x 8 x 8 A x 8 x 8 x x x 8 x A 8 x x 8 x 8 x 8 x x 8 8 x 8 x x 8 8 x x 8 x x x 8 x x 8 4 8 x x 8 4 8 8 x 8 x 8 8 x 8 x 8 x 8 x 8 x 8 x x 6 x x 8 x 8 x 6 x 8 x 8 6 x 8 x 8 x 8 8 8 x 8 8 8 8 8 8 x 8 8 8 x 8 x 8 8 8 l l x 8 q 0 8 4 g V *.4.5.e.q.9.e.9.e.e.e.e.e.e.e.e.e.e.e.e.e.9.e.9.8.e.e.9.e.w.e.e.e.e.e.e.9.9.e.e.w.9.9.e.e.e.e.e.q.e.e.e.e.e.e.e.9.q.w.w.&.m y 4 q 7 8 8 l l x 6 8 6 x 8 6 8 8 8 8 8 6 8 8 8 8 8 6 x 8 8 8 x 8 6 8 8 8 6 8 8 8 8 6 x 8 8 8 6 8 8 8 8 8 6 x 8 8 8 6 x 8 8 8 x 6 8 8 8 6 x 8 8 6 8 8 8 8 8 8 8 6 8 8 6 6 x 6 8 6 x x 8 8 8 6 x 6 8 8 6 x 8 8 8 8 8 8 6 x 8 8 6 6 x 6 8 6 x x 6 8 8 6 8 ",
"+.%.%.%.%.%.%.%.%.%.%.%.%.%.%.%.%.%.o.%.+.%.%.%.%.%.%.o.o.%.@.%.o.%.+.@.o.%.%.%.%.o.o.%.o.%.%.o.%.%...%.%.o.@.o.+.o.%.o.o.o.o.o.+.o.%.o.%.o.o.o.%.o.%.o.o.%.o.%.o.%.o.%.o.%.o.%.+.o.o.o.o.o.+.o.o.+.o.o.o.+.O.o.+.o.o.o.O.o.O.o.o.X.o.o.o.X.o.o.o.o.X.o.o.X.o.X.X.o.' X.o.X.o.' ' X.o.X.o.' o.' o.X.o.X.o.X.o.o.o.o.' o.o.X.o.X.X.o.X.o.o.O.o.X.O.X.X.X.o.O.o.O.X.o.o.O. .o.K O.O.O.O. .o.o.o.) R @.#.$.5.5.w.w.w.w.w.w.w.w.w.w.w.w.5.3.#.[ } ) ' o.` V  .X.K H X.X.X.X.X.X.X.X.o.X.X.X.X.K X.X.X.X.X.X.O.X.X.X.X.X.X.o.X.X.X.X.X.X.X.X.X.X.X.X.` X.X.X.` X.X.H X.H X.H X.X.X.X.X.X.X.X.X.H X.H X.X.X.X.X.` H X.` H X.V X.X.X.H X.H X.X.H H H X.H H X.H X.H H H H X.X.H K X.H H H X.H H K X.X.H H H X.H H V H X.X.H H V H X.H H H H H H H H X.H H H H H H H X.V H H X.H H H H H H H H X.H H H X.H H G H G H G H H G H H G J H H H H G D H G H H G H H J H G H J H B H H H G G H H B H H V H G G H G V G G H G G H G G H G G H G G G G H G G J H G H G G G H G G G G B G H B G G H B G G B G G G H G G G H G B G B V B B V B H B G B V B V G B B B B B B B B B B B B V G B B B B B B B B B G B B B G G B B B B B B B B B B G B G S G G B B B J V V B B B B B B B G G G J B B B G c c c c S S S c c S c S S S S S S S B B B B B B M c B B c B c k B B B c B B M B c c B c B c c G c B S c c c B c c c B c c B c G c c B c B B c B G c c B c S c c B c G c G c c B S c c S S c c S S c S S S c S S S c S c c S c G c c c B c c c c c c c c c c B c c c c c c B c c c c c z c c c z c z c c c l c c c c c c x c c c S c c k S c k A c x c c c S c c c c c A c c k S x S S c c c c c S c c c c c c x x S c A x S S x c c c x c c x c x c x x c x x c c c x c x c x x c x z c l c c x c x x z c x c c x l c x c c x c c x x c z x c c x c x c x c x c l c l c x c l c c l c l c x c x c z x c x c l c x c x x c x x x x x x c x k A x c x x A x x x k A x c x x x c x k A x x A x x k x c x c x x x S x x x x x x x k x c x c x x x x x A x A x x S x x x x x x x A x x x x A x x x x x x x x x x x A A x x x x x x x x x A x x x x x x x x x x x x A x x x x x x A x x x x A x x x x x x x x x x x x x 8 x x x x 8 A 8 x 8 x 8 8 x 8 8 x 8 x x 8 x 8 x 8 x x A 8 x x 8 x x 8 8 x A 8 x 8 8 A A 8 8 x x 8 A 8 x 8 x 8 x x x x 8 x 8 A x 8 x x 8 x 8 A 8 x x 8 8 A 8 8 8 A 8 x 8 8 x 8 8 x 8 8 x 8 x 8 A 8 x 8 x x 8 x 8 x x 8 x 8 x 8 x 8 x 8 8 x 8 x 6 x 8 8 x 8 8 8 x 8 x 8 8 8 8 x 8 8 8 8 x 8 8 x 8 8 8 8 8 x 8 x 8 8 8 8 x 8 x 8 x 8 q 8 8 8 8 q x 8 x 8 8 8 8 x 6 A 7 q 7 8 x h v &.5.w.e.e.8.e.e.e.e.e.e.e.e.e.e.e.e.e.e.e.e.e.e.e.e.e.e.e.e.e.e.e.e.e.e.e.e.e.e.e.e.e.e.e.e.e.e.e.e.e.e.e.e.e.e.e.e.9.e.w.w.=.m r x 8 1 x 6 6 x 6 8 8 8 x x 6 8 8 x 6 8 8 6 6 8 x l 8 8 8 x 6 8 8 8 8 8 8 8 6 x 6 6 8 8 x 6 8 6 8 8 6 x 6 6 8 x 6 6 8 6 x 6 8 8 8 8 x 6 8 8 8 8 6 8 x 6 6 8 x x 6 8 8 x 6 6 8 8 8 x 6 8 8 6 6 8 8 8 6 8 6 8 8 8 8 8 8 8 6 8 8 x 6 8 8 x 6 8 8 8 6 6 x ",
"%.%.%.%.%.%.%.%.%.%.%.%.%.%.%.+.%.+.%.%.%.%.o.%.+.%.%.%.%.o.o.+.%.%.o.o.%.%...o.o.%.%.o.%.%.o.%.o.%.%.o.%.o.o.%.o.%.o.o.+.%.o.%.o.%.o.o.o.o.o.%.o.o.o.o.o.o.o.o.o.o.o.o.o.o.o.o.O.o.+.o.+.o.O.o.o.o.o.+.o.+.o.o.+.o.o.o.o.o.o.o.o.o.o.o.o.o.X.o.X.o.o.' o.o.' o.o.o.o.o.o.o.o.X.o.o.o.o.o.X.X.o.o.o.o.` o.' o.X.X.o.X.o.' o.o.X.o.X.o.X.X.o.o.o.o.X.o.O.o.X.X.O. .o.o.O.K X.F O.D  .o. .( R ) @.2.3.5.5.w.w.w.e.w.e.e.e.w.e.e.w.e.e.w.w.w.5.@.%.) ' X.O.O.H X.K X.O.X.X.X.` o.X.` X.X.X.X.O.X.X.O.X.X.X.X.X.X.X.X.X.X.X.X.X.X.V X.X.X.H X.X.X.X.X.H X.X.X.X.X.X.X.X.X.X.X.X.V X.H X.H X.X.X.X.X.H X.X.H H X.X.H X.X.X.H X.V V X.H H K H H X.H X.X.H H X.K X.X.H X.K H H X.H H X.X.H H X.X.H H V H X.H H H X.H H H H H X.H H X.H H H V X.H H H H H H H X.H H H H H H H H H H V X.H V H H H H H H H H G H H H H D G H D H H H G H D K H K H H G F H G H H H G G H H H B B G G V G H H B B G B H H B H G H G V V G G V V G G V H G G H H J H G H G G G G H G G G G B G G H D G G B G G G B G H B G G B B G B G G G G B G V G B V B B G G B G B G V V B B V B V V B B B B B B G B G G B G B B B G B G c B B B G G B G B G B B B B G B S G S B B B M B B V B V B B B B S G G B B B c B B B B S G G c S S S S A k S c S S S G B B B M B B c B c B B k B k B B M c c B B B c B c B c c c c B B B G c B c B c G B c B c c B c B c c G c c B B c c B G c c B B c c B B c c S S c c S G c c S c c c G c c c G S S S S S c c c c c c c c c c M c c B c c c c c c c c c c c c z c c c c c c c c c c c c z c c c c k c c x c x c c x x c c c c S c c c x A k c x c k c c c c c c k x x S c x x c c x c c c c S x c c c S x S c x c x x c c x c c c c z c c x l c c x c c c c c c x x c c x c x c c c c c l x c c c c x c c x c c c c x c c x c l z x c l c x c x c x c x c x x c x c l c l c x x c l z x c x x x c x x x x c A k x x x x x x x x x k c x x x x x x x x A x x x x c x c x x x x x x x k x x x x x c x c x x A x A x x S x c x x x x x x x x x x x A x x x x x x x x x x x x x x x A x x x x x x x x x x x A x x x x x x x A x x x x A x x x x x x x x x x x x x x x x x x x A l x l 8 6 x l x 8 x x 8 8 x x 8 x 8 x 8 x x 8 A x x x 8 8 A A 8 8 x x 8 8 x 8 x x 8 x x x x 8 x 8 x x 8 8 x x 8 8 x x x x 8 8 A x 8 8 x x 8 8 x 8 A x 8 A 8 x 8 x 8 8 x x 8 x x x 8 A 8 x x 8 x A 8 x x 8 A 8 x x x 8 x x 8 A 8 x 8 8 x x x 8 A x 8 8 x x 8 x 8 x 8 x 8 6 x x 6 8 8 8 q 8 A 8 8 x 8 A 8 q 8 8 8 8 x 8 x 8 x q 8 8 x x 8 8 q 8 8 8 8 8 x 8 A x 8 8 8 x q x q x 8 x 8 8 8 8 x k v ' 3.w.e.e.9.8.e.9.e.e.e.e.e.e.e.e.e.e.e.e.e.e.e.e.e.e.e.e.e.e.e.e.e.e.e.e.e.e.e.e.e.e.e.e.e.e.e.e.e.e.e.e.e.e.e.e.e.e.q.9.9.w.5...v k 6 6 x 6 x 8 8 6 8 8 6 6 8 8 8 6 8 6 x 8 x 8 6 8 8 8 8 6 8 8 8 l 8 x 8 8 8 8 8 x 8 6 8 8 8 x 8 8 8 8 8 x 8 8 8 x 8 8 8 8 8 6 x 8 6 8 8 6 x 6 x 8 8 8 8 8 6 8 6 8 8 6 8 x 8 8 8 6 8 6 x 8 x 8 8 8 6 8 x 6 8 8 6 x 6 x 8 8 8 6 8 x 8 8 6 8 8 x 8 8 8 ",
"%.%.%.%.%.%.%.%.%.%.%.%.%.%.%.%.%.%.%.%.o.%.%.%.+.%.%.%.%.%.o.%.o.%.%.%.o.%.o.%.@.o.%.%.o.%.o.%.o.%.%.o.o.%.%.%.o.o.o.o.%.o.o.o.o.o.o.o.%.o.%.+.o.o.%.o.o.%.o.+.o.%.o.o.o.%.o.o.o.o.O.o.o.o.o.+.o.o.o.O.o.o.O.o.+.+.o.o.o.O.o.o.o.o.o.o.o.X.o.o.o.o.X.o.' X.o.o.X.o.X.X.X.o.o.o.o.X.o.o.o.o.o.o.X.o.X.o.o.X.o.o.X.o.X.o.X.o.X.o.o.O.o.o.o.X.X.o.o.O.X.O.O.O.X.X.o.O.X.X.o.O.O. . .o.+...) ) #.4.w.w.w.w.w.e.e.e.e.e.e.e.e.e.e.w.w.e.e.w.w.w.4.4.' ) ' o.X.H H O.K X.X.X.X.X.o.X.X.o.X.X.X.X.X.X.X.O.X.X.X.X.X.X.X.X.X.X.X.X.X.X.X.X.X.X.` X.H X.X.X.X.X.X.X.X.X.X.H X.X.H X.X.H X.X.H X.X.` X.X.X.X.X.X.V X.` X.V V X.` X.V X.X.H X.X.H X.X.H K X.H H X.H H H H H H H X.X.H X.H H X.H X.H X.H X.H V H H H X.H X.X.V X.H H H H H X.H H H H H H H X.V H H H H H H H H H H X.H H H H X.H H H X.H H H H H G H G F B H H G G H G H H G H J H G H H G H G H D G H H G B H B H H B V G B H H G G H V G V G G V H G H B G H B H G H B H G G G G G G H G G G G J H G G G F G G B B H H G B G B H G G B G G G H G G G B G B B B B V B G B B V B G B B B B B B B B B B B B B B B B G B B B B B B G B B B B B B B B B B B B B B B G B B B B B B G B B B B B B B B B B S G G J G S B n B B M B B B B B B B B G n n B M B B B B k c k B S B B B c B c B M B z M B B B B B M B B c c S G c c B B c B c c B B c B c c B B c c B B c c S G c c c B c c B B c c B B c c G B c c c G c c S S c c S S c c G S S c S c S c S G c S S c c c c c c c c c c c c c c c c c c c M c c c c c c z c c c c c c c c c c z c c x c c c c x c c c c x c c c c S c k S x c c c c c c c c x c c x c c c c c A c c k c c c c S c c c S c C c x x S x x c c x c c l c l x c x x c c x z c x c x x c x c x c x c x c c c c x x c c c c x x c c x c x l c c x x c l c x c x c x c x z l c x z x z l c c x c x c x c l x c x c x c l c x x x x c x A k x c x S x x c x S x c x x c x c x c S x x k x x x x x x c x x S x c k x A c x c k x x x c x x x x k x x x x k x x x x A x x x x x x x x x x x x x A x x x x A x x x x x x x x x x x x A x x x x x x x x x x x x x x x x x x x x x x A x x x x x x x x x x A x x x 8 l x x x x 6 x 8 8 x x 8 8 x x 8 x A 8 x x x A 8 x x x x 8 x x 8 8 A x 8 8 x 8 A A 8 8 x x 8 x x 8 x x 8 8 x x x 8 x 8 x 8 x 8 x x 8 8 x x 8 x 8 8 x 8 8 x x 8 x x x 8 x x 8 x 8 x x 8 x A x 8 x x 8 x x 8 x 8 x 8 x x 8 8 x x x x 8 8 x 8 8 8 x 8 8 x 8 8 8 8 x x 6 x x 8 x x x 8 8 8 8 q x 8 q A 8 x 8 x x 8 x 8 x q 8 8 8 q 8 8 q 8 q A 8 8 A 8 q 8 8 q 8 8 q 8 8 x 8 A 8 x 5 A 8 8 C r N 4.w.e.e.e.e.8.9.e.e.e.e.e.e.e.e.e.e.e.e.e.e.e.e.e.e.e.e.e.e.e.e.e.e.e.e.e.e.e.e.e.e.e.e.e.e.e.e.e.e.e.e.e.e.e.e.e.w.9.q.9.e.w.w.=. .g l x 8 8 x 6 8 6 8 8 x 6 8 8 8 8 8 8 8 6 x 8 x 6 8 8 8 8 8 x 6 8 6 6 8 8 8 8 6 8 8 8 8 8 6 8 6 8 8 8 6 8 8 8 x 6 8 8 8 8 6 6 8 x 8 8 8 8 8 8 8 x 6 8 8 8 8 8 8 8 8 8 x 6 6 8 8 8 8 8 8 6 x 6 8 8 x 8 8 x 6 x 6 8 6 6 8 8 6 6 x 6 8 8 8 8 8 6 8 8 8 ",
"%.%.%.%.%.+.%.%.+.%.%.%.%.%.%.%.%.%.o.%.%.%.+.%.%.%.%.o.o.%.%.o.o.%.o.%.o.%.%.%.%.%.o.%...%.o.@.%.%.o.%.%.%.o.o.o.%.o.%.o.o.o.%.o.%.o.%.o.o.o.o.o.%.+.o.o.o.%.o.o.o.%.o.+.o.%.o.o.o.+.o.o.+.o.o.+.+.o.o.+.o.o.o.o.o.o.O. .o.o.o.X.o.o.o.o.o.o.o.X.` o.o.o.o.X.X.o.' o.o.o.' o.X.o.X.' X.o.X.` o.o.' o.o.o.o.o.` o.' o.o.o.o.o.' X.o.X.o.X.o.o.X.X.O.o.o.X.o.O.o.X.o.o.O.o.O. .+.%...} @.$.5.5.w.w.w.w.w.w.e.w.q.e.e.q.e.e.e.e.e.e.e.w.e.w.w.w.5.4.&.) o.o.O.X.X.X.H O.X.X.X.X.X.X.X.X.O.X.X.X.X.X.X.X.X.X.X.X.X.X.O.X.X.X.X.X.X.X.H ` X.X.X.X.X.X.H X.X.H X.X.X.X.X.X.H X.X.X.X.H X.X.X.X.H H X.H X.X.H X.X.H H X.X.H X.X.X.X.V X.H H H H H X.H H X.K H X.H X.X.H X.X.H H H X.H H X.K H H H H H H X.H X.H H H V H H H H X.V X.H H H H H H X.H H H H H H H X.H H H X.H H H H H H H H H H H H H H H D H H G H H H H G H H H H H D H H F H H G G H G H H H H H G H H B H H B H G H H B G G V G G G G G H G G G V H H G H B V G G V G G H H G G G G G G H H G G G B B G G G G B B G G G D H B G G G B G G B B D H G V G H B G B H B B G V B V G H B B B V B M B V B B B B B B B B G G B B B G B G B B G B G G B G B G B B B G B G B B S S G B B B B B B B G B G B S k S G c B B B V b n b m b v m b m v m m n n V V B B B S S G S c c B c B B B B B B B B M M B B B B c B c B c B c c B c c G c c c c c G c c B S c c G B c c B c B c c G c c B B c c B c c c c G B c S G S c S S c S G S c S c S c S c G c c S c c c c c c c c c B c c c c c c c c c c c c c c c c c c c c c c z c c z c c c c c c c c c x c S k c c c c S c c c x c x c c c x c c c S x S c c c c x c c c c k c c S x c c x k x S A x c c S x S c c c x c c c x c c x c c c c x c c c x c x z c c x c c c x c c x c x x c c x x c c c c x c x z c c x x c c l c x c l c x c l c x c x c x c x c x x z x z x c x c c l c l c x c x k x c x x x x x x x x x x c x x x x x x x x x x x x x x x x c x c x c x x x x x x x A x x x x x A x c x x x x c x x c x x x A x x x x x x x A x x A x x A x x x x x x x x x x x A x x x x A x x x x x x x A x x x A x x x x x x A x x x x A x x x x x x x x A x x A x x x x x x x x x x x l x l 8 x x 8 x 8 A 8 8 x x 8 x 8 x 8 8 x 8 8 8 x x 8 8 x x 8 x 8 x x 8 x 8 x x 8 x 8 x 8 x 8 x x x x 8 8 x 8 x 8 A x x 8 8 A x x 8 x x 8 x 8 x x 8 x x 8 A 8 x x 8 x 8 x 8 x x 8 x 8 x x 8 x x 8 x 8 x 8 A 8 x x 8 x 8 x 8 x x 8 x x x 8 8 x 6 x 8 x 8 x 8 x 8 8 x 8 8 8 8 x q x 8 8 x 8 8 8 8 8 8 q 8 q 8 8 8 x 8 x 8 x x 8 x 8 x 8 8 8 x 8 x 8 x 8 x 8 x 8 8 8 8 8 l 5 8 x 8 j n +.5.w.e.q.e.e.e.e.e.e.e.e.e.e.e.e.e.e.e.e.e.e.e.e.e.e.e.e.e.e.e.e.e.e.e.e.e.e.e.e.e.e.e.e.e.e.e.e.e.e.e.e.e.e.e.e.e.e.e.9.e.9.e.w.4.*.- g x 6 8 8 x 8 8 8 6 8 8 8 8 6 x 8 8 6 8 8 6 8 8 8 6 8 6 x 6 8 8 x 8 6 x 6 8 x 6 8 8 8 6 x 8 6 x 8 8 x 8 6 8 6 8 8 8 8 6 x 8 8 6 8 x 6 6 8 8 8 6 8 8 l 8 8 8 6 x 6 8 8 8 8 8 6 x 8 8 6 8 8 x 6 8 8 l 8 8 8 8 8 8 x 8 8 6 x 8 8 6 8 6 x 8 6 8 8 6 8 ",
"%.+.%.%.%.%.%.%.%.o.%.%.%.%.%.%.%.+.%.o.+.%.o.%.%.%.%.+.%.o.o.%.%.@.o.%...%.%.o.o.%.%.o.%.%.o.%.o.@.o.@.o.%.@.o.o.%.o.%.o.o.+.o.o.o.o.o.o.%.o.%.%.o.+.o.%.o.o.%.%.o.o.%.o.o.+.o.+.+.o.o.+.o.o.+.o.o.O.o.+.o.o.+.O.o.o.o.+.o.o.o.o.o.o.X.o.o.o.o.o.o.X.o.o.` ' o.X.o.o.o.o.o.' X.o.' o.o.X.o.o.' ` o.X.o.' o.o.X.o.X.o.o.o.X.o.X.X.o.o.X.o.o.X.o.X.O.o.X.X.O.O.o.o.o.X.o.o.o...o.@.} [ 2.w.w.w.w.w.e.w.e.e.e.e.e.e.q.e.e.e.e.e.e.e.e.w.w.e.w.w.w.w.4.*.) o.o.o.H X.K X.X.X.X.X.X.` X.X.o.` X.X.O.X.X.X.X.X.X.X.O.O.X.X.X.X.X.H ` X.X.X.X.` X.X.H ` X.X.X.X.H X.X.X.X.X.X.H X.X.X.X.X.H X.X.X.H X.X.X.X.X.H X.V X.X.H H X.V V X.X.X.H K X.H H H X.H X.X.H X.H H H X.H H X.X.X.H X.H H X.X.H V H H H X.V X.H H H X.X.V H H X.H X.H H H V X.H H X.V H H H H H H H X.H H X.H H H H H H H H X.H H H H H J G F G H G G G H H H G H G H H J H G H G H H H G H H G H G H H B H G B H G G H B H H H G G H H G H G V G G G H H B H G G V G G G G J G G G G H G G J H G G G G G B G G G B G G G G B G G D G F G G G B H G G B G V B B G B B V G B G B G G B V B B V B M V B B B B B B B B B B B B B B G B B B G B B B G B B B B B B B B B B B B B B G B G B G B S B S G B J S c B H B V v v m U ( ( ) ) ) ) ( ) ) ( / / b v V m B J S S Z k S c c c B B B B M B M B B M B M B c c B c c B c B c c B B c S B B c c B c B c B c c B c c B c S B c B B c G c B S B c B c B G c S S c S S c G S c S c S S c S G S c c S G c c S c c c c c c c B c c B c c c M c c c c z c z c c c c c z c c c c c c c c c c c z x c c c c c c c c c c k c c x c c x S k c x c c c c c k c c c c c x c c c c c c c c c c c c k c c c S c x S k A x c c x c x c z l c c x x c c x c x c c x c c x c c l c x c z c x l c c x c x x l c c x c c c x c x x c x c x c l c x z x c x c x c x c l c l c c l c x c x c x c c c x x c x c x x x k A x x x c x A k c x k A x x x x x x x x x k x x x c x c x A x x x x x x x x x x x x x x x x x x x x x x x c x c c x x k x x x x x x A x x A x x A x x x x x x x x x x x x x A x x x x x x x x x x x x x A x x x A x x x x x A x x x x x A x x x x x x x x x x x x x x x l x l 8 l 8 x x x x x x 8 x 8 x 8 A 8 x x 8 x 8 8 A 8 x x 8 x x x 8 x 8 A 8 x 8 x 8 x x x x 8 x 8 x 8 x x 8 x 8 A 8 x 8 x 8 x 8 x 8 x 8 8 x x 8 x 8 A x x x 8 A 8 x 8 x x 8 8 x 8 x 8 x x 8 A 8 8 A 8 x 8 x x 8 A 8 x x 8 A 8 x x 6 x x x 6 x 8 x 8 8 x x x 8 x 8 x 8 8 8 x 8 6 8 x x 8 x 8 x 8 x 8 q 8 8 x 8 x x 8 x 8 8 q 8 q 8 8 8 x 8 A 8 8 q 8 x x x 8 8 q 8 8 8 8 x 8 x 8 6 8 8 x j t O.=.w.w.e.q.e.e.e.w.e.e.e.e.e.e.e.e.e.e.e.e.e.e.e.e.e.e.e.e.e.e.e.e.e.e.e.e.e.e.e.e.e.e.e.e.e.e.e.e.e.e.e.e.e.e.e.e.w.e.e.9.e.9.e.w.5.4.b t c 8 8 8 8 8 8 6 8 8 8 8 6 x x 6 8 6 8 8 6 8 8 6 8 8 8 8 6 8 6 8 6 8 x 8 x 8 8 8 x 8 6 8 8 8 x 6 6 x 8 8 x 8 8 8 x 6 8 8 8 x 6 8 8 6 8 8 8 8 l 8 8 6 8 6 8 8 8 8 x 8 6 8 6 x x 6 8 6 8 8 8 6 8 8 8 8 8 x 6 8 8 8 8 8 x 8 8 8 8 8 x 6 6 8 8 8 8 8 ",
"%.%.%.%.%.+.%.%.%.%.%.%.%.%.+.%.%.%.%.%.%.%.%.%.%.o.%.%.%.%.} %.%.o.%.o.%.o.o.%.%.o.o.%.o.%.%.o.%.+.%.o.%.o.%.o.o.o.+.o.%.o.o.%.%.o.%.o.o.o.+.o.o.o.o.o.%.o.o.o.o.+.o.o.%.o.%.o.o.o.o.O.o.o.O.o.O.+.o.o.+.o.o.+.+.o.+.o.o.o.O.o.X.o.o.o.o.X.o.o.X.' o.o.o.o.o.X.o.o.` o.X.o.o.o.X.o.X.o.o.o.X.o.o.o.o.o.X.o.' o.o.o.' X.o.o.' o.o.o.X.o.o.O.o.X.o.X.X.O.o.o.X.X.X.X.o.o. .o.....) @.3.5.w.w.e.e.e.e.e.e.e.e.q.e.e.e.e.q.e.e.e.w.w.e.e.e.e.e.e.w.w.w.5.@.) ( X.` X.X.X.K X.X.X.X.X.X.X.` X.X.X.X.X.X.X.X.X.X.X.X.X.X.X.X.X.X.X.X.H X.X.X.X.X.X.X.X.X.` X.X.X.X.X.` H X.H X.X.X.H X.X.X.X.X.H X.X.H X.X.H X.H X.X.X.` X.V X.X.X.V H X.X.H X.X.H H X.H H H X.H X.H H X.H H K H H H X.H H H H X.H X.H H H H X.V H H H H H X.V H H H H H H H H H H H H H H X.H H H H H H H H H H V X.H H H H H H X.H H H H H J H H H H D K G H G G H H D F H K H G G H H G H H G H G B H G V H H V G B H H B G V V G H G G G H G H G B B H H G H H G G H H G G G H G G G G H G H G G G G G G G G G G B F G G G B V G B G G G B D B G V B G B B V B H B G B V B V B V B B B B B B B B G B G B B G G B B G G B B c G B B c G B B B G B B G G B B G B B V B B B B B c G S G G S G k B B G G M n m m ( ( %.@.#.&.4.4.5.5.4.4.4.4.&.@.) ) / b m n J k S S S S c B c B M M M B B B B B B c c B B c G c c G c G B c c B B c c G c B B c c G B G c B B c c B c B c c c c B c B c c G G c c c S c G c c S c S S c c S c S S c c S S c c S S c c c c c c c c c c c c c c c c c c c c c c c z c z c c c z c z c c z c z c c c c S c c c c x c c S x c x c c c c c c c x c c S k c x c x c c x c k c c c c x c c S x x c c c A c S x x S x c S x c x c c x c c x c c x c c x c c x c x c x c x c x c c x c x x c c c c x z c c c c x x c c x c x x c c x c l c l c x c x c l c x c l c x c x c x x c l c l c x z x l z x c l z x c x x x x x x S x x x x x x x x c x k A x x S x x A c x x x x x x k x x x c A k c x S x x c x c c x c x A c x c x x x x x x x x x x x x x x x x x x x x x x x x A x x x A x x x x x x x A x x x x A x x A x x A x x x x x x x x x x x x A x x x x x x x x A x x x x A x x x x x x x x x x x x x x 8 8 A x 8 x x x 8 x x 8 A x x x x x 8 x x 8 8 x x 8 x x x 8 A 8 x x 8 8 A x 8 A 8 8 x x 8 8 A 8 x x 8 x x 8 x x A 8 x A 8 8 x 8 x 8 x 8 8 x 8 8 x x 8 8 A A 8 A 8 x x 8 x x x x 8 x 8 x x 8 A 8 x 8 8 x 8 x 8 8 x 8 8 8 x 8 8 6 8 x 8 8 8 x 8 x 6 x 8 x 8 x x q 8 8 q 8 8 x q 8 8 8 x 8 8 q 8 q 8 8 8 8 x x 8 8 x q 8 8 8 8 x 8 x 8 8 8 8 x 8 8 x x 8 8 q 8 8 6 x 2 x u d $.5.w.e.e.e.e.e.q.8.e.e.e.e.e.e.e.e.e.e.e.e.e.e.e.e.e.e.e.e.e.e.e.e.e.e.e.e.e.e.e.e.e.e.e.e.e.e.e.e.e.e.e.e.e.e.e.e.e.e.e.e.9.e.q.w.w.5.o.h g j x 1 8 6 8 x 8 x 8 8 8 6 8 8 8 8 8 6 x 8 8 x x 6 x 8 x 8 8 8 8 8 6 8 6 8 8 l 6 8 x 8 8 8 6 8 8 8 8 8 6 8 8 l 6 8 x 8 8 8 8 6 6 x 8 8 8 8 8 8 8 x 8 8 8 8 x 6 6 8 8 6 8 6 8 8 8 8 8 6 6 x 8 8 8 8 8 6 x 8 8 6 8 8 6 6 8 8 6 8 8 8 x 8 8 l 8 8 ",
"%.%.%.%.%.%.%.%.%.%.%.%.%.%.%.%.%.o.%.%.%.%.%.%.%.+.%.%.o.%.%.o.%.o.o.%.%.%.%.%.o.%.%.%.%.o.@.%.o.o.%.%.%.o.%.%.o.%.o.o.o.%.o.o.o.+.o.%.o.%.o.o.%.%.o.%.o.%.o.%.o.o.%.o.o.o.o.o.o.o.+.o.o.+.O.+.o.o.+.+.o.O.o.o.o.o.O.o.o.O.o.o.o.o.o.o.o.X.X.o.o.X.o.o.o.' o.o.o.' o.` o.o.X.o.o.o.o.X.o.' o.X.o.X.o.` o.o.X.o.' X.o.o.X.o.o.o.O.o.X.o.X.o.o.X.o.O.o.O.O.X.O.X.X.o.o.X.o.} @.[ @.3.w.w.w.e.e.e.e.e.e.q.q.e.e.e.e.q.e.e.e.e.e.e.w.e.e.e.e.e.9.w.w.w.w.5.&.( ' o.X.X.X.K X.X.X.X.X.` X.X.X.o.X.X.X.X.O.X.O.X.X.X.X.X.X.X.X.X.X.H X.` X.X.X.X.X.X.X.H X.X.X.X.X.H X.X.X.X.H X.X.H X.V H X.X.X.X.X.X.H X.` ` X.V V V X.X.X.V X.H X.H H X.H H X.H X.H H H X.H H X.X.H X.X.H H X.X.H H X.H V X.H H H H X.H H V X.H X.X.H X.H H H X.H H X.H H H H H H X.H H H H H H H H H H H X.H H H H X.H H H H H H H G H G H G H B G H G H H G H D H H H G D H G H G H F G H H H H G H H G H B B H H B B H H G H G B G G V G G H V H G H B B H G B G G G G G H H G G H G G G H G G G G G B D V B G G G G G G G G G G G B B H G G H G B V G G V B V G B G V V G B B B B B B V B B B B B B G B B B B B B B B G B B G G B B G B B B B B B B B G B B B B B B B G G G S S S G S G S B B H V m m ( %.=.4.5.5.w.w.e.8.w.e.w.w.w.w.w.5.5.4.} ) ( m n D S Z S c c B B B B B B M B M c B c B c B c B B c c B c c c G c c c c c B c c c c B c c B c c c B B c c S c c B c B c c c B c c c c B S c S c c S c S S c G c S c c S S S c S S c S G M c c c c c c c c c c B c c c c c c c z c z c c c c c c c c c c c c z c z c c c k S c x c x c x c c x c c x c c c c c c x c x c c c x c c x x S S c c x x S x c k c c c x c c c S c x A S c c S c x c l x c x c c x x c z x c x c c x l c c l c x c c x c c c c c x x c c x x c c x c c x l c c c c l c x z x c l c x z l c x z x c x z l c x c c x c x c x c x c x c x x c x c x c x c c x c x x x x x x S x c x x x c k A x c x x x x x x x A c x x S x x x x x x x A c x x x x x x c x A x x k A c x x x x x A x x A x x x x x x x x x x x x x x A x x x x A x x x x x x A x x x x x x x x x x x x x x x A x x x x x x x A x x x x x x x x x x x x x x x x x x 6 x l x l 8 l 8 x x 8 8 x x 8 x 8 x 8 x A 8 x x 8 8 x 8 x 8 A 8 x 8 8 8 x x 8 x 8 8 A x 8 8 x 8 x x 8 8 x 8 x x x 8 A 8 A 8 x 8 x x 8 8 x x 8 8 x 8 x x 8 x x x 8 x x x x 8 x 8 x x 8 x x 8 x x x x x 8 x x 8 x x 8 x 8 x x 8 x 8 6 x 8 x 6 x x 8 8 x x 8 6 8 8 x x 8 8 8 x 8 8 x x 8 x q 8 8 8 x 8 8 x 8 x 8 x x 8 x 8 8 q 8 x 8 8 8 x 8 8 q 8 8 8 x q 8 8 x q 8 8 q x x 8 x 8 x j g n +.5.w.w.e.q.e.e.e.w.e.e.e.e.e.e.e.e.e.e.e.e.e.e.e.e.e.e.e.e.e.e.e.e.e.e.e.e.e.e.e.e.e.e.e.e.e.e.e.e.e.e.e.e.e.e.e.e.e.w.e.9.9.9.q.e.e.w.w.=.m t x q 7 8 x 8 6 8 8 8 8 8 8 l 8 x 8 8 x 6 8 6 8 x 8 6 8 8 8 6 8 x 6 8 8 8 8 8 8 6 x 6 8 x 6 8 8 6 8 8 l 8 6 8 8 6 x 6 8 6 8 8 8 8 8 l 8 x 6 8 8 8 6 8 x 8 l 8 6 8 8 8 x 8 8 l 8 x 8 8 x 8 8 x 6 8 8 8 6 6 8 8 8 8 l 8 8 l 8 8 6 8 x 6 8 8 8 x 6 ",
"%.%.%.%.%.%.%.%.%.%.%.%.%.%.%.%.%.%.+.%.%.o.o.%.%.%.%.o.%.o.o.%.%.%.o.%.o.%.o.o.%.o.@.o.%.o.+.o.%.%.o.%.o.%.%.o.o.o.%.o.o.o.o.%.%.o.o.o.o.o.%.o.o.o.o.o.o.o.o.o.o.%.o.o.o.+.+.o.+.+.o.o.o.o.o.o.o.o.o.o.o.+.o.o.+.+.o.o.+. .o.o.o.o.X.o.o.o.o.o.o.o.' X.X.o.X.o.o.X.o.X.o.X.' o.X.' o.o.o.X.o.o.o.o.o.o.` X.o.o.o.o.X.X.o.' ` o.o.X.o.O.o.o.X.o.X.O.X.X.o.O.o.X.O.X.X.o.o.o.@.{ w.w.w.e.e.e.e.e.e.e.e.e.e.e.e.e.e.e.e.e.e.9.e.e.e.w.e.e.e.9.e.9.e.w.w.w.4.&.' ` X.K X.X.X.O.X.X.X.o.X.X.` X.X.o.X.X.X.X.X.X.X.X.X.X.X.X.X.X.X.X.X.X.X.X.H X.X.X.X.X.X.X.X.X.X.` H X.H X.X.X.X.X.X.X.X.X.X.X.V X.X.X.X.X.H X.X.X.H X.V X.X.X.V X.X.H H X.H K H X.H X.X.K H X.H K X.H H X.K H X.H H X.H X.H H X.V H V X.H H H H H H H V H H X.H H H H H H H X.H H H H H H V X.H H V X.H H H H H H H H H V X.H H H H H G H H H G F G H H H G H H H H J F H G H H H H G G H J H G H G G V G B H H B H H B H B H B H H V H G G V G G G V B H H B H H G G H H J G G H H J G H G G G G G B G H G G G H B G G B H B G G G G H G B G G B H B B G B B B G V B B B G B V B V B B V B B V B G B B B G B G B B G B G B B B B B B B B G B G B B G B G B B B B V B B G c G S S S G c G B B B B s f ' *.4.4.5.w.w.w.w.w.e.w.e.w.w.e.w.w.w.e.w.w.w.4.=...T m n D k c k c B c B B c B B B M c B c c c B c c G c c G B c c G c B G B c S B G c c B S c G c B c c B B c B G c B c B c B c B c B G c c S c S S c G c S S c S c S G c c G S c c S S c c c B c c c c c c c c c c c c c c c c c c c c c c c c c z c c x c c c c c c c c c x c c c S k S c c c S k c c A x c c c S c c c c c S S k c S k S x c c S k c c c S x c c c c x x S S k c A x S c c c x c c x c x c c x c c c x c x c c x c c x c x c c x c x l c c x c c x c c x c c l c c c x c l c x c x c l c x c x c x c x c l c x c x z x x z x c l c x z x c l c c l c x x x x x x x x x x c c x x x x x c x x x x x x x c x c x S x x k x x x x c x c x c x x k x x x c k x x x c x x k x x x x x c c x x x 8 x x x x x x x A x x x A x x x x x x x x x x x A x x x x x x x x A x x x x x x A x x x x x x A x x x x x x x x A x x x x A A x x x x x x x x x x x x x x x x 8 8 x A 8 8 x 8 x 8 x 8 8 x 8 8 x x 8 A 8 x 8 A 8 x x x 8 8 x 8 x x 8 8 x x 8 A 8 x x x 8 A x x 8 x 8 x 8 x 8 x 8 x 8 A 8 x x x 8 x A 8 x 8 x 8 A x 8 8 x x 8 8 x 8 A 8 8 x 8 8 x 8 8 A 8 x 8 x 8 x 8 A x 8 x 8 8 x 8 x 8 x 8 8 x 6 x 8 x 8 x 8 x 8 x 6 x 8 x 8 8 8 8 8 8 x 8 q 8 x x 8 q 8 q 8 8 8 q 8 x x 8 8 q x q 8 8 8 x x 8 q 8 8 x 8 8 8 x x 8 8 8 q 8 8 8 x w d 4.5.w.e.e.9.q.e.e.e.e.e.e.e.e.e.e.e.e.e.e.e.e.e.e.e.e.e.e.e.e.e.e.e.e.e.e.e.e.e.e.e.e.e.e.e.e.e.e.e.e.e.e.e.e.e.e.e.e.e.e.e.9.9.e.9.e.e.w.5.' @ x q 4 8 8 8 8 6 x x 8 8 8 8 8 6 8 8 6 8 8 8 8 6 8 8 6 8 6 x 8 8 8 8 l 8 6 8 8 8 6 8 8 6 8 8 6 x 8 8 8 8 8 8 8 8 8 6 8 x 6 8 8 6 x 8 8 6 8 8 6 x 8 8 6 8 8 8 x 8 6 8 8 8 8 8 8 6 8 8 6 x 8 6 8 8 6 x 8 8 6 x 8 8 8 6 x 8 8 8 x 6 8 8 8 x 8 6 8 ",
"%.%.%.%.%.%.%.%.%.%.%.%.%.%.%.%.%.%.+.+.%.%.o.%.%.%.%.%.o.%.o.@.o.%.%...%.%.o.%.%.%.o.o.%.o.o.%.o.o.+.%.%.o.%.o.o.%.o.o.o.o.o.%.o.o.o.o.o.%.o.o.%.o.%.o.+.o.o.o.%.o.o.o.%.+.%.o.+.o.o.o.o.o.+.o.o.+.o.O.o.o.o.+.o.o.o.o.o.o. .+.o.o.o.o.o.o.o.o.X.o.X.' o.o.o.o.o.o.o.` o.` o.o.o.o.o.o.o.o.X.X.' o.o.X.' X.o.X.o.X.o.o.X.o.o.o.o.X.o.o.X.o.o.O.X.X.o.O.X.o.O.O.X.X.O.o.) ' #.5.w.w.e.e.e.e.e.e.e.e.e.e.e.e.e.e.e.e.e.e.e.e.e.e.w.e.e.e.e.9.e.e.9.e.e.w.5.2.| ) O.O.X.X.X.O.X. .O.X.X.X.X.X.X.` X.X.X.X.X.X.X.X.X.X.X.X.H X.` X.X.X.X.X.H X.X.X.X.X.X.X.X.X.X.X.X.X.X.X.X.X.X.H X.X.X.X.X.X.X.H X.V H ` ` X.V X.X.` X.X.V X.` H H X.H K X.H H K X.H H X.H H H X.K X.H H X.H H H X.X.H H H H X.H H H H X.H H X.H X.X.H H X.H H V H H H X.H H H H H H H X.H H H H H H H H H H H X.V H H H K X.H X.H H G H G H H G H G G H H G H K D H H J H H H G H H H G G H V G H B G G H G G H G V G G H B G G G H G G B H G H H G B H B B H B G G H G J H G J G H H B B H J G D V G B G G B F B G G H G B G B G G B G G G G H B B G B B B G B G B H B V B V B B V B B V B B V B G c G B B B B B B B G B G B G G B G B B B B B B B B G B B B B B B B B B S S S J G k k B V m s ) #.4.w.w.w.w.w.e.e.e.e.e.e.e.e.e.e.e.e.e.e.e.e.w.w.w.5.4.o.U a m J B k k G B c B B c B S S S c B c B c G B c c c B c c B c B c c B G c G c c G B c B c B c c B G c c B c G B c B c c G c G c B G S S c S S c G c S S c S B c S c S S c S c S c c c c c c c c c c c c c B c c c c c z c c c c c c c c c c z c c c c c c c c c l c c x c c c c k S c c c c x S k S c k A c c x c c A c c c c x c c c x c S c c c c c c c c x S c S x x c k S c A l c c x c c x c c x c c z x l c c c l c c l x c c l x c x x c x c x c z x c c x x c c x x c c x l c l c x z x c x c l c l c l c c x c x c l c x c l c l c l c x x c l c x z x z x c x c x x x x x x x S x x c x x c x c x x x c x x x x x x x A c x c x x x c x k x x c x x k x A S x x A x c c x x x x x x k x x x x x x x A x x x x A x x x x x A x x x x x x A x x x x x x x A x x x x A x x x x x x x x A x x x x x x A x x x x x x A x x A x x j x x x 8 x x x x x x 6 l x 8 x x 8 8 x x 8 x 8 x 8 A x 8 x A 8 x x 8 x 8 x 8 x x 8 8 x x 8 x 8 x 8 A x 8 x 8 A 8 8 x 8 x 8 x 8 x x x 8 x x x 8 x 8 x 8 x 8 x 8 x x 8 q x 8 8 8 x 8 8 x 8 8 x x 8 x x 8 x x 8 A x 8 8 A x x 8 8 x 8 8 x 8 x 6 8 x 8 x 8 8 x x x 6 x 6 8 x 8 x 6 8 x 8 x 6 8 x 8 x 8 x 8 q 8 8 q 8 x x 8 8 8 8 x 8 x x 8 x 8 x 8 x 8 8 q 8 x x 8 8 8 q x q x 8 8 x 8 x 8 j 8 8 8 g t =.5.w.e.e.e.e.q.e.e.e.e.e.e.e.e.e.e.e.e.e.e.e.e.e.e.e.e.e.e.e.e.e.e.e.e.e.e.e.e.e.e.e.e.e.e.e.e.e.e.e.e.e.e.e.e.e.e.e.e.e.e.e.9.e.e.9.e.e.e.5.*.b 2 4 1 4 8 8 8 8 q 8 8 8 4 8 8 8 8 8 8 8 8 6 8 8 x 6 6 8 8 8 8 8 8 8 8 x 8 8 8 8 8 l 8 8 6 8 8 8 6 x 8 8 8 8 6 6 x 6 8 8 8 6 8 6 x 6 8 8 6 8 8 8 8 x 6 8 x 6 8 8 8 6 8 8 8 x 6 6 x 8 6 6 8 8 8 8 6 8 6 8 8 x 8 8 8 8 8 8 8 6 x 6 x 8 8 6 8 8 8 ",
"%.%.%.%.%.%.%.%.%.%.%.+.%.%.%.%.%.%.%.%.o.%.%.+.%.o.%.o.%.%.o.%.%...%.o.o.%.%.o.o.%.%.%.%.%.%.%.%.%.%.%.%.%.o...o.o.%.o.%.o.o.o.%.o.%.o.o.o.%.o.o.o.o.o.%.o.%.o.+.o.o.%.o.o.o.o.o.o.+.O.o.+.o.o.o.o.o.o.O.+.o.o.o.o.o.o.o.O.o.o.o.X.o.X.o.+.o.o.o.o.o.o.X.X.' X.X.o.o.o.o.o.o.X.' X.o.X.o.` o.' X.o.' o.o.X.o.o.o.' o.X.' o.o.X.X.o.o.X.o.X.X.o.o.O.o.X.O.o.X.o.X.o.O.....=.5.5.w.w.w.e.9.e.e.9.e.9.e.e.9.e.e.9.e.e.e.e.w.e.e.w.e.e.e.e.e.e.9.9.e.e.e.w.w.5.#.) ` X.X.X.K O.O.H X.X.X.X.` o.X.o.X.X.X.O.X.O.X.X.X.X.X.X.X.X.X.X.X.X.` X.X.X.X.X.` X.X.X.X.X.V X.H X.X.H V X.X.X.V X.H X.X.H X.X.X.X.X.X.H H X.X.X.H V X.X.H X.X.X.H H X.X.H X.H H X.H K X.X.H K X.H K X.H H X.H H H H X.V X.H H X.H H H V X.H H V H X.H H V H X.H H H H H H X.V H H H H H H X.V H H H X.H H H H H H X.H H H H H J G H H H H G H H H H G G H H D K H G F G H G F J H H H H G G H V H V G G V G G G H H G V H V G G G V H H B H G V G H G H H H H G G G G G H G H G G G G G B H G G G G H G G B G H B G B G G G G B G G G G G B B G V V B V G G V G V G B B B B B B B B V B B B B B B B B G B G B G B B B B B B B B B B B B G G B G B B B G B G B B V V B B S G S G B V H ( b ( *.<.0.w.w.w.e.e.e.e.e.e.e.e.e.e.e.e.9.e.e.e.e.e.e.e.e.w.w.5.4.@.@.d n n n k c c G c c S c c c S c c G c B c c c G B c S B c B c B G c c B c c B c c B c c c G G c c B B c c c S c c B c c c c B c S c c G c S S c S c c S S c S S c c c c c c c c c c c c c B c c c c c c c c c c c c c c c z c c c z c c c c c c z c z c z c c c c c c c c c x S x c x c c c c c c c c c c S c c c k c c c c c c c c c c k x x S c x c c c S c c k c S S A x c c c x x z c x x c x c c x x c c c x x c c x c c x x c z c c c c c c x x c c x l c c c x z c l c c c x c x c x c x c l c x c x c x l c l c x c x z x c x c x c x c c l c x c x c x x x x x x c x c x c x x x x x x x x x x c x x x c A k x c x c x x x x x x c x x A x x x x c x A x x x c c x x x x x x j x x x x x x x x x x x x x x x x A x x x x x x x x x x x x x x x A x x x x x x x x x x x x A x x x x x x x A x x x x x x x A x x x x x x x x 8 x x x x x 8 l l x x x x x x 8 x A x A 8 x x x 8 x 8 x x 8 8 x 8 x x 8 x x x 8 x A x A 8 x x x 8 x 8 x x 8 x 8 x x x x 8 x 8 x 8 8 8 A 8 8 8 x x 8 8 A x x q 8 4 q 8 x q 8 A A 8 9 q 8 A A 8 x A 8 8 A x 8 x 8 8 x x A x 8 8 x 8 x 8 x x 8 x 8 8 x 6 x x 8 8 8 x 8 x 8 8 x 8 x x 8 x 8 8 x 8 q x 8 8 8 8 x x 8 8 8 q 8 8 x q 8 8 q 8 q 8 8 x 8 8 q x 8 8 8 q 8 8 x 8 8 8 x 4 8 8 8 8 8 8 8 8 j h a =.5.w.9.9.9.e.e.e.e.e.e.e.e.e.e.e.e.e.e.e.e.e.e.e.e.e.e.e.e.e.e.e.e.e.e.e.e.e.e.e.e.e.e.e.e.e.e.e.e.e.e.e.e.e.e.e.e.e.e.e.e.9.e.9.9.e.e.e.e.w.&.n r j 3 8 x 8 8 8 x 8 8 x 8 8 8 x 8 8 j x 6 8 8 8 8 8 8 x 6 6 8 l 8 8 8 6 8 x 6 8 8 8 8 8 x 8 6 8 8 6 8 x 6 x 8 8 8 8 8 x 6 x 8 8 8 8 8 8 x 6 8 8 8 6 8 8 8 6 8 8 8 x 6 8 8 6 8 8 8 8 8 6 8 8 l 8 x 8 8 6 8 6 8 x 6 8 6 6 8 8 8 8 6 8 8 6 8 8 l ",
"%.%.+.%.%.%.%.%.%.%.%.%.%.+.%.%.%.%.%.%.%.o.%.%.%.+.%.%.%.o.%.o.%.o.%.%.o.@.%.o.%...o.%...%.%.o.o.%.o.%.%.o.' %.o.+.o.o.o.%.%.o.%.o.o.%.+.o.o.o.o.+.o.%.o.o.o.%.%.o.%.o.o.o.%.o.o.+.o.+.o.o.O.+.+.o.o.+.o.+.o.o.o.O. .O.o.o.o.o.o.o.X.o.o.o.o.o.o.` o.X.o.o.o.o.o.o.X.o.o.X.o.o.o.X.' X.o.o.o.X.' o.X.o.o.o.o.o.X.o.o.' X.o.' o.o.X.X.o.o.o.o.O.o.X.O.X.O.X.O. . .o.o.) @.4.w.w.w.e.e.e.e.e.9.w.e.e.e.e.e.e.e.w.e.w.e.e.w.e.e.e.e.w.e.e.e.e.9.e.e.e.e.w.w.w.3.| ' X.X.X.X.X.X.X.X.X.X.X.X.X.X.X.X.X.X.X.X.X.X.X.X.X.X.` ` X.X.H H X.X.X.X.X.X.H H X.X.X.X.X.X.X.X.X.H X.H X.X.H X.X.X.X.X.X.X.X.V X.X.H X.X.X.V H H X.X.H ` V X.X.H H X.H H X.X.H X.X.H H X.H X.X.H X.H H X.X.H H X.X.H H H H V H H H X.H H H H H H V H H X.H H V X.H H H H H H V X.H H H H H H X.H H H H X.H H H H H H H X.H X.F H H G G H G H G H H H G H H G H G H G H H G G H H H G H G G G G G V H G V V G V G G V G G V H H B V G G V V G G G V G H B B H G H H H G H G G G G B D G G H G G G G B G H G G H D G G G B F G H G B H B H G G B G B B G V B B V B B V V B B B B B B B B B B B B B G B B B B G B G B G B G B B B B G B B B B B B G B G B B B B V B B B c G k B G M m F ( U *.w.w.9.e.9.e.e.e.e.q.e.e.q.e.q.e.e.e.9.e.9.e.q.e.e.e.e.q.w.w.w.w.4.o.m m V G B k S c c c S S c k c c B c c c B B c G c B c c B c c c c B c c B B c B B c G S c c c c c c c B c G B S B c B B c B c c S c c S c c S c G S c S c S c c S S c c c c S c B c c c M c c c c c c c c c B z c x c c c z c z c z c c c c c c l c c c c c c S k c c x c c c x c c c c c c c c c c c c x x c c c x c x c c A c c c c c c c x x c k A x k c c A S S x S x c c c x c c c c c c x c c x c c x x c x c x c c c c c c x x c x x c c c c c c c x c x c x c c x c x x c x c x c l c x c x c x c x c c x z x c l c x c x c x c l z x x c x c x c x c x S x x c x x x x A x c x x k A x c k x x k A c x x x c x x k x x x c x x x x A x S x c x x A x S x x x x x x c x x k x x x j x x x A x x x x x x A x x x x x x x x x x x A x x x x x A x x x A x x A x x x x x x x x A x x x x x x x x x x x x x x x A x x x x x x x x x j x x x x x x x x l x 8 x x 8 8 x x 8 8 x 8 8 x 8 x 8 8 x 8 x 8 x x 8 8 x x 8 8 x x 8 8 x 8 8 x 8 x 8 8 x x 8 8 A 8 x x x 8 A x 8 8 x x 8 x x A 8 8 x 8 A 8 8 x 8 q x 8 8 8 x x 8 8 8 x 8 8 x x 8 8 x 8 x x 8 x 8 8 A 8 x x 8 x 6 8 x 8 x x 6 x 8 8 x x 6 8 8 8 x x 6 x 8 8 x 8 x x 8 x 8 8 q x 8 8 8 8 8 x 8 8 x q 8 x 8 8 8 8 8 8 x 8 x 8 8 8 8 x 8 x 8 q 8 8 q x 8 A 8 q x 8 8 8 8 6 g - o.4.w.8.9.e.e.e.e.e.e.e.e.e.e.e.e.e.e.e.e.e.e.e.e.e.e.e.e.e.e.e.e.e.e.e.e.e.e.e.e.e.e.e.e.e.e.e.e.e.e.e.e.e.e.e.e.e.e.e.e.e.e.9.e.e.e.9.e.e.e.w.5.` r 8 4 8 8 8 8 8 8 8 8 8 8 8 x 8 8 4 8 x 6 x 6 8 8 8 8 x 8 x 6 8 8 8 6 6 x 6 8 6 8 8 8 6 8 8 x x 6 6 8 l 8 6 8 8 8 6 8 x 8 6 8 6 8 8 6 8 8 8 x x 6 8 8 8 8 8 x x 6 8 6 x 6 8 8 8 6 x 6 8 8 8 8 8 6 x 6 x 6 8 8 6 8 8 8 x 6 6 8 8 8 x 6 8 8 8 8 ",
"%.%.%.%.%.%.+.%.%.%.%.%.%.%.%.%.%.+.%.%.%.%.%.%.%.%.%.%.o.%.o.%.o.%.%.o.%.o.%.%.%.o.%.%.%.o.o.%.' %.@.o.%.%.%.o.%.o.%.o.o.o.o.+.o.o.+.o.%.o.%.o.%.o.o.o.%.o.o.o.o.o.o.o.o.%.o.o.o.o.O.o.+.o.o.o.+.o.o.+.o.o.o.O.o.o.o.o.o.o.O.o.o.o.o.o.o.o.o.X.o.o.o.o.X.' X.o.o.X.' o.o.` o.` ' o.o.o.X.o.o.' o.X.o.o.o.X.' X.o.o.o.X.o.o.X.o.X.o.O.o.X.o.X.o.O.O.o.X.X.o.X.o.o...) @.4.w.w.w.e.e.e.9.e.e.e.e.9.e.9.e.e.e.e.e.e.e.e.e.e.e.e.e.e.e.e.e.e.9.e.e.9.e.e.e.w.w.w.| ( ` X.X.X.X.X.X.K X.O.X.X.X.X.X.O.X.X.X.X.X.X.X.O.X.X.X.H X.X.X.X.X.X.` X.X.X.` X.X.V X.X.X.X.X.X.X.X.X.X.X.X.X.X.H X.H X.H X.H V X.H ` X.H X.V X.` X.V X.X.H X.H H X.K H X.H H X.H H X.H H H X.H H X.H X.K H H H K X.H H X.H X.H X.H V H X.H X.X.H X.H H H X.V H H H H X.H H H H H H H X.H H H H H H H H H H H X.H H H H H H H G H G H G F H D H D H G H G H H H D K H H G H H H H H G H G V G G H G G H G G H G G H G G H G G V H G G H G G H H G G H B H H B G G G J G G G G G H G H B G G G G B G G G B G G B G G B G G G B D B G G B D G G B V B H B B B H B V B B B B V B B V M B V B B V B G B B G B B B B B B B B B G B B G B B B G B G B B B B G B B B B B B B G S G J J F m s ) 4.5.w.e.e.9.9.e.9.9.q.e.e.e.e.e.e.q.e.e.e.9.e.e.e.e.e.e.q.e.e.e.e.w.w.4...U b m D B k c S S S c S B c B c G c c c G c c B c B B c G c c B c c G c c B c c B c B B c B B c G B c B c c B c B c c G c B S c S S c S c S S S c S c S c G S k c S k S c S c c c c c c c c M c c c c c c c c c c c c z c c c c c c z c c c c c c c c c z c x S x c c c c x S c c c x c c A c c c x c S k c x c c c c c c k x S k x c c c c c c c c c c c x S x S x c S A S x c c x x x c l c l c c c x c c c c c x c x x c c x c c c c l c x c l x x c c x x c c c x c c x z x c l c l c x c x z x z x c l x c x c x c x c l c x z x c x c c l c x c l c l x x A k x x A x x k x x x c x x A x x x x x x x c x x x c x x x x S x x x c x x x x x x x c x x x x x c c x x x x x x x x k x x x x x x x x A x x x x x x x x A x A x x x x x x x x x x x x x x x x x x x x x A x x x x x A x x x x x A x x x A x A x x x x x A x 8 x x x 8 x x x l x 8 l x x 8 8 x 8 x x 8 x 8 A 8 x x 8 A 8 x x 8 x x A 8 8 x 8 x 8 x x 8 x 8 A 8 x x 8 A 8 x x x 8 A x 8 x 8 A 8 x 8 x x x x 8 A x 8 8 x x 8 x 8 A A 8 A x 8 8 A A 8 8 A C 8 8 x x 8 x 8 x 8 A 8 x x x 8 x x x 8 x 8 8 x 8 8 x 8 x 8 8 x 8 6 8 x 8 x x 8 8 x 6 x 8 8 8 x 6 x 8 8 x 8 q 8 x 8 x x 8 q 8 8 x x 8 8 x 8 8 A q 8 q 8 8 x x x 8 q 8 8 x 8 x 8 8 8 8 8 8 x 8 8 7 6 l j v %.5.e.9.e.9.e.e.e.e.e.e.e.e.e.e.e.e.e.e.e.e.e.e.e.e.e.e.e.e.e.e.e.e.e.e.e.e.e.e.e.e.e.e.e.e.e.e.e.e.e.e.e.e.e.e.e.e.e.e.e.9.e.e.e.e.e.e.e.9.e.w.w.%.r 4 q 8 8 8 4 8 4 8 x 8 8 8 8 4 8 8 8 6 8 8 8 l 8 8 8 6 8 8 8 8 6 x 8 8 8 8 8 x 6 8 6 x 8 8 6 8 8 8 6 8 8 8 8 6 x 8 8 6 6 8 8 x 8 8 8 x 8 8 6 6 8 8 6 6 8 8 6 8 6 8 x 6 8 8 6 x 8 8 8 x 6 8 8 x 8 8 8 8 8 8 l 8 8 x 6 8 8 8 6 x 8 8 6 x 6 8 8 ",
"%.+.%.%.%.%.%.%.%.%.%.%.%.%.%.%.%.o.%.o.%.+.%.+.%.%.%.o.%.%.o.%...%.%.o.o.%.%.o.o.%.%.o.@.%.%.o.%.%.o.%.%.o.o.o.o.o.o.o.o.o.%.o.%.o.o.o.%.o.%.o.o.o.o.o.+.%.o.%.o.+.o.o.%.o.%.o.o.o.o.o.o.+.o.O.O.o.o.+.o.o.+.+.O. .o.o. .o.O.o.o.o.X.o.o.o.o.X.o.o.X.o.o.o.o.' X.o.X.o.o.' o.o.o.X.' X.o.o.o.o.X.o.X.o.o.o.o.o.' X.o.` o.o.o.X.o.o.X.o.X.o.X.o.X.o.O.X.o.O.O.o.....@.4.w.w.w.e.e.e.9.e.e.e.e.e.e.e.e.e.e.e.e.e.e.e.e.e.e.e.e.e.e.e.e.9.e.e.e.e.e.e.e.w.e.w.w.3.' X.X.` X.X.X.X.K X.H X.X.O.X.X.X.X.X.X.X.X.X.X.X.X.X.X.X.X.X.` X.X.H X.X.X.X.` X.X.X.X.` X.H X.X.X.X.X.X.X.X.X.X.H X.X.X.X.H X.X.X.H X.V X.X.X.X.V V X.H H X.X.H H X.H H X.H H H K H X.H X.H H X.H K X.H X.H X.X.H H H X.H H H X.V H H X.H H H H H H X.H H H X.H H H H H H H H H H H H H H H H H H X.H H H H X.H H H X.H H H H H H G H G H H K H G H H H D H H G H H H H G G H G H H G B H V H V G H B G B H V G V G G G V H G G G V G G H G G G H B H H H B H G G H G G G G G G H G G B G G G G G G G B G G B G G B G G G B G H G B H B H D B V B G V B B B H V B B B M B B B B V B M B V B B G B B B G B B B B G B G B B B G B G B B G B B B B G B B H B B G B B B G S B B B n m ( ) 4.8.w.w.e.9.9.9.e.e.e.e.e.e.e.e.q.e.e.e.e.e.e.e.e.e.9.e.q.e.e.e.q.e.e.w.w.4.[ / b m B k S S c S c B B B c G c c G B c B c B c c c c B c B c c B B c B c c B c c c B c c c B c c G c c B c c B c c B c c c S c G G S c S c G S c c S c S c c c G c c B S c c c c c c c c c c c c c c c c c c c c c c z c c c c c c c c z c c c c z c c c c c S x c c k S k S c x S k c k c x c c c x c c c c c c x k c c S c c c x c c c c c c x c c c c x x S x x S x x c x x c c c x c c c x x l c c x x c c x c c x c x c c c x c c x c x c c c x x c c c x c z x c c x c x c x c x c l c x c x c x c z x c l c l c l c l c x c x c x l c x z x c x c x A x x x S x k c x c x c x c x c x x x x c x c x c x x x x A x x k k A x x x k x x c x x x x c x x k x x x x x x k x j x x x x x A x x x x x x x x x A x x x x x x x x x x x A x A x x x x x x x A x x x x x x x x A x x x x A x x x x x x A x x x x x x x x x j 8 x x x 8 x x x l x l x l x x A 8 x x x x 8 x x 8 A 8 x x 8 x x 8 x 8 8 x 8 x A 8 x x A x 8 x x 8 x x x x 8 x 8 x 8 8 8 x x 8 8 x x 8 x 8 A 8 x x 8 A x 8 x x 8 A 8 8 8 x 8 8 x x 8 C x 8 A A x x A 8 x x x x 8 x 8 x x 8 x 8 8 8 8 x 8 8 6 x 8 x 8 x 8 x 8 x x 8 x 6 x 8 x 8 x 8 x 8 x 6 x 8 q 8 8 8 8 A q x 8 q 8 q 8 x 8 8 x x 8 8 q 8 x x 8 q 8 8 8 x 8 8 8 q x x 8 x A 8 x q 8 x 8 8 4 6 g k m 4.w.e.9.9.e.e.e.e.e.e.e.e.e.e.e.e.e.e.e.e.e.e.e.e.e.e.e.e.e.e.e.e.e.e.e.e.e.e.e.e.e.e.e.e.e.e.e.e.e.e.e.e.e.e.e.e.e.e.e.e.e.e.e.e.e.e.9.9.e.e.w.w.*.h 2 x 8 8 8 8 8 8 8 8 8 8 8 8 8 8 8 8 8 6 6 6 8 6 8 6 8 6 6 8 8 x 8 8 6 8 8 6 8 8 8 x 6 8 8 8 6 8 8 x 8 8 8 6 8 x x 6 8 8 8 6 8 x x 6 6 8 8 8 8 8 8 x x 6 6 8 8 8 8 8 8 x 6 8 8 6 x 8 6 x 8 8 6 8 8 x 6 8 8 8 8 8 x 6 8 6 8 6 8 8 x 8 8 6 8 6 ",
"%.%.%.%.%.%.%.%.%.%.%.%.%.%.%.%.%.%.%.%.%.%.%.%.+.%.%.%.o.%.%.o.%.o.%.%.%.o.o.%.o.@.o.%.o.o.%.%.o.%.%...%.' @.o.+.%.o.%.%.o.o.o.o.o.o.%.o.o.o.o.o.%.o.%.o.o.o.o.%.o.%.o.o.o.o.+.O.+.o.+.o.o.o.+.o.o.o.o.+.o.o.o.o.o.o.O.+.o.o.o.o.o.o.o.o.o.o.o.` o.o.o.X.' X.o.X.' o.o.o.X.X.o.o.o.o.X.X.o.X.o.X.o.' o.o.X.X.' o.o.o.o.o.X.o.X.o.X.o.o.X.o.o.X.X.O.X.o.o.X.X.o...@.$.5.w.w.9.e.9.e.q.e.e.e.e.e.e.e.e.9.e.e.e.e.e.e.e.e.e.e.e.e.e.e.e.e.e.e.e.e.e.e.e.e.e.e.e.w.} ` ' X.O.X.X.O.X.X.X.X.K X.X.X.X.X.X.X.X.X.O.X.X.X.X.X.X.X.X.X.X.X.X.X.X.X.X.X.X.X.X.H X.X.X.X.X.H X.H X.H H X.X.X.X.X.H X.X.X.X.V H ` X.X.V X.X.X.X.X.X.` X.V X.H H X.H H X.X.H X.X.H H X.H X.X.H H X.H H X.H X.H X.H H H H X.H H H X.H H V X.X.H H V X.H H H H H X.H H H X.H H H X.H H H X.H H H H H H H H H H H H H H V V H G H H G H G G H H H G H G H H G H F J F G H H G H D H G H G G G G H B H G H G G H G G H H G G V G H H G G V V G V B H H H B B H G G G G G G H G G G G G G G H G D G B H G G G H G G H G B G G H B G B G G G B H G G B B V G B B B B B V B B V B B B B B B B B B B B B G B B G B G c B B G B B B B B B B B B B G B B B B B B B B B B G c G S J G m m o.5.w.w.q.e.e.9.e.9.9.e.e.q.e.e.e.e.e.e.e.e.e.e.e.9.e.e.e.e.e.e.e.e.e.q.9.e.w.w.5.@.( b n B c S c B B B M B B c B G c c G c B c B c B B c B c G B c c c c B c c G B B c c B B c c G c c B c B c c B B c S B S c S c c S S c S c c S S c G c S c c c S c c k c c c B c c c c B c c c c c c c c z c c c c c c c c x c c z c c c c c c c c z c c c k S c c S x c x c c x S c c c c c c k c c x S k c c c S c c c c c c c c S x c c c c c c c c c c A k c x k S x c c c x c c l x c c c c c x c c l c c x c c l c c l x c x x c c x c x l c c x c l x c c x x c c l c l z x c l c x c l x c l c x c x c x c x c x c x z l c x z c x c x c x c x x k x c x x x x x x x x x x x x A x x c x x x x x x S x c x x c x A x x c x x x A k x x x c x x k x x x x c A k x x x x x k x x x x x x x A x x x x x x x x x x x x A x x x x x x x x x A x x 8 x x x x x A x x x x x x x x x x x x x x x x x x x x x A x x x x x x x x x x x x x 8 x x x x 8 x 8 x x 8 8 x A 8 8 x 8 x x 8 8 x x 8 8 A x 8 A 8 8 x x 8 8 x x 8 8 x 8 8 x 8 8 x x 8 x x x A 8 x x 8 8 x 8 x 8 x 8 8 x 8 8 x x 8 8 C A 8 q 8 C A q 8 8 8 8 q 8 8 x 8 8 x x 8 8 A 8 x x 8 x 8 8 x 8 x x 8 8 x x 8 8 6 x 8 8 8 x 8 x 8 8 x x 8 8 x 8 x 8 8 8 x 8 8 8 x x q 8 8 8 x x 8 x 8 8 8 8 x 8 q x 8 8 x 8 8 x 8 x x q 8 A 8 8 x 8 8 8 8 8 8 8 8 8 8 8 8 8 g g h O.5.w.e.q.e.e.e.e.w.w.e.e.e.e.e.e.e.e.e.e.e.e.e.e.e.e.e.e.e.e.e.e.e.e.e.e.e.e.e.e.e.e.e.e.e.e.e.e.e.e.e.e.e.e.e.e.e.e.e.e.e.e.e.e.e.w.e.e.e.9.9.e.w.=.m j 4 8 8 8 x x 4 8 8 4 8 8 4 8 8 6 8 6 8 6 6 6 8 l 6 8 8 8 8 8 6 8 8 8 8 8 8 6 x 8 6 8 8 6 x 6 x 8 8 8 8 8 8 8 6 8 8 8 8 8 6 8 6 8 8 8 6 6 x x 6 8 6 8 8 x 8 x 6 8 8 8 8 8 8 8 8 6 8 8 6 8 8 8 8 6 6 x 6 8 8 8 8 6 8 8 x 8 8 8 6 6 8 8 x 8 8 ",
"%.%.%.%.%.%.%.%.%.%.%.%.%.%.%.%.%.o.%.o.%.o.%.%.+.%.%.o.%...o.%.%.o.%.o.%.o.%.%.o.%.%.o.o.%.%.o.o.%.o.o.o.%.%.o.%.o.o.o.o.%.%.o.%.o.%.o.o.o.%.o.%.o.o.o.o.%.o.o.o.o.o.%.o.o.%.o.o.o.+.o.+.o.o.o.+.o.+.o.O.o.o.O.+.o.o.o.o.+.o.o.o.X.X.o.o.X.X.' ' o.` o.o.o.` o.o.X.o.X.o.o.' o.X.' X.o.o.o.o.o.o.X.o.o.' o.o.o.o.o.` X.o.o.' o.X.X.o.X.o.o.O.o.o.O.X.X.O.O.X...@.$.5.w.w.w.9.9.e.9.q.e.e.e.e.e.e.e.e.e.e.e.e.e.e.e.e.e.e.e.e.e.e.9.e.e.e.e.e.w.e.e.e.e.e.e.e.w.&.X.` o.X.X.X.K X.K X.X.X.X.X.X.X.X.X.X.X.X.X.X.X.X.X.X.V X.H X.X.X.X.X.H X.X.X.X.X.X.X.X.X.X.X.X.H X.X.X.X.X.X.X.H X.X.X.X.X.X.X.H X.X.X.H H X.V X.X.V X.H X.V X.H K X.X.H X.H H H H H X.H H X.H X.H H X.H X.H H H X.K X.H X.H X.H X.H X.H X.H V X.H X.V X.H X.H H H H H H H H H H H H H H H H H V H H H X.V H H X.V H H H H H G H H G H H H G G H F J G H H G J H H H H F H H B H B F H G G H H G H G G H H G V G G V G G G G G G G V B H H G G H H B B H H B G H J H H G J H G G G G G G G G V G G B B G B D G B G G H G G B H B G G G G B G B B G B B G V G V B B V V B V B B V V B V B B B G B B B B B B B B B B B B G B G B B B G G B B B B G B B B B B G B V B B S k G D d o.=.5.w.w.q.q.e.e.9.e.e.e.e.e.e.e.e.e.e.e.e.e.e.e.e.e.e.e.e.w.w.9.9.e.e.e.e.9.e.e.w.5.&.b V c G c c c B M N B B c B c c B c c c B c B c B B c B c c S c B B c B c B c c B B c c B c B B c c B c B G c G S c B S c S S S c c S c S G c S c S S k c c S c c c c c c c c c c B c c c c c c c c c c c z c c c c c z c c c c c z c z c c c c c c c c c c x c c c c c c x c c c c c k S c x S S c c x c c c c c c c x c c A c x c S x c k c c k S S x c c c c c c c c c c x x c c x z x x c x c x c c l x c c x c x x c x c c x c z l c c x c c c c c c c x x c c c x z x c x c x c x c x c z c c l z x c l z x c l c l c x c x c x l c x z l c x k c x x x x c x x x x A x x x c x c x c x x k x x x A x x x x x c x x x x x c x S x x x x x A x c A x x x x c x x x x x x x x x x x x x x x x x A x x x x x A x x x x x x x x x x x x x x x x x A x x x x x x x x x x x x A x x x x A x x x x x x x x x x x x x x x x x x x x x x l x l x x l x x x x 8 x x 8 8 A x x 8 x x 8 x 8 8 x 8 x x 8 x x x x 8 x x 8 8 A x x 8 A x 8 A 8 x x x 8 8 x x 8 8 x x 8 8 x x 8 x 8 x x x 8 8 A x 8 8 A x 8 x 8 8 A A 8 8 x A 8 8 x 8 8 8 x x 8 x 8 x A 8 x 8 8 x 8 x x x 8 x x x 8 x 6 x 6 x 8 8 x 8 8 8 x 6 8 8 x 6 x 8 x 8 x 8 8 8 8 x q x 8 8 8 q 8 8 8 x q x 8 8 q 8 8 8 8 8 8 q 8 8 8 8 8 8 8 8 x q x A 8 8 8 8 8 8 8 8 6 g M =.5.w.9.9.9.e.e.e.w.e.e.e.9.e.e.e.e.e.e.e.e.e.e.e.e.e.e.e.e.e.e.e.e.e.e.e.e.e.e.e.e.e.e.e.e.e.e.e.e.e.e.e.e.e.e.e.e.e.e.e.e.e.q.e.e.e.w.e.9.9.e.e.w.4.m 2 8 8 j 8 8 8 8 8 8 8 8 8 8 6 8 8 6 6 6 6 6 8 6 6 6 8 8 x 8 8 8 x 6 x 8 8 8 8 8 6 8 8 8 8 8 8 8 6 8 x 6 8 6 8 x 6 8 x 6 8 x 8 6 x 8 8 6 8 8 6 8 8 8 8 6 8 8 6 8 8 8 8 8 6 x 6 8 6 8 8 8 x 6 8 6 8 8 8 8 8 8 x 6 8 8 8 6 8 x 6 8 8 8 8 6 x 6 ",
"%.%.%.%.%.%.%.+.%.%.%.%.+.%.%.%.%.+.%.%.%.%.%.%.%.%.%.%.%.o.%.%.o.%.%.o.%.+.@.o.%.o.%.%.o.%.%.o.%.%...%.o.%.' %.o.o.o.%.o.o.+.o.o.o.o.+.o.%.o.+.o.o.o.%.o.o.%.o.%.o.o.o.%.%.o.o.+.o.o.o.o.O.+.o.o.o.o.O.o.o.+.o.o.o.o.o.o. .O.o.o.o.o.o.o.o.o.o.X.o.X.o.X.o.o.o.o.o.o.' o.X.X.o.o.o.o.o.o.` o.` o.' o.X.o.X.X.o.X.o.o.o.X.o.X.o.o.o.O.o.X.o.o.X.O.X.o.O.X.o.O.o.^ 1.w.w.e.e.e.e.e.q.e.e.e.e.e.e.e.e.e.e.e.e.e.e.e.e.e.e.q.e.e.q.e.9.e.e.e.e.e.e.e.e.e.e.e.e.9.w.&.o.`  .o.X.O.X.X.X.K K X.K X.X.X.X.X.O.X.X.O.X.X.X.` X.X.X.X.X.X.X.H X.` X.H X.X.X.` X.X.X.H X.X.X.X.H X.X.V X.X.X.H X.X.H H X.H ` X.H H ` X.H ` X.X.V X.X.X.H H X.H H X.H K H X.X.H X.K H X.H H H X.H H X.K X.X.H H X.V H H H H H V H V H H H H H H H H H H H X.H H H X.V H H X.H H H X.V H H H X.H H H H H H H H H H H V V H H H D H G H G F H G H G H H G H H G F J H G G H F B H G G V G G V G G G V G G V G H G H B H H G V H G G H G G V G G B H H B H H G G H G G G G H G G G G G G H G G G G G G H B G G F B G G B D B G G G G B G H G B H V B G V B B B B B B B B B B B B B B B B B B B G B S G B G B B G B G B B B B B B B B B B B B B B B B B B V B B B B B G J n m  .=.5.w.e.e.9.9.9.e.e.e.e.e.e.e.e.q.e.e.e.e.e.e.e.e.e.e.e.e.9.e.e.e.w.9.e.e.9.q.q.w.w.w.5.' b n B c c G B B M B B c c c B c B B B c B c B c c c B B c B B c B B c S c S S c c G B S c S S c B c S c S c k c B B c S c S c S G c S c S S c S c S S S c c c c c c M c c c c c c c c c c c c B c c z c c c z c c c c c c z c c c c c c c z c z c c x c c c c x c c c c c c c c x c S x c c c x c c S c x c x S c x c c c k c c c k S c x S x c c x S A k x x k x x c l l c c x c c c x c c x c c x c c c x c l c c x c c c x c c x c c x c c x x c l x c c c c x x c x c x z x c l z x c l c x x x c c x c x c x c x c x c l c l c c x c x c x c x x x x c x x c x A k k x x S x x x x x x x A c x x k x x c x x x x c x c x x x x x c x c x k x x x x x c x x x x x x k x x x x k x x A x x x x x x A x x x x x x A x x x x A x x x x x A x x x x x A x x x x x x A x x x x x x x x x x x x A x x x x x x x x x x 8 x 8 x x x j 8 x x x x 8 x x x 8 8 A 8 8 x x 8 x 8 x 8 x x 8 A x 8 A x 8 x 8 x 8 8 A 8 8 x x 8 x 8 x 8 x x 8 x 8 A 8 x x 8 x 8 x 8 x A x 8 x A 8 x 8 x 8 x x 8 8 q x 8 8 A q 8 x 8 8 A A 8 8 x A 8 x x x 8 8 x 8 x x 8 x 8 8 x 8 x 8 8 6 x 8 8 8 x 8 x 8 x 8 x x 6 x 8 x 8 x 8 x 8 x 8 x 8 x 6 8 A x 8 8 8 8 8 8 x 8 x A 8 8 8 8 8 x 8 x 8 9 8 q x 8 4 x x 8 x x 8 q 8 8 8 8 8 8 4 8 8 8 x 6 l z b =.w.e.q.e.9.e.e.w.w.e.e.e.9.e.e.e.e.e.e.e.e.e.e.e.e.e.e.e.e.e.e.e.e.e.e.e.e.e.e.e.e.e.e.e.e.e.e.e.e.e.e.e.e.e.e.e.e.e.e.e.e.e.e.e.w.w.w.e.e.9.e.w.w.4.V j 8 8 8 8 8 x 8 j 8 g g j j g g h h l k j g j g l j l l x 6 8 8 8 8 8 8 8 8 8 8 x 8 8 l 8 8 8 8 x 6 6 8 8 x 8 8 6 8 6 8 8 8 8 8 6 8 8 x 8 6 8 8 x 6 8 x 8 6 8 8 8 l 8 8 8 6 x 8 8 6 x 8 8 6 8 x 8 8 8 6 x 8 6 8 8 6 x 8 8 6 x 8 8 6 x 8 8 8 ",
"%.%.%.%.%.%.%.%.%.%.%.%.%.%.%.%.o.%.%.%.+.%.%.%.+.%.%.' %.%.o.%.o.@.o.%.o.%.%.o.%.%.o.%.%.o.%.%.o.@.%.o.@.%.o.%.%.o.o.%.o.%.o.%.o.o.%.o.o.o.o.+.o.%.o.%.o.o.%.o.o.o.o.o.o.o.o.o.+.o.o.o.+.o.o.o.o.+.o.o.o.+.o.o.o.O.o.o.o.o.o.o.o.o.o.o.o.o.o.` o.o.o.o.` o.X.o.o.o.o.o.o.X.X.o.` o.o.o.o.o.o.X.` o.o.' o.' o.' o. .o.X.O.X.X.o.X.o.o.o.o.o.O. .K +.K  .O.+. ...5.0.w.e.e.e.q.e.e.e.e.e.e.e.e.e.e.e.e.e.e.e.e.e.e.e.e.e.e.e.e.e.e.e.e.e.e.e.e.e.e.e.e.e.e.e.e.w.4.o.(  .o.o.F X.X.X.X.X.H X.X.X.X.K X.H H X.X.X.o.` X.' X.X.X.H X.K X.X.X.` X.X.` ` X.X. .X.F H X.K V X.H X.V X.X.X.H X.H H F K X.X.H X.X.X. .X.` H X.` H H X.H H X.H H X.H H H X.H H X.H X.H H H H H X.X.K H X.V X.H X.X.H X.H V X.H X.H X.V X.X.H X.H X.H X.H H H V X.H H H X.H H H X.H H H X.H H H H H H H H H H H H H V V H H G G H H G H G G H G G H J H G H H G H H F G H G G H G V G G V H B H G H G G H G H B H G V G G G G H G G H G G G G H G G H G G G H G G G G G G G B G D V G B G G B F G G G G D B H G B F B G G B G G B G G G G B B G B V G B B B B B B G B G B B B G B G B c G J D B J B B G S G S G B G B B B V B B B B B B B V B B B B B B B G S B c D F m T 5.5.w.e.e.e.9.e.e.e.e.e.e.e.e.e.e.e.e.e.e.e.e.e.e.e.e.e.e.e.e.e.e.e.e.e.e.9.e.e.e.e.e.w.w.4.} s M B S k c G G n c S B c B B B B B B V B B B c c B B M B B B B B c c S A S c k c k S S S x c c S x S S S S k B k k c S c c B c G G c B G c c B c c c c c c c c c c B c c c c c c c c c c c c B c z c c c c c c z c c c c z c c c c c c c z c c c c c x c c c c x c S c S c c c c c x k c c c k c x c S x c c k S c S x c c S c c x c c c c c c c x c c c x c c x c c l c c x x c x x c x c z x x c x x c c x c c c x c c c x c c x x c x c c l c c x x c x x c x l c x z c x c x c l c l c x z x c x c x c x c x x x x c x c x S x x x x x x x k x x x A x x c x x x x x x c x c x x x x c x c x x x k x x c A x c x c x k x x S x x x x x S x c x x x x x x x A x A x x x x x x x x x x A x x x A x x x x x x x x x x x A x x x x x A x x x x x x x A x x x x x x x x A x x x x x x A x x x x x x x x 8 l x x x 8 8 x x 8 x x 8 8 A 8 8 x 8 x 8 x x 8 A x x 8 A 8 x 8 x x 8 x 8 8 x 8 8 A 8 x 8 x x 8 x x 8 x x 8 x 8 A 8 x x 8 8 x x 8 x 8 x 8 x x 8 A x x 8 A 8 x 8 x x 8 x 8 x 8 q A 8 8 A 8 x 8 A 8 x 8 x 8 8 x 8 x 8 x 8 x 8 x 8 8 8 8 8 8 8 x x 8 x 8 8 8 8 A x 8 x 8 8 x 8 8 q 8 x 8 x 8 8 q 8 8 8 x 8 x x 8 8 q 8 8 8 x 8 x x 8 8 8 8 8 x 8 x 8 8 8 9 8 9 4 8 x x j j j 8 8 2 7 4 5 3 3 0 8 8 8 7 6 l z + *.5.w.w.9.9.9.e.e.w.w.w.e.e.e.e.e.e.e.e.e.e.e.e.e.e.e.e.e.e.e.e.e.e.e.e.e.e.e.e.e.e.e.e.e.e.e.e.e.e.e.e.e.e.e.e.e.e.e.e.e.e.e.e.9.e.e.w.w.e.e.9.9.w.w.4.K g 8 6 6 6 x x g 2 r w t a d ( ) ' ) ' o.) ) f s i t # r 2 j 8 8 7 7 0 0 7 7 8 8 8 8 8 8 8 x x 6 8 l 8 6 6 8 8 8 6 x 8 6 8 8 8 8 8 6 x 6 8 8 8 6 x 8 6 x 8 8 6 8 x 8 l 8 8 8 x 6 8 6 x 6 6 8 8 x 6 8 8 8 x 8 8 8 8 8 x 8 6 8 x 6 8 8 x 6 6 8 ",
"%.%.%.%.%.%.%.+.%.%.%.%.%.%.%.%.%.o.o.%.%.%.%.%.%.o.%.o.%.o.o.%.%.%.%.o.o.%.%.o.o.%.%.o.%.o.o.%.%.o.o.o.o.o.o.%.o.%.} o.o.o.o.%.%.o.o.o.o.%.o.%.+.o.o.o.o.%.o.+.o.%.o.%.%.o.%.o.+.o.+.o.O.o.o.+.O.o.o.+.o.O.O.o.o.+.O.o.+.o.o.O.O.o.X.o.X.o.o.o.X.' X.o.o.o.o.o.X.X.' X.o.' o.o.o.o.X.o.' X.o.o.o.o.o.o.o.o.o.o.o.o.o.X.X.o.O.X.o.X.o.X. .o. .O.X.O.X.O.+.+. .$.1.e.e.e.e.e.e.e.e.e.e.e.e.e.e.e.e.e.e.e.e.e.e.e.e.e.e.e.e.e.e.e.e.e.e.e.e.e.e.e.e.e.e.e.e.e.e.w.4.%.) ..o. .(  .o. . .O.X.X.X.X.X.X.O.X.X.O.X.X.` X.` o.X.X.X.X.H H H X.X.X.` X.X.X.` X.H  .O.K X.X.X.X.X.X.O.X.X.X.X.K X.X.X.H  .H H  .H  .H X.X.` ` X.X.H K H K X.X.H X.H X.H H X.X.H X.H H X.X.H X.H H H X.X.H H H H H H V H H H H H H H H H H H V H H H V H H H H H H H H H H H H H H H H H H H H H X.H H H X.H H H H H H H G H H H G H H H H H H H H F G H F G H G G H H G G H B H G H H G G G V G G V G V H B V G H G G H G H G H G G G G G G G G G G G H G G G H G G G G H B G G G G G G G G G B G B B H G B G G G G G G G G G G B J G G B V G V B G B H B B B G B B B B B G B B B B G B B S n S k J S G c G B B B B B G B B B B B V B B B B B B B V B B G G k G G m ( @.5.w.e.q.e.e.e.9.e.e.e.e.e.e.e.e.e.e.e.e.e.e.e.e.e.e.e.e.e.e.e.e.e.e.q.e.e.e.e.e.e.e.e.8.w.w.#./ a B S S k B B m v n M n m b b v n N B B c c S S B B M B B B c c S x C x c G B B B S G S J S G S c c S k S k J J c S S c B c c c c c c c c c c c c c c c c c c c c c c B c c c c c c c c c B c c c c c z z c c c c z c c c c c z c c z c c c c z c c S k x c c S c x c k c S x k c c S x c c A S S c k c c x S x x k c S c k x c k c c x c c x c x c x c c x x c x c c x x c c c c c c c x c c c c c c c x c c l x c z x x c x c c c z c x c c x x c c c c c c c c x c x c x z x x c x c x c x c l c l c x z x c c x x x x x x x x x c x c x x A S x x k x c x x x S k x x x x x S x x c x x x x x x A x x x k x x x x x A x x x c x c x x x x x C x x C x x x 8 x x x x x x A x x x x x x x x x x x x x x A x x A x x x x x x x x x x x x x x A x x x x x x x A x x x x x x x x x x x x x x A x x x x x x x x l x x 8 x x 8 8 x x 8 x x x x 8 x x 8 x 8 8 x x 8 8 x x 8 8 x 8 A x 8 x x 8 x x 8 8 x x 8 8 A x 8 A 8 x 8 x 8 8 x x 8 8 A x x 8 x x 8 x 8 8 x x 8 8 x A 8 8 x 8 A 8 A x 8 8 A 8 x 8 x x x x 8 8 A 8 x 8 x 8 x 8 8 8 8 x x 8 x 8 x 8 8 8 8 8 8 x 8 8 8 8 x 8 4 x 8 8 x 8 x 8 q 8 8 x 8 x x 8 8 q 8 8 8 x 8 8 x q 8 q 8 8 q x 8 A x 8 8 8 8 8 q 4 q 8 4 9 4 4 4 x x x 8 8 4 7 7 7 q 7 7 8 8 j x l z & &.5.w.e.e.e.e.e.w.w.e.e.e.e.q.e.e.e.e.e.e.e.e.e.e.e.e.e.e.e.e.e.e.e.e.e.e.e.e.e.e.e.e.e.e.e.e.e.e.e.e.e.e.e.e.e.e.e.e.e.e.e.e.9.e.e.e.e.e.e.e.9.e.9.w.4. .g l x 6 6 6 j h t a  .+.$.=.5.5.w.w.w.w.5.5.5.4.&.*.( v h = x x 8 8 7 7 q q 7 2 8 q x 8 6 8 6 8 l 6 8 x 8 8 x 8 8 6 8 x 6 8 x 8 6 x 6 8 8 6 8 8 6 8 8 8 8 6 8 8 6 8 8 8 6 x 8 8 8 8 8 8 x 8 6 8 8 8 6 8 6 8 x 6 8 6 6 8 6 x 6 8 8 8 6 8 x 8 ",
"%.%.%.%.%.%.%.%.%.+.%.%.%.%.+.%.%.%.%.%.o.%.+.%.%.o.%.%.o.%.%.o.%.o.o.%.%.%.o.o.%.o.@.+.o.%.o.%.o.%.o.%.%.o.%...%.' o.%.%.o.%.' o.%.o.o.%.o.o.o.%.o.o.o.o.o.o.o.%.+.o.o.o.o.o.%.o.o.o.o.o.o.o.+.+.o.o.o.o.+.o.o.o.o.o.o.o. .o.o. .X.o.o.o.o.X.o.o.o.X.' ` X.o.X.o.o.o.o.o.X.X.o.o.o.' X.X.o.o.' o.o.o.o.X.o.o.o.o.o.o.o.o.o.o.o.X.o.O.o.o. .O.O.O.O.H  . .....=.w.e.e.e.e.8.e.e.e.e.q.e.e.e.e.q.e.e.e.e.e.e.e.e.e.e.e.e.e.e.e.e.e.e.e.e.e.e.e.e.e.e.e.e.e.e.e.e.5.@.R ) @...@.%.' ..%.o.o.o.) ( o.X.X.X.X.X.X.X.o.X.` ` X.X.H X.H X.X.X.X.` X.X.X.X.X.X.X.K K X.V V ` X.` ` ` ` V X.X.H K X.K H X.H X.H X.H  .X.` X.` ` X.H K H H H X.H H K X.H H X.K H X.H H X.H H X.H H X.K H H X.H H H H X.H H X.H H H X.H H H H X.H H H X.H H X.H H H X.H H H X.H H H X.H H X.H H X.V H H X.H H H H V H V H H H G D G H D H H G G H H H G H J H H G H G G H H H B H G G G G G H H G G V G G H G G H V G G G G H G J H G H G J H G G J H G G J H G G G G G G G G G G G G G H G G G G H G G G G H G G H B B G G G G G B B B B G V B B G B G V G B G B B B G B B B B B G B B B B k G S G J S B G G G B B B B B B B G G B B S J G S S G B G S G G k B F D m o.4.w.w.q.e.e.e.e.e.e.e.e.e.e.e.e.e.e.e.e.e.e.e.e.e.e.e.e.e.e.e.e.e.e.e.e.e.e.e.e.e.9.e.e.e.e.w.5.&.m n D B m n m ( ' ' } } } %.' ) ( m m n M S S c c c c c B c c c c c B B G N n v m n n m B n k k B k c c k S S S S S c G c S S S c B B c c c c c c c c B M c c c c c c c c c M c c c c c c c c c c c c c c c c c c c z c c c c c x c c c c c c c x c x S c c S k c x c x c x x S c c c c c x c x c c c c c c c c S c x k x S c c S c c c c x c c c c x c c x c z x c c x c c x x c x l c c x x c x c c x c x x c x c c l c c x l c x x c x c c x c c x x c x l c l c l c l c l x c x c l c l c l c x c x c l c l x k x c x c x x k x x x S x x x x x x c x x x x x x A x k A c x x x k x x A c x x S x x x x x x x x c x x x x x x x k A x x x x x x x j x x j C x x x x x x x x A x x A x x A x x x x x x x x x x x A x x x x x x x x x x A x x x A x x x x x x x A x x x x A x x x x x A x x x x 8 l x x 6 x x 8 x x 8 8 x A 8 8 x A 8 8 x 8 x x 8 8 x x 8 8 x x 8 x A x x x x x x x 8 x x 8 A x 8 8 A x 8 8 x 8 8 x x 8 x x x 8 x A 8 8 x 8 x x 8 8 x x 8 8 x x 8 x x x x x x 8 8 8 8 x x 8 8 x x 8 x 8 x 8 x x 8 8 8 x 8 x x x x x 8 x x x x x 8 8 x x 8 8 x x 8 8 8 8 x 8 x A 8 8 8 8 x 8 x 8 8 q 8 8 A x 8 q 8 8 x x 8 8 8 8 x x 8 8 q 8 8 x 8 8 8 8 q 8 4 8 4 8 8 8 8 q 8 x l x 6 6 8 8 8 8 8 8 x l l l = b 2.w.w.e.9.e.9.e.w.e.w.e.e.e.e.e.e.e.e.e.e.e.e.e.e.e.e.e.e.e.e.e.e.e.e.e.e.e.e.e.e.e.e.e.e.e.e.e.e.e.e.e.e.e.e.e.e.e.e.e.e.e.e.e.9.e.e.e.e.e.e.e.9.e.w.4.o.h l l g g h a H +.*.4.4.5.w.w.w.w.w.w.e.e.w.w.w.w.5.4.=.+.` v h = z 8 7 4 8 4 8 8 8 8 8 6 6 6 x x 6 8 8 x 6 6 8 8 8 8 8 6 8 6 8 8 8 8 8 8 x 8 x 8 8 6 8 6 x x 6 8 8 8 6 8 6 8 6 8 8 8 l 8 8 8 8 8 6 x 6 8 8 6 8 8 8 6 x 8 8 8 8 8 6 8 x 6 6 ",
"+.%.%.%.%.%.%.%.%.%.%.%.%.%.%.%.o.%.+.%.%.%.%.%.o.%.%.o.%...%.%.o.%.%.o.%.o.%.@.o.%.%.o.%.o.@.%.%.o.%...' o.%.%.o.%.o.o.' %.o.%.o.o.o.%.o.o.o.%.o.o.%.o.o.%.o.%.o.o.o.%.%.o.o.+.o.o.o.+.+.o.O.o.o.o.+.o.o.o.o.+.o.o.o.o.O.o.o.o.o.o.o.o.X.` o.o.X.o.o.o.o.o.o.' X.' X.o.' o.' o.o.` o.X.o.o.X.o.o.X.o.X.' o.o.' o.o.' o.o.' ' o.o.o. .o.o.+.O. .O.X.O.o.o...&.5.w.e.e.e.e.w.e.e.e.e.e.e.e.e.e.e.e.e.e.e.e.e.e.e.e.e.e.e.e.e.e.e.e.e.e.e.e.e.e.e.e.e.e.e.e.e.e.w.5.#.#.$.<.&.4.5.4.4.4.4.$.@.[ [ ' ) ..o. .O.X.` ` X.X.X.X.X.H X.X.X.X.X.X.X.V X.X.X.X.X.X.X.X.X.o. .o.X.X.X.X.X.X.` X.X.X.H H X.H X.X.H H K H X.X.` X.` ` X.H K X.H H X.X.H H X.X.H H X.K X.H H H X.H H X.H X.H H H X.H V X.H H H H X.H H V X.H H X.H H V X.H H H H H H H H H H H H H H H V H H H H H H H H H H H H H H H H H H H G H K H H G H H D H H G H H G F H G H H G H H G G H B H H G V V G G V H G G H G V G G H B H H G G G G G H J G H G G H H G G G H G G G G B G G G G B G B G G B B H B G B G G B G B G B G G G G B G G B B B D G B B B H V B B B B B B B B G B B B G B G B B G B G G G k B B G S G S B B B G B B S G k B J B G S G S G k J S G S c S J K n ( *.5.w.e.e.e.e.e.e.e.e.e.e.e.e.e.e.e.e.e.e.e.e.e.e.e.e.e.e.e.e.e.e.e.e.e.e.e.e.e.e.e.e.e.e.e.e.e.5.4.Y s b m ` ( %.&.4.5.w.5.w.5.4.4.@.o.m m n S k c c c S c S S S S B B B m m m m U ( T f  .( ( m a V n B S S S x c S c S c S c G c G c c B c c c c c c c c c c c c c c c c c c c c c c c c c c c c c z c c c c z c c z c c x c c c z c z c c c c c c c c c c c x c c c c c c c c c x c c c c c c c x c c c c x c c S k c c c c x c x c c c c c c x x c c x x c c x c x c c c x c z c c x c c x c c c x l c c c x c c x c c c x c c c c c x c x c c c x c z c c x c c x c x c x c c x z x c x c x c x z x c x c x c x x x x x x c A A x c x x x x c c x x x x c x c x c x x x x x x x x A x x k x x x x c x c x c x A k x x x c c x c x x x x c A k x x x x x C x x x x x A x x x x x x x x x x x x x x A x x x x A x x x x x x A x x A x x x x x x x x x x A x x x x x x x x x x x x x A x x x x x x l x x x x l x x 8 8 x x x 8 x x x 8 x x 8 A 8 x x 8 x 8 x A 8 8 x x 8 8 8 x 8 8 A 8 x x 8 x 8 8 x x 8 x 8 x 8 x x 8 x x 8 A 8 x x 8 x x 8 A 8 x x 8 x 8 x A 8 8 x x 8 8 8 x 8 A 8 C A 8 9 q x 8 8 x 8 x 8 A x 8 8 x 8 8 x 8 j x l x l j x l x x j 4 x x x x 8 x 8 8 A 8 8 8 8 x 8 x 8 q 8 q 8 A 8 8 x 8 8 8 q 8 x 8 8 x q x q 8 8 8 8 x 8 8 A 4 q 9 8 x 8 x 8 x 8 8 8 8 0 7 0 6 l 8 l 8 8 x 8 8 8 8 8 l l 6 - ( 5.w.w.e.e.e.9.e.e.w.e.e.e.e.q.e.e.e.e.e.e.e.e.e.e.e.e.e.e.e.e.e.e.e.e.e.e.e.e.e.e.e.e.e.e.e.e.e.e.e.e.e.e.e.e.e.e.e.e.e.e.e.e.9.e.e.w.w.e.e.e.9.9.9.w.5.' # h g h v N +.=.5.5.w.w.w.w.w.w.w.w.e.e.e.e.e.e.e.w.w.w.w.4.%.b & - k j 8 4 8 q 7 7 8 8 x 6 6 6 6 8 l 8 8 8 8 6 8 8 6 x x 8 6 8 8 8 8 8 6 8 8 6 6 x 8 8 8 8 8 8 8 l 8 x 8 8 8 6 x 8 8 8 8 8 8 8 6 x 8 8 8 l 8 8 x 6 8 6 8 8 8 6 x 8 8 8 8 8 ",
"%.%.%.%.%.%.%.%.%.%.%.%.%.%.%.%.%.%.%.o.%.%.%.%.o.+.%.%.%.o.%.%.%.%.o.%.%.o.o.%.%.%.o.%.%.o.%.o...%.%.o.%.o.o.%.%.o.%.} %.o.%.o.%.o.o.%.o.o.o.+.o.%.o.%.o.o.+.o.o.o.o.o.+.o.o.o.O.+.+.o.o.o.o.+.+.o.o.o.O.+.o.+.o.O.O. .+.o.o.+.o.X.o.o.o.X.o.o.o.X.o.o.o.o.o.X.o.X.o.' o.X.o.o.o.o.' X.X.o.' o.o. .o.X.' o.o.o.' ' ' o.o.' %.o.X.o.o.X.o. .O.o.X.X.O.o.) [ 2.w.w.e.e.e.e.e.e.e.e.e.e.e.e.e.e.e.e.e.e.e.e.e.e.e.e.e.e.e.e.e.e.e.e.e.e.e.e.e.e.e.e.e.e.e.e.e.e.w.w.0.1.5.w.w.w.w.w.w.w.w.w.w.3.2.{ [ ...... .X.O.X.X.X.X. .X.H  .X.X. .X.X.X.X.X.H H X.X.X.H ` ` ' ' ' ' ' ` ' ` o. .`  .` X.X.X.X.X.H H H K K H ` X.` X.X.H H X.X.H H K H H X.H H H H X.H X.X.H X.X.H H H H X.X.H H H X.X.H H V H H H X.H H H H H V H H X.V H H H H H X.H H H H H H H X.H H H H H H X.V H X.H H H X.V H H H V V G H G F G G H G G H H G G H H G H H D H H G H G H B B H B G G H H B H G H B H H G H V G G H V G J G G G G H G G G H G G G G J H H G G H G F G B B F G G D H G G G G G G G G G G B D G G B G D V G G S G G G G G B V B V G B B G B G B G G B B G B B G B B B B G G B B G G B B B c G c G G G c S G G S G B B c c S S S G S S S S c G G B m +.4.w.w.e.e.e.e.e.e.e.e.e.e.e.e.e.e.e.e.e.e.e.e.e.e.e.e.e.e.e.e.e.e.e.e.e.e.e.e.e.e.e.e.e.q.9.q.e.w.w.{ / T %.&.4.5.w.e.e.e.e.w.e.w.w.5.4.=.%.` n n B S c S A A A Z S V N / / / ' @.=.4.4.4.=.4.=.@.+.m m n M S S S A S c S c c c S c c S S c B c c c c c c c B c c c c M c c c B c c c c c z c c c c c c c z c c c x c c z c c c c c c c c z c c c c c S k c x c c c c k A c c c x c S c c x c c x c c c c c c c c c x c k A S x S c c c c c c c c c c x x c c c x c c c x x x c c l x c c x c c c l x c c x x x c x c c x c x c z c x c c x c c z x l c l c l c l c x c x c l c l c c l c l c x c x c l c l c x c x x x k x x x x k x x x x x x x x x x k x x x A x c x x x x S c x x x x x x x x S k A x c k x x S x c x x x x x x x S x x x x c x x C x x x C x x x x x x x x x A x x A x x x A x x x x x x x x x x x A x x x x x x x x x x x A x x x A x x x x x x x x x x x x x A x x x x x x x x l 8 x x l l 8 8 x x 8 8 8 A 8 8 x 8 8 8 x x 8 8 A x x 8 x 8 x x x 8 x x 8 A 8 8 x 8 x x 8 x 8 x x x x 8 A x x 8 x x 8 8 8 x 8 8 x 8 8 8 x x 8 8 A x x 8 x 8 x x x 8 x x 8 A 8 8 x q 8 8 A 8 x A 8 x 8 x 8 x 8 x 9 8 8 x 8 j x l x l l x z l l j j j x x x 4 x 8 8 8 8 8 q 8 A 8 x 8 8 q 8 x x 8 8 8 q 8 x 8 8 8 q 8 x x 8 8 8 x 8 x 8 8 x 8 8 4 0 q 8 4 8 x x x 6 8 8 0 7 0 7 8 8 8 8 8 8 8 8 8 8 8 8 8 8 8 g %.5.w.e.e.e.e.9.e.w.e.e.e.e.e.e.e.e.e.e.e.e.e.e.e.e.e.e.e.e.e.e.e.e.e.e.e.e.e.e.e.e.e.e.e.e.e.e.e.e.e.e.e.e.e.e.e.e.e.e.e.e.e.e.e.e.e.e.w.e.e.e.e.9.e.w.w.' # a a m %.=.5.w.w.e.e.e.e.e.w.e.w.e.e.e.e.q.e.e.e.e.w.w.w.w.5.4.| U - k k 8 5 3 7 q 8 8 l 6 x 6 8 8 8 8 8 x 8 8 6 6 8 8 8 x 8 8 8 6 x 6 8 8 6 8 8 8 x 8 6 8 6 8 8 8 8 8 8 8 x 6 6 8 x 8 8 8 x 6 8 8 6 8 8 8 8 8 x 6 8 8 8 6 x 6 6 8 x 8 8 8 ",
"%.+.%.%.%.%.+.%.%.%.%.%.%.%.%.+.%.%.%.%.+.%.o.%.%.@.o.o.o.%.%.o.o.%.@.o.o.%.%.o.%.o.%.o.o.%.%.o.%.%.o.o.o.@.o.%.' %.o.o.' %.o.' o.+.o.o.o.%.o.%.o.o.o.o.%.o.%.o.o.%.%.o.o.%.%.o.o.o.o.o.o.+.o.O.o.o.+.O.o.o.o.o.o. .o.o.o.o.o.O.o.o.o.o.o.' X.o.' o.o.X.' X.o.o.o.o.X.o.' o.o.X.X.o.o.o.o.o.X.o.X.o.o.o.o.X.X.o.o.o.o.' ' ' ' ' o.X.o.X.O.O.O.O.O. .o.o.} &.w.w.e.e.e.e.e.e.e.e.e.e.e.e.e.e.e.e.e.e.e.e.e.e.e.e.e.e.e.e.e.e.e.e.e.e.e.e.e.e.e.e.e.e.e.e.e.e.e.e.e.e.w.e.w.e.e.w.w.e.e.e.w.w.e.w.>.~ ^ ^  . .X.X.X.X.H X.X.X.K X. .X.X.H X.H H K X.X.X.X.X.` ` ' ) ' @.%.@.| %.} %.o.' ' ) ` ` o.X.V X.K K H H K H H X.` X.` X.H H X.X.H X.X.H H H X.H X.H H H X.K H H X.X.H H H X.V H H H H H X.X.V H H X.H X.V H X.H X.H H H X.H H H V H H X.V H H H V H H X.V H H H H H H H H H H H H V H H H H G H H H H F H H G G H H G F H H G H G H H H F B H H B H V B G H B B H H H B B H B G H G G G G H H G G G G G G G G G G H G H G J G G G G B G G G G G B B B G G G G B G H B G G H H B G G G G G B G D B G B G G B G G B V B G V B B B B B B B B B G B B B G B c S G B B B B B G G B G c c B G B B B B B B B G G G S G S G S S J S J B n  .=.5.w.e.e.e.e.q.e.e.e.e.e.e.e.e.e.e.e.e.e.e.e.e.e.e.e.e.e.e.e.e.e.e.e.e.e.e.e.e.e.e.e.e.e.e.q.e.e.w.w.5.>.2.5.w.w.w.e.e.9.q.9.9.9.q.e.w.w.w.4.=.o.( m B S A A A A S D b / ) | 2.4.5.w.w.w.w.w.w.w.5.5.@...( n B G S S S S c S S S c S S c c S c k B B c c c c c c c c c c c c c c c c z c c c c c z c c z c c c c c c c c c c c c c z c c c c c z c z c x x c c c c c c c c c c c c c c c S k c c c c c c k x c c c x c c c c k c c c c c c x x c c c c c c l c x l c x c c z c c x c c x x c c l c x c c x c c z c c x c c x c c x x c x c x c l c x c x c x c x c x c l z x c x c x x c x c x z l c x c x c x z x c x c x x x S x x x A k x x c A k x c A x k x c x x x c x x x x x c x c x c x x x x x x x A x x x x x S x A k c x x x k x x c x x x x x x x x x x A x x x x x x x x x x x x x 8 x x A x x x x x x x x x x x A x x x x A x x x x x x x x x x x A x A x x x A x x x x x x x x x x x x x x l x x x x A x 8 x x x 8 x x 8 x x A 8 x x x 8 8 A x 8 x x 8 8 x x 8 x x x x A x 8 x x 8 x x 8 8 x x 8 8 A x 8 x x x x 8 A x 8 x x A 8 x x x 8 8 A x 8 x x 8 8 x x 8 x x x A 8 8 x q 8 x q 8 x x 8 x x 8 x 4 8 4 q 8 8 8 x 8 x x x l l l x 8 8 8 4 8 4 4 8 8 C q 8 8 8 8 8 8 q x 8 8 x 8 8 8 x 8 x q 8 8 x x 8 8 8 q 8 8 x 8 q 8 8 8 8 q 8 9 4 9 4 x x 8 l 6 l 6 8 7 0 7 7 8 7 4 7 8 j 2 6 6 6 8 8 8 8 8 x =.w.w.w.e.9.e.e.e.e.w.e.e.e.e.e.e.e.e.e.e.e.e.e.e.e.e.e.e.e.e.e.e.e.e.e.e.e.e.e.e.e.e.e.e.e.e.e.e.e.e.e.e.e.e.e.e.e.e.e.e.e.e.e.e.e.e.e.e.e.e.e.e.e.9.e.5.Y $ p ..=.5.5.w.w.e.q.q.q.q.e.e.e.e.e.e.q.q.e.q.e.e.e.e.e.w.w.w.w.5.2.b v t g 4 q q 7 8 8 l l l 8 8 8 8 8 8 6 6 x 8 x 8 6 8 6 8 6 6 x 6 8 x 8 x 8 8 6 6 8 6 x x 6 8 8 x 6 8 6 8 8 x 6 6 8 8 l 6 8 x 8 x 6 8 8 8 8 6 8 x 8 8 8 8 8 x 8 6 8 8 l ",
"%.%.%.%.%.%.%.%.+.%.%.%.%.%.%.%.%.%.+.+.%.o.%.%.%.o.o.%.%.o.o.@.%.o.o.%.%.%.%.%.o...%.%.@.o.%.%.o.%.@.o.%...%.o.%.o.o.} %.o.o.%.o.o.%.o.%.o.o.o.+.%.o.o.o.o.o.%.o.o.o.o.o.o.o.o.o.o.o.+.+.o.o.o.o.+.o.+.o.o.+.o.o.o.O.o.o.O.o. .o.o.o.X.X.o.o.' o.X.' o.X.o.o.' X.' o.o.o.X.' o.o.o.o.X.X.o.X.o.o.o. .o.o.o.X.o.o.o.' o.o.o.o.o.o.X.X.o.O. . .K  .O.o.} [ 5.w.e.e.e.e.e.e.e.e.e.e.e.e.e.e.e.e.e.e.e.e.e.e.e.e.e.e.e.e.e.e.e.e.e.e.e.e.e.e.e.e.e.e.e.e.e.e.e.e.q.e.e.e.e.9.w.e.q.w.q.e.e.q.e.e.e.0.5.#.@.o. .X.K H H X.X.X.X. .X.X.` X.X.K X.K X.K X.X.` ' ' &.&.4.4.4.4.5.5.5.4.&.&.=.@.%.' ) ( ` X.H H H H H H H X.X.H X.X.X.H H H H H H X.H X.X.X.H H X.X.H H H X.X.H H X.H X.H X.H X.X.H X.H H H H X.H H X.H X.H H H H X.H H H X.H H H H H H H X.H H H H H H H H H H H H H H H H H H H H V H H G H G G H J H H H H G G H H G G G H H G H H J H H H H H H H H B H H B B H B H V H G G V G G H G G G H H G H G J H G G G G G G H G G G B G G G G G B G H B G B B B D H G G G V B G B G G G G G G G M J G B G B G G B G G B V B B G B B B G B G B B B B G B B G B B B B G B G B G B B G c G B B B B B B B B V B B B B G B S S G S G n m ..4.w.w.e.e.q.e.e.e.e.w.e.e.e.e.e.e.e.e.e.e.e.e.e.e.e.e.e.e.e.e.e.e.e.e.e.e.e.e.e.e.e.e.e.e.e.q.q.e.w.e.w.w.w.w.w.e.w.9.9.9.9.9.9.e.9.e.e.w.w.w.w.4.| ) m B c k J Z D m ( [ 3.w.w.w.w.5.w.w.e.w.w.w.w.w.w.4.*.O.B M c k c S c S S S S S c S G k k B S c B c c c c c c B c c c c B c c c c c c c c z c c c c z c c c c z c c c c c z c z c c c c c c z c c x S c c c c S c c c x c c S x c c c c k A c c c c S c S x c c c S c c c x c c c S c c c c c c x c c c c c c x c x l c c x x c z c x c c x c c l c x c c x x c c x c x x c x c c x c c x x c c x c x c x c l c x c x c x c x c c x c x c x c x z x c l c l c l x x x x x c x c c x x c x x x x x x x x x x x c k x x x x A x x x x x c k x x x c x c x x x x x x x x x x x x x x x A x x x x A x x j C x x x x x x x x A x x x x A x x x x x x x x x x x A x x x x x x x x x x x x x x x x x x x x x x x A 8 x x x A x x x x A x x A x x x x x x x l x x 8 x x 8 x x 8 8 x x 8 x x x 8 8 x x 8 8 x x 8 8 8 A 8 A 8 x 8 x 8 8 x x 8 x x 8 A 8 x 8 x 8 8 8 x x 8 8 A A 8 8 x x x x x x 8 8 x x 8 8 x x 8 8 8 A 8 A 8 x 8 x 8 8 x x 8 8 x x 8 x 8 x x 8 A 8 A 8 x 8 8 x 8 8 x x 8 x 8 l x l x x x 8 8 8 8 q 8 8 A 8 q 8 x 8 x 8 8 x 8 8 q 8 8 8 x 8 x 8 8 8 x q 8 8 8 x 8 x 8 8 8 8 q A 8 8 A 8 9 3 q q 4 8 8 x 6 6 6 6 8 8 8 7 4 j y g j j j z l j j j g 2 2 4 g =.w.w.e.e.q.e.9.e.e.e.e.e.e.e.e.e.e.e.e.e.e.e.e.e.e.e.e.e.e.e.e.e.e.e.e.e.e.e.e.e.e.e.e.e.e.e.e.e.e.e.e.e.e.e.e.e.e.e.e.e.e.e.e.e.e.e.e.e.e.e.e.9.9.q.w.5.! U @.4.w.w.8.0.e.e.q.e.q.e.e.e.e.e.e.e.9.e.e.e.9.9.e.9.e.e.e.8.w.w.w.4.` i g j q 7 5 8 8 6 l x 8 8 8 8 8 6 8 8 8 l 8 8 8 8 8 8 x 6 x 6 x 6 8 6 8 8 8 8 l 8 8 8 8 8 8 6 8 8 8 6 6 8 8 8 6 8 8 6 x 6 8 8 8 8 8 x 6 8 8 6 6 8 6 8 l 8 8 8 6 8 8 ",
"%.%.%.%.%.%.%.%.%.%.%.%.%.%.%.%.%.%.%.%.%.%.o.%.o.%.%.%.o.%.%.o.%.o.%.+.@.o...%.%.%.o.%.o.%.%.o.o.%.o.%.o.o.%.%.o.o.%.o.%.o.%.o.o.%.o.o.o.o.o.%.o.o.%.o.%.o.o.o.o.%.o.%.o.%.%.o.+.o.o.O.o.o.o.+.o.O.o.o.o.+.o.O.o.o.o.o.o.o.o.o.X.o.o.o.o.o.o.X.o.o.X.X.o.o.X.o.o.o.o.X.o.o.X.X.o.` o.o.' o.o.o...o.X.o.o.X.o.o.X.X.o.X.o.X.o.O.X.o.X.O.O. .O.O.X. .o.@.{ w.w.w.e.e.e.e.e.e.e.e.e.e.e.e.e.e.e.e.e.e.e.e.e.e.e.e.e.e.e.e.e.e.e.e.e.e.e.e.e.e.e.e.e.e.e.e.e.e.e.e.e.9.9.e.e.e.9.e.q.e.e.e.q.e.q.e.w.w.<.~ ) ..X.H H X.H X.H X.K X.X.` X.X.K H X.H X. .( ' | &.2.5.w.5.w.w.w.w.w.5.5.w.5.4.2.[ ) R '  .X.H F K H K H H ` X.H X.H  .X.H X.X.K H K X.H K H X.H K X.H X.K X.H H X.H H H H H V H H V H H X.H V X.H V H H H V X.H V X.H H H H H X.H H H H H H H X.H H H H X.H H H V X.H H H X.H V H H H G H G H H G H H F J H H G H H G H H G H H G G H H B B H B B H B H H B H H B H G G G V G G H V G G H G G G H J G H G G H G G G H G G G H G G H B B G H G G G H B H G G B G B G D G G G H B G G B G G G G G G G G B V B V B G G B B B G B B B B B B G B G B B B B V B B B B B B B B B G c G B B B N B V B N B V B B B B B B B B S S B D F *.5.w.e.9.9.q.e.e.e.e.e.e.e.e.e.e.e.e.e.e.e.e.e.e.e.e.e.e.e.e.e.e.e.e.e.e.e.e.e.e.e.e.e.e.e.e.e.e.9.e.e.e.w.w.w.w.9.q.9.9.9.9.9.9.9.9.e.9.9.w.e.w.w.5.4.( V v k Z Z D T 4.5.w.e.e.w.w.w.w.e.e.e.9.e.e.e.w.w.5.=. .m n B c c S c c A S S S S S S c c k c c c c c c c c c c c c c c c c c c c z c c c c z c c c c z c c c c c c z c c c c c c z c c c c c c c c c x S k x c c c c x S k c c c c x c c c x c S x c k S x c c k x c c c c x c x S k c c x c c x x c x x c c c x c c x c c x x c c x x c c x x c c l c c c x c l c c x c c c l c c x c c x c z x z x c l c x c l c x z x z x x z x z x c l c x c x c x c x c x c x c x x x x x x x x c x c x x c x x S x x x A x c x k x x c S x x x A x x c x x x x x c c x x c x x x c x c x c x x x c x k x x x x x x C x x x x A x x x x x x x x x A x x x x A x x x x x x A x x x x x A x x x x x x A x x A x x x x x x x x x x x x x x x x x x x x x x 6 x x x l x x l x 8 x 8 A 8 x x 8 A 8 x x 8 x 8 x 8 8 x x x 8 x 8 x 8 A 8 x x 8 8 x 8 8 x 8 A 8 A 8 x x x 8 8 x 8 x 8 x x 8 x 8 8 A 8 x x 8 x 8 x 8 8 x x x 8 x 8 x 8 A 8 x x 8 q 8 C 8 A 8 9 8 x 8 x 8 x 8 x 8 8 x 8 8 8 8 8 8 8 8 8 8 8 8 x x q q 8 q 8 q 8 8 8 8 8 8 8 x 8 x 8 8 8 x 8 x q 8 8 q 8 x 8 x 8 x x x 8 q 8 8 A 8 x 8 x 8 8 x 8 8 0 4 8 8 8 8 x 8 6 6 l l g j k r t t t m b m b b b v h t t y r e 5.w.q.e.9.9.9.e.e.e.e.w.e.e.e.e.e.e.e.e.e.e.e.e.e.e.e.e.e.e.e.e.e.e.e.e.e.e.e.e.e.e.e.e.e.e.e.e.e.e.e.e.e.e.e.e.e.e.e.e.e.e.e.e.e.e.e.e.e.w.e.e.e.e.e.e.w.>.@.5.5.w.w.e.9.e.e.9.9.q.q.9.q.e.e.e.w.e.e.e.e.9.e.e.9.9.8.e.e.e.w.w.w.4.( t r 7 8 8 8 6 8 l x 8 8 4 8 6 x 8 8 8 8 8 8 6 x 6 8 6 8 8 8 6 8 8 8 6 x 8 8 8 8 8 8 6 x 6 8 8 x 6 8 x 8 8 8 8 8 8 8 8 6 8 8 6 x 8 6 8 8 6 8 8 8 x 8 8 8 8 8 8 8 8 ",
"%.%.%.%.%.%.%.%.+.%.%.%.%.%.%.%.+.%.o.%.%.o.%.+.%.%.o.%.o.o.%...%.o.%.%.o.%.%.o.%.o.o.%.%.%.o.%.%.%.o.%.%...%.o.' %.o.%.%.o.o.%.o.o.o.%.o.o.%.+.o.o.%.o.o.%.o.%.o.o.+.o.o.o.o.o.o.o.+.O.o.+.o.o.O.o.o.o.o.o.o.o.o.o.o.o.o.o.o.O.o.X.o.o.o.o.X.' X.o.X.o.X.o.' o.o.X.o.o.X.` o.o.o.o.o.' o.X.X.o.o.o.o.o.o.X.o.O.O.O.X. .X.X. .O.o.O.o. .o. .O.O... ...%.3.5.e.e.e.e.e.e.e.e.e.e.e.e.e.e.e.e.e.e.e.e.e.e.e.e.e.e.e.e.e.e.e.e.e.e.e.e.e.e.e.e.e.e.e.e.e.e.e.e.e.e.e.8.w.9.9.e.e.e.e.e.q.e.e.e.q.e.e.w.5.<...( X.X.H ` ` X.X.O.X.O.V O.X.X.H H H X. .( ) &.5.w.w.w.w.w.w.e.w.w.e.w.w.w.w.w.w.5.2.[ ' ( ` ` H K K H X.H H X.X.X.X.H H H X.H K X.X.H H X.H H X.H H X.H X.H X.K H H X.X.H H H H H X.H X.H H H X.H X.V H X.H X.V H H X.H H V H H H H X.H H X.H H H H H H H H H H H X.H H V H H H H H V H H K D H G H H H H G H H G H H H H G H V G F H B H H B H H B H B H B B H G G H H G G H H G G V G H G G H G G H G G H G G H G G H G H J G G G G G G G G G B G G G G G H V D G B G B G G G G G G B J B B B D B G G V V B B B B B B B B G B G B G B G B B G B B G B B V B B B B B G B B G G G B G B B B B B B V B B B B B B B B B k G m ( 4.w.w.e.9.e.e.e.e.e.e.e.e.e.e.e.e.e.e.e.e.e.e.e.e.e.e.e.e.e.e.e.e.e.e.e.e.e.e.e.e.e.e.e.e.e.e.e.9.e.9.e.w.e.e.e.e.9.9.9.e.9.e.9.9.e.9.e.e.9.e.e.e.w.e.w.&._ b V F f  .4.5.w.e.q.e.e.8.w.w.e.e.e.9.e.9.e.e.8.w.5.=...f m J S c S S S S S A S S S S k S G B c c c c c c c c c c c c c c B c c z x c c c c c c c c z c c c c z c c c c c z c c c z c c c c c c c c c c x k x c c c c x c c x S c c c c c k c c x c c c c c S x c S c S c c c x k c c c c c z x c c x c x x c c l c x c c c c x c c x c c x c c c x c c l c c x c c x c c x x c c x c l c x x c l c x c l c l c x z x c l c c l c x x c l c l c l c c l c l x x x x c x c x S x x x x x x c c x x x x x x c x x x x c x c x x k x A x x x x x x x c x x x x k A x x x x x k x c x c x x x x x C x C 4 x A x x x A x x x x x x x A x x x x x x x x x x x A x x x A x x x x x x x x x x x x x x x x x A x x x A x A x x A x x x j x x x x x x x 6 x l x 8 x x x 8 x 8 x 8 x 8 x A 8 x 8 x 8 x 8 x x 8 8 x x 8 x 8 x 8 x A 8 x A 8 x x 8 x 8 x 8 x x 8 8 x A 8 x 8 x x A 8 x x 8 x x 8 8 x 8 x 8 x 8 x 8 x x 8 x 8 x 8 x A 8 x 8 A 8 8 x 8 8 x 8 x x 8 8 x 8 8 x x l 8 x 8 8 8 q 8 8 8 8 8 8 q 8 7 8 7 0 8 q 7 8 8 8 8 x 8 8 8 q x x 8 q 8 8 8 8 x 8 8 8 8 8 8 8 q x 8 8 8 8 x 8 8 x 8 x 8 x 8 8 8 8 8 8 8 7 6 j l g - t a b / %.*.=.4.5.5.5.5.2.4.&.=.' ( p s w.q.q.e.9.9.9.e.e.e.e.e.e.e.e.e.e.e.e.e.e.e.e.e.e.e.e.e.e.e.e.e.e.e.e.e.e.e.e.e.e.e.e.e.e.e.e.e.e.e.e.e.e.e.e.e.e.e.e.e.e.e.e.e.e.e.e.e.e.e.e.e.e.e.e.q.w.w.w.w.9.e.e.9.8.9.9.9.e.e.e.e.e.e.q.e.e.w.e.w.e.e.e.8.e.9.e.e.e.8.e.8.w.5.=. .w 2 x 6 8 6 x x l 8 8 7 6 8 8 x 6 6 8 x 6 8 8 6 8 8 8 8 8 8 8 8 x 8 8 8 6 8 8 x 6 8 8 8 8 6 8 8 8 8 8 6 x 6 6 8 6 8 x 6 6 8 x 8 8 8 8 x 8 8 6 x 8 6 8 8 x 8 8 6 ",
"%.%.%.%.%.%.%.%.%.%.%.%.%.%.%.%.%.%.%.%.%.%.%.%.%.o.%.%.%.%.%.%.o.%.%.o.o.@.%.o...%.%.o.o.o.%.%.%.o.o.%.o.o.o.%.%.o.%.' ' %.%.' %.o.o.o.o.%.o.o.%.o.o.o.o.%.o.o.o.%.o.o.o.%.o.%.o.+.o.o.o.o.o.+.o.o.+.o.o.O.o.+.O. .o.o.O.o.o.+.' o.o.X.X.' o.o.o.o.X.' o.o.X.o.o.o.o.X.o.o.X.o.X.' X.o.o.o.' o.o...o... .o.o.X.X.H O.o.o.O.O.O.o.o.o.o..... .^ +.....#.5.w.w.e.e.e.e.e.e.e.e.e.e.e.e.e.e.e.e.e.e.e.e.e.e.e.e.e.e.e.e.e.e.e.e.e.e.e.e.e.e.e.e.e.e.e.e.e.e.e.e.e.e.e.e.e.e.e.e.e.e.e.e.e.e.e.e.e.e.w.w.4.#.o. .X.H ` V ` ` ` ` ` ` X.X.V H X.O.O. .o.#.5.w.w.e.e.e.9.e.e.e.e.e.e.e.w.e.w.e.w.w.4.@.' ( (  .K H H X.K ` X.` H ` X.X.H H X.X.H H H H H X.X.H H X.K H H X.X.X.H H H H V H X.V X.H H H H V X.H H H H H V H H X.H H V H H X.H H H H H H H H H H H H X.H H H X.H H H H H H G V H V H V H G G H H G J F G H H G H F H G G G H H G H B B B H B H H B B H H H H H G V G V G G V G B G H G G G G G H J G G G G G G G H G G G G H H H G G G G G G G G G G G G G B B G G G G G H B G G B B G G G B B G B G D B B B B B B V B G B B B B B B B B B G B B B B B B B B B B B B B B G G G G B B B B B G G B B M B B B B B B B B B G F m o.5.w.w.9.e.9.9.e.e.e.e.e.e.e.e.e.e.e.e.e.e.e.e.e.e.e.e.e.e.e.e.e.e.e.e.e.e.e.e.e.e.e.e.e.e.e.e.e.e.9.e.9.e.w.e.e.e.e.9.e.e.w.e.w.e.e.e.9.9.e.9.9.9.e.e.w.3.2.) * f %.4.w.w.e.q.e.e.e.e.e.e.e.e.e.e.q.9.q.9.e.w.w.5.&.R f m k k S S k c S S S S c S k S k c c c c c c c B c c c c B c c c c c c c c c c c c c z c c c c z c c z c c x c c z c c c c c c c x c x c c c c S c c c c k S c c c c c c x c x S c c c c S x x c S k c c x c c c c c c x c l x z x c c x c c c c x c x c c x x c c c x x c c x c c x c x x c c x c x l c c x x c c c l c x c x z c x c x c x c x c x c x c l c x x c l c c l c x c x c x x c x c c x S x x x x x x x c x c x x x x x x c x c x x c x c x x x x x x x x x A k c x c x x x c x c x x x c x S x x A x A x x c x x x x x x x x x x x x x x x x x A x x x x x x x A x x x A x x x x x x x x x x x x A A x x x x A x x A x x x x x x x x x x x x x x x x x x 8 x x 8 x x x x x x l x l 8 x 8 A x 8 8 x x 8 x 8 x x A 8 x 8 x A A 8 x x x x 8 x x 8 x 8 8 x 8 x x 8 x x x 8 x x x x 8 x 8 x x 8 8 x 8 x x 8 8 A x x A 8 x 8 A x A 8 x x x x 8 x x 8 x 8 x q 8 A x 9 x q x 8 6 x x 8 x x l x x 6 8 8 8 8 7 8 8 q q q 8 8 8 0 8 8 8 8 8 8 8 x 8 x 4 x x j 8 8 8 8 8 x 8 A 8 8 q x 8 x x 8 x 8 q 8 8 A 8 8 x 8 8 q x 8 8 x 8 8 q 8 8 8 8 8 2 j h b ( %.4.4.5.w.w.w.w.w.w.w.e.w.w.w.5.5.4.3.w.w.q.e.e.e.e.e.e.e.e.e.e.e.e.e.e.e.e.e.e.e.e.e.e.e.e.e.e.e.e.e.e.e.e.e.e.e.e.e.e.e.e.e.e.e.e.e.e.e.e.e.e.e.e.e.e.e.e.e.e.e.e.e.e.e.e.e.e.w.e.e.e.e.q.w.w.w.w.w.e.9.e.9.e.e.e.w.e.w.e.e.e.e.e.e.e.w.w.w.e.e.w.9.e.9.e.9.8.e.e.9.w.w.5.*.m k l 8 8 8 l 6 6 8 x 8 6 x 8 8 8 8 8 6 8 6 8 x 6 8 8 8 8 8 6 8 6 8 x 6 x 8 6 8 8 8 6 x 8 x 6 8 x 8 6 x 8 8 x 8 8 8 8 8 8 8 6 8 6 x 6 8 8 8 8 8 6 x 8 8 6 8 x 8 ",
"%.%.%.%.%.%.%.%.%.%.%.%.%.%.%.%.%.%.+.%.%.o.%.%.%.o.%.o.%.o.o.%.o.%.o.%.%.o.%.%.%.%.%.%.@.o.%.o.o.%.@.o.' %.@.o.%.' o.%.%.o.%.o.o.%.o.%.o.o.o.%.o.o.%.o.o.o.o.o.%.o.o.%.%.o.o.+.o.o.+.+.o.o.o.o.o.+.O.o.o.o.O. .o. .o.o.o.o.o.o.o.X.' o.o.o.X.o.' o.o.o.X.o.X.o.' o.o.' X.o.o.' o.o.X.' X.' X.o.o.' o.o.o.X.X.X.O. .O.o. . . . .) ) o.@.@.+.@.@.@.^ @.3.5.w.e.9.e.e.e.q.e.e.e.e.e.e.e.e.e.e.e.e.e.e.e.e.e.e.e.e.e.e.e.e.e.e.e.e.e.e.e.e.e.e.e.e.e.e.e.e.e.e.e.e.e.e.w.e.w.e.w.e.q.e.w.e.e.e.e.e.e.w.w.5.&.o.( X.o.o.' ' o.' o.o.X.X.` ` X.X.o.( %.&.5.w.w.q.e.9.9.e.9.9.9.e.e.e.e.e.e.e.e.w.e.w.5.&.[ (  .F K F H X.X.H ` X.X.H ` H K X.H H H X.X.H X.K X.H X.H X.H K H H X.H X.H X.H H H H H V X.H X.H H H X.H H X.H H H X.H X.H H H H X.H H H H H H H X.H H H X.H H H H V H H H V H V H H V H H H H H G H H H G F H G H J G H H G H G G H H G H H B H H G H B H B B H G V G G H B V G H V H G H G H G G G G G G G J H G J G G G G G G H G B G B G G B V G G B B H G G G G H G B G G G D G H G G G G G G G G B G B B V V B V B B G B G B G B B B B B B G B G B B B B B B G B G n B F B B B B B G J G G B D V B D G B B c J G J G m ( #.w.w.9.e.e.9.9.e.e.e.e.e.e.e.e.e.e.e.e.e.e.e.e.e.e.e.e.e.e.e.e.e.e.e.e.e.e.e.e.e.e.e.e.e.e.e.e.e.e.e.e.8.e.e.e.9.e.9.9.9.e.e.e.e.q.e.e.e.9.e.e.e.e.9.9.w.w.w.:.] #.5.w.w.e.q.e.e.e.9.8.e.e.w.e.e.9.9.q.e.q.9.e.w.w.w.<.T m k J B B c c S S S c S k S k c c c c c c c c c B c c c c c c c z c c c z c c c c z c c c c c c c z c c c c c c c c c c c c c l S c x c x c c x S c c S S c c x c c c x S x c c k A c c c x S c c c k S S x x k k x c k c c c c l c c x z x x c x c c x c z c c l c x c x c l c x l c c x c c x c c c c c x c c c x x c c l c x x z l c x z l c l c x c x c x c c x c x x c x c x c l c c l c x x x x c x x c x x x x x x S x c x A x c x A x c x x x c x x c x x x c x x x x x c x x k x x x x x x x x c x x x x k x x x x x x x x j x x C x x x x x x x x x x x x x x x x x x x x x x x x x x x x x x x x x x x x x x x x x x x x x A x x x x x x x x x x x A x 8 x x x x x x l x x x x l x x x x x x 8 A x 8 A 8 x 8 x 8 8 A 8 x x 8 8 x x 8 8 A 8 8 A 8 x 8 x 8 8 x x 8 x 8 8 A A 8 8 x x 8 x 8 8 x x 8 8 x 8 x x 8 x 8 8 A 8 x x 8 8 x x 8 8 A 8 8 A 8 x 8 x 8 x 8 8 8 x 8 8 x x 8 8 x x 8 x l x x 8 8 8 8 q 8 8 8 8 4 4 8 7 7 6 8 8 8 8 q 8 8 x 8 8 8 j 4 x x 8 x 8 x 8 x q x 8 8 q 8 8 q 8 A 8 8 8 x q x q 8 q 8 8 8 q 8 x 8 8 8 8 x j g t n ( %.5.w.w.w.e.e.e.e.e.e.e.e.q.w.e.e.w.w.w.w.e.e.e.9.9.e.e.9.e.e.e.e.e.e.e.e.e.e.e.e.e.e.e.e.e.e.e.e.e.e.e.e.e.e.e.e.e.e.e.e.e.e.e.e.e.e.e.e.e.e.e.e.e.e.e.e.e.e.e.e.e.e.e.e.e.e.e.e.e.e.e.e.e.e.q.e.q.e.w.e.9.e.e.9.e.e.w.e.w.e.w.e.e.e.q.e.e.e.e.e.e.e.e.e.e.e.e.e.9.e.q.q.e.w.w.5.%.v r x 8 8 8 8 8 8 8 8 8 8 x 6 8 6 8 8 8 x 6 x x 8 8 l l 8 8 6 6 x 6 8 8 8 x 8 8 6 8 8 8 8 6 8 6 8 8 8 8 x 6 8 8 8 6 8 x 6 6 8 8 8 8 8 l 8 8 6 8 8 x 6 6 x 6 8 ",
"%.%.%.+.%.%.%.%.%.%.%.%.%.%.+.%.%.o.%.%.%.%.o.%.o.@.o.%.o.%.%.o.o.@.%.o.o.%.%.o.%.o.o.%.o.%.%.o.} %.o.o.%.o.o.%.o.%.o.o.o.%.' o.o.o.+.o.%.o.o.o.o.%.o.o.+.o.%.o.%.o.o.%.o.o.o.%.O.o.o.o.+.+.o.O.o.+.o.o.o.o.o.o.o.o.O.o.o.o.+.o.' o.o.X.X.o.o.' X.o.X.o.' o.o.o.X.o.X.o.o.o.X.o.X.o.o.o.o.o.o.o.' o.o.o.o.o.O.o.O.o. ... . ...^ ..$.$.$.<.<.<.$.#.=.2.5.w.w.e.e.e.e.e.e.e.e.e.e.e.e.e.e.e.e.e.e.e.e.e.e.e.e.e.e.e.e.e.e.e.e.e.e.e.e.e.e.e.e.e.e.e.e.e.e.e.e.e.e.e.w.e.w.e.e.e.e.w.w.e.e.e.e.e.e.e.e.w.w.5.@.R ) ) _ ) ' ) ] ) _ ' ` X.o.o.' ) ) =.5.w.w.e.9.q.9.e.9.9.e.e.9.9.9.9.e.e.9.9.e.e.w.w.5.$.' (  . .H H H H X.X.V ` X.X.H X.H H X.X.H X.H H H X.H H H H X.X.H X.H H H H H X.V H X.H X.V H H H H X.H H H H X.V H H H H X.H H H H H H H H X.H H V H H H V H H H H X.H H H V H H V H H H G G H G H H G D H H G H G H H G F H G H V D G V B H H B G V G H B H H B H G G H B H G H G G G V G G H J G H G G H G G H H G G H G H G G G D H G F G G G D G G G B D G G B G B G G G B F V G G B B G G B G B G G G V B V B M B B B B B B B B G B G B G B B B B B B V B B B B B B B B B B B n B D B n D n V B m V m n n B n n n D F f ) 4.w.e.q.e.9.e.e.e.e.e.e.e.e.e.e.e.e.e.e.e.e.e.e.e.e.e.e.e.e.e.e.e.e.e.e.e.e.e.e.e.e.e.e.e.e.e.e.e.e.9.e.e.e.e.e.e.e.e.e.9.q.e.e.e.e.e.e.e.w.e.8.e.w.9.w.w.w.0.5.5.w.w.w.w.e.e.e.q.e.e.8.e.e.w.e.e.e.e.e.9.e.e.e.w.8.w.5.@.m n n B G c c S c A S c S c S S c c c c M c c c c c c c c B c c c c c z c c c z c c c z c c c c c c c c c c z c c c z c z c c c k c S c c c c S x c k x x c c c k A c c c c c c c c c x c k c c x S c x c c c S c x c x c x x c c c x c c x c c c x c c x c x x c x c c x z c c c c c x c x c c x c l x x c c l x c c c x c x c c x c x c x c x c x c l c x z x x z x c c l c c c l c x x c l c k x x x A k x x c x k A x x x x k x x x x k x x k x C x x c x x x c x x x c x S x x x A A k x x c x c x x x x c x x c x x x x k x x A x x j x x x x A x A x x x x A x x x x x x x A x x x A x x A x x x A x x x x x x A x x x A x x x x x x A x x x A x x x x x x x x 8 x 8 x j x x 6 x x x x 8 8 8 x 8 x 8 x x x x 8 x 8 x x 8 8 x 8 x x 8 x 8 x 8 x x x x 8 x x 8 x x 8 A 8 x 8 x 8 x x 8 x 8 8 x A 8 x 8 x x x x 8 x 8 x x 8 8 x 8 x x 8 x 8 x 8 x x x x 8 x 8 x q q q x 8 A 8 8 8 x 8 6 8 x x 6 8 8 x 8 x 8 8 8 8 8 x j A x c c x x c x x x x j 8 j j x 8 8 8 8 q 8 8 q 8 8 8 8 x x x 8 x 8 8 8 8 x q 8 8 8 x 8 x x 8 8 8 8 6 8 6 x 2 g h t O.%.=.5.w.w.e.q.e.9.9.9.q.e.q.e.e.e.q.e.e.e.w.w.q.e.q.e.9.e.9.e.e.e.e.e.e.e.e.e.e.e.e.e.e.e.e.e.e.e.e.e.e.e.e.e.e.e.e.e.e.e.e.e.e.e.e.e.e.e.e.e.e.e.e.e.e.e.e.e.e.e.e.e.e.e.e.e.e.e.e.e.e.e.e.e.e.q.e.e.e.e.w.9.e.q.e.e.9.e.w.w.w.w.w.e.e.e.e.e.e.e.e.e.e.e.e.e.e.e.e.e.e.e.9.e.9.e.w.w.4.' - h x 8 7 8 8 8 x 8 8 8 6 8 8 x 6 8 8 8 8 6 6 8 8 8 8 8 8 x 8 8 8 8 6 8 6 8 6 x 8 8 6 x x 8 6 8 8 8 6 8 8 8 8 8 6 x 8 8 8 6 6 8 x 6 8 8 8 6 x 8 6 8 8 8 8 8 ",
"%.%.%.%.%.%.+.%.%.+.%.%.%.%.%.%.%.+.%.%.%.%.%.%.o.%.%.o.%.%.o.%.%.o.%.%.o.%.o.%.o.o.%.o.%.o.%.%.o.o.@.o.o.%.o.o.%.o.' %.o.o.o.%.o.%.o.o.o.%.+.o.%.o.o.o.%.o.o.%.o.%.o.o.o.o.%.o.o.o.o.o.o.O.o.o.o.+.o.+.o.o.o.+.o.o.o.o.o.o. .o.o.X.o.X.o.o.X.o.o.o.o.o.o.X.o.` ' o.o.o.' o.o.o.o.X.o.o.o.o.o.X.o.o. .o.X.X.o.X.o.o.o.' ^ @.$.=.4.5.5.w.w.w.w.w.w.w.w.w.w.e.9.e.e.e.e.e.e.e.e.e.e.e.e.e.e.e.e.e.e.e.e.e.e.e.e.e.e.e.e.e.e.e.e.e.e.e.e.e.e.e.e.e.e.e.e.e.e.e.e.e.e.w.e.w.e.e.e.e.e.e.e.e.e.e.e.e.e.e.w.w.5.#.! #.[ { #.&.2.| ;.@.%.o.' o.) ' @.&.5.5.w.w.q.9.q.q.9.e.e.9.e.e.e.e.e.e.e.e.9.9.e.e.e.w.5.{ R  .O.H H K H X.` ` H X.V X.H H H X.X.H H K X.H X.H H X.H X.X.H H  .H H H X.H X.H H H H H H H H X.H X.H H X.H X.H H H V H H X.H H H H H H H X.H H H H H H H H V H H X.H V H H H V H H H H G H H J F G H G H G H G H H H G H H H G G V D H B B H G H V G H B H H G V G G H G H G G V G G G G G H G G G H G G G G H G G G G H H G G G G G G B G B H G H G G H G G H G B G B G G B G G B G G B G G G B G G B G B G M B B B B B G B B B G B B B B B G B B B B J S G G S B B H G B B B G V V d d f f m ( T ( ( ( )  . .F f m f T [ 5.w.e.q.e.e.e.e.e.e.e.e.e.e.e.e.e.e.e.e.e.e.e.e.e.e.e.e.e.e.e.e.e.e.e.e.e.e.e.e.e.e.e.e.e.e.e.e.e.e.w.e.e.e.e.e.e.e.e.9.e.e.e.e.e.e.e.e.e.e.e.e.w.w.9.w.e.e.e.w.w.e.w.w.e.e.e.e.9.e.e.e.e.e.w.e.e.e.e.e.q.e.e.e.q.w.e.8.5. .F n B B n c B c S S c c S S k c c c B c c c c c c c c c B c c z c c c c c c c c z c c c c c c z c c c c c c c c c z c x c c c c c x c c c k A c c c c c S c S c c c S c c k S c x S c x c S x c c x c c c c c k c c c x c c c x c c c x c c x c l x c c x x c c c x c x c c x c c c x z x c c c x c c c x x c c c x c c l c l x c x c l c l c x c x c l c l c c l c l c x x l x z c x c l c l A x c x x x x x x x x A x A x x x x x x x x x x A x c x c x x A c x x c x x x x x x x c x x x S x A x x x x x x c x x c x x x x x x x x x x x x x A x x x A x x A x x x A x x x x x A x A x x x x A x x x x x x x x x x x x A x x x A x x x x x x x x x x x x x x x j x x x x x l x x l x l x l x 8 x 8 A 8 x 8 8 x 8 x 8 x 8 x x 8 x x 8 x 8 x x 8 A 8 8 x 8 x x 8 x 8 x x 8 x x 8 x x 8 A 8 x x 8 x 8 x x A 8 8 A 8 x 8 x 8 x x 8 x x 8 x 8 x x 8 A 8 8 x 8 x 8 x 8 x q 8 8 8 x 6 x 8 8 x 8 8 8 x 8 8 8 8 8 x 8 x x k k t k r h g h t h h z z x l l 8 x x A 8 x 8 A 8 x q x 8 8 8 x q x 8 8 8 8 x x 8 x 8 x 8 8 8 x 8 8 8 8 8 6 l l g = h m o.4.4.5.w.e.e.e.e.w.e.e.9.e.e.e.w.e.e.e.e.w.w.w.e.e.e.e.e.e.9.9.e.e.e.e.e.e.e.9.9.e.e.e.e.e.e.e.e.e.e.e.e.e.e.e.e.e.e.e.e.e.e.e.e.e.e.e.e.e.e.e.e.e.e.e.e.e.e.e.e.e.e.e.e.e.e.e.e.e.e.e.e.e.e.e.e.e.e.e.e.e.e.e.e.e.e.e.e.e.w.e.w.e.w.e.w.e.e.e.e.e.e.e.e.e.e.e.q.e.e.e.q.e.e.q.e.7.e.e.w.w.&.( t j 8 4 7 7 8 l 8 6 x 8 8 8 6 8 6 x 6 8 8 8 6 x 8 8 8 8 8 6 8 x 6 8 6 x 8 6 x 8 8 8 8 x 6 8 8 8 6 8 8 8 6 6 8 8 8 6 8 8 x 8 8 6 x 8 6 8 6 8 x 6 8 6 8 8 8 ",
"%.%.%.%.%.%.%.%.%.%.%.%.%.+.%.%.%.%.o.%.%.o.+.%.%.o.%.%.%...o.%.%.o.o.%.%.+.@.o.%.%.%.%.' %.%.o.%...o.o.%.o.o.@.' %.%.o.o.%.%.o.o.o.%.o.o.o.o.%.o.+.o.%.o.+.o.%.o.o.o.+.o.%.o.o.o.O.+.+.o.+.o.o.o.+.o.o.o.o.o. .O.o. .O.o.O.o.o.o.o.o.X.` o.o.o.o.X.X.' o.o.o.o.X.o.X.` o.X.o.` ' o.o.X.' X.o.o. .o.O.o.o.o.o.o.o.' } [ @.2.5.w.w.w.w.w.w.e.e.e.w.e.e.w.e.e.e.9.e.e.q.e.e.e.e.e.e.e.e.e.e.e.e.e.e.e.e.e.e.e.e.e.e.e.e.e.e.e.e.e.e.e.e.e.e.e.e.e.e.e.e.e.e.e.e.e.e.9.e.e.e.e.e.e.e.e.e.e.e.e.e.e.e.e.e.e.w.1.<.5.w.w.w.w.w.w.w.w.5.=.#.@.! ] #.5.w.w.w.e.e.e.e.9.e.e.e.e.e.e.e.e.e.9.e.e.e.e.9.e.w.e.w.>.R  .( H X.X.H H H X.V X.X.X.H X.X.H H H X.H H X.H X.X.H H H H H H H H H H V H H X.H X.V X.H X.H V H H H H H H H H X.H X.H H V H H H V X.H H V H H H H X.H H H X.H H H H H H V H H H V H F H G H H H H H H G H H G H G H H J H G H G G H B H H B H B H G H B B H G G H V G V V G G H H G H G G G G G G G G G G G G G G G J G G G D G B G G G G G D B B G G B G B B G G G H G G G G G G G G D G G G G G B B V V B B V V B B G B B B G B B G B B G B B B G n S B G G G B D D n B F H F B m ( ^  .%.=.=.=.&.4.4.4.4.=.=.@.@.Y Y @.w.e.e.e.q.e.e.e.9.9.e.e.e.e.e.e.e.e.e.e.e.e.e.e.e.e.e.e.e.e.e.e.e.e.e.e.e.e.e.e.e.e.e.e.e.e.e.e.e.9.9.e.w.e.w.e.e.e.e.e.e.e.e.e.e.e.e.e.e.e.e.e.e.e.e.e.w.w.e.e.q.e.e.9.e.9.9.e.e.e.e.e.q.e.9.e.e.e.e.e.e.q.e.e.e.e.w.w.w.%.H n n G k c c c S c S c c c c c c c c B c c c c c c c c c c c c c c c c c z c c c c c c l c z c c c z z c z c c c c c c c c c x c S k c c c c x c c c c x c k c x c k c x x c c S c c S c k c x S k c c x c c x c x c c c x c x c x c c x x c c c z c x c c c x c c x c c x c l x c c x c c x x c c x l c c x c l x c x c x c c l c x c x c x c l c l c x c x x c x c l c c c c x l c x c x c x x x x c x k A x c x k x k c x c x c x c x c A x x x x x x x k x x x x c x x c x S x A c x x x x k x x x c A k x x x x x x j x x C x x x C x x x x x x x x x x x x x x x x x x x x x x x x x x x x x x x x x x x A x x x x x x x x x x A x x x x x x A A x x x 8 x x x 8 x x x x 8 x x x 6 x x 8 A 8 x 8 x 8 A x 8 x x x 8 x 8 8 A x 8 x x A 8 x x 8 x x 8 8 x 8 x 8 A 8 8 A 8 8 x x 8 x x x 8 x x 8 x A 8 8 x x 8 A 8 8 x x 8 8 A x 8 x x A 8 x x 8 x x 8 8 x 9 8 8 4 x 4 x 8 8 x 8 x x 8 x 8 x q 8 q q 8 8 8 k x k g t t d f s p a d a h # g k l g l 8 8 8 8 8 8 8 8 8 8 8 8 4 8 8 8 8 8 A A 8 q 8 8 8 8 x q x 8 8 8 8 8 8 8 x x g g v ` =.5.w.w.e.e.e.e.e.e.e.9.e.e.e.e.e.e.e.e.w.w.e.e.w.e.e.e.e.e.w.e.e.9.e.e.e.e.e.e.e.e.e.e.e.e.e.e.e.e.e.e.e.e.e.e.e.e.e.e.e.e.e.e.e.e.e.e.e.e.e.e.e.e.e.e.e.e.e.e.e.e.e.e.e.e.e.e.e.e.e.e.e.e.e.e.e.e.e.e.e.e.e.9.9.e.e.e.e.e.e.e.e.e.e.e.e.e.e.e.e.9.e.e.e.e.e.e.e.e.e.e.e.e.e.e.e.e.9.9.e.w.w.w.} # g 4 0 7 7 8 l l 8 6 8 6 8 x 8 8 8 6 8 8 8 8 6 8 6 6 x 8 8 8 8 8 8 8 6 8 8 6 8 8 8 6 8 8 8 6 6 x l 8 8 x x 6 x 8 x 6 8 8 8 8 6 8 8 x 8 8 6 8 8 8 8 8 8 8 ",
"%.%.%.o.%.%.%.%.%.%.%.%.%.%.%.%.%.%.%.%.%.%.%.%.%.o.%.o.%.%.%.o.o.%.%.o.o.%.%.%.%.%.o.@.o.%.%.o.o.%.' o.' ..%.o.%.%.' %.%.o.%.} o.o.o.+.o.o.o.o.%.o.%.o.%.o.%.o.o.o.%.o.o.o.+.o.+.o.o.o.O.o.+.o.O.o.o.o.O.o.o.O.o.O.o.o.o.o.o.o.o.o.X.' o.o.o.o.o.o.o.o.` o.` X.o.o.o.o.o.X.o.X.o.X.' o.X.o.X.o.O. .X.o.o.o.o.o.' } &.5.5.w.w.e.w.w.e.e.e.e.e.e.q.e.e.e.e.9.9.e.e.e.e.e.e.e.e.e.e.e.e.e.e.e.e.e.e.e.e.e.e.e.e.e.e.e.e.e.e.e.e.e.e.e.e.e.e.e.e.e.e.e.e.e.e.e.e.e.e.e.e.e.e.e.9.e.e.9.e.9.e.e.e.e.e.e.e.e.8.8.8.w.w.e.e.e.e.w.w.w.w.5.4.3.>.#.3.5.w.w.e.e.e.e.e.e.e.e.e.e.e.e.e.e.e.e.e.e.e.e.e.e.q.e.w.5.=... .F H H H X.X.V ` X.X.H K H H H K X.X.H H X.H H X.H X.H  .H H H X.V H X.H H V H H X.V H H X.H H X.V H X.H H X.V H H H H H H X.H H H H H H H X.V H H X.H H H H H H H H V H H H V H H G H G G G H H G H G H F H H G H H G H G D V G G H G G H V G G V B H H B H G H G H B G H G G G G G G G H H G J G H J H G G J H H H H G B B V G G G B H G G G B G B G G G B D G G G G B F G B G B B V B J G G G G G B G B B B B B B B B B B B B B c B G B G B G G J k J k n B J n n B F V m F V  .%.$.4.5.w.w.w.w.w.w.w.w.w.w.w.5.$.$.5.w.w.e.e.e.e.e.e.e.e.9.e.9.e.e.e.e.e.e.e.e.e.e.e.e.e.e.e.e.e.e.e.e.e.e.e.e.e.e.e.e.e.e.e.e.q.e.e.e.e.e.e.e.e.e.q.e.e.e.w.e.9.9.e.9.9.e.e.e.e.e.q.e.e.e.e.e.w.w.e.e.9.e.9.e.e.w.w.e.e.e.e.q.e.9.9.e.e.e.e.e.e.q.e.e.e.e.w.w.=. .d v D B c c S c S S c c c c c c c c c c c c B c c z c c c z c c c c c z c c c x c z c c c z c c c c z c c c z c c c c c c k c c S c c c c c c c c c c x c x c c c x x c c c x k c c c c c c k S c c c c k A c c x c c z z x c c x x c c l c x c c x c c x l x c c l c l x c c x c x l c c x l c c x c c c c c c c x z x c l x c x z l c x c x z x c x c x c c x c x c c x l x c c x c x c x x x c x x x x x k A x x x x x x x x x x x x x x x x c x x x x x k x A c x k A x x c x k x c x c c x x S x x x x k A x x x k x x x x C x x x x x x x A x x x x x x x x x x x A x x x x x x x A x x x x x x x A x x x x x x x x x x A x x x x x x x A x x x x x x x x x 8 x j x 8 l x x l x x x x x x 8 x x x 8 8 8 8 x 8 x 8 x x A 8 8 x x 8 8 A 8 x 8 x 8 x x 8 8 x x 8 x 8 x x x 8 8 A x 8 8 x 8 A 8 8 8 x x 8 x 8 x x x 8 x x A 8 8 x x 8 8 A 8 x 8 x 8 x x 8 8 x q 8 8 8 8 j 8 x 8 x x 8 x 8 4 8 8 4 4 8 C x g g t n H +.*.=.4.4.=.=.+.o.b v h z g l 8 8 8 8 q 8 A 8 8 8 x 8 8 8 8 8 q x x 8 8 x x 8 8 8 8 8 8 8 8 4 8 x 8 j 8 j g k ` =.w.e.e.q.e.e.e.9.e.e.e.e.e.e.e.e.e.e.e.e.e.e.e.e.e.e.e.e.e.e.e.9.w.e.e.e.e.q.e.e.9.e.e.e.e.e.e.e.e.e.e.e.e.e.e.e.e.e.e.e.e.e.e.e.e.e.e.e.e.e.e.e.e.e.e.e.e.e.e.e.e.e.e.e.e.e.e.e.e.e.e.e.e.e.9.e.e.e.e.e.e.e.e.e.9.e.9.e.e.e.e.e.e.e.e.e.e.e.e.e.e.e.e.9.e.e.e.e.e.e.e.e.e.e.e.e.e.e.9.e.e.q.e.e.&.b y 3 3 0 0 8 x x x 6 8 x 8 6 8 x 6 8 8 8 x 6 8 8 8 x 6 8 8 8 6 8 6 8 6 8 8 8 x 6 8 8 8 8 8 x 6 x 8 8 8 6 x 8 6 8 8 8 x 8 x 6 8 8 8 6 x 6 6 8 8 8 x 8 6 6 ",
"%.%.%.%.%.%.%.%.%.%.%.%.%.%.%.%.o.%.+.%.%.+.%.%...%.o.@.o.o.%.%.@.o.%.%.o.%.o.%.o.o.%.o.%.%.o.%...o.o.@.%.o.o.%.o.o.%.o.' %.o.o.%.o.%.o.%.o.%.o.o.o.o.o.o.o.o.o.%.o.%.o.+.o.o.o.+.o.+.o.o.o.+.o.o.o.+.O.o.o.o.o.o.o.o.o.o.o.O.o.` o.o.o.o.X.' X.' X.o.X.o.o.o.o.X.o.o.X.o.' o.o.o.o.X.X.o.o.o.o.X.O.O. .X.' ' } &.2.5.w.w.w.w.q.e.e.e.e.9.e.e.q.q.e.e.e.e.e.e.9.e.e.e.e.e.e.e.e.e.e.e.e.e.e.e.e.e.e.e.e.e.e.e.e.e.e.e.e.e.e.e.e.e.e.e.e.e.e.e.e.e.e.e.e.e.e.e.e.e.e.9.e.e.e.e.e.9.e.e.e.e.9.e.9.9.e.e.9.e.e.e.e.e.e.e.e.e.e.e.e.w.5.w.w.w.0.w.e.e.w.e.e.e.e.e.e.e.w.e.e.e.e.e.e.e.e.e.e.e.e.e.e.e.q.e.w.4...( o.X.X.H X.H X.X.H H H X.X.H X.X.H H X.H H X.K H X.H X.H H V V X.H H H X.H X.H H H X.H V X.H X.H H H V X.X.H H H X.H X.H H H H H H H X.H H H H H H H H H H H X.H H H V H V H H F H H G H H H G G H G H H J G H H D H F G H H G V H G V H G G H G G H H B H H B G G V H G G V G H V G G H J G G H H G G G H H G G G G G B B B B G G G G G B B H G G D H B G G H B G G B G G G G G H B B B G G B G G B G V B B B V B B S B G B G B G G B B B B B B S S G B J S J n B D H H ` m ` +.4.5.w.w.w.w.q.w.e.q.e.e.e.w.e.w.w.w.5.w.w.q.q.e.q.e.e.e.e.e.e.e.9.e.e.e.e.e.e.e.e.e.e.e.e.e.e.e.e.e.e.e.e.e.e.e.e.e.e.e.e.e.e.e.e.e.e.e.e.e.e.e.e.e.e.e.e.e.e.e.e.e.9.9.e.e.e.e.e.e.e.e.e.e.q.e.e.e.9.e.9.e.9.e.9.e.9.e.e.e.e.e.e.e.9.e.9.e.e.e.e.e.e.e.e.e.e.e.w.4.+.m m B B k c c S x S c S c S c c c c c c c c c c c c c c c c c z c c c c z c c c c c c c c c c c c c c c c c c c c z c c c c c c x c c c c x c A k c c c c c x c c c S c c c c c c c x c c c c x k x c x c c x k c c c x c c x c c z x c c x c x x c c x c c c c x c x c c x c c c x c c x c c c x c c x x c l x c c x c x c c l c x c x z x c x c x z x c l l c x z x x c x x x l c l c l c c x A k c A k x c x x x S x c x c x k c x c c k x c x x S x x A A x x x x x x x x x x x x x x x x x x x c x c x x x j x x x x j x x j x x x C x x x x x x x A x x x A x x x x x x x A x x x x x x x x A x x x x x x x x A x x x x x x x x x x x x x x x x x x x x x x x x x x x x x 8 x x x x x 8 x x 8 x 8 x x x x 8 A 8 A 8 x 8 x x 8 8 x x 8 x 8 x 8 x x 8 A x 8 x A 8 x 8 x 8 x x 8 8 x x 8 x 8 x x x 8 8 x 8 x 8 x 8 A 8 x 8 x x 8 8 x x 8 x 8 x 8 x x 8 A 8 4 x 8 x 4 8 x 8 6 x 8 8 x 8 q q 0 q 4 4 j j k h m +.=.4.5.5.5.5.5.5.0.5.4.=.%.` n z x x x 8 8 8 x 8 8 x 8 x q x 8 8 q 8 8 8 q x 8 8 4 x x x x 8 x j 8 8 8 8 8 4 g h X.=.5.w.w.e.e.9.9.e.e.e.e.e.e.q.e.e.e.e.e.e.e.e.q.e.e.e.q.e.e.e.e.w.e.e.e.e.e.e.e.e.e.e.9.e.e.e.e.e.e.e.e.e.e.e.e.e.e.e.e.e.e.e.e.e.e.e.e.e.e.e.e.e.e.e.e.e.e.e.e.e.e.e.e.e.e.e.e.e.e.e.e.e.e.e.9.e.e.e.e.e.e.e.e.e.e.e.9.e.e.e.e.e.q.e.q.e.q.e.e.e.9.e.e.e.e.e.9.e.e.e.e.w.e.e.w.e.e.e.e.9.9.9.e.e.w.5.( y , 3 0 q 8 x x 8 8 8 6 8 x 8 6 x 8 8 8 8 8 8 8 8 6 x 6 8 8 6 x x 8 8 6 x 8 8 6 8 6 x 6 8 6 8 8 8 8 8 8 6 8 8 6 8 8 6 6 8 8 8 6 x 8 8 8 x 8 8 8 6 8 8 x ",
"o.%.+.%.%.o.%.+.+.%.o.%.%.+.%.o.%.%.%.%.%.%.o.o.%.o.%.o.%.@.o.%.+.@.+.%.o.%.%.o.%.%.o.%.%.' %.%.%.o.o.o.o.o.+.%.o.%.o.%.o.%.o.%.o.o.o.o.o.o.o.o.o.%.o.%.%.o.o.%.o.o.o.o.+.o.o.o.o.O.o.+.o.o.o.+.o.o.o. .o.o.o.o.o.o.o.o.o.o.o.o.' o.o.o.o.X.o.X.o.X.X.o.' o.o.o.o.o.o.o.o.o.X.o.X.o.X.o.o.o.' O.F O.O.o...@.{ { 5.w.w.e.w.e.e.e.e.e.e.e.e.e.e.e.e.e.e.e.e.e.e.e.e.e.e.9.e.e.e.e.e.e.e.e.e.e.9.e.e.e.q.e.e.e.e.e.e.e.e.e.e.e.e.e.e.e.e.e.e.e.e.e.e.e.e.e.e.e.e.e.e.e.e.e.e.e.e.e.e.e.e.e.e.e.e.e.e.e.e.q.e.e.e.e.e.e.e.e.e.e.e.w.w.e.w.e.w.e.w.q.e.e.e.e.e.e.e.e.e.e.w.e.e.e.e.e.e.e.e.e.e.e.e.e.e.w.w.w.w.2.} ( X.` H H H X.X.K H X.X.H X.X.H H H X.H H X.H H H H H H H H H H H H X.H H H H H X.H H H H H X.H H H H H H H H H H H H H H H H H V H H X.V H H H H X.H H X.H H H H H H H G H G H H G H H H G H F H H D G H H D H H G G G H B H H B H G H V G G V G V G H H B H G H G H B H H V G G H J H G H J H G H G G H H G G H G G G F G G B G H B G G G G D G H G B H G G G H G G G G B B G G B B H V G B V G G B B B B V B B c B G c B S G B B D J G G G G G B V G c k k J Z D f s R $.w.w.w.w.w.e.w.e.e.e.q.e.e.e.e.w.e.e.e.w.w.e.e.e.e.e.e.e.e.e.e.e.e.e.e.e.e.e.e.e.e.e.e.e.e.e.e.e.e.e.e.e.e.e.e.e.e.e.e.e.e.e.e.e.e.e.e.e.e.e.e.e.e.e.e.e.e.e.e.e.e.e.e.e.e.e.e.e.e.e.e.e.e.e.e.e.e.e.e.e.e.e.e.e.e.e.e.e.e.e.e.e.e.e.e.e.e.e.e.e.e.e.e.e.e.e.e.e.e.e.w.5.%.( n M S S x A A x x c x c c c B c c c c c c S c c c c c c c c c z c z c z c c c c z c c c c x c c c S x c c c x c c c c c c c c c c c c c c x k c x c c x c S k A c c c c c c k x c c x S c c c x x c c x c c x c c x c x x c x x c c x c c c c x c c x x c x x c z c z x x c x x c c x c c x c c l c c c x c x c l c x c x c x c x z x c l c x c x c x c x x C c x k x x x x x c x k x k x S c x k c c x k x k x k A C A c x c z z c c c c x x k x x C q 8 A x x x x c x x A x x x x c c c c x c x c x x c l x x x x x c x A x x x x x x x x x A x x x x x x x x x x x x A x x x x A x x x x x x x A x x x x x x x x x x x x x A x x x x x x x x 8 x x x 6 x 8 x x 8 x 8 x 8 x x 8 A 8 x 8 x x 8 x x x 8 x 8 x x 8 x 8 x 8 x x 8 x x 8 x x 8 x 8 A 8 8 x 8 8 A 8 8 x 8 x 8 x x 8 A x x 8 A 8 x x x x 8 x 8 8 A A 4 8 C 8 A x 8 x 8 x x 8 A x 8 x x 8 x 8 x 8 8 8 x 8 x 8 x x 8 8 8 8 x 8 8 7 0 q 4 g t a s %.$.5.w.w.w.e.e.e.w.e.w.w.w.w.5.4.*.` a g l x 8 8 8 8 x 8 8 8 8 4 7 7 7 4 8 7 4 x j j j j j g g l g l l 6 l 8 x y e F =.5.w.w.e.e.q.q.e.e.e.e.e.e.e.e.e.e.e.e.e.e.e.e.e.e.e.e.e.e.e.e.e.e.e.e.e.e.e.e.e.e.e.e.e.e.e.e.e.e.e.e.e.e.e.e.e.e.e.e.e.e.e.e.e.e.e.e.e.e.e.e.e.e.e.e.e.e.e.e.e.e.e.e.e.e.e.e.e.e.e.e.e.e.e.e.e.e.e.e.e.e.e.e.e.e.e.e.e.e.e.e.e.e.e.e.e.e.e.e.e.e.e.e.e.e.e.e.e.e.e.e.e.e.e.e.e.e.e.e.e.e.e.e.w.e.w.5.&.t > 4 4 7 x 4 8 8 8 4 8 l x 6 l x 6 x 8 8 7 8 0 8 8 8 6 8 6 8 8 8 8 8 8 8 8 x 8 8 x x 6 8 8 8 l 6 8 6 8 x 6 6 8 8 8 8 6 x 8 8 8 8 x 6 6 8 8 8 l 6 8 8 8 ",
"%.%.%.%.%.%.%.%.%.%.%.%.%.%.%.%.%.%.+.%.%.o.%.%.%.%.o.%.%.o.%.o.%.+.%.o.o.%.o.%.%...o.%.o.%.o.o.o.o.o.%.o.o.%.o.o.o.o.o.+.o.o.o.o.%.o.%.o.%.o.%.o.+.o.o.o.+.o.o.o.o.o.+.o.o.o.+.+.o.o.o.o.+.o.O.o.o.O.o.o.O.o.X.o.X.o.o.o.o.X.o.X.o.X.X.' o.o.' o.' o.o.X.o.X.` ' X.o.X.o.X.o.' X.o.' o.o.X.o.X.O.O.o. ...@.2.3.w.w.e.e.e.e.e.w.e.e.e.e.e.e.e.e.e.e.e.e.e.e.e.e.e.e.e.e.e.e.e.e.e.9.e.e.e.e.e.e.q.e.e.e.e.e.e.e.e.e.e.e.q.e.e.e.e.e.e.e.e.e.e.e.e.e.e.e.e.q.e.e.e.e.e.e.e.e.e.e.e.e.e.e.e.e.q.e.e.e.e.e.e.e.e.e.e.e.e.e.e.e.e.q.e.e.q.e.q.e.e.e.e.e.e.e.e.e.e.e.e.e.e.e.e.e.e.e.e.e.e.e.e.e.q.e.q.e.e.e.w.4.[ ) ` H H H H K F X.X.H H H H H K X.H X.H X.X.H X.H H X.H X.X.H X.V H H X.H X.V H H X.H H H H V H H X.V H H X.H H H H H H X.H H H X.H H H H H H H X.H H H H H H V H H H H H H G G H H H G D H H G H H K H G H H G G G H H B H B B H G V B H G H H G G G G G G V G V H B V G B H G H G G G G G G G G J G G G J G G G G G B B B G G G D G G B G G V G B G G G B G G B G B G B H G G G G V B B V B B B H B B V B V B B G B S B B G B B D n B D J D S k B B B B J K D D F F ..=.5.w.e.q.q.e.e.e.e.e.e.e.e.e.q.w.e.e.q.e.e.e.e.e.e.e.e.e.e.e.e.e.e.e.e.e.e.e.e.e.e.e.e.e.e.e.e.e.e.e.e.e.e.e.e.e.e.e.e.e.e.e.e.e.e.e.e.e.e.e.e.e.e.e.e.e.e.e.e.e.e.e.e.e.e.e.e.e.e.e.e.e.e.e.e.e.e.e.e.e.e.e.e.e.e.e.e.e.e.e.e.e.e.e.e.e.e.e.e.e.e.e.e.e.e.e.e.e.e.e.e.w.5.&.( s n G G S J S S S S c c l c c c c c c S c S x c c k c M c c c c c c c c c z c c c c c c c c c c x k S c c c c c c c x c c S x x c k c c c S c c S c S c c c c c c c c x S c A c c k S c c c x c c c x c x x c c x c c c c z c c x c c x x l x c c x c c x c c c x x c c c c c c x x c c l c x x c c x x c l c x c x z l c x z x c x c x c x c l c l c l c k x x C A x x x k x x x A x A x j j x j k x k x x x k x x j x x S x x c x l x x k x x x x x x A x x C x A x C x x x c x x x x x x x x x x x x x x x c x x l x x x x x x A x x x x x x x x A x x x A x x x x x x x x x x x x x x x x x x x x x x A x x x x x x A x x x x x x A x l x l x x l x x x x 8 x x 8 8 x x 8 8 x 8 x 8 A 8 8 A 8 8 8 x x x x 8 x x x 8 x 8 x x 8 8 A x 8 A 8 x 8 x x 8 x x 8 x x x x 8 x x 8 x 8 8 x x 8 x x x x x A 8 x 8 8 8 x 8 8 q 8 x x 8 x x 8 x 8 8 x 8 x x 8 x x q 8 8 8 q 8 x 8 8 x x 8 q 8 8 q 0 7 5 x u a T $.5.w.w.q.w.q.9.e.e.e.e.e.e.e.e.w.w.5.&.o.b h j x 8 q 8 8 8 8 8 8 A A l 6 j 6 j j h t n h v v v v v M h h h g r w i  .=.4.5.w.e.9.9.e.e.e.e.e.e.w.e.e.e.e.e.e.e.e.e.e.e.e.e.e.e.e.e.e.e.e.e.e.e.e.e.e.e.e.e.e.e.e.e.e.e.e.e.e.e.e.e.e.e.e.e.e.e.e.e.e.e.e.e.e.e.e.e.e.e.e.e.e.e.e.e.e.e.e.e.e.e.e.e.e.e.e.e.e.e.e.e.e.e.e.e.e.e.e.e.e.e.e.e.e.e.e.e.e.e.e.e.e.e.e.e.e.e.e.e.e.e.e.e.e.e.e.e.e.e.e.e.e.e.e.e.e.e.e.9.e.e.8.e.e.5.=.a r j 8 7 8 0 7 8 8 8 8 8 6 l 8 8 l 8 8 8 8 7 4 8 8 8 x 8 8 8 6 8 l 8 8 8 6 6 8 8 6 8 6 8 8 8 8 x 8 8 8 8 8 x 6 x 8 8 8 6 8 l 8 8 8 8 8 6 x 8 8 8 6 x 8 ",
"%.%.%.%.%.+.%.%.%.%.+.%.%.o.%.%.%.%.%.%.%.%.%.o.o.%.o.%.%.o.o.%...%.+.@.%.%.+.%.o.%.%.o.%.o.o.%.o.o.+.o.%.o.%.o.%.o.o.o.o.%.o.o.%.o.o.o.%.o.o.o.o.%.o.o.o.%.o.o.o.O.o.+.O.o.+.o.o.o.o.o.+.o.o.o.o.+.o.o.o.o.o.o.X.o.X.o.o.X.o.X.o.o.o.' X.o.o.o.o.X.` o.o.o.o.o.o.` o.` o.' o.X.o.X.o.o.o.o.o.X.O.O. ...@.2.5.w.w.e.e.e.e.e.e.w.e.e.e.e.e.e.e.e.e.e.e.e.e.e.e.e.e.e.e.e.e.e.e.e.e.e.e.e.e.e.e.e.e.e.e.e.e.e.e.e.e.e.e.e.e.e.e.e.e.e.e.e.e.e.e.e.e.e.e.e.e.e.e.e.e.e.e.e.e.e.e.e.e.e.e.e.e.e.e.e.e.e.e.e.e.e.e.e.e.e.e.e.e.e.e.q.e.e.e.e.e.e.e.e.e.e.e.e.e.e.e.e.e.w.e.e.e.e.e.e.e.e.e.e.e.e.e.q.e.e.e.w.w.5.$.) o.` H V H K X.H H H K X.H X.X.H X.H H X.H H X.X.X.H H H V H H X.H H H H H X.H X.H H H H H H H H H H H X.H H V X.X.H H H X.H H H H H H H X.H H H H H H X.H H H H G H D H G H H H G H H H G H H J G H H H G H H H H B B H H H H H H V G G G G G V G H B H G V G G H G G H G G G G H G G G H G G G H G G G H G G G B H G G H G G G B H H G B G B G H B B G F G G G G B H H G G B H G B B B G H B G B B B B B B V B B G G B B B S B G G G S n k G G S G B B D B m f  .@.4.w.w.e.e.e.e.e.e.e.e.e.e.e.e.q.e.e.q.e.e.e.e.e.e.e.e.e.e.e.e.e.e.e.e.e.e.e.e.e.e.e.e.e.e.e.e.e.e.e.e.e.e.e.e.e.e.e.e.e.e.e.e.e.e.e.e.e.e.e.e.e.e.e.e.e.e.e.e.e.e.e.e.e.e.e.e.e.e.e.e.e.e.e.e.e.e.e.e.e.e.e.e.e.e.e.e.e.e.e.e.e.e.e.e.e.e.e.e.e.e.e.e.e.e.e.e.e.e.e.e.e.e.w.w.4.' U m n n n k k k n B B B B c c B c c c x S S S c x c c B c z c c c c c c c c c z c c c c z c c c k c x c c c x S x c c x S c c c c A c c c c c c c c x x c c c c x x c k x c c x c c c x c c c c c x x c c x z c x c x x c x c c c x c l c c c c x c z c c c x x c c x x c x c c c x c c x c c c c c x c c c x c x c x c x c l c l c x c x z x c l c x c x A x x x x c x c c x c x x A x C A A x S S c x k k k x x x C C x q A 9 A x A x c c x c x x x x x x x x c x x x x k A k A c x x A x c S x x x x x x x x x x x x x x x x A x x x A x A x x x x x x x x x x A x x x x x A x x x x A x A x x x x A x x x x x x x x x x x x x x x x x 8 x x x x 8 x l 8 x 8 8 8 x x 8 x x x 8 x x 8 8 x 8 x x A 8 x 8 8 A x 8 8 x 8 A x 8 8 A x 8 8 x x 8 x x 8 A x x 8 x x 8 8 A 8 x x 8 8 x x 8 8 x x x x 8 8 x 8 x A 8 q 8 A 8 4 q 8 x 8 x x 8 8 x 8 x x 8 x 8 x 8 x 8 8 x x 8 8 x 8 8 q 8 x 8 8 8 0 4 4 j n  .=.5.w.w.w.w.w.e.e.e.9.e.9.8.9.9.e.w.w.w.w.4.o.v t k q 0 3 8 4 A x g g g # h v m X.o.=.=.&.4.4.4.4.4.2.4.&.&.o.( b p T =.w.w.w.w.e.q.e.q.q.e.e.e.e.e.e.e.e.e.e.e.e.e.e.e.e.e.e.e.e.e.e.e.e.e.e.e.e.e.e.e.e.e.e.e.e.e.e.e.e.e.e.e.e.e.e.e.e.e.e.e.e.e.e.e.e.e.e.e.e.e.e.e.e.e.e.e.e.e.e.e.e.e.e.e.e.e.e.e.e.e.e.e.e.e.e.e.e.e.e.e.e.e.e.e.e.e.e.e.e.e.e.e.e.e.e.e.e.e.e.e.e.e.e.e.e.e.e.e.e.e.e.e.e.e.e.e.e.e.e.e.e.e.e.e.e.w.w.e.w.4.a , x 4 8 q 0 0 7 q 8 8 8 x 6 x l l 8 6 l 8 8 4 6 8 8 l 8 8 8 x 8 8 x 6 6 8 8 8 6 8 x 8 6 8 8 8 8 8 8 6 6 6 8 8 6 8 8 6 6 x 8 8 6 8 8 8 8 6 x 8 8 8 6 8 ",
"%.+.o.%.%.%.%.o.%.o.%.%.%.%.+.%.o.%.+.%.%.%.o.%.@.+.%.o.%.%.o.%.%.%.o.+...%.%.o.%.o.%.%.' o.%.' o.%.o.%.o.o.o.o.o.+.%.o.o.o.%.o.+.o.o.%.o.+.%.o.o.o.%.o.o.o.%.o.o.+.o.o.+.o.o.o.o.+.+.O.O.o.+.o.o.O. .o.o.X.o.o.o.o.o.o.o.o.o.o.X.o.o.X.o.o.X.o.' o.o.o.X.o.o.` o.o.o.o.o.X.o.' o.' o.X.' X.o.o.+. .....$.5.w.e.q.e.e.e.e.e.9.e.e.e.e.e.e.e.e.e.e.e.e.e.e.e.e.e.e.e.e.e.e.e.e.e.e.e.e.e.e.e.e.e.e.e.e.e.e.9.e.e.e.e.e.e.e.e.e.e.e.e.e.e.e.e.e.e.e.e.e.e.e.e.e.e.e.e.e.e.e.e.e.e.e.e.e.e.e.e.e.e.e.e.e.e.e.e.e.e.e.e.e.e.e.e.e.e.e.e.e.e.e.e.e.e.e.e.e.e.e.e.e.e.e.e.e.e.e.e.e.e.e.e.e.e.e.e.e.e.e.e.e.w.w.w.2.) ' X.H X.H X.H X.H X.X.H H H X.H K H X.H X.K H H V H H X.X.H H H X.V X.H H H H V H H H X.H H X.H H H H H H H H H V H H H H H H H H X.H H H H H H H H H H H H V H H H G H H H D G H G G H G H G H G H G H G H H J H H B H B H B B G G H G V H G G V G H B H G G H G V G G H G V H G G H G G G G H G G G H G G G H G G G G B G V D G B B G G G G H G G G G B G G B G G D B B G B D B G V G B B B V V V B B V B B B B B B B B G G S G G S G G G B J S k B D n m f ( =.5.5.w.w.w.w.e.e.q.e.e.q.e.e.e.e.e.e.e.e.e.e.e.e.e.e.e.e.e.e.e.e.e.e.e.e.e.e.e.e.e.e.e.e.e.e.e.e.e.e.e.e.e.e.e.e.e.e.e.e.e.e.e.e.e.e.e.e.e.e.e.e.e.e.e.e.e.e.e.e.e.e.e.e.e.e.e.e.e.e.e.e.e.e.e.e.e.e.e.e.e.e.e.e.e.e.e.e.e.e.e.e.e.e.e.e.e.e.e.e.e.e.e.e.e.e.e.e.e.e.e.e.e.e.e.w.<.] I P ( m m ( m s a m b m N V z B c c c c S c c c c c c c c c c c c c c z c c c c c z c c c c x c c c c c x c c k S c x S k S k x c c c x c c c c x c k S c c c c c c c S c c c c c x c c c c x c x c c x c c c x c x z c c c x x c l c c c c x x c c x l c c c x c c x c c c x l c c c x c x c l x x c c l l c x z x c l c x c x c l c l c x c x c l c l x x C x k x c z c c c x c x x q A A x x x x x c x x x k x x j x j 4 q 4 4 x C A x x x c c c z c x x c x c A k z x x c x x x x 4 x x x x x c x x x x c l x x c l x x x x x x x x x x x x x x x x x x x A x x x x x x x x x x x x x x x x x x x x x x x x A A x x x A x x x A x x x x l x l x l x x x 8 x x x x 8 A 8 A 8 x x 8 x x 8 x 8 x 8 x 8 A x 8 x 8 A 8 x 8 8 x x 8 x 8 x 8 8 x 8 x x 8 x 8 x x 8 A x 8 x 8 x x 8 x x 8 A 8 x x x 8 x 8 x 8 8 A x 8 A 8 A 8 x 8 A 8 x x 8 x x 8 x x 8 x 8 A 8 x x 8 8 x 8 8 x 8 x x 8 8 A 8 8 8 k h  .=.5.w.w.w.w.w.e.e.9.q.e.e.e.e.e.e.e.e.e.w.w.5.4.%.m t 4 3 8 9 j j j u a b ( &.4.4.5.w.w.w.w.w.w.w.w.e.w.w.w.w.w.5.5.5.5.5.w.w.w.e.e.q.9.e.e.e.e.e.e.e.e.e.e.e.e.e.e.e.e.e.e.e.e.e.e.e.e.e.e.e.e.e.e.e.e.e.e.e.e.e.e.e.e.e.e.e.e.e.e.e.e.e.e.e.e.e.e.e.e.e.e.e.e.e.e.e.e.e.e.e.e.e.e.e.e.e.e.e.e.e.e.e.e.e.e.e.e.e.e.e.e.e.e.e.e.e.e.e.e.e.e.e.e.e.e.e.e.e.e.e.e.e.e.e.e.e.e.e.e.e.e.e.e.e.e.e.e.e.e.e.e.e.e.e.e.e.e.e.9.e.e.e.e.w.w.4.n y 8 8 7 7 7 0 q 4 8 8 8 6 x 8 8 l x l 8 x 8 x x 8 8 8 x 6 6 8 x 8 6 8 x 8 8 6 8 8 6 8 8 6 x 8 8 6 x 8 8 x 8 8 8 6 8 x 8 8 8 8 x 6 8 8 8 8 6 8 6 x x 6 ",
"%.%.%.%.%.%.o.%.%.o.%.%.%.%.o.%.%.%.o.%.%.o.o.%.o.%.%.%.o.o.o.%.%...%.%.o.%.%.+.@.+.@.+.o.o.o.%.o.o.o.o.o.%.o.%.o.o.o.%.o.o.o.o.%.o.%.o.o.o.%.o.o.o.o.%.%.o.o.o.o.+.o.o.+.O.o.+.O.o.o.O.o.o.o.+.o.o.o.O.X.o.o.o.o.o.o.o.X.o.o.o.o.o.o.o.X.o.o.o.o.o.X.o.o.o.o.o.X.o.o.X.o.' o.o.o.` o.X.X.X.o.o.o.....=.5.w.w.w.e.e.9.e.e.9.9.e.9.e.e.e.e.e.e.e.e.e.e.e.e.e.e.9.e.e.e.e.e.e.e.e.e.e.e.e.e.e.e.e.e.e.e.e.e.e.9.e.e.9.e.e.e.e.e.e.e.e.e.e.e.e.9.e.e.e.9.e.9.e.e.e.e.e.e.e.e.e.e.e.e.e.e.e.e.e.e.e.e.e.e.e.e.e.e.e.e.e.e.e.e.e.e.e.e.e.e.e.e.e.e.e.e.e.e.e.e.e.e.e.e.e.e.e.e.e.e.e.e.e.e.e.e.e.e.q.q.e.e.w.w.w.5.' ' ` H H H H H  .X.H K X.X.X.H X.H X.H H H X.X.H H H X.H H H X.H H H H V H H H X.H H H H H H H H H X.H H H X.H H H H X.H H H X.H H H H H H H H H H H H H H H H H G H H H G H G H H H H G H H G H G F H G F G H H B H H B H B B H G H V G G G V G H B H H H B H H G V V G G H V G G G G G H H G G H G G H G G J G B G G B H G B G G B H G B G G B B D B H G G H G H B G G H G G G V G B V B B B G B B B B B V B B B D G B B B G G S G G S B V B k J n D F m ( | 2.w.w.e.w.e.e.e.w.e.e.e.e.e.e.e.e.e.e.e.e.e.e.e.e.e.e.e.e.e.e.e.e.e.e.e.e.e.e.e.e.e.e.e.e.e.e.e.e.e.e.e.e.e.e.e.e.e.e.e.e.e.e.e.e.e.e.e.e.e.e.e.e.e.e.e.e.e.e.e.e.e.e.e.e.e.e.e.e.e.e.e.e.e.e.e.e.e.e.e.e.e.e.e.e.e.e.e.e.e.e.e.e.e.e.e.e.e.e.e.e.e.e.e.e.e.e.e.e.e.e.e.e.e.e.e.e.w.w.5.5.4.4.5.4.4.4.=.@.%.) U s n h k M B k c S c c c c c c c c c z c c c c c c c c z c z c c c c c c x c c c c x c c c c x c c c c x c c c A k c x c c c x c c x c c c c x c c c c c x k c x S c c c c c x c c x c c c x c c x c x c c x c c x x x c x c c x c x c c x c z c l x c c x x x c c c x c c c l x c c x c x c l c l c x c x c x z x c x c l c x c c A x x x x c z z z c l c x x C C x x x x S x c x x c x k k k c x C 9 9 9 x C x x c l x c l c c c c c x c l c z c k x x k x C C A A x c x x x z x x c x x x c l x x x x x x x x x x x A x x x x A x x x x x x A x x x x x x x x x x x x x x x x x x x x x x x x x x A x x x x x x x x x x x x x x 8 x x 8 8 x x 8 8 x 8 8 8 x x 8 x A 8 x 8 x x 8 x 8 x 8 x 8 x x x x x x 8 A x x 8 x x 8 x 8 x 8 8 x 8 8 8 x x 8 8 A x x 8 x 8 x 8 x 8 x x 8 A x 8 x 8 q 8 q x 8 x 8 x x 8 x 8 x 8 8 x 6 6 x 8 x 8 x l x x x 8 x 8 q x 8 A 8 8 x A j k m *.5.w.w.e.w.e.w.e.e.8.6.e.e.e.e.e.e.9.e.e.e.w.w.w.w.@.b g 4 A j g t n o.*.=.5.w.w.e.e.e.e.8.8.8.e.9.8.e.q.e.e.e.8.w.w.w.e.w.w.q.e.e.e.e.e.e.e.e.e.e.w.w.e.e.e.e.e.e.e.e.e.e.e.e.e.e.e.e.e.e.e.e.e.e.e.e.e.e.e.e.e.e.e.e.e.e.e.e.e.e.e.e.e.e.e.e.e.e.e.e.e.e.e.e.e.e.e.e.e.e.e.e.e.e.e.e.e.e.e.e.e.e.e.e.e.e.e.e.e.e.e.e.e.e.e.e.e.e.e.e.e.e.e.e.e.e.e.e.e.e.e.e.e.e.e.e.e.e.e.e.e.e.e.e.e.e.e.e.e.e.e.e.e.e.e.e.e.e.e.e.q.e.e.w.e.e.w.5.m g 8 4 8 7 0 7 8 8 x 6 l 8 8 8 l 8 8 8 8 6 8 x l 8 8 8 8 8 8 8 6 8 8 8 8 8 8 x 8 6 6 x 8 8 8 8 8 8 x 8 6 x 8 8 8 8 8 8 6 x 6 8 8 8 6 6 6 8 8 6 8 6 x 6 ",
"%.o.%.o.%.+.%.%.%.%.+.%.%.o.%.%.+.%.%.%.o.%.%...%.%.o.o.%.@.o.%.+.%.+.%.%.%.o.@.%.o.%.o.' %.%.o.o.%.o.%.o.o.o.o.%.o.o.o.%.+.%.o.o.o.o.o.o.%.o.+.%.o.o.o.o.o.o.%.o.o.+.o.o.o.o.O.o.o.o.+.o.+.+.o.o.o.o.o.o.o.o.X.o.o.o.o.o.o.o.o.' X.o.X.o.o.' X.X.o.' o.X.' X.o.o.o.o.o.o.X.X.o.o.o.o.o.o.o.' o...%.@.4.5.w.e.e.9.e.q.e.e.e.e.e.e.e.e.e.e.e.e.e.e.e.e.e.e.e.e.e.e.e.e.e.e.e.e.e.e.e.e.e.e.e.e.e.w.e.e.w.e.e.e.9.e.9.e.e.e.e.e.9.e.e.9.e.e.e.e.e.e.e.e.e.e.e.e.e.e.q.e.e.e.e.e.e.e.e.e.e.e.e.e.e.e.e.e.e.e.e.e.e.e.e.e.e.e.e.e.e.e.e.e.e.e.e.e.e.e.e.e.e.e.e.e.e.e.e.e.e.e.e.e.e.e.e.e.e.e.e.e.e.9.e.e.q.w.w.5.@.( X.X.K K H X.H H H X.H H H K H X.H H X.H K H X.H X.H H V X.H H H X.H X.X.V H H V X.H H H X.H H H H H H H H H H H H H H H H H H H H X.H H H V X.H H H X.H X.V H H G G H H J H H J F G H G F H G H B G H G H H H H B H B H H H H V G G H H G G H H B B H H H B B H G G H V G G G H G G H J G G G G G G G H G H G G G G H B G G G G G G B G G G G B H G G D B B G G G G B G B B G B B G B V H B V B B M B B B B B D m B D B S B S B S B B B B m m Z d d f T ] 5.w.e.w.e.e.e.e.e.9.e.e.e.e.e.e.e.e.e.e.e.e.e.e.e.e.e.e.e.e.e.e.e.e.e.e.e.e.e.e.e.e.e.e.e.e.e.e.e.e.e.e.e.e.e.e.e.e.e.e.e.e.e.e.e.e.e.e.e.e.e.e.e.e.e.e.e.e.e.e.e.e.e.e.e.e.e.e.e.e.e.e.e.e.e.e.e.e.e.e.e.e.e.e.e.e.e.e.e.e.e.e.e.e.e.e.e.e.e.e.e.e.e.e.e.e.e.e.e.e.e.e.e.e.e.e.e.9.e.8.8.w.w.w.w.w.w.w.w.w.5.4.#.%.( m n V M B c S B c c c c c c z c c c c z c z c c c c c c c c c x c c c c c c c S c c c c c c c c S c c c c c c k S c c k S c x k c c S S k S x c c c c S c c c x c x c c c x l x c x c c x x c x c c x c c x c c c c c x c c x l c x c c x c x c x c c c z c x c x x c x c c x l c l c x c x c l c c z x c x c l c x c l c x x x A x c z c z c c z z x x x C 8 A S x k c k k k h k n B B h n k j k j k k S k k z c c c x x x x x x x c c c x c x c x C x C 9 x x c x x x x x x l x x x x x x x A x x x x x A x x x x x x x x x x x x A x x x x x x x x x A x x x x x A x x x A x A x x x x x A x x x x x x x x l x 6 x x l x 8 x x 8 A x 8 8 x A 8 x x x x 8 x x 8 x 8 x 8 8 x 8 x x x 8 A x 8 x 8 8 x x 8 8 A x 8 x A 8 x 8 A x 8 x x x A 8 x x 8 8 A x 8 x x x 8 8 x 8 x x 8 A 8 8 x x 8 8 C 8 A 8 8 A 8 x 8 x 8 8 x 8 8 x 8 l 6 x 8 8 8 x 8 x 8 8 8 8 8 8 8 k r d *.5.w.w.e.e.e.e.e.e.w.e.9.9.w.e.8.9.9.e.9.9.9.e.q.e.w.5.} d g O h F o.*.4.5.5.w.w.e.q.9.7.9.9.9.9.9.9.9.9.9.9.e.9.w.8.8.e.e.e.e.e.e.q.9.9.9.e.e.9.e.e.e.e.e.e.e.e.e.e.e.e.e.e.e.e.e.e.e.e.e.e.e.e.e.e.e.e.e.e.e.e.e.e.e.e.e.e.e.e.e.e.e.e.e.e.e.e.e.e.e.e.e.e.e.e.e.e.e.e.e.e.e.e.e.e.e.e.e.e.e.e.e.e.e.e.e.e.e.e.e.e.e.e.e.e.e.e.e.e.e.e.e.e.e.e.e.e.e.e.e.e.e.e.e.e.e.e.e.e.e.e.e.e.e.e.e.e.e.e.e.e.e.e.e.e.e.e.e.e.e.e.e.e.9.e.e.w.w.4.B j 8 8 7 q 7 0 8 x l 6 x 8 8 8 8 8 8 8 x 8 8 6 8 8 8 8 8 l 8 8 6 8 8 l 6 x 6 8 x 8 8 8 x 6 8 6 6 8 6 8 8 8 6 6 6 6 x 8 8 8 8 8 6 x 8 x x 8 8 x 8 8 8 8 ",
"%.%.%.%.%.%.%.%.%.%.%.%.%.%.%.%.%.o.%.o.%.o.%.%.o.%.o.%.o.%.%.o.@.+.o.+.o.%.%.o.%.o.%.%.%.o.%.%.o.+.o.o.o.%.o.o.o.o.%.o.o.o.o.%.o.o.%.o.o.o.o.%.o.%.o.%.o.+.%.o.o.O.o.o.o.o.o.o.o.o.o.o.o.o.+.o.o.o.o.o.o.o.o.o.X.o.o.o.o.o.o.X.o.X.o.` o.X.o.o.' o.X.o.X.o.X.' ` X.o.X.o.o.' o.X.o.o.' X.o.X.o...@.4.5.w.w.w.e.e.e.e.e.e.e.e.e.e.e.e.e.e.e.e.e.e.e.e.e.e.e.e.e.e.e.e.e.e.e.e.e.e.e.e.e.e.e.e.e.e.e.e.e.9.w.e.9.9.e.e.9.e.e.e.e.e.9.9.e.e.e.e.e.e.e.e.e.e.e.e.9.e.e.e.e.e.e.e.e.e.e.e.e.e.e.e.e.e.e.e.e.e.e.e.e.e.e.e.e.e.e.e.e.e.q.e.e.e.e.e.e.e.e.e.e.e.e.e.e.e.e.e.e.e.e.e.e.e.e.e.e.e.e.e.9.e.e.e.e.w.w.5.*.( ` X.H X.H X.X.H X.X.H H X.X.H X.K H X.X.H H H H H H V H H H V X.V H H H V X.H H H H H H H H H H H H H H H H H H H H H H V H H H H H H X.H H H X.H H H H H H V H D H G F H H G H H H H H G G H H G G H H H H H H B H H B H H B G G G G H G G V B H H B B H B H G B H G G G G H G G J H G G G G G G G G G G G G B G B D G G G G G G G G B H G H G H G G G G B G B D H G G B H G V G B B G B G B B B M V B B B B B D D B S G B B G B B N N ` ( ( F  .....@.2.w.w.q.e.q.e.e.e.w.9.e.e.e.e.e.e.e.e.e.e.e.e.e.e.e.e.e.e.q.e.e.e.e.e.e.e.e.e.e.e.e.e.e.e.e.e.e.e.e.e.e.e.e.e.e.e.e.e.e.e.e.e.e.e.e.e.e.e.e.e.e.e.e.e.e.e.e.e.e.e.e.e.e.e.e.e.e.e.e.e.e.e.e.e.e.e.e.e.e.e.e.e.e.e.e.e.e.e.e.e.e.e.e.e.e.e.e.e.e.e.e.e.e.e.e.e.e.e.e.e.e.e.e.e.e.e.e.q.9.9.e.w.w.e.w.e.w.e.w.e.e.w.5.5.%. .m n n B B G c c x c z c c c c c c z c z c c l c c c c c c z c c k c c S k c k S c x c x c x S x x c x c c c c c c x S c c c S c c x c c c c x c c c c c c x c c x c x c c c c c x l c c l c x c c l c x x c c x l c c x c x c c x c c x c c c l x c c x x c x c c c c c c c c x z x c x c l c x x x c l c x z x c l c x c l x A x x c x x c x c x c c x j c k k h h h a v m b N m m m ( f m m f s b m n h h k k x x x x A q x x x x x z c c c c c x C C C x x x x x x x x x x x c l x x x x x x x x x x x x x x x x x A x x A x x x x x x x A x x A x x x x A x x x x A x x x x x A A x x x x x x x x x A x x x x x 6 x x x 8 x x 8 8 x A 8 x x x 8 8 A A 8 A 8 x 8 x x x 8 x x 8 A x 8 8 x 8 x 8 8 8 x x 8 x 8 x 8 x x x x x x x 8 8 x x 8 8 x x 8 8 8 A 8 8 x x 8 x 8 8 x 8 x A 8 8 A A 8 x x 8 x x 8 x 8 6 x 8 8 x 8 8 x x x x l 8 x 8 8 8 8 8 x 8 8 8 j k a  .4.5.w.w.e.q.e.q.e.e.w.e.e.w.e.e.e.e.9.9.e.e.e.e.q.w.w.w.4.) b % ) =.5.5.5.w.w.e.9.e.9.9.9.e.8.9.9.e.w.e.e.w.e.w.e.w.w.e.e.e.q.e.e.e.9.9.e.9.e.e.e.w.e.e.e.e.e.e.e.e.e.e.e.e.e.e.e.e.e.e.e.e.e.e.e.e.e.e.e.e.e.e.e.e.e.e.e.e.e.e.e.e.e.e.e.e.e.e.e.e.e.e.e.e.e.e.e.e.e.e.e.e.e.e.e.e.e.e.e.e.e.e.e.e.e.e.e.e.e.e.e.e.e.e.e.e.e.e.e.e.e.e.e.e.e.e.e.e.e.e.e.e.e.e.e.e.e.e.e.e.e.e.e.e.e.e.e.e.e.e.e.e.e.e.e.e.e.e.e.e.e.e.e.e.e.e.e.e.w.w.5.m j j 8 8 8 7 0 8 l 6 x 6 8 8 7 8 8 8 8 8 8 6 x 6 8 8 6 8 8 6 8 8 8 8 8 8 8 x 8 6 8 8 8 x 8 x 6 x 6 8 8 8 8 8 x 8 x 8 6 8 8 8 6 8 8 6 x 6 8 8 8 8 8 8 8 ",
"o.%.+.%.%.%.o.%.+.%.o.%.%.+.%.%.%.%.o.%.' %.o.%.o.@.+.@.%.o.%.%.o.%.%.@.o.%.o.%.o.%.%.o.o.%.' o.%.%.o.%.o.%.o.o.+.%.o.o.%.o.o.o.%.%.o.o.%.o.o.o.o.o.+.o.%.o.o.o.+.o.o.+.o.+.+.o.o.o.o.o.+.+.o.+.X.o.o.O.o.o.o.o.o.o.o.X.o.X.o.o.' o.o.o.' o.X.o.X.o.X.o.o.o.o.o.o.o.o.' o.X.o.X.' o.X.o.o.' o.o.@.&.4.w.w.w.e.e.e.q.9.e.q.e.e.e.e.e.e.e.e.e.w.e.e.e.e.e.e.9.e.e.e.e.e.e.e.e.e.e.e.e.e.e.e.e.e.e.e.w.w.e.e.e.e.e.e.e.9.e.e.9.e.e.9.e.e.9.e.e.e.e.e.e.e.e.e.e.e.e.e.e.e.e.e.e.e.e.e.e.e.e.e.e.e.e.e.e.e.e.e.e.e.e.e.e.e.e.e.e.e.e.e.e.e.e.e.e.e.e.e.e.e.e.e.e.e.e.e.e.e.e.e.e.e.e.e.e.e.e.e.e.e.e.e.9.9.w.e.w.5.&.( ` X.X.H X.H X.X.H H X.H H H X.H X.H H H X.X.H H X.H X.H X.H X.H H H X.H X.H H H H H X.H H V X.H H X.V H H X.H H X.H H H X.H H X.H H H H H H H H H H X.H H H V G H H H H G G H G G H G G H H H B V D H H J H H B H H B H B B H G H V H B G H G H H B H H B H H G H V G G H V G G H G G H G G H G H J H G H G G G H B G G B G G B F B G G D B B G B B G B H G G B H B G G H D B B B H G V B B V B B B B B V V B J D S G G B B B V V N m ( ) ..%.$.=.4.5.w.w.w.q.e.q.e.e.9.9.e.9.9.e.e.e.e.e.e.e.e.e.e.e.e.e.e.e.e.e.e.e.e.e.e.e.e.e.e.e.e.e.e.e.e.e.e.e.e.e.e.e.e.e.e.e.e.e.e.e.e.e.e.e.e.e.e.e.e.e.e.e.e.e.e.e.e.e.e.e.e.e.e.e.e.e.e.e.e.e.e.e.e.e.e.e.e.e.e.e.e.e.e.e.e.e.e.e.e.e.e.e.e.e.e.e.e.e.e.e.e.e.e.e.e.e.e.e.e.e.e.e.e.e.e.e.e.e.e.e.9.9.8.e.e.e.q.e.q.e.q.9.w.w.w.5.4.%.( m V n M c c c c c c c c c c c c c c c c c c c c z c c c c c c x c c x S x c x c c c S k S k c c c c c c x x S c c x c c c x c c c c x c c k c c A k c c c x c c c c x x c c x c c x c c x c c x c x z c x c c c x c x z c x c c x x c c x x c c l c c x c z c x x c x x c x c x c x z x c l c l c x c l c x c x c l c x c c c x x x x x x x x x c x k c v n a a f ( o.%.%.=.=.4.4.4.4.4.4.4.4.&.@.} ( ( m b M k k k x 4 A A x x x x c x x x x k x x x x x x x c x x c x x x x x x x x l c x x x A x x x x A x x x x x x x x x x x A x x x x x x x x x x A x x x x x x x x x x x x x x x x x x A x x x x x 8 l x l x x x x A 8 x 8 x 8 x x 8 x 8 x x 8 8 x 8 x 8 x 8 A 8 x 8 8 x 8 x 8 x 8 A 8 x x x 8 8 x 8 x 8 x 8 8 x 8 8 A 8 x x 8 x 8 x 8 8 x x x 8 x x 8 x x x 8 x x q 8 C 8 8 A 8 8 x 8 x 8 x A 8 x x 8 x x 8 x 6 x x l 8 x x 8 x 8 x q 8 8 8 A 8 l O  .=.4.5.e.e.q.e.q.e.e.e.8.8.8.e.w.8.e.e.9.e.9.9.9.q.9.q.e.e.w.{ 2.5.w.w.w.w.w.w.w.w.e.9.9.9.9.e.w.e.w.e.e.e.q.e.e.e.w.e.w.w.0.e.9.e.q.9.e.e.9.e.9.e.e.e.e.e.e.e.e.e.e.e.e.e.e.e.e.e.e.e.e.e.e.e.e.e.e.e.e.e.e.e.e.e.e.e.e.e.e.e.e.e.e.e.e.e.e.e.e.e.e.e.e.e.e.e.e.e.e.e.e.e.e.e.e.e.e.e.e.e.e.e.e.e.e.e.e.e.e.e.e.e.e.e.e.e.e.e.e.e.e.e.e.e.e.e.e.e.e.e.e.e.e.e.e.e.e.e.e.e.e.e.e.e.e.e.e.e.e.e.e.e.e.e.e.e.e.e.e.e.e.e.e.e.e.q.e.9.e.e.e.w.5. .g l j 6 x 8 8 l x 8 8 8 8 8 8 7 8 8 8 8 8 l 6 x 8 8 8 6 x x 8 x 6 8 8 6 8 6 8 8 8 6 8 6 8 8 8 8 8 8 l 8 8 8 8 8 6 6 x 8 8 6 x 8 6 8 8 8 8 6 8 8 8 l 8 ",
"%.%.%.%.o.%.+.%.%.+.%.o.%.%.%.o.%.o.o.%.o.%.%.o.o.%.%.o.%.%.o.%.%.o.@.o.%.%.o.%.%.%.o.%.%.' %.o.o.o.o.%.o.%.o.o.%.o.o.o.o.o.o.o.o.o.o.%.o.o.%.o.%.o.o.o.o.o.%.o.+.o.O.o.o.+.+.o.O.o.o.+.o.O.o.o.o.o.o. .O.o.X.o.o.o.o.o.o.o.o.o.o.X.o.X.o.o.o.o.o.' X.o.X.o.X.o.o.X.X.o.o.o.o.o.X.o.X.o.o.o.' o.' @.5.w.w.w.e.e.q.e.e.q.e.e.e.e.w.e.e.w.w.6.0.0.w.e.e.e.e.e.e.e.e.9.e.e.e.e.e.e.e.e.e.e.e.e.e.w.w.w.w.w.e.e.e.9.e.e.9.e.q.e.e.q.e.9.e.e.e.e.e.e.e.q.e.e.e.q.e.e.e.e.e.e.e.e.e.q.e.e.e.e.e.w.e.e.e.e.e.e.e.e.e.e.e.e.e.e.e.e.e.e.e.e.e.e.e.e.e.e.e.e.e.e.e.e.e.e.e.e.e.e.e.e.e.e.e.w.e.e.e.e.e.w.e.9.e.w.w.w.4.&.` ` X.H H X.X.X.H H X.H H X.H H X.X.H X.H X.K X.X.H X.H X.H H H X.H H H X.H X.H H H H H X.V H H H V H H H V H H H H H H H H H H V H H X.V H H H H X.V H H V H H H H H H F H G H H D G H K H G H G H G G H D B V G V G G H B H H H B G G V G G H H G G H G G H B H G G H H G G V G H G G G G G G G G J H G G G H G G G G G G G G G G G H G B G G D B H B B H G H G G G G B G B G B B V B V B B B B V B B V B B B k S J G S B B V ` N / ) &.4.w.w.w.w.w.w.e.w.e.e.e.e.e.9.e.e.9.e.e.e.e.e.e.e.e.e.e.e.e.e.e.e.e.e.e.e.e.e.e.e.e.e.e.e.e.e.e.e.e.e.e.e.e.e.e.e.e.e.e.e.e.e.e.e.e.e.e.e.e.e.e.e.e.e.e.e.e.e.e.e.e.e.e.e.e.e.e.e.e.e.e.e.e.e.e.e.e.e.e.e.e.e.e.e.e.e.e.e.e.e.e.e.e.e.e.e.e.e.e.e.e.e.e.e.e.e.e.e.e.e.e.e.e.e.e.e.e.e.e.e.e.e.e.e.e.e.9.9.9.e.e.e.e.q.q.q.9.e.e.w.w.w.4.=.*.+.` b k B z c z c z c c c l c c c c c c c c c z c c c c c k c x c x c S x c c S x c c c x S c c x c c c c S k x c A k c c c c c c c c c x S x k S c c c c x c c x c c c x c x c c l c c x x c c c l c c x x c c x c c c x x c z c l c c x c c c x c c x c l c x z x c x c l c x z x c x c c c x c x c x c x c x c x c c x c x x x A 4 q A 4 4 x S k n v & ( ..=.4.5.5.5.w.w.w.w.w.w.w.w.w.w.w.w.w.w.5.5.4.%.O.m t y u k C x x x x A k x x c x x x x x x x x x x x x c x x c x x c x x x x x x x x x x x A x x x x x x A x x x x x x x x x x x x x x x x x A x x x x x x x x A x A x x A x 8 x 8 A x 8 x 8 x A 8 x 8 x 8 x 8 8 x 8 8 x x 8 x x 8 A x x 8 x x x x x 8 x x 8 x 8 x x 8 A x x 8 x x 8 x 8 x 8 A 8 x 8 x x 8 x x 8 x x 8 A 8 x 8 A 8 x 8 x x 8 8 x 4 q x x 8 x x 8 x x 8 x 8 x 8 A x 8 8 x 6 x 8 8 x 6 x 8 x 8 l l x l 8 8 A 8 A A 8 8 8 x x k i @.5.w.w.e.e.q.q.e.e.e.e.e.w.e.e.e.e.e.e.e.e.9.9.e.e.e.e.e.e.w.e.q.w.e.w.e.w.e.e.e.e.e.e.e.w.e.e.e.e.e.e.e.e.e.e.e.e.e.e.e.e.e.e.e.e.9.e.e.e.e.e.9.w.e.e.e.e.e.e.e.e.e.e.e.e.e.e.e.e.e.e.e.e.e.e.e.e.e.e.e.e.e.e.e.e.e.e.e.e.e.e.e.e.e.e.e.e.e.e.e.e.e.e.e.e.e.e.e.e.e.e.e.e.e.e.e.e.e.e.e.e.e.e.e.e.e.e.e.e.e.e.e.e.e.e.e.e.e.e.e.e.e.e.e.e.e.e.e.e.e.e.e.e.e.e.e.e.e.e.e.e.e.e.e.e.e.e.e.e.e.e.e.e.e.e.e.e.e.e.e.e.e.e.e.e.e.e.e.e.e.e.e.w.5.( h r g z l j x 2 6 8 7 8 8 7 8 7 8 8 8 x l l l 6 8 8 x 6 6 8 8 6 x 8 8 8 8 x 8 8 6 8 8 8 8 x 8 6 6 8 8 8 8 x 6 8 6 x 6 6 8 8 8 8 8 x 6 8 8 8 6 8 x x 6 ",
"+.%.%.+.%.%.%.%.%.%.%.%.+.%.%.%.o.%.%.o.%.o.%.%.o.%...%.%.o.o.%.+.+.+.%.%.o.%.o.o.o.%.%.o.%.o.o.%.o.o.o.o.o.%.+.o.o.o.%.o.%.%.o.o.+.o.o.o.+.%.o.o.o.o.%.o.%.o.o.o.o.o.+.o.o.o.o.o.o.o.+.o.+.o.o.o.O.o.o.o.o.o.o.o.o.X.o.o.o.X.o.o.o.o.` o.` o.X.o.X.o.o.X.' o.o.o.' o.o.` o.X.X.X.o.' o.o.X.' o.} | #.2.5.w.w.e.e.e.e.e.e.w.e.w.w.w.w.3.:.:.,.3.w.w.w.q.e.e.e.e.e.e.9.e.e.9.e.9.q.9.e.e.e.w.8.8.,.1.w.e.w.e.e.8.q.9.q.e.e.e.e.e.e.9.e.e.e.e.e.w.w.e.e.w.e.q.e.w.e.e.e.e.e.e.e.e.e.e.e.e.e.e.e.e.q.e.e.e.e.e.e.e.e.e.e.e.e.e.e.e.e.e.e.e.e.e.e.e.e.q.e.e.q.e.e.e.e.e.q.e.e.e.e.e.e.e.e.e.e.e.e.e.e.e.e.e.w.5.4.%.' ` X.H H X.H X.H X.X.K H X.H X.H K H H X.K X.H V H H H V H X.H H H H X.V H H H H X.H H H H H H H X.H H H X.H H H V X.H H V X.H H H H H H H X.H H H H V H H H H G G F J G G H H H H H G D H G H H H H H H H H B G G H V G H B B B H H G G H H B G V V G B H B H G G V G B G H G G G G H H G G H H G H G G G H J B G G V B G H B B G G B H D G G G G G G G D B B B G G G F G G G B B B B V B V B B B B V B B B B S S S S G J V b U _ @.4.w.w.w.w.e.e.e.e.e.e.e.e.e.e.e.9.9.9.e.9.9.e.q.e.e.e.e.e.q.e.e.e.e.e.e.e.e.e.e.e.e.e.e.e.e.e.e.e.e.e.e.e.e.e.e.e.e.e.e.e.e.e.e.e.e.e.e.e.e.e.e.e.e.e.e.e.e.e.e.e.e.e.e.e.e.e.e.e.e.e.e.e.e.e.e.e.e.e.e.e.e.e.e.e.e.e.e.e.e.e.e.e.e.e.e.e.e.e.e.e.e.e.e.e.e.e.e.e.e.e.e.e.e.e.e.e.e.e.e.e.e.e.e.e.e.e.e.e.9.e.e.e.e.e.e.q.e.9.e.e.e.w.w.5.=.=.*.+.O.m B B c c c c c c c z c c c z c z c z c c c c c c z c A c S c k c c c c c k S c c c c x c c c c c c c x c c c c c c x k x c c k c c c c S x c x S x c z c x c c x c x c c l x c c x c x c x c c x c c c x x c c x c x c c x x c c x c c x c x x c l c c x c x c x z x c x c x c x z x x x z x c l c l z x c l c l x z z c k x x q q q 4 9 k u a a ( *.<.5.5.w.w.w.w.w.e.w.w.e.e.e.w.e.e.e.e.e.w.w.w.w.5.4.*.+. .D u w k S A x x x x A x x x c x x x x x l c x x l x x x x l x x x c l x x A x x x x x x x A x x x x x x x x A A x x x x x A x x x x A x x x x A x x A x x x x x x x x x 8 8 x 4 x 8 x x 8 x 8 x x A 8 x x x x A 8 8 x x 8 x 8 8 x x 8 x 8 8 x x 8 8 x x 8 8 x x 8 8 A A 8 x x x x 8 x 8 x 8 A 8 x A 8 8 x x 8 x 8 A 8 x 8 x x x 8 x x q 8 x 8 8 q A 8 8 x 8 x A 8 x A x 8 8 x 8 x x 8 x 8 8 x 8 6 8 x 8 x x 8 x 8 8 8 8 8 8 8 l l x z f =.w.w.e.e.e.e.q.e.q.e.e.e.e.9.e.e.e.e.e.e.e.e.e.9.e.e.e.e.w.e.e.e.e.e.e.e.e.e.e.e.w.e.w.e.e.e.e.e.e.e.e.e.e.q.e.e.e.e.e.e.e.e.e.e.e.9.9.e.e.8.e.9.e.e.e.e.e.e.e.e.e.e.e.e.e.e.e.e.e.e.e.e.e.e.e.e.e.e.e.e.e.e.e.e.e.e.e.e.e.e.e.e.e.e.e.e.e.e.e.e.e.e.e.e.e.e.e.e.e.e.e.e.e.e.e.e.e.e.e.e.e.e.e.e.e.e.e.e.e.e.e.e.e.e.e.e.e.e.e.e.e.e.e.e.e.e.e.e.e.e.e.e.e.e.e.e.e.e.e.e.e.e.e.e.e.e.e.e.e.e.e.e.e.e.e.e.e.e.e.e.e.e.e.e.e.e.q.e.e.e.e.e.w.5.( a t h h - t r g g r g j j 4 l 4 8 x 8 6 6 6 6 8 8 8 8 8 8 8 x 8 8 8 8 6 8 6 8 6 x 8 8 8 6 6 8 8 x 8 8 8 8 6 8 8 8 8 8 8 6 x 6 8 6 8 8 8 l 8 x 8 6 6 8 ",
"%.o.%.%.%.o.o.%.o.%.o.%.%.o.%.+.%.%.o.%.%.o.%...%.%.o.%.%.o.%.o.+.@.%...o...%.%.%.o.%.o.%.o.o.%.o.%.o.%.o.o.o.o.%.o.%.o.o.o.+.o.%.o.%.%.o.o.o.o.%.o.o.+.+.o.o.o.o.+.o.o.O.o.o.o.+.+.o.o.O.o.+.o.o.o.O.o.O.o.o.o.o.X.o.o.o.X.X.o.X.o.X.o.o.` o.` o.o.o.X.o.X.o.X.o.X.X.o.o.o.o.' o.` o.o.X.o.X.o.&.&.#.| >.>.3.3.w.w.w.w.w.w.w.w.w.3.2.:.;.;.3.2.3.3.w.w.e.e.w.e.w.9.e.9.e.e.e.e.e.e.e.w.w.8.1.,.>.>.5.w.w.e.w.e.e.e.e.e.e.e.e.e.9.e.e.e.e.e.e.w.w.w.w.0.0.w.e.w.e.e.e.e.e.e.e.e.e.e.e.e.e.e.e.e.e.e.e.e.e.e.e.e.e.e.e.e.e.e.e.e.e.e.e.e.e.e.e.e.e.e.e.e.e.e.e.e.e.e.e.e.e.e.e.e.e.e.e.e.e.e.e.e.w.e.e.w.w.5.#.' ` X.H H H H X.H H H H H X.H H X.H X.X.H H X.X.H H H X.V H H H X.X.H X.H H H X.V H H H H H H X.H H H H H H H H H H H H H H H H H H X.H H H H H H H H H V V H H H H G G H H G H G H G H H D H H G H G G H G G V F H G H G H B B H H G H V G V V G G G G H H H B H V G V G H V H G G G J G G H J H G G G G H G G G H B G D B G G B B H B D B G B B B H G G G B G G H G G B G G G B B V V B B B B B B M B B B B B B G S S G G V N / %.$.5.w.w.e.e.e.e.q.q.e.e.e.e.w.w.w.9.w.9.e.9.e.e.e.e.e.e.e.e.e.e.e.e.e.e.e.e.e.e.e.e.e.e.e.e.e.e.e.e.e.e.e.e.e.e.e.e.e.e.e.e.e.e.e.e.e.e.e.e.e.e.e.e.e.e.e.e.e.e.e.e.e.e.e.e.e.e.e.e.e.e.e.e.e.e.e.e.e.e.e.e.e.e.e.e.e.e.e.e.e.e.e.e.e.e.e.e.e.e.e.e.e.e.e.e.e.e.e.e.e.e.e.e.e.e.e.e.e.e.e.e.e.e.e.e.e.e.e.e.e.e.e.e.e.e.e.e.e.e.e.e.e.e.w.5.4.2.&.*.*.%.X.B M M c c z c z c M c c c c c c c z c c c c c z c z c c c c S c c c x c c x c c c c k S c c c S c S S c c c c c c c S x c c A c c c c c c c k x c c c x x c x l c c x c x c x c x c c c x x c l x c c z x c c x c c x c x c c x x c x x c c x c c x l c x z l c l c x c x c l c l c z c l c x c x c x c x c x z x c l z c x q C 9 C C Z u a ( *.4.5.w.w.w.e.w.e.e.e.e.9.e.e.e.9.9.e.e.e.e.e.e.e.w.w.w.w.w.5.4.%.) s u j k k x k x x x A x x c x z z c l x x x x x x l x c x c x x x x x x x x x x x x x x x x x x x A x x x x x A x A x x x A x x x x x A x x x x x x x x x A x A x x 8 x 8 8 x 8 x A 8 x 8 x 8 8 A 8 x 8 x 8 x x 8 x 8 8 x A 8 x x 8 8 x 8 8 x A 8 8 x 8 x 8 x x 8 8 x x 8 8 x 8 x x x 8 8 x 8 8 x A 8 8 x x 8 x x x 8 x 8 x 8 A 8 x 8 A x q 8 8 q 8 x 8 x 8 8 x 8 8 x x 8 x 8 6 x 6 x x 8 8 x 8 8 x x l 8 x 8 8 q x 8 x x l l l = ..5.w.e.9.e.e.9.e.e.e.e.e.e.e.e.e.e.e.e.e.e.e.e.e.e.e.e.e.w.e.w.e.e.e.e.e.e.e.e.e.e.e.e.e.e.w.e.e.e.e.e.e.e.e.e.e.e.e.e.e.e.e.e.e.9.e.e.e.e.e.e.e.w.e.e.e.e.e.e.e.e.e.e.e.e.e.e.e.e.e.e.e.e.e.e.e.e.e.e.e.e.e.e.e.e.e.e.e.e.e.e.e.e.e.e.e.e.e.e.e.e.e.e.e.e.e.e.e.e.e.e.e.e.e.e.e.e.e.e.e.e.e.e.e.e.e.e.e.e.e.e.e.e.e.e.e.e.e.e.e.e.e.e.e.e.e.e.e.e.e.e.e.e.e.e.e.e.e.e.e.e.e.e.e.e.e.e.e.e.e.e.e.e.e.e.e.e.e.e.e.e.e.e.e.e.e.e.e.e.e.9.e.e.q.5.  + i b b s m b m ( N b v h t r g g 4 8 8 7 6 5 8 6 6 8 8 6 8 6 8 6 8 l x 6 8 6 8 8 x 6 6 8 8 8 8 8 6 x x 6 8 8 6 8 8 8 8 x 8 l 8 6 8 8 8 8 6 x 6 x 6 8 ",
"%.%.%.%.%.%.%.%.%.%.%.%.%.%.%.%.%.o.@.o.%.%.%.o.o.%.%.o.%.%.o.@.%.%.+.%.%.%.o.%.%.%.%.o.} o.} o.+.o.o.o.%.o.%.o.+.o.o.o.%.o.o.%.o.o.o.o.%.o.%.o.o.o.%.o.o.%.o.%.o.o.+.o.o.+.O.+.o.o.O.o.o.o.+.o.o.o. .o.o.o.X.o.o.o.X.o.' o.' o.o.' o.o.o.o.o.o.X.o.' o.o.o.' o.o.o.' o.o.X.o.X.o.o.o.X.o.' o.o.} &.&.&.&.:.;.;.0.3.3.3.3.3.2.2.>.#.#.>.2.2.2.2.| 3.3.5.w.w.w.w.e.w.w.w.w.e.e.w.e.w.w.w.5.1.>.#.#.#.2.3.5.w.e.e.e.e.e.e.e.e.e.q.q.e.w.e.w.e.w.w.w.w.3.:.,.0.w.e.w.e.w.e.w.e.e.e.e.e.e.e.e.e.e.e.e.e.e.e.e.e.e.e.e.e.e.e.e.e.e.e.e.e.e.e.e.e.e.e.e.e.e.e.e.e.e.e.e.e.e.e.e.e.e.e.e.e.e.w.e.e.w.e.e.w.w.w.5.4.@.'  .X.H X.X.K H  .X.X.H X.H K X.H H H X.H X.H H X.H X.H H H X.H V H H V H H X.H H H H H X.H H H H H H H X.H H H X.X.H H H X.H H H H H H H X.H H H H H H H H H H H H H H H G H G H G H H G H G H H D K H H H G G B B H G G V H H H G V G G G G H G H G V B B H H B H G G H G G G V G H H G G G G G G H G H G G H G G G G G H G G G G G G H G G H G B G G B G H G G G B G G G B G H G B G B B B V B B V B B V B B B c c S H V s / *.5.w.w.w.q.8.9.e.e.q.q.e.e.e.e.e.e.e.e.9.e.9.9.e.e.e.e.e.e.e.e.e.e.e.e.e.e.e.e.e.e.e.e.e.e.e.e.e.e.e.e.e.e.e.e.e.e.e.e.e.e.e.e.e.e.e.e.e.e.e.e.e.e.e.e.e.e.e.e.e.e.e.e.e.e.e.e.e.e.e.e.e.e.e.e.e.e.e.e.e.e.e.e.e.e.e.e.e.e.e.e.e.e.e.e.e.e.e.e.e.e.e.e.e.e.e.e.e.e.e.e.e.e.e.e.e.e.e.e.e.e.e.e.e.e.e.e.e.e.e.e.e.e.e.e.e.e.e.e.e.q.e.e.e.w.w.2.>.$.@.&.&.*.+.H M B c c c c c c c c z c c c z c c c c c z c c c c c c c c x c c c c c c c c A k c x c c c x k c x c c c x c c c c c S x c c c S x c x c c S c c c x c c x c c c x c x c c x c c x l c c c x c c x x c c x l c c x x c c c x c c x c c z x c x c c c x c x c x c x c l c l c x c x c x c x c x z x c l c l c x c x c x x x x A C C y d m +.4.w.w.w.w.e.e.e.9.9.e.9.9.e.9.e.9.9.e.9.9.9.e.e.e.e.e.e.w.w.w.w.w.5.5.&.( m h h k c c x x A A x x c x c x x l c x x c x x x x x l x x x A x x x x A x x x x x x A x x x x x x x x x x x x x x x x x x x x x x x x x x x x x x x x x x x x x 4 x A 8 x x x x 8 x 8 x x 8 x 8 A 8 x 8 x x x x 8 x 8 x 8 8 x x 8 A x x 8 x A 8 x x x 8 8 x x 8 x 8 A 8 A 8 x 8 x x 8 x 8 x 8 x x 8 8 x 8 x 8 x 8 x 8 A 8 x 8 x 8 q x x 8 x x 8 x x x x 8 x A 8 x x 8 x 8 8 x 8 8 x x 8 x x 6 x 8 8 8 x 8 8 8 8 6 x l l l M &.5.w.w.e.9.9.e.e.e.e.e.e.e.e.e.e.q.e.e.e.e.e.e.e.e.e.e.e.e.w.w.e.9.e.9.e.e.e.e.e.e.e.e.e.e.e.e.e.e.e.e.e.e.e.e.e.e.e.e.e.e.e.e.e.w.e.w.e.e.w.8.e.9.e.e.e.e.e.e.e.e.e.e.e.e.e.e.e.e.e.e.e.e.e.e.e.e.e.e.e.e.e.e.e.e.e.e.e.e.e.e.e.e.e.e.e.e.e.e.e.e.e.e.e.e.e.e.e.e.e.e.e.e.e.e.e.e.e.e.e.e.e.e.e.e.e.e.e.e.e.e.e.e.e.e.e.e.e.e.e.e.e.e.e.e.e.e.e.e.e.e.e.e.e.e.e.e.e.e.e.e.e.e.e.e.e.e.e.e.e.e.e.e.e.e.e.e.e.e.e.e.e.e.e.e.e.e.e.e.e.e.e.e.e.w.@.@.*.=.5.5.4.5.4.5.4.4.4.*.o.H n k > 2 9 q 7 7 8 8 6 6 8 x 8 6 8 8 8 8 8 8 6 x x 8 6 8 x 8 8 6 x 8 8 6 6 8 8 6 8 8 6 x 8 8 8 8 8 8 6 x 8 8 8 6 8 8 8 8 ",
"+.%.o.%.%.%.%.o.%.%.%.%.%.%.%.%...o.%.o.%.o.%.%.o.%.o.%.o.o.%.o.+.%...+.o.%.%.o.o.%.%.o.%.' %.%.%.o.%.o.o.%.o.o.%.o.o.o.%.o.%.o.o.o.%.o.o.%.o.+.%.o.o.o.o.o.o.o.+.o.o.o.+.o.o.o.o.o.o.+.o.o.+.o.o.o.o.o.o.o.X.o.o.X.o.o.' X.o.X.X.o.X.o.X.' X.o.X.o.' o.o.o.' o.` o.` o.o.o.o.o.` o.o.o.o.o.o.o.' &.&.*.&.2.2.:.>.>.:.&.| #.2.| &.&.&.&.&.&.&.@.| 2.2.2.5.5.w.5.w.w.w.0.w.w.w.w.w.5.1.3.2.$.2.#.=.=.&.<.2.5.5.w.w.w.w.e.e.w.e.w.w.e.w.e.w.w.5.5.5.3.>.2.3.3.5.w.e.w.w.e.e.e.e.e.e.q.e.e.e.e.e.e.e.e.e.e.e.e.e.e.e.e.e.e.e.e.e.e.e.e.e.e.e.e.e.e.e.e.e.e.e.e.e.e.q.e.e.e.q.e.e.e.e.e.e.e.e.e.e.e.w.w.w.4.3.&.#.o.` X.H H X.K H X.H X.X.H H X.X.H X.H H X.H K X.H H H H H H X.H X.H H H H X.X.V H H H H H H H H H X.H H H H H H H H H H H H H H X.H H H H H H H H H X.H H H V X.H G H H G H F G H F G H H H H G H G H H G H H F V H G V G B H H B H B B H H H H B H B H H G V G G G H B H H B H G G G J G G G G G B H D G G H G G G B G G D B G G B G G B G B H B G G B H G B H B H B B D G D B H B H B G B V B B B V B B B B B B c S G V m ) @.w.w.w.e.e.e.9.9.9.e.q.e.e.e.e.e.e.e.e.e.e.e.e.e.9.q.e.e.e.e.e.e.e.e.e.e.e.e.e.e.e.e.e.e.e.e.e.e.e.e.e.e.e.e.e.e.e.e.e.e.e.e.e.e.e.e.e.e.e.e.e.e.e.e.e.e.e.e.e.e.e.e.e.e.e.e.e.e.e.e.e.e.e.e.e.e.e.e.e.e.e.e.e.e.e.e.e.e.e.e.e.e.e.e.e.e.e.e.e.e.e.e.e.e.e.e.e.e.e.e.e.e.e.e.e.e.e.e.e.e.e.e.e.e.e.e.e.e.e.e.e.e.e.e.e.w.e.w.e.e.w.e.w.e.w.w.2.2.@.2.$.*.&.%.+.H M M c c c M c c c c c c z c c c c z c c c c c c c c c c c x k S c c x c c c c c c S c c c c c c c x c c c k S c S c c c c c x k c x c c c c S c c x c c c c c x c c z x c x c z c c x c c c c c x c l c c c x x c c c l c x c c c c c x c c z x c x c l c l c l c x z x c x c x c x c l c l c l c x z x c c x c x x x x j C S k t i  .=.5.w.w.w.e.9.9.e.9.9.e.9.e.e.9.e.9.e.9.e.e.e.e.9.e.e.e.e.e.e.e.e.w.w.w.e.w.4.*.( a v n S S A A 8 x x c x c c x x x c x x l c x x x x x x c x x A x x x x x A x x x x x x x x x x A A x x x x x x x x x x x x x x x x x x x A x x x x x x x 8 A A 8 x x x 8 8 x 8 x 8 x 8 x x 8 x 8 x 8 A 8 8 x x x 8 x 8 x 8 x x 8 8 x x 8 8 x x 8 8 x 8 x x 8 x x x 8 x x A 8 x x x A 8 x A 8 x x x 8 8 x x x 8 x 8 x 8 x A 8 x 8 8 8 A 8 8 x x 8 x 8 x x 8 x 8 x 8 x 8 x 8 x 8 x 6 x x 8 x 8 x 8 8 q 8 8 8 8 x x l l z M 4.w.w.w.9.e.e.e.e.e.e.e.e.e.e.e.e.e.e.e.e.e.e.e.e.e.e.e.e.e.w.e.e.9.e.e.e.e.e.e.e.e.e.e.e.e.e.e.e.9.w.9.e.9.w.9.9.e.9.e.e.e.8.9.e.w.e.e.w.e.e.e.e.e.e.e.e.9.e.9.e.e.e.e.e.e.e.e.e.e.e.e.e.e.e.e.e.e.e.e.e.e.e.e.e.e.e.e.e.e.e.e.e.e.e.e.e.e.e.e.e.e.e.e.e.e.e.e.e.e.e.e.e.e.e.e.e.e.e.e.e.e.e.e.e.e.e.e.e.e.e.e.e.e.e.e.e.e.e.e.e.e.e.e.e.e.e.e.e.e.e.e.e.e.e.e.e.e.e.e.e.e.e.e.e.e.e.e.e.e.e.e.e.e.e.e.e.e.e.e.e.e.e.e.e.e.e.e.e.e.e.e.9.e.e.w.5.4.4.5.w.w.w.w.w.w.e.e.w.w.5.4.%.+.n g , 4 3 9 8 6 6 6 8 8 8 8 x 8 8 6 8 8 8 8 6 8 8 8 8 8 6 x 6 8 8 8 8 8 8 x x 6 6 8 6 8 8 8 8 x x 6 8 8 8 8 8 8 8 6 ",
"%.%.%.%.+.%.%.%.o.%.%.+.%.o.%.+.%.%.%.%.o.%.%.o.%.o.@.%.%.%.%.%.%.+.%.%.%.o.@.%.%.o.o.%.o.%.o.o.o.o.o.o.o.o.o.%.o.o.o.%.o.o.o.o.%.+.o.o.o.o.%.o.o.o.o.%.%.o.%.o.O.o.o.+.o.o.+.o.+.+.o.o.+.o.+.o.o.o.O.o.o.o.o.o.o.o.o.o.o.o.o.o.o.' o.o.o.o.o.o.o.o.o.X.X.X.o.X.o.o.X.o.X.o.` o.o.o.X.o.o.` X.' o.&.&.&.&.&.&.&.#.2.#.&.&.&.&.&.&.&.*.&.&.&.&.&.2.&.2.2.2.3.3.2.4.<.4.5.5.4.5.5.2.2.#.#.&.#.=.=.$.$.@.$.$.2.2.3.w.w.w.w.w.w.w.w.e.w.w.5.5.5.4.4.&.{ @.2.2.{ <.5.w.w.w.e.e.e.e.e.e.e.e.e.e.e.e.e.e.e.e.e.e.e.e.e.e.e.e.e.e.e.e.e.e.e.e.e.e.e.e.e.e.e.e.e.e.e.e.e.e.e.e.e.e.e.e.e.e.e.e.e.e.e.e.w.w.w.5.2.=.#.@.o.X.H H K H H X.H H H H X.K H H H K X.X.H X.H H H H X.V X.H V H H X.H X.V H H X.H V X.H H H X.H H H H H H H H H H H H X.H H H H H H H X.H H H X.H H H V H H H V H H G G F H J H G G H G G G H H G H G G H D G G B B H G H H B B H B H H B G B B H H B B H G G H V H B V G H B B H G H H G G H H J G G B G D B G G G G G B B H G G G H G G G G G G G G B G G B G G G G G H B H G B B V B V B B B V B B B B V B B V B H V a ( &.5.w.w.e.9.e.e.e.e.e.e.e.e.e.e.e.9.e.e.9.e.e.9.e.e.e.e.e.e.e.e.e.e.e.e.e.e.e.e.e.e.e.e.e.e.e.e.e.e.e.e.e.e.e.e.e.e.e.e.e.e.e.e.e.e.e.e.e.e.e.e.e.e.e.e.e.e.e.e.e.e.e.e.e.e.e.e.e.e.e.e.e.e.e.e.e.e.e.e.e.e.e.e.e.e.e.e.e.e.e.e.e.e.e.e.e.e.e.e.e.e.e.e.e.e.e.e.e.e.e.e.e.e.e.e.e.e.e.e.e.e.e.e.e.e.e.e.e.e.e.e.e.e.e.e.q.e.e.e.w.e.w.w.w.w.1.2.&.4.&.2.>.#.=.*.+.X.M M c c M M c B c c z c c c c c z c c z c z c c c x c x c c c c x k c c c x c c c x S c x c A k c c c x c x c c x c x c c c c S c c c c x c x c c c x l c x x c c x c c x c x x c c c l x c x x c c x x c x c c c x c c x c x l c x x c c x c c x c l c x c x c x c x c x z x c l z x c x c x c x c x c x x c x c A C C x k h a s %.4.5.w.w.9.e.e.e.e.e.e.e.e.e.e.e.e.e.e.e.e.e.e.e.e.e.e.e.e.e.e.e.e.e.q.e.9.q.e.w.w.4.@.f a k S x A A x x x l z l x l c x x x x l x x x x x x l x x x x x x x A x x x x x x A x x x x x x x x x x A x x x x A x A x x x x A x x x x x x x x x x x 8 8 x x 8 8 x x 8 x x x 8 x 8 8 x x 8 8 A 8 x A 8 8 A x 8 x x x A 8 x A 8 8 x A 8 8 x x 8 x x 8 x A 8 8 x x 8 8 x 8 8 x 8 x 8 8 x 8 x 8 x x 8 8 x A 8 A 8 x 8 8 9 8 x C 8 q x x 8 8 x x 8 x x 8 x A 8 x 8 x 8 8 8 x 8 x 8 8 x x 8 8 8 8 8 8 q 8 x l x z z c N 5.w.w.w.e.e.e.e.e.e.e.e.e.e.q.e.e.e.e.e.w.e.e.e.e.e.q.e.e.e.e.e.e.w.e.e.e.e.e.e.e.e.e.e.e.e.q.e.e.e.e.e.e.e.e.e.e.w.e.e.e.e.e.e.e.e.e.e.e.e.e.e.e.e.e.e.e.e.e.e.e.e.e.e.e.e.e.e.e.e.e.e.e.e.e.e.e.e.e.e.e.e.e.e.e.e.e.e.e.e.e.e.e.e.e.e.e.e.e.e.e.e.e.e.e.e.e.e.e.e.e.e.e.e.e.e.e.e.e.e.e.e.e.e.e.e.e.e.e.e.e.e.e.e.e.e.e.e.e.e.e.e.e.e.e.e.e.e.e.e.e.e.e.e.e.e.e.e.e.e.e.e.e.e.e.e.e.e.e.e.e.e.e.e.e.e.e.e.e.e.e.e.e.e.e.e.e.e.q.e.e.e.e.e.q.e.w.w.w.w.e.e.w.9.q.q.q.q.e.e.w.w.5.4.$.+.F k > , x 6 8 8 8 8 x 8 6 8 6 x l 8 8 8 8 8 8 l 6 x 8 8 6 8 6 x l 8 6 8 8 8 x 8 8 8 8 8 8 6 6 8 8 8 8 6 x 8 6 x ",
"%.%.+.%.o.%.%.%.%.%.%.o.%.+.%.%.%...o.%...%.%.o.o.%.%.o.o.%.o.@.o.@.%...o.%.%.o.o.%.@.o.%.o.o.%.+.o.%.o.%.o.o.+.%.o.%.o.o.o.o.%.o.o.o.%.o.o.o.o.o.%.o.+.o.o.+.o.+.o.o.+.o.O.o.+.O.o.o.O.o.+.O.o.o.o.X.o.X.o.o.o.o.o.X.o.o.X.o.o.o.X.X.o.o.o.X.o.X.o.X.o.o.' o.o.X.o.o.o.o.' X.o.o.o.' X.o.o.o.o.%.*.*.=.&.&.&.&.&.&.&.&.*.&.&.*.*.*.&.&.*.&.&.&.&.&.2.2.2.>.>.2.#.=.#.2.$.2.#.2.2.$.&.@.&.*.*.*.%.*.$.=.&.2.#.>.3.3.3.3.w.3.5.5.5.5.1.1.4.&.&.@.@.*.@.&.2.2.2.>.1.8.8.w.e.e.e.e.q.e.e.q.e.q.e.q.e.e.e.e.e.e.e.e.e.e.e.e.e.e.e.e.e.e.e.e.e.e.e.e.e.e.e.e.e.e.e.e.e.e.q.e.e.e.e.e.e.e.e.e.e.w.q.w.5.2.2.2.$.=.%.` ` H K H X.H X. .X.X.H H X.H H X.H H X.H V H H H X.H H H H X.H H H H H X.H H H H H H H H H H H H H H X.H H X.H H H H H H H X.H H H H H H H H V H H H H H H V H H J H H G H H H H H H H H G F H G G H H G H B H B H G G V H H H H H H H H H H H H B H G H H G B H H G G H B H G G G H H G G H H G G G B G B H G G G G G G G G B H G B H B G G G G G F G G D H B G G B G B B G G G G B B V B M B B B V V B B B B B B m m ( #.5.w.w.e.e.9.q.e.e.e.e.e.w.e.e.9.e.e.e.e.e.e.e.e.e.e.e.e.e.e.e.e.e.e.e.e.e.q.e.e.e.e.e.e.e.e.e.e.e.e.e.e.e.e.e.e.e.e.e.e.e.e.e.e.e.e.e.e.e.e.e.e.e.e.e.e.e.e.e.e.e.e.e.e.e.e.e.e.e.e.e.e.e.e.e.e.e.e.e.e.e.e.e.e.e.e.e.e.e.e.e.e.e.e.e.e.e.e.e.e.e.e.e.e.e.e.e.e.e.e.e.e.e.e.e.e.e.e.e.e.e.e.e.e.e.e.e.e.e.e.e.q.e.e.q.q.e.q.w.w.w.w.w.w.3.<.>.$.2.&.=.&.2.&.=.*.+.X.B M c M c c B M M c c c c c c c c c c c c c c c z c S c c c c c c S c x c c c x S c k c c c x c c c S k S c c c c S x c x c c c c c k c c A k x c c c c c c x c x x c c x c c c c x c x c c c c z c c c c c c c x x c c x c c c c c x c l x c c x x c x c x c x c x c l c x c x c x c l c x z l c l c l c c x x x A 9 C S h a ( %.w.w.w.e.e.9.e.9.q.e.e.e.e.e.e.e.e.e.e.e.e.e.e.w.e.e.e.e.e.e.e.e.q.q.e.e.e.e.e.e.e.e.w.w.*. .h y j 9 x 8 x x x x c x x x l x x x x x c x x x x x x x x x A x x x A x x A x x x x A x x x x x x A x x x x x x x x x x x x x x x x x x A x x x x x 8 8 x 4 8 8 x 8 8 8 x 8 x 8 x x x A 8 x x x 8 x 8 x x 8 x 8 x 8 8 x x 8 8 x x 8 8 x x 8 x 8 A 8 x x 8 x A 8 8 x x 8 8 x A 8 x 8 x 8 8 x x 8 x x x 8 8 x 8 x x 8 8 A 4 q A 8 8 x 8 x x 8 x x x x x 8 x x 8 8 8 x x 6 x 8 8 8 x 8 8 8 8 8 x 8 8 8 x 8 x c l z z V 5.w.e.q.e.e.e.w.e.e.e.e.e.e.e.e.e.9.e.e.e.e.9.e.e.e.e.e.e.e.e.e.e.e.e.e.e.e.e.e.e.e.e.e.e.e.e.e.e.e.e.e.e.e.e.e.e.e.e.e.e.e.e.e.e.e.e.e.e.e.e.e.e.e.e.e.e.e.e.e.e.e.e.e.e.e.e.e.e.e.e.e.e.e.e.e.e.e.e.e.e.e.e.e.e.e.e.e.e.e.e.e.e.e.e.e.e.e.e.e.e.e.e.e.e.e.e.e.e.e.e.e.e.e.e.e.e.e.e.e.e.e.e.e.e.e.e.e.e.e.e.e.e.e.e.e.e.e.e.e.e.e.e.e.e.e.e.e.e.e.e.e.e.e.e.e.e.e.e.e.e.e.e.e.e.e.e.e.e.e.e.e.e.e.e.e.e.e.e.e.e.e.e.e.e.e.e.e.e.e.w.e.9.e.e.9.8.w.w.w.e.e.9.9.9.8.8.9.e.9.e.e.w.w.w.5.4.} b & l 6 8 8 x 8 x 8 x 8 8 8 8 8 8 6 6 8 8 8 8 8 x 8 8 6 8 6 8 8 8 8 8 x 6 8 x 8 6 6 8 x 6 8 x 6 8 x 6 8 8 8 ",
"%.o.%.%.%.%.%.+.+.%.%.%.%.%.%.%.o.%.%.o.%.o.%.%.o.%.%.o.%.%.o.+.%.o.%.%.o.%.%.o.%.%.o.%.o.o.} o.o.%.o.o.o.o.%.o.o.+.o.o.o.%.+.o.%.o.o.o.%.o.%.o.o.o.%.o.o.%.+.o.o.o.O.o.o.+.o.o.o.o.o.+.o.o.o.o.o.o.o.o.o.o.o.X.o.o.X.o.o.` o.` o.o.' o.X.o.` o.' o.o.o.X.o.o.X.o.o.` o.X.o.o.' o.X.o.X.o.` o.o.' %.%.*.*.&.&.&.&.&.&.&.&.&.&.&.&.*.%.&.*.=.&.*.&.&.&.&.2.2.2.| =.#.=.$.&.&.2.&.&.&.&.=.=.=.*.%.%.%.*.*.&.=.<.4.| >.>.>.>.>.>.>.>.>.#.$.#.#.=.&.&.&.2.&.*.&.=.#.>.<.5.w.w.w.e.w.e.e.e.w.e.e.e.e.q.w.e.e.e.e.e.e.e.e.e.e.e.e.e.e.e.e.e.e.e.e.e.e.e.e.e.e.e.e.e.e.e.q.w.e.e.e.q.w.w.e.w.e.e.w.w.3.>.2.$.2.&.=.o.m X.H H H H K  .H K H X.H H X.X.H X.H H X.H X.H X.V H H X.H H X.V X.H H H X.V X.H H H H X.H H V X.H H H H H H H V X.H H H H H H V X.H H H X.H H H H H V V H H H H H G H H G H G G H G H J H H G H F H G H H H G V B G H G B H B B H B B H B B H B H H B G G V H G G V G G H G H H G G G G G G G G B G H G G B G G H B F B G G B G G G B D H B G B G B G G B G H G G G G G G H B G G V B B B V B M B B B B B V B B H m f %.4.5.w.e.9.9.9.e.e.e.e.w.w.8.e.e.e.e.e.e.q.e.e.e.e.e.e.w.e.w.e.e.e.e.e.e.e.e.e.e.e.e.e.e.e.e.e.e.e.e.e.e.e.e.e.e.e.e.e.e.e.e.e.e.e.e.e.e.e.e.e.e.e.e.e.e.e.e.e.e.e.e.e.e.e.e.e.e.e.e.e.e.e.e.e.e.e.e.e.e.e.e.e.e.e.e.e.e.e.e.e.e.e.e.e.e.e.e.e.e.e.e.e.e.e.e.e.e.e.e.e.e.e.e.e.e.e.e.e.e.e.e.e.e.e.e.e.e.e.e.e.w.w.w.w.q.w.w.0.w.5.1.3.>.<.>.>.2.&.2.&.&.>.2.&.&.=.%.X.M c B c c M c c c c c c c c z c c c z c c c x c c c x S k S x c c c x c c c A k c c x c c c c x c c x c c c c x c c c S k c x c S x S c c c c c c x c x x z c l c c c x c x c x l c x c c x x c x x c x x c l x z c x c c x c x x z c c x c c x c c x z x c l z x c l c x c l c l c x c x c x c x c x c x k x x A q 4 j B v s } w.w.w.q.e.q.9.9.9.e.w.e.e.e.e.e.e.e.e.e.e.w.e.w.e.e.e.e.e.e.e.e.e.e.e.e.e.e.e.9.e.e.e.w.w.5.=. .d k C j x j x x x x x x x x x c x x x x x x x x x x x A x x 8 x x 8 x x 8 A x 8 x x x x x x x x x x x x A x x x x x x x A x x x x x x x x x x x 8 x x 8 x x x 4 A x x 8 A 8 A 8 x x 8 x 8 x 8 x 8 x 8 8 x 8 x 8 A x 8 x 8 A 8 x x x 8 x x 8 A 8 x 8 8 x 8 8 x x 8 x x x x 8 x 8 x x 8 x x 8 A 8 A 8 x 8 x x x 8 x 8 9 q x 8 8 A 8 x x 8 x x 8 x 8 8 x x 8 x x x 8 8 x 8 x 8 x l 8 8 x 8 x 8 q q 8 8 8 8 x l z z V 5.e.w.w.e.e.e.e.e.e.e.e.e.e.q.e.e.e.e.9.e.e.e.e.e.e.e.e.e.e.e.e.e.e.e.e.e.e.e.9.e.e.e.e.9.e.e.e.e.e.e.e.e.e.e.e.e.e.e.e.e.e.e.e.e.e.e.e.q.e.e.q.e.e.e.e.e.e.e.e.e.e.e.e.e.e.e.e.e.e.e.e.e.e.e.e.e.e.e.e.e.e.e.e.e.e.e.e.e.e.e.e.e.e.e.e.e.e.e.e.e.e.e.e.e.e.e.e.e.e.e.e.e.e.e.e.e.e.e.e.e.e.e.e.e.e.e.e.e.e.e.e.e.e.e.e.e.e.e.e.e.e.e.e.e.e.e.e.e.e.e.e.e.e.e.e.e.e.e.e.e.e.e.e.e.e.e.e.e.e.e.q.e.e.e.e.e.e.e.e.e.e.e.e.e.e.e.e.e.e.e.e.9.e.e.9.w.w.e.e.9.q.e.9.9.8.8.9.9.9.9.9.e.e.q.w.w.w.2.) v l x x x 8 8 8 6 8 8 8 8 6 x 8 x 6 8 8 6 8 6 8 8 x 8 8 8 8 x 6 8 6 8 8 6 8 8 x 6 8 8 8 6 8 8 8 6 8 8 8 ",
"%.o.%.%.o.%.%.%.%.%.%.o.%.%.+.%.o.%.o.' %.%.%.o.%.%.@.o.%.%.o.%.%.o.%.%.%.o.%.%.o.%.' %.o.%.' %.+.o.%.o.%.o.o.o.%.o.%.o.o.%.o.o.o.o.o.o.o.o.o.+.o.o.o.o.+.o.o.%.o.o.o.o.o.+.o.o.o.o.o.+.+.O.o.o.o.o.o.o.o.o.o.o.o.o.o.X.' o.o.o.o.o.X.' X.o.' X.o.o.o.' o.o.X.' o.' o.' o.o.X.o.o.' X.o.X.o.o.X.o.o.%.*.*.&.&.&.&.| &.:.&.&.&.&.&.&.&.=.=.=.*.&.&.&.&.=.=.&.&.&.&.&.&.&.2.&.&.&.&.| 2.&.&.&.&.&.&.*.&.*.&.&.&.&.&.&.&.&.&.&.&.&.$.&.&.&.=.&.=.&.&.*.&.=.&.&.&.&.#.#.:.:.2.5.w.w.w.w.e.w.w.w.0.w.:.0.w.e.e.e.e.e.e.9.e.e.e.e.e.e.e.e.e.e.e.9.9.e.e.e.e.e.e.e.w.w.w.w.w.w.w.w.w.w.w.w.w.3.3.3.3.>.#.&.&.&.=.%.X.` ` X.X.H X.H K  .H X.H H X.H H H H X.X.K H X.X.H H H X.H H H H X.X.H H V H X.H H H H X.V H H X.H H H H H H H X.V H H H H H H H H H H H X.H H H H H H H H G H H G H G H F H H G H G G H G G H G H H G H H G G G H G G H G G H V G H H B H G H G G G H B H G G H G G H V G H V G H G H G G H G G G G G G G B H G G G G G D G B G D V G B G G B F G G B G G B F G G B G B V B B V B H B H B B B V B B V B B V B B V V b o.<.5.w.e.8.9.e.e.9.e.e.8.e.9.9.e.9.e.e.e.e.e.e.e.e.e.w.w.w.w.0.0.8.w.w.e.w.e.e.e.e.e.e.e.e.e.9.e.e.9.e.e.e.e.e.e.e.e.w.e.e.e.e.e.e.e.e.e.e.e.e.e.e.e.e.e.e.q.e.e.q.e.e.9.e.e.e.e.e.e.e.9.e.e.e.e.e.e.e.e.e.e.e.q.e.e.e.e.e.e.9.e.e.9.e.e.e.q.e.e.e.e.e.e.e.e.e.e.e.e.e.e.e.e.e.e.e.e.e.e.e.e.9.9.9.e.e.e.e.e.e.e.w.w.3.{ { :.:.2.2.2.2.2.&.&.&.2.4.&.&.&.&.4.2.=.=.*.+.H k c c c z c c M c c c c c c z c c c c c c c c c c c x S c c c c c x c c c k A c c k S c c c x c S x S S c c c c c x k S x S c c c x c c c c c x c x c c x c c x c c x c c x c c c c c l c x c c x c c z x c c x c x c c x c c c x c c l c c x c c l c l c x c l c l c l c x c x c x c l c l c l c x x x c x A x x 8 4 k n i @.w.w.e.e.e.q.e.e.e.q.e.w.e.e.e.e.e.e.e.e.e.e.e.e.e.e.e.e.e.e.e.e.e.e.e.e.e.e.e.e.e.e.e.e.e.e.w.w.5.$.i u k S x x 8 x 8 x A 8 x x x x x C 4 8 C 8 x x x q x x x 8 x 8 x x x 8 x 8 x x x x x x c x c l x x x x 8 C 8 x x x x x x x x A x x x 8 x x x l x 8 x 8 x 8 x 8 x x 8 x 8 x 8 A 8 x x 8 x 8 x 8 x 8 8 x x x 8 x x 8 x 8 x 8 x x x 8 x x 8 A 8 A 8 8 x 8 8 x x 8 x x x x 8 x 8 x 8 x x 8 x 8 x 8 A x 8 x A x 8 x 8 A 8 A 8 x x 8 x 8 x 8 x x x x x 8 8 x l x l x x 8 8 x 8 x j x x 8 x 8 8 8 8 8 q 3 7 x x l z N 5.w.w.e.9.e.e.e.e.e.e.e.e.e.9.e.e.e.q.e.e.e.e.e.e.e.e.e.e.e.e.e.w.e.e.e.e.e.e.e.e.e.e.e.e.e.w.e.e.e.e.e.e.q.e.e.e.e.e.e.e.e.e.e.e.e.e.e.e.e.e.e.e.e.e.e.e.e.e.e.e.e.e.e.9.e.e.e.e.e.e.e.e.e.9.e.e.9.e.e.e.e.e.e.e.q.e.e.e.q.e.e.e.e.e.e.e.e.e.e.e.e.e.e.e.e.e.e.e.e.e.e.e.e.e.e.e.e.e.e.e.e.e.e.e.e.e.e.e.e.e.e.e.e.e.e.e.e.e.e.e.e.e.e.9.e.e.e.e.e.e.9.e.e.9.9.e.e.e.e.e.e.e.e.e.e.e.e.e.e.e.e.e.e.e.e.e.9.e.9.e.9.e.e.e.e.e.e.e.e.e.e.e.e.e.e.e.e.e.e.e.9.e.9.e.9.e.9.e.9.e.e.9.e.e.w.w.w.w.w.' v t j g 4 3 5 0 8 8 8 8 8 8 8 8 8 8 8 x 8 8 6 8 8 8 8 x 8 8 8 8 8 6 x 8 6 8 6 8 8 6 x 8 6 6 8 8 x x 6 ",
"%.%.+.%.%.%.%.+.%.o.%.%.%.%.%.%.%.%.%.%.%.o.o.%.%.o.%.o.o.%.%...o.%.%.o.o.%.%.o.o.' o.%.%.o.o.o.o.%.o.o.o.o.+.o.o.o.%.o.o.o.o.%.o.%.o.%.%.o.%.o.o.%.%.o.%.o.o.o.O.+.o.+.o.O.O.+.o.+.O.o.o.o.o.o.+.O.o.O.o.o.X.o.X.o.o.X.o.X.o.` X.' o.o.o.o.o.o.o.X.o.X.X.o.o.o.o.X.X.o.X.o.' o.X.o.o.o.o.' ' o.o.o.%.%.*.&.&.&.&.2.2.&.&.&.&.&.@.&.&.&.&.&.&.&.&.&.&.&.&.&.&.&.&.&.&.2.&.2.2.&.&.&.&.2.&.&.&.&.&.&.&.&.&.=.&.&.&.&.&.&.&.&.&.*.&.&.&.&.&.&.&.&.&.&.&.&.&.&.&.&.&.2.&.2.2.2.3.2.2.3.3.3.3.3.3.2.:.3.w.w.w.e.e.9.e.e.9.q.e.q.e.e.e.e.e.e.9.e.e.9.9.e.e.e.e.w.w.3.>.>.3.2.3.5.3.3.3.2.3.3.3.2.2.$.$.#.=.*.%.o.` V H K H H K H H H H H X.X.H H X.X.H H H X.X.H H V H X.H H X.V H H H H H X.H H X.H H H H H H H H H H H H X.H H H H H H X.H H H X.H H H H H H H H X.G H G H H G G H G H H J H G F G H H H H H H H G G H G H H H H G V G G V H G G G G G G V V G G V H G H B V G G V H G G G G G G G H J G G G G G H H G G G G G G G B G G V H B G G G G G G G G G B G H G G B G G B V B B G G V G B H G H B V M B B B B B B B M B V b / %.5.5.w.w.9.9.e.e.e.e.e.9.e.e.e.9.e.e.e.9.e.e.e.e.w.e.w.w.w.0.1.<.5.w.w.w.w.e.e.e.e.e.e.e.9.e.e.e.e.e.e.e.e.e.e.e.e.e.w.e.e.e.e.e.e.e.e.e.e.e.e.e.e.e.e.e.e.e.e.e.e.e.e.e.e.e.9.e.e.e.e.e.e.e.e.9.e.9.e.9.e.9.e.e.e.e.q.e.e.e.e.e.e.e.e.9.e.e.e.e.9.e.e.e.e.e.w.e.e.e.e.e.e.e.e.e.e.e.e.e.e.e.9.e.9.9.e.e.e.e.w.w.5.2.2.#.#.&.&.2.&.&.| &.&.&.&.&.&.&.&.&.&.#.$.=.=.%.o.V k c c c c z c c c c c z c c c c c c x c S c c x c c c x c c x c c c c c c c c x c S x x c c c c k c c k x x S c x c c c c c c c c c c x c c c c c x c x c c x x c l c c x l c x c x c c x c c x c c l c x x c c x z c x c c x c x x c x c x c c x c x c x c x c x c x c x c l z x c x c x c x c x x c x x x x x x x C k a ..<.w.w.e.e.e.q.e.e.e.e.q.e.e.e.e.e.e.e.e.e.e.e.e.e.e.e.e.e.e.e.e.e.e.e.e.e.e.e.e.e.e.e.e.9.q.9.e.e.w.5.%.m t j x x x 8 8 8 x x x x x x x C q C q A x x x x A 8 x x 8 A x q x x 8 A q x x x x x c x x x x x x x A x A x x x x A x x x x l x l x x l x x x A 8 x x x 8 x 8 8 x 8 x 8 x 8 x x 8 A x A 8 x 8 x A 8 8 8 x 8 8 x x 8 8 A x 8 8 A x 8 x 8 x 8 x x 8 x A 8 8 x x 8 8 x A 8 x 8 A 8 8 x x x 8 x 8 x x 8 8 x x 8 x 8 x 8 x 8 8 x x 8 8 x x 8 8 A 8 8 x 6 x l x 6 8 8 x 8 x 6 x j x x 8 8 8 8 q 8 8 5 4 8 x l z ` 5.w.w.e.w.e.e.e.e.q.e.9.e.9.e.9.e.e.e.e.e.e.e.e.e.e.e.e.e.e.e.e.e.e.e.e.e.e.e.e.e.9.e.e.e.e.e.e.e.e.e.e.e.e.e.e.e.e.e.e.e.e.e.e.e.q.e.e.e.e.e.q.e.q.e.e.e.e.e.e.q.e.e.e.e.e.e.e.e.9.e.e.e.e.e.e.e.e.e.e.e.e.e.e.e.e.e.e.e.e.e.e.e.e.e.e.e.e.e.e.e.e.e.e.e.e.e.e.e.e.e.e.e.e.e.e.e.e.e.e.e.9.e.e.e.e.e.e.e.e.e.e.e.e.e.e.e.e.e.e.e.9.9.e.e.e.9.e.e.e.e.9.e.9.9.e.e.e.e.e.e.e.e.e.e.e.q.e.e.e.e.e.e.e.e.e.9.e.e.e.e.9.e.e.e.e.e.e.e.e.e.e.e.e.e.e.e.e.q.e.e.e.e.e.e.9.9.e.e.e.9.e.e.e.e.e.w.8.e.w.4.` m d j x q 3 8 8 8 8 x 8 8 x 6 6 x 8 6 6 8 x 6 6 x 8 6 6 8 6 8 6 8 8 8 x 8 8 x 6 8 8 8 x 8 8 8 6 8 8 ",
"%.%.%.%.+.%.%.o.%.+.%.o.%.%.o.%.%.o.+.o.o.+.o.%.o.%.%.o.%.o.o.%.%.o.o.%...%.%.o.%.o.%.o.%.o.%.o.o.o.o.o.%.o.%.%.o.+.o.o.o.%.o.+.%.o.o.+.%.o.%.o.o.o.o.o.o.%.o.%.o.o.+.o.o.o.o.o.+.o.o.o.o.+.o.O.o.o.o.o.o.X.o.X.o.o.X.o.o.X.o.X.o.o.X.o.X.o.X.X.o.X.o.o.o.' X.o.o.o.' o.' o.X.o.o.o.X.o.X.X.o.X. .o.o.%.&.%.=.&.&.&.2.&.&.&.&.&.*.&.&.&.&.*.&.&.#.=.&.&.&.#.&.&.&.&.&.&.&.&.&.&.&.2.&.&.&.&.&.&.&.&.&.&.*.&.&.&.&.&.&.&.&.&.&.&.&.&.*.&.&.&.&.&.&.&.&.&.=.=.&.&.&.&.2.2.&.:.2.&.:.&.2.2.3.:.:.:.:.>.3.w.w.e.e.q.e.e.e.e.e.e.e.e.e.e.e.e.e.9.e.e.e.9.e.w.e.w.3.>.;.#.#.>.2.2.3.:.2.>.>.#.#.@.2.#.*.=.=.%.o.` ` H H X.X.H H H X.K X.K H H X.H X.H H X.H H H H H H H V H H H X.H X.X.V X.H H H H H H H H H H H H H X.H H H H H H H H H H H H H H H V X.H H X.V H H H H G H H H H F G H H G G G H H G H G K D H H G H H H H H H G G G H B H B H G H H G G H H G H B B H H B G H B H B H G H H G H B G G G G G G J G H G G G B G J G G G G G G G G G G G G H G G G G G B B G G G G G B G B H B B G V G H B B B B B B B B B V B B B V _ ' 4.5.w.e.e.q.q.e.e.e.e.e.e.e.e.e.e.e.e.e.e.e.e.w.e.w.w.w.1.1.>.#.>.>.5.5.w.w.w.e.e.e.q.e.e.e.e.9.e.e.9.e.e.e.e.e.e.e.e.e.w.e.e.e.e.e.e.e.e.e.e.e.e.e.e.e.e.e.e.w.w.w.e.w.e.e.e.e.e.e.e.e.e.e.9.e.e.e.e.e.e.e.w.e.e.w.0.0.w.w.e.e.e.e.e.e.e.e.e.e.e.e.e.e.e.e.e.e.e.e.e.e.e.e.e.e.e.e.e.e.e.e.9.w.e.e.e.e.e.e.w.0.3.2.#.#.*.#.&.2.&.2.#.&.&.&.=.=.#.=.&.&.*.&.&.&.=.*.+.H B k c z c z c c c c c z c x c c c z c c c x c c x S c c x c x c k A S c S k c c c c x c c c c c c c c c c c c A c c c c c c x c c A c S c c x S c c c c x c c c c c x c c x c c x x l c c x c x x c x x c c x c c x c x x c x l c c x c c x x c c x x z l c x z l c x c x c x c c x x z l c x x x c k x x c A c x A A k h m 4.5.0.e.9.q.e.e.e.e.e.e.e.e.e.e.e.e.e.e.e.e.e.e.e.e.e.e.e.e.e.e.e.e.e.e.e.e.e.q.e.e.q.e.9.e.q.e.9.e.w.w.5.%.d t j c x 8 A x x x x c c c C x x C x x x x x x x x x x x x x x x x x x x x x x x x l x x x x x x x x x x C A x x x A x x x 6 x l x x x 8 l 8 x x 8 8 A 8 x x 8 x x x 8 x x 8 x x 8 8 x x 8 x 8 8 x A 8 x x x x 8 x A 8 8 x x 8 8 x x 8 x x 8 x x x 8 x x 8 8 x 8 8 x 8 x 8 8 x x 8 8 x 8 8 x 8 x 8 x 8 8 x 8 8 x x 8 A x x 8 x x 8 8 8 x 8 8 8 8 x x 6 l x x 6 x 8 8 x x 8 6 7 8 8 8 x 8 8 8 4 l x z h z b 4.w.w.e.w.e.e.e.e.e.e.e.e.e.e.e.e.e.e.e.e.e.e.e.e.e.e.e.e.e.e.e.e.e.w.e.9.e.e.9.e.e.e.e.e.e.e.e.e.e.e.9.e.e.e.e.9.e.e.e.9.e.9.e.e.e.e.e.e.e.e.e.e.e.e.e.e.e.e.e.e.e.e.e.e.e.e.e.e.e.e.e.e.e.e.e.e.e.e.e.e.q.e.q.e.e.e.e.e.e.e.9.e.e.e.e.w.e.e.e.e.e.e.e.e.e.e.e.e.e.e.e.e.e.e.e.e.e.e.e.e.e.e.e.e.e.e.e.e.e.e.e.e.e.e.e.e.e.e.e.e.e.e.e.e.e.e.e.e.e.e.e.e.e.e.e.e.e.e.e.e.e.e.e.e.e.e.e.e.e.e.e.e.e.e.e.e.9.9.e.9.e.9.e.e.e.e.e.e.e.e.e.e.e.e.e.e.e.e.e.e.q.e.e.e.e.e.e.e.e.e.e.e.9.e.e.e.e.e.w.w.=.o.n y j A 7 8 0 8 8 8 8 6 8 8 8 6 8 8 8 8 8 8 x 8 6 8 8 8 x x 6 8 8 8 8 x 6 6 8 8 8 8 8 x 6 8 6 x 8 ",
"%.%.o.%.%.%.%.%.%.%.%.%.%.+.%.%.o.%.%.@.%.@.%.o.%.%.o.%.%.o.%.o.%.%...%.%.o.%.%.o.%.' %.o.%.' %.o.%.o.%.o.o.o.o.%.o.%.o.o.o.%.o.o.o.%.o.o.o.o.o.%.o.%.o.o.o.o.o.+.o.o.o.o.+.+.o.o.o.+.o.o.+.o.o.o.o.o.o.o.o.o.o.o.o.o.' X.' o.o.X.o.o.' o.' o.o.o.' o.X.X.o.o.' o.X.X.o.X.o.X.o.` o.o.o.o.o.o.o. . .o...%.%.*.&.&.&.&.&.*.&.&.&.&.&.&.&.&.&.&.#.=.&.=.=.&.*.&.&.&.&.&.&.&.2.&.&.&.&.&.&.&.&.&.&.*.&.&.&.&.&.&.&.&.&.&.&.&.&.&.&.&.&.&.&.&.&.&.&.&.&.&.&.&.&.&.&.&.2.&.&.2.| &.&.2.2.$.2.2.2.&.>.2.#.>.3.w.w.e.e.9.w.e.w.w.e.e.w.e.w.e.9.e.9.9.9.9.e.e.e.w.w.3.;.>.&.&.#.2.2.2.@.>.&.&.&.&.&.&.*.&.*.%.%.X.` X.X.H H H H K X.F H H X.X.H X.K H H X.H X.H X.H V X.H X.H X.H H H V H H H H X.V X.H H X.H H H X.H H V H H H H X.H H X.H H H X.V H H H H H H H H H H G H H D H J H G H G H F H H G H H H H D H G H H H J H B G H B H G V H G H B V G G G V G G V G H H H B H G V H G H B V G G G V H H G G H H G H G G G G G H B H G G G B G G G B G B G G B B H B G G G G G G G B H B V B B H B B B B B G V B V B B B V B B B B B N ( &.5.w.w.e.e.q.e.e.q.e.e.e.q.e.9.w.w.e.w.e.e.w.e.w.w.w.5.3.>.>.#.#.#.$.<.1.5.w.w.w.w.q.e.e.e.e.e.9.9.9.e.9.9.e.q.e.w.e.w.8.q.w.w.e.e.e.e.q.e.e.e.q.e.e.e.e.e.w.w.1.1.0.w.w.e.w.w.e.e.e.e.e.e.q.e.e.e.e.e.w.w.e.e.w.w.w.1.1.1.5.w.e.w.e.e.w.e.e.e.e.e.e.e.e.w.e.e.e.w.e.q.e.e.q.9.e.e.9.9.e.q.9.e.e.w.w.w.w.w.w.3.3.2.2.#.&.&.&.#.&.#.&.&.&.2.&.&.#.*.=.*.&.&.*.=.*.%.+. .V M c c c c c c c M c c c c c z c c c x c c k S x c k c c k S c c c c x c c x c x c c k c c c x c c c x c c c c k c c c c x c c c c k c x S k c c k c x c c x x x c l c c x c c x c c c c x c l c c x c c x c c l c c x c c x c c c x c x c c z c x c c x c x c x c x z x c l c l c x c x c x z c c l x x x x x x A x c k d %.5.w.8.e.e.e.e.e.e.e.e.w.e.e.e.e.e.e.e.e.e.e.e.e.e.e.e.e.e.e.e.e.e.e.e.e.e.e.e.e.e.e.e.e.e.e.9.9.e.w.w.w.5.5.*.b t k S x x x j x l l c x j x j x x x x x x k x x x x k x x x x x c x x x x x x x x x x x x x x x A x 4 x x x x x x x x x x x x x x l x x x 8 x 8 x 8 A 8 8 A 8 A 8 x 8 x 8 x 8 x x 8 x 8 x x x x 8 x 8 A 8 A x 8 8 x x 8 8 x x 8 8 x 8 x x 8 A 8 x 8 x x A 8 x x x A 8 x x x 8 x A 8 x x 8 A 8 x 8 x x 8 x x 8 x x 8 x 8 x x 8 x x x 8 x 8 x l x l x x 8 8 8 8 8 8 8 j x 4 7 q 8 4 8 x j 4 x g j k t - % $.w.w.w.e.e.e.q.e.e.q.e.e.e.e.e.e.e.e.e.e.e.e.e.e.e.e.e.e.e.e.w.e.w.e.e.e.e.e.e.e.9.e.e.e.e.e.e.e.e.e.e.e.9.e.e.q.e.9.q.e.q.e.e.q.e.e.e.e.e.e.e.e.e.e.e.e.e.w.e.w.e.e.e.e.e.e.e.e.e.e.e.e.e.e.e.e.e.e.e.e.e.e.e.q.e.q.e.e.e.e.e.e.w.e.e.e.w.e.e.e.e.e.e.e.e.e.e.e.e.e.e.e.e.e.w.e.w.e.e.e.e.w.e.e.e.e.e.e.e.e.e.e.e.e.e.e.e.9.e.e.9.e.e.e.e.e.e.e.e.e.e.e.e.e.e.e.e.e.e.e.e.e.e.e.e.e.e.e.e.e.e.e.e.e.9.9.e.e.9.e.9.e.8.e.e.e.e.e.e.e.e.e.e.e.e.e.e.e.e.e.e.e.e.e.9.e.e.e.9.e.e.e.e.e.e.e.e.e.w.w.5.=. .t > 4 q 8 8 8 8 8 8 8 8 6 x x 6 8 8 8 6 8 6 6 x 8 8 8 6 8 8 8 6 x 6 8 8 8 8 8 8 l 8 8 8 8 8 6 8 ",
"+.%.%.%.%.+.+.%.+.%.%.o.o.%.%.+.%.%.o.%.%.o.o.%.o.%.%.o.%.@.o.@.o.%.o.%.o.%.%.o.' %.o.%.o.%.o.%.o.o.%.o.o.%.o.o.o.o.+.%.o.o.o.%.o.o.%.o.o.o.%.o.o.%.o.%.+.o.o.%.o.o.+.o.o.O.o.+.o.+.o.+.o.o.+.o.O.o.o. .o.o.o.o.o.o.o.o.' X.o.o.X.o.o.o.' o.o.o.o.X.o.o.X.o.X.o.o.X.o.X.o.X.o.' X.o.o.o.' o.o. .o.O.o...o.o.%.@.%.&.*.&.*.&.*.&.&.&.&.&.*.&.&.&.&.&.=.&.&.&.&.&.&.&.*.&.&.&.&.&.&.&.&.&.&.&.&.&.&.&.&.&.&.&.&.&.&.&.&.=.&.*.&.&.&.&.&.4.&.2.&.&.&.&.&.&.&.&.&.&.&.@.&.&.&.&.&.&.#.=.&.=.&.&.&.$.&.2.2.>.3.1.w.w.w.w.e.w.e.w.w.w.w.0.w.e.e.e.9.e.e.w.e.w.w.3.3.:.=.#.@.=.=.&.&.*.&.*.&.&.&.&.&.*.%.o.' ` X.X.` H H K H X.X.H  .X.H H X.H X.H H X.H H X.H H H H H H X.V X.H H H X.X.V H H X.H X.H H H H H H H H H H H H X.H H X.H H H H H H H V X.H H V H H H X.H G H J F G G H G G H H G H H G H G H G H H G H G H H H H G V G H G G V G H G G H V G H B H H B H B H H B H H H G H G G V V H G V G H G G H J G H G G G G G B G H B H G G G G B G D G B G G G B H G G D G G G G G V G V G B B H B B V B B V B B V B B B M B B B N / &.2.5.w.q.e.e.e.e.e.e.q.e.e.e.e.w.w.e.e.e.w.w.w.5.5.3.<.>.>.#.=.$.@.&.&.<.3.5.w.e.w.e.e.e.q.q.9.e.9.9.9.9.e.e.e.w.w.w.0.,.3.0.w.8.e.e.w.w.e.9.w.e.e.e.e.w.q.w.>.$.2.2.2.5.w.w.w.e.e.e.e.e.e.e.e.q.e.e.e.w.e.e.w.w.5.1.<.>.$.3.5.w.w.w.w.e.e.w.e.w.e.e.e.e.w.w.w.w.3.0.0.0.w.w.q.w.e.e.e.e.e.e.w.w.w.w.w.0.3.3.:.:.#.&.2.&.&.&.&.&.$.$.#.&.&.*.$.%.%.*.=.=.=.%.*.+.o.V n n k c c c c c c c c c c c c c c c c c k x S c c c c c x c x c c c c x c c c c c x c c S c x k S c k A x c c c c c c c c c k S c c c c x c x k c x c x c x l c c c x c c c l c x c c c c x x c x c c c c c c x c x c c x c c c c c l c l c x c l c x c x c x c l c l c c x c x l x x z x c x c c x c x x x x c x x x c k t  .=.5.w.w.9.e.e.e.e.e.e.e.e.e.e.e.e.e.e.e.e.e.e.e.e.e.e.e.e.e.e.e.e.e.e.e.e.e.e.e.e.e.e.e.e.e.e.e.e.e.e.e.w.w.w.5.*.` h k C z x x z c z x x x x k j x c x x c x x k x x k x k x x k x x z x x 8 A x x q x x x x A x x x x x x x x x x x x x x x x x x x x x x 8 A 8 x 8 x x x x 8 x 8 x 8 8 A 8 x 8 x x 8 x 8 x 8 A 8 x x 8 x x 8 A x x 8 x A 8 x x x 8 8 x x 8 x 8 x 8 A 8 x 8 x x 8 x 8 x 8 A 8 8 8 x x 8 x x x x 8 x 8 A 8 x x 8 8 8 x 8 x 8 x 8 x 8 6 x x 8 x l x x l x 8 8 8 q 8 9 x 4 q 0 q 4 l l l x x g h n m N m ) 4.w.w.w.w.e.e.q.q.e.e.e.q.w.e.w.q.e.e.e.w.e.e.w.e.w.e.e.w.w.e.e.8.w.w.w.w.e.e.9.9.e.9.e.9.e.e.9.e.e.e.9.9.9.e.e.e.e.e.e.q.e.e.q.e.e.9.e.e.e.e.e.e.e.e.e.e.e.9.e.q.e.e.e.e.e.e.e.e.e.w.e.e.e.e.e.9.e.e.9.e.e.e.e.e.e.e.e.e.e.e.e.e.e.w.w.e.e.e.e.e.e.e.e.e.e.e.e.e.e.e.e.e.e.e.e.e.e.e.w.w.e.w.e.e.q.e.q.e.e.e.e.e.e.e.e.9.e.e.e.9.e.e.e.e.e.e.e.e.e.e.w.e.e.e.e.e.9.e.e.e.e.e.e.e.e.e.w.e.e.e.e.e.e.e.e.e.e.9.e.9.e.e.e.e.e.e.e.e.e.e.e.e.e.e.e.e.e.e.e.e.e.e.e.e.e.e.e.e.e.e.e.e.e.e.e.e.9.e.e.w.w.5.=. .r 2 x 8 8 8 7 8 8 8 8 8 6 x 6 8 8 8 8 8 6 x 6 8 8 8 8 6 6 8 8 8 6 x 8 6 6 8 8 8 x 6 8 6 8 8 6 ",
"%.%.%.o.%.%.%.%.%.%.%.%.%.%.%.%.o.%.%.o.o.%.%.o...%.o.%.o.o.%.%.%.o.%.%.o.%.%.o.%.o.%.' } o.o.o.o.%.o.o.o.o.+.%.%.o.o.o.%.o.o.o.o.%.o.o.o.%.o.+.o.o.o.o.%.o.o.o.+.o.O.o.o.+.o.o.o.O.o.O.o.+.o.o.o. .O.o.o.O.o.o.o.o.X.X.o.o.o.` ' o.o.X.o.X.o.X.o.o.o.X.X.' o.o.o.o.o.' o.o.X.o.o.o.' X.o.X.o.o.O. .O. .o...o...%.&.%.@.*.%.%.%.*.&.*.&.&.=.=.&.=.=.&.&.=.=.=.=.&.*.&.&.&.&.&.&.&.&.&.&.2.&.&.&.&.&.&.&.&.&.*.&.&.&.*.&.&.&.&.&.&.&.&.&.$.&.&.&.&.&.&.&.2.&.&.2.&.*.&.&.&.&.&.&.#.=.=.#.=.#.&.&.&.&.&.2.2.2.3.5.w.w.w.w.w.w.5.5.3.5.w.w.w.e.w.w.w.w.w.5.5.2.2.$.*.*.*.*.*.=.=.=.&.*.%.%.+.%.o.%.o.o.` ` X.X.X.H X.H H H H H H H X.H H X.H H X.K X.H X.H X.H X.H H H H H X.V H H H H H X.V H H H H H H X.H H V X.H H H H H H H H H H X.V H H H H H H X.H H H H H H H H G H H G F H G G H G G H H H G H G G H H G G H G B B H H G H G G H G G V G H G B H H B H B B H B H H B G V B G H G G G G G H J G G H G G G H G G B G H G G B G B H H B G G V G G G G G B G G B V G B F B G B B B B G V B B B B B V B B B B B B V B V B B V ` *.2.2.0.w.w.q.w.q.w.q.w.e.w.e.w.e.w.w.w.w.w.w.1.3.3.$.#.>.=.&.$.=.&.@.=.#.2.4.5.w.w.w.e.e.e.e.e.9.e.e.e.e.w.e.e.e.w.w.,.>.;.,.1.1.0.w.e.e.e.e.e.w.e.w.w.w.1.,.#.#.&.$.#.3.4.3.w.w.w.w.w.q.e.e.e.e.e.e.e.w.w.w.w.5.2.$.>.=.$.>.>.3.5.w.w.w.e.w.w.w.w.w.w.w.w.w.5.5.3.3.:.,.3.0.w.w.w.w.w.w.e.w.5.5.w.3.2.3.2.2.2.&.&.&.&.*.*.&.=.#.&.*.&.&.&.*.=.*.*.*.*.%.+.+.o.O.m n B k S c c x c c M c M c c c c c c c z c S c c c c c x S S S k c c c c c x c c c c c c c S x c c x c c c S c c c c x c c x c S x c c x c x k c c c c c x x c c c x c c x x c c x c c x x x c c c x c x c x l c c x c c x c x l c x x c c c x c l c x c l c l c x c x c x x c l c c c x c z x c l x c x c x x x x c x x k n a +.5.5.w.e.9.e.e.e.e.e.e.e.e.e.e.e.e.e.e.e.e.e.e.e.e.e.e.e.e.e.e.e.e.e.e.e.e.e.e.e.e.e.e.e.e.e.e.9.e.8.e.w.w.w.w.w.w.&.m u k k k l x z c x z x x x x x x x x x k k x x k x x x k x x k x k x x x x 8 x x x A x x x x x x x x x A x x x x x A l x l 8 l x l 6 8 x 8 x 8 x x 8 x 8 A 8 A 8 x x 8 x x x 8 x A 8 x 8 8 x x 8 8 x 8 8 x 8 8 x x 8 8 x 8 x 8 x x 8 8 x x 8 8 A 8 x x x 8 8 x 8 8 x x 8 x x x x 8 A x 8 8 x A 8 x x x 8 x A x x 8 A 8 6 8 x 8 x 8 8 6 x 8 x x 8 8 8 8 8 8 8 8 8 x 8 q 4 9 4 j j h v V V X.X.o.%.*.&.3.5.w.w.w.w.w.e.e.w.e.w.e.e.e.e.e.w.e.e.e.w.e.w.e.e.w.w.w.e.6.1.3.1.w.w.w.e.w.e.e.9.e.9.e.9.e.9.9.9.w.e.e.e.e.e.e.e.q.e.e.q.e.e.e.9.e.e.e.e.e.e.e.9.e.e.e.e.e.e.e.e.e.w.e.e.e.e.e.e.e.e.e.e.e.e.e.e.e.e.e.e.e.e.e.e.e.e.e.e.9.e.e.w.e.e.e.e.w.e.e.e.e.e.e.e.e.e.e.9.9.e.e.e.e.e.w.e.w.w.w.w.w.w.e.e.e.e.e.e.9.e.9.e.e.e.e.9.9.e.e.e.e.e.e.e.e.e.q.e.e.e.e.e.e.e.e.e.e.9.e.e.9.e.w.e.e.e.e.e.e.e.w.e.9.e.9.e.e.9.e.9.e.e.e.e.e.e.e.e.e.e.e.e.e.e.e.e.e.e.e.e.e.e.e.e.e.e.e.e.e.e.e.e.e.e.e.e.e.e.9.w.w.5.=.F r 4 8 8 8 8 8 8 4 8 8 8 8 8 8 6 x 6 8 8 8 8 8 8 x 6 8 x 8 8 8 8 6 8 8 x 8 8 8 8 8 6 x 8 8 x ",
"o.%.+.%.%.%.%.%.%.%.%.%.%.o.%.o.%.o.@.%.%.%.o.@.%.%.o.%.%.%.%.o.%.%.o.o.%.@.o.%.o.o.o.%.%.o.%.' o.+.o.o.o.%.o.o.o.%.o.%.o.%.o.%.o.o.o.o.o.o.o.o.%.o.o.+.o.%.o.%.+.o.o.o.o.+.+.o.o.+.o.o.o.o.o.+.o.O.o.o.o.O.o.X.o.o.' o.o.X.o.o.o.X.' o.X.o.o.' ' o.X.' o.X.o.o.` o.o.o.X.' o.o.' X.o.o.X.o.o.X.X. .O.O... .o.o.' o.o.o.o.o.o.%.*.&.%.*.&.%.*.=.*.*.&.*.*.=.*.&.*.*.&.*.*.&.*.&.&.&.&.&.&.&.&.&.&.&.*.&.&.=.&.*.*.&.&.&.&.&.&.&.&.&.&.&.=.&.&.&.=.&.&.4.&.&.&.&.&.&.&.&.*.&.#.&.=.&.&.*.=.=.&.&.&.&.&.&.=.$.2.$.>.>.2.2.2.$.>.| >.2.4.5.w.5.w.5.w.5.5.5.>.&.@.&.*.%.%.%.%.%.%.*.*.%.+.o.o. .X.X.` X.` X.X.H H H H H H X.K X.X.H X.K H X.H X.X.H X.H H H X.H H X.H X.H H V X.H X.X.H X.H H H X.H X.H H H X.H H H H X.H H V X.H H H H H H H X.H H H H H H H H H H H G H H H H H H H H D K H G F G H G F H H F H H H H H B V B G H G V V G V G V G G H B H B B H H H H B H B V G G H V H G G H H G G G G G G G G G G G B G B B H G G G B B G G G F G G B H G B D G H G G G G G B G H V G H B B B G B V B B B B B B V B V B B V B V  .%.=.#.2.3.>.3.w.3.5.5.w.w.w.5.w.5.5.5.5.3.3.4.2.2.2.$.$.2.&.&.=.*.&.&.=.=.$.2.>.3.3.w.w.w.e.w.e.w.e.w.w.e.w.e.w.w.5.1.3.>.#.>.<.,.,.0.5.w.w.w.w.w.w.5.0.1.<.>.@.&.&.@.&.@.2.2.5.3.w.3.w.w.w.w.q.w.w.w.w.w.w.5.5.2.2.$.&.=.&.&.&.>.2.2.4.5.5.w.5.w.w.5.w.1.5.5.2.4.&.&.&.&.2.| 2.&.&.:.2.2.2.2.2.3.2.2.2.2.#.&.2.&.&.&.*.*.*.*.=.@.*.$.*.*.%.%.*.*.o.o.O.X.` N N n n k k c c c c x c x c c c c c c c c c c c S c c c x x c c A c c c c c c k S c c k c c c k A c c x c S c c c k c c x x c c x c c x c k A S c c x k c k c x c c c c x x c z x c x c x x c l c c c x l c z x c c x c x x c x c c c c c c c c x l c l c l c l c x c x z l c x c z x c l z x c x x c x c x x c x c x x k x S x k a ..=.5.5.w.9.e.9.e.e.e.e.e.e.e.e.e.e.e.e.e.e.e.e.e.e.e.e.e.e.e.e.e.e.e.e.e.e.e.e.e.e.e.e.e.e.e.e.9.e.w.e.8.e.e.e.q.w.w.5.%.d e k x j x x A x x x x x j x x A x x x x x x x x k x x x x x x x x 8 A x x 8 x x 8 x x x x x A x x x x x x x x x x x x x x x 8 x x x x x x x 8 8 x x 8 x 8 8 x x 8 x x 8 x x 8 8 A 8 x x 8 8 x x 8 x 8 8 x x 8 8 A x 8 8 x x 8 8 A x x 8 x x x 8 x 8 x 8 A 8 x x 8 x x A 8 8 x x 8 8 8 A 8 8 8 x 8 8 A x 8 8 x x x 8 x 8 x x 8 8 x 6 x x x x j 8 8 8 0 0 8 8 x j j 4 4 j x M B V ` %.+.%.%.=.=.=.=.#.>.>.2.5.3.w.w.w.w.w.w.w.w.w.w.w.w.w.w.w.w.w.w.w.w.5.1.1.,.>.>.>.<.1.w.e.w.9.e.9.e.9.e.9.9.e.e.e.9.e.9.9.e.e.e.e.q.w.q.e.e.e.e.e.e.e.e.e.e.9.9.9.e.e.9.e.e.9.e.e.e.e.e.e.e.e.e.e.e.e.q.e.e.e.e.e.e.e.e.e.e.e.e.e.w.e.e.e.e.e.e.e.e.w.e.e.e.e.e.e.e.e.9.e.e.e.9.e.q.9.e.e.e.w.e.e.w.w.,.3.5.w.w.e.e.e.q.e.e.e.e.e.e.e.e.e.e.9.e.9.e.e.e.e.e.e.e.e.e.e.e.e.e.e.e.e.9.e.9.9.e.e.e.e.e.e.e.w.e.e.w.e.9.e.9.e.e.e.9.e.e.9.e.e.e.e.e.e.e.e.e.e.e.e.e.e.e.e.e.e.e.e.e.e.e.e.e.e.q.e.e.e.e.e.e.e.e.e.e.9.e.w.5.4.+.h g x 8 8 8 7 q q 8 8 8 8 8 6 x 6 x 8 6 8 8 8 l 8 6 8 8 6 x 6 8 8 8 8 8 x 6 8 8 8 8 6 8 6 8 ",
"%.%.%.%.o.%.o.%.%.o.+.%.%.%.%.%.%.o.o.o.%.o.%.%.o.%.%.o.%.o.o.%.o.%.@.+.o.%.%.o.o.%.o.%.' %.o.%.o.%.o.%.o.o.%.o.o.o.o.o.o.o.o.o.o.%.+.%.o.%.o.%.o.o.o.%.o.o.o.o.o.O.o.+.o.o.o.o.o.o.o.+.+.O.o.o.o.o.o.o.o.o.o.o.o.X.o.X.o.' o.X.o.o.X.o.X.o.X.o.X.o.o.o.o.o.o.` o.o.X.o.o.o.o.X.o.o.X.` o.o.o.o.o.o.O. .O.+...o...' ..o.) o...o.' o.' ) ' o.%.%.%.%.%.%.%.*.%.*.%.*.%.&.*.*.*.*.*.&.*.&.&.&.&.&.*.&.&.*.&.*.&.&.&.&.&.*.&.*.&.*.&.$.&.&.&.&.&.&.&.#.&.&.&.$.&.&.&.&.&.&.&.=.=.=.=.=.&.=.*.#.&.*.*.*.*.#.#.=.#.&.@.#.#.&.2.&.4.2.&.$.&.&.4.4.4.2.4.4.@.@.&.&.&.*.%.+.O.o.+.o.X.X.X. .` ` V ` ` ` ` V X.X.X.H H X.H X.H K H H  .X.H H X.H X.H H K X.H X.H V H H H H V X.H H H H H H H V H H X.H H V H H H H H H H H H H H H H H H X.H H H H H H H X.H H H H X.H H G H G H G G H G G H H G H H G H G H H G H J H G H G G V B B H G G H G G H G H B B H H B H H B H B H H B H G H G G G G V G G V G H G G H G G G H J H H G D G G H G G H D B G G B G G G G G G H B B G G B G G G H B B B B B H B V B B B B V B B V B B B B B B B B V +.*.=.&.@.;.2.| >.>.&.$.&.#.2.2.>.2.2.#.>.{ { 2.2.&.=.#.&.@.*.=.*.&.*.&.&.&.2.#.#.>.3.5.w.w.w.w.w.w.w.w.w.w.w.5.2.2.2.2.=.&.$.>.>.>.#.>.3.5.5.5.1.3.3.<.>.>.#.=.&.&.&.&.&.&.| #.| >.3.3.3.3.3.3.3.3.5.5.2.>.>.{ @.&.2.&.=.&.2.&.&.&.#.#.#.2.2.3.2.2.>.2.>.>.$.&.&.&.&.&.&.&.&.&.| &.&.:.&.&.2.| &.:.#.#.&.4.&.&.*.&.*.*.*.*.%.*.%.+.*.*.*.%.+. .H m v m n v V k n c B S S x c c c c c c c M B c c c z c c c k x c c c c c c k c c c c x c S x S x S c x c c c c c c c c c x c S x c c S k c S c c c c c c x c c c c x x c c k c x x c c x c c c x c c x z c c c x c c x c c x c c c x c c x z x c x l c x x c c x c x c x c x c l c x c x z x x c x c x c c l c l c x x k x x x c c x k x k k a =.5.5.w.9.9.e.e.e.e.e.e.e.e.e.e.e.e.e.e.e.e.e.e.e.e.e.e.e.e.e.e.e.e.e.e.e.e.e.e.e.e.e.e.e.e.e.e.e.9.8.e.w.9.e.q.q.q.q.w.5...d n j x x x x x 8 A x 8 x x x 8 x x x x x x x x x x x A 4 x A 8 x x A 8 x 8 A x x A x x x x x x x x x x x A x x x 8 l x l x x x l 8 8 x 8 A 8 x 8 x x 8 x x x 8 x 8 8 A 8 8 x x 8 x x 8 x A 8 x x x x x x 8 x x 8 x 8 x x 8 A x x 8 A x 8 x 8 x 8 x 8 x 8 x x 8 A 8 x 8 x 8 x 8 x x x 8 x x x 8 x 8 x 8 x x 8 x 8 x 8 x 8 6 x x 8 x l j 8 x 8 q 8 q 7 7 q 4 8 x j y j k m X.+.*.=.*.*.*.@.*.=.=.#.4.$.{ >.2.{ { 3.3.2.3.3.3.5.3.5.5.5.3.5.5.3.3.4.3.>.>.#.#.#.>.>.{ >.4.w.w.e.w.e.e.9.e.9.e.9.e.9.9.e.9.e.e.9.w.e.e.w.0.w.w.w.e.w.w.e.e.e.e.e.e.w.e.e.e.e.e.9.e.e.e.e.e.e.e.e.e.e.e.e.e.e.e.e.q.e.e.w.e.w.w.e.w.w.w.w.w.e.w.w.e.e.e.9.e.9.e.e.e.e.e.e.e.e.e.e.e.e.e.e.e.e.e.e.e.w.w.w.3.>.#.3.5.5.w.e.e.e.e.e.e.e.e.e.e.9.e.9.e.9.e.e.9.e.e.e.e.e.e.e.e.e.e.e.e.e.e.9.e.e.e.9.9.e.e.e.e.e.e.e.e.e.e.e.e.9.e.9.w.e.9.e.e.e.e.e.e.e.e.e.e.e.e.e.e.e.e.e.e.e.e.e.e.e.e.e.e.e.e.e.e.e.e.e.q.9.e.9.e.9.9.9.9.5.5.*.V z j 8 8 0 8 7 8 8 8 8 l 8 8 8 8 8 8 8 6 x 8 8 8 x x 8 8 6 x 8 6 6 x 8 6 8 l 8 8 8 8 8 8 8 ",
"%.%.o.%.%.o.%.+.%.%.%.o.%.%.%.o.o.%.o.o.%.%.%.o.o.%.%.o.%.o.%.%.o.%.o.%.%.o.%.o.%.' %.' %.o.' %.o.o.o.o.o.%.o.o.%.o.%.o.%.o.%.o.%.o.o.o.o.o.o.o.%.o.o.o.%.o.%.o.O.o.o.o.+.o.o.O.o.+.+. .o.o.o.O.o.o.o.o.o.o.o.o.o.' o.o.` o.` o.o.` o.` o.o.o.o.o.o.' o.o.X.o.X.` X.o.o.o.o.o.o.X.o.` o.o.o.o.X.X. .o.O.O. .X.o.X.o. .o.o. .o.o.o. .o.o.( o. . . .o.o. . .o.o.o.%.+.%.%.%.%.*.&.&.%.@.&.&.&.&.&.*.*.&.*.&.*.&.*.&.*.&.*.&.*.&.&.&.&.&.&.*.&.&.%.&.*.&.&.*.&.=.*.&.=.&.&.*.&.&.&.*.&.&.%.&.*.&.*.*.*.*.=.*.=.=.&.=.=.&.&.=.=.&.=.*.*.&.*.*.&.*.*.%.%.@.%.%.' o.' X. .` X.` X.X.V X.X.` X.` X.H X.H X.H X.H H H K H K X.X.H H H  .H X.X.H X.X.H X.H H X.H H H X.H H H H X.H H X.X.V X.H H X.H H V H H H X.H H H X.H H H H H H H X.H H H H H H H H H H H H H H H H H H H G K D H G H H G H H H G G G H F G G F H G G H G H G G H G V G G G V G G H H B H H B H H B H B H H B H H B H G G H G G H G G G G G J H G G G G B G G H G G H B G G G G D G B G H D B B H G G G G G B G G B B V B G G V H G B B V M B B B B B V B B V B B V N O.*.*.$.=.&.$.&.&.&.&.&.&.&.$.#.$.&.#.#.&.&.2.4.&.&.&.&.*.&.&.&.&.&.&.&.&.&.#.&.>.&.2.>.>.$.>.5.5.5.5.5.3.4.2.:.&.&.&.&.&.&.&.&.$.&.2.2.2.$.2.2.2.2.&.>.&.&.&.&.&.&.&.&.&.&.&.&.$.2.2.$.>.$.>.2.2.>.2.>.2.2.$.2.2.&.&.&.&.&.&.&.&.&.&.&.$.2.&.{ #.#.>.=.2.<.4.&.*.*.&.=.&.&.@.&.&.&.&.&.&.&.&.&.&.&.&.@.&.*.@.=.*.=.*.=.*.*.+.+.+.+.O.X.m N n n k M B B B M M c k k S c c x S x c c c c c c z z c c c c c z c x c c c x k c c x c c c S c c c c c k A c c c c x c c c x c c c c c c x S c c x c c c c c k k c c c k x x k c c x x c c c c x x c c l c x c c x x z c x x c c x x c c x c c c x c x c c x c x c c x c x z x c l c x c x z x c l c l c l c l c x x k x x x c c x x k x c c c S t ..4.w.w.w.e.9.9.e.e.e.e.e.e.e.e.e.e.e.e.e.e.e.e.e.e.e.e.e.e.e.e.e.e.e.e.e.e.e.e.e.e.e.e.e.e.e.e.e.e.e.w.9.w.e.e.q.q.q.q.w.w.=.+.t j x A A q 8 q A A 8 x q x 8 8 x 8 x x x x l x x j 8 x 8 q 8 A x x x x x x q 8 A 8 x x x x x x 8 x x x 8 x x x x x x x x l 8 x A 8 x 8 x 8 x x 8 x 8 x x 8 8 x x 8 x 8 x x 8 x 8 x 8 x x 8 x 8 8 x 8 x 8 x 8 x x 8 x 8 x 8 x 8 x 8 8 x x x 8 A 8 A 8 x 8 8 x 8 x x 8 x 8 x 8 x x 8 8 x 8 x x x 8 x 8 x x 6 x 8 8 x 6 x x 8 x 8 8 x x x 6 8 8 8 q 7 7 q A j 2 g u m O.*.%.*.&.&.&.&.&.=.&.&.*.#.&.#.=.#.$.$.2.2.$.2.>.&.$.2.2.2.&.2.>.2.2.2.2.$.#.&.&.$.&.&.>.&.$.>.2.3.w.w.w.e.e.9.e.e.e.9.e.e.e.9.e.e.e.e.w.w.w.,.>.>.1.w.w.w.w.e.e.w.e.e.e.e.e.e.e.e.e.e.q.e.e.e.e.e.e.e.e.e.9.e.e.e.e.e.e.e.w.e.e.w.w.w.w.3.;.6.0.w.w.e.e.e.9.e.9.9.9.e.9.e.e.9.e.9.9.e.e.9.e.e.e.q.e.e.w.w.w.5.2.2.#.2.#.>.0.w.w.e.e.q.w.q.e.e.e.e.9.e.e.9.e.9.9.e.e.e.e.e.e.e.e.e.w.e.w.e.9.9.e.e.e.e.e.e.e.e.e.e.e.e.e.e.e.q.e.e.e.e.e.e.e.q.e.e.e.q.e.e.e.e.e.e.e.e.e.e.e.e.e.e.e.e.e.e.e.e.e.e.e.e.e.q.q.e.e.e.e.e.e.e.9.9.e.w.4.&.X.V o x 8 7 7 q 7 3 6 8 x 6 8 8 x 8 8 8 6 8 8 8 6 8 6 8 8 8 8 l 8 8 6 x 6 8 8 x x 6 8 8 6 8 ",
"+.%.%.%.%.%.%.%.%.+.%.%.%.o.%.o.%.o.%.%.%.o.o.%.%.%.o.%.%.%.o.o.%.o.@.%.o.@.o.%.o.%.o.%.o.%.%.o.%.o.%.o.o.o.%.o.o.o.o.o.o.o.o.o.o.o.%.o.%.o.%.o.o.o.o.%.o.o.o.+.o.o.+.o.+.o.o.+.O.o.o.o. .o.o.o.o.o.X.o.o.o.X.o.o.X.X.o.o.o.X.o.o.X.o.o.o.X.` o.X.o.X.o.o.o.' o.o.o.X.' ` o.` o.o.o.X.o.X.' X.o.O.O.O.o.O.o.o.o. .o.o.o.O.o.o.X.o.X. .O.X. .O.o.o.O. .o.o.X. . .o.o...o.) o.+.o.o.o.%.%.' &.%.%.%.&.*.@.%.%.%.&.&.*.*.*.&.*.*.*.*.*.&.*.*.&.*.*.=.=.*.=.*.=.=.&.&.&.&.=.&.*.&.*.*.&.*.%.*.*.%.%.%.%.%.%.%.%.*.*.%.%.@.%.*.%.%.+.o.o.o.o.o.' o.o.' o.' ` ' ` ` ` X.X.V ` X.H H  .X.H X.H X.X.X.V H H H X.H X.H X.X.H H H H X.X.H X.H H K H H H H X.H H X.H X.H H X.H H H V X.H H H H X.H H V H X.H H H H H H H H H H X.H H H H H H H X.H H H X.H H H H X.V H V V H D G H H H G H H G G H H J H H H H G H H H G H G G V G G V H G G H H G G H G H G H B B H B H H H H B B H B H H G V V G G V V G G H H G G H G G B G G G G B G G D G G B B G V G G G B G G G B G G B B H G G G G B B B V B B B G V B B B B V B B B B B B B B B B V X.+.%.*.=.&.&.&.&.&.*.=.&.&.&.&.&.&.&.&.*.&.@.&.&.&.=.*.&.*.&.&.| &.&.&.&.2.&.&.&.$.=.=.$.&.$.=.&.2.=.&.$.&.4.&.&.&.&.&.*.*.*.&.&.&.&.&.&.&.2.&.&.&.&.&.&.&.&.&.&.&.&.&.&.&.&.&.&.&.&.&.&.=.=.2.$.=.&.=.$.&.2.&.2.&.&.&.&.| &.&.&.&.&.=.&.&.>.2.&.#.&.#.#.#.@.&.*.&.&.=.=.=.=.&.&.&.*.*.&.&.} *.#.&.&.=.=.=.*.=.*.*.*.+.+. .O.F K N V n B B k M B c k c B c c c c c x x S A c c c c c x c c c c c z c c z c c c c c c c S c c c c k x x c c x c c c c c S x c S c c x S c c c c c c k c c c c c x c x c x x c k x c c c c x x c z c x x c c c x c c x c x x c c c x c c x c c c x x c c l x c x c c l z x c l x z x c x c x c x c l c x c x c x c x c x c x c c x c x x x x x x x x c x k c v %.5.w.w.9.9.e.e.e.e.e.e.e.e.e.e.e.e.e.e.e.e.e.e.e.e.e.e.e.e.e.e.e.e.e.e.e.e.e.e.e.e.e.e.e.e.e.e.e.e.e.e.w.9.9.e.e.e.q.e.e.w.5.*.n k j x 4 7 8 q 8 8 j j x x x A x j x x l x x x x x x x 8 x q 8 x x x x x 8 x x 8 x 8 x x l c x x x x x x x j x 8 x x l x x x x 8 x x 8 8 x A 8 x x x 8 8 A A 8 8 x 8 x 8 A x 8 x 8 A 8 8 x x 8 A 8 x 8 x x A 8 8 x x x x 8 8 x 8 x x 8 8 8 x 8 x 8 A 8 x x x x 8 x A 8 8 x x 8 8 x x x x x 8 8 x 8 8 8 8 x 8 x x 8 x 8 8 x 6 x x 8 8 j 8 j 8 8 8 8 8 8 x g k F O.+.%.&.=.&.&.&.| &.2.&.#.=.#.#.#.=.=.*.=.&.&.&.2.&.2.$.&.&.&.&.&.&.&.&.&.&.&.&.&.&.&.&.&.&.&.&.2.$.#.2.3.5.w.w.w.w.e.e.e.e.q.e.q.e.e.e.q.w.w.1.3.<.#.;.2.5.4.5.w.e.w.e.e.w.q.q.e.e.e.q.e.e.e.e.q.9.9.9.e.9.9.e.e.e.e.e.e.e.e.w.e.w.w.w.w.3.3.2.~ :.,.3.0.w.e.w.q.8.e.e.9.e.e.9.e.e.9.e.e.9.e.e.e.e.w.e.w.w.w.5.3.3.2.>.$.2.&.2.3.3.0.w.e.w.e.e.w.e.e.e.e.e.e.e.e.9.e.9.9.e.e.q.q.w.q.e.e.e.w.9.q.e.e.e.e.e.e.e.e.e.e.e.e.e.e.e.e.e.e.e.e.e.e.e.e.e.e.e.e.q.e.e.e.e.e.e.e.e.e.e.e.e.e.e.e.e.e.e.e.e.e.e.e.e.e.e.e.e.e.e.e.e.e.e.9.e.e.0.4.&.%.K g l j 7 q q 7 8 6 x 8 8 6 8 6 8 8 8 x 6 x 8 8 8 6 8 6 x 8 8 8 8 8 8 8 8 8 6 8 6 x 6 8 8 ",
"%.%.o.%.%.%.%.%.%.%.%.+.%.o.%.o.o.@.%.o.o.%.o.%.o.%.o.%.o.%.o.%.o.%.%.o.%.%.o.%.%.} o.o.o.%.o.%.o.o.o.%.+.o.o.o.o.+.%.o.+.o.o.%.o.o.o.%.o.+.o.%.%.o.%.o.o.o.%.o.o.+.o.o.O.o.o.o.o.o.o.O.o.O. .+.o.o.o.O.o.X.o.o.o.o.' o.X.o.o.o.o.o.o.X.o.o.o.o.o.' o.X.X.o.o.o.` o.o.o.X.o.X.' o.o.o.o.o.o.X.o.O.O.O.X. .O. .O.O.X.X.X.X.O.O.X.o.O.o.X.X. .X.X.X.X.X.X.O. .X.o.X. . . .' o.o.' o.' ' ' o.' ' ' ' o.o.o.o.o.o.' %.o.%.o.+.o.%.%.%.o.%.+.%.+.%.o.%.%.%.%.%.%.%.%.*.&.&.*.&.&.&.*.%.%.%.%.o.%.%.o.+.+.+.o.+.+.o.o.o.o.o.o.' o.( ` X.` ` X.` ` ` ` ` ` X.X.` X.X.X.X.X.X.V X.` X.X.H X.H H H H H X.X.H X.H X.H H H X.H H X.X.X.X.X.H H X.X.H X.X.H X.H H H H H H H H H X.V H H H H H H V H H X.H H H X.H H H X.H H H H H H V X.H H H H H H H H H H X.H H H H H H H H H H H H G G H H G H D G H H G G H H G J H G H H G G H H B B H G G G G G H G G V G B H H B H B B H B H H B H B G V G G H B G H G G H J H H G G H G G G B G G B B H G G G G B G G G B G G H G G G G D G G D B G B V B B B H B V B B V B B V B V B B B V M B B V N V o.%.*.&.&.&.&.&.&.&.&.&.&.&.&.&.&.&.&.&.*.&.&.&.&.=.*.&.&.&.&.&.2.&.&.2.&.&.&.&.&.#.#.=.&.#.@.#.&.&.&.&.&.&.&.&.&.*.&.*.&.*.&.*.&.=.&.&.&.&.&.&.&.&.&.*.=.&.&.&.&.&.&.&.&.&.&.*.*.&.&.#.*.#.#.=.#.#.&.&.&.&.| 2.&.&.2.&.&.&.&.*.=.#.&.&.&.&.&.&.&.&.&.&.=.#.&.@.=.$.#.=.=.=.@.#.@.=.&.&.*.&.*.*.$.=.*.*.*.%.+.+.O. . .F m n M k k k M k c c c B c c c c c c c x c c c c c c c c c k c k c c c z c c c c z c c c S k c c c c c c S c S c c c c c c c c x x c k S c c k c c x x c c S c S c c k S c c c k c c x c c c c c c k c x x c c l x c x c c x c c x c c x x c c l c x z c x c c c c c x c c x x c l c c l c l c x c x z x c l c x c x c x c x c l z x x k k x x S x A x c k x k k M n =.w.w.w.e.e.9.e.e.e.e.e.e.e.e.e.e.e.e.e.e.e.e.e.e.e.e.e.e.e.e.e.e.e.e.e.e.e.e.e.e.e.e.e.e.e.e.e.e.e.e.e.e.e.e.e.q.e.q.q.e.w.w.4.*.D u j j 9 x A A x x k j k S k k k k k M k z k l g c c x A x x l x c x x 8 j x A x x x x x l x x x 8 x x x 8 x x x x 8 x l x x x x 8 A x 8 8 x A 8 x x x x 8 x x A 8 x A 8 8 x x x A 8 x x 8 x x 8 x 8 x 8 x A x x 8 A 8 A x 8 A 8 8 x x 8 x x x 8 x x 8 x 8 A x 8 8 A x 8 A x 8 x x 8 8 x x 8 x 8 x 8 8 8 8 x x 6 8 8 8 8 8 x 6 8 x 8 x 8 q 8 7 8 6 6 j n F +.*.*.=.&.&.:.:.2.&.2.&.&.=.#.=.$.=.*.=.&.#.*.&.&.=.&.&.&.&.&.&.&.&.&.&.*.&.&.=.*.&.&.&.&.*.&.&.&.&.&.&.@.#.2.5.5.w.w.w.e.e.w.w.q.q.e.e.e.w.5.3.3.3.$.#.$.&.=.&.2.3.w.0.w.w.e.e.w.e.e.e.e.q.e.e.e.9.e.9.q.9.w.e.w.e.e.e.e.e.w.q.e.w.w.5.3.3.:.2.>.:.>.| >.3.5.w.w.e.e.e.w.e.e.e.e.e.9.e.9.e.e.e.e.e.w.w.w.w.w.5.3.2.2.2.&.4.&.&.2.:.:.3.3.w.w.w.w.e.w.w.e.e.e.e.e.9.9.9.e.e.e.e.w.e.w.w.8.w.w.w.e.e.e.e.e.e.e.e.e.e.e.e.e.e.e.e.e.e.e.e.q.e.w.e.e.e.e.e.e.e.e.e.e.e.e.e.e.e.e.e.e.e.e.e.e.e.e.e.e.e.e.e.e.e.e.e.e.e.e.e.e.e.e.e.e.9.e.,.,.2.&.*.o.M j 8 4 7 7 0 8 8 8 8 8 l 8 8 x x 6 8 6 6 8 8 6 8 6 8 6 8 6 8 x 6 8 6 8 6 8 x 8 x 8 x 6 ",
"o.%.%.%.%.+.o.%.%.o.%.%.%.%.%.' %.%.o.%.@.+.%.o.+.@.%.o.@.o.@.o.o.%.%.o.%.o.%.o.o.o.%.o.o.o.%.' %.o.+.o.%.o.%.o.o.%.o.o.o.%.o.o.o.%.o.o.%.o.o.o.o.+.o.o.o.%.o.o.o.+.o.O.o.o.+.o.o.+.o.o.o.o.o.o.o.o.o.o.o.o.X.o.X.o.X.o.o.o.` o.o.` o.o.' X.o.X.X.o.o.X.' o.X.' o.o.o.X.o.o.o.o.X.o.X.' X.o.o.o.O. . .O.o.X.o.X.O.o.o.O.o.X.o.O.X.O.X.O.o.O.X.X. .O.X.O.X.X.X.O.X.o.X.o.o.o.X.o.` o.o.' ' ` o.o.' X.( o.( o.` o.`  ...` ` o.o. .' o.' ..' ' ' ' ' o.o.o.o.o.o.) ' o.' o.o.o.' ' ' ' ' ' o.' ' o.X. .`  .` ` X.` ` X.` ` ` ` ` ` X.X.X.X.V X.X.V X.X.X.X.X.X.O.X.X.X.` X.H X.H H K H H X.X.H X.X.H H H K H K H X.H H X.H H H H X.H X.H H H H X.K H H X.X.H X.H X.H X.H H H X.H X.X.H X.H H H X.V H V H H H V H H X.V H H H H H H X.H H H X.V H H H H H H H V V H G G H G G H H G G H H H F H G H G H H G H H H G G H H B B H H B V G H V V G G V G H H H B H H B H B H H B H H B H G G H V H G G G G H G J H G G G B V D G G H B G B H B G G G G B H G G B B G G G G V G B H H B B G G V B B B V B B B B B B M B B V M B B V B B B N ` +.*.&.=.4.&.&.&.&.&.&.&.=.%.%.*.*.*.&.&.&.&.*.=.&.&.*.&.*.&.:.&.2.| &.&.&.&.&.&.*.=.*.&.=.=.&.&.&.&.&.&.&.&.&.&.&.&.*.*.*.&.&.&.*.=.=.&.&.&.&.&.&.&.&.*.=.&.&.2.&.&.&.&.&.&.&.&.=.=.=.=.*.=.*.=.*.&.&.&.&.&.&.&.&.&.2.2.&.&.=.=.*.&.&.&.&.#.&.&.&.=.&.*.&.=.#.=.@.$.#.$.=.&.=.=.=.=.=.=.=.*.%.+.o.+.O. . .m n m n m n m k k k B c c c c c c c c c c c x c c c k c c S c c x c c c c c c c c c c c z c c c S x c c x S c x c S x c k x c c c c c x c S k c c x c c S x c c c c c x c k x c c c x c c x x c x c x c k x c x c c x c c x c c c c x c l c c x x c c x c c c l x c c x l x c x c l c c c x c x x c x c l c z x x c x c l c l c l c x z x c x c c x A x A x x x x x c x c k k m 4.w.w.8.e.9.9.e.e.e.e.e.e.e.e.e.e.e.e.e.e.e.e.e.e.e.e.e.e.e.e.e.e.e.e.e.e.e.e.e.e.e.e.e.e.e.e.e.e.e.e.e.e.e.e.9.q.e.e.q.e.e.e.w.4.o.d h S Z x k h t a a m n n n m v b n b b v v v v h z k k S k c z c x x x x 8 x 8 x x x x c x 4 x x x x x x x l l x x x x 6 l 8 x x 8 8 x x 8 8 x 8 8 8 x x 8 x 8 x 8 8 x 8 x 8 x 8 x x 8 A 8 x A 8 x 8 x 8 8 8 8 x 8 x 8 x x x x x A 8 x 8 x 8 x x 8 x 8 x 8 8 x x 8 8 x 8 x x 8 8 x 8 x 8 x 8 x 8 x x 8 x 8 8 x 8 x x 6 x 8 8 x 8 x 4 8 8 q 8 x j g k H O.*.=.#.&.2.2.2.| :.2.&.&.&.&.=.#.=.=.@.=.*.=.*.=.*.*.*.&.&.&.*.&.&.&.&.&.&.&.&.&.&.&.*.&.*.&.&.*.&.*.&.2.&.$.>.3.3.w.w.w.e.w.w.w.w.e.q.w.0.3.3.>.2.#.2.&.&.=.&.&.&.{ :.3.3.w.w.w.w.w.w.e.w.e.e.e.e.e.e.e.e.e.e.e.e.w.w.e.w.w.w.w.w.5.3.2.>.2.2.2.&.2.>.2.| | 2.3.5.w.w.e.e.w.e.e.w.w.e.w.e.e.e.e.e.w.w.w.5.5.2.2.>.$.#.#.&.&.&.&.&.2.>.2.2.3.5.w.w.w.w.e.w.e.w.w.e.e.e.e.e.w.e.e.w.w.w.,.:.,.1.w.w.w.e.e.e.e.w.q.e.e.e.e.q.e.e.e.e.e.e.e.w.e.e.w.w.e.w.e.e.e.e.e.e.e.e.e.e.e.e.e.e.e.e.e.e.e.e.e.e.e.e.e.e.e.e.e.e.e.e.e.e.e.w.e.w.w.w.,.>.>.&.&.+.V j 4 x 8 7 8 8 8 8 6 8 8 8 8 8 8 6 8 x 8 6 8 x 8 x 8 8 x 8 8 6 x 8 8 8 8 8 6 8 6 6 8 8 ",
"%.+.%.%.%.%.%.%.%.%.%.%.%.%.o.%.%.%.o.%.@.%.o.%.o.o.%.o.%.o.%.%.%.%.o.@.%.o.%.%.%.' %.o.%.o.%.o.o.o.o.o.%.o.%.o.o.o.o.o.o.%.o.%.+.%.o.o.o.%.o.%.+.o.o.o.%.o.%.o.o.o.+.+.+.o.o.o.o.o.O.o.o.o.O.o.O. .+.o.o.X.o.o.o.o.o.o.o.o.o.X.X.o.o.o.o.o.o.o.o.o.o.' ` o.o.o.o.X.o.o.X.o.o.X.o.' o.o.' X.o.`  .o.O. .o.O. .O.X.o.o.X.X.O.X.o.X.O.X.X.X.X.O.X.X.X.X.X.X.X.X.X.o.X.o.X.o.X.X.o.o.X.o.` o.` ` o.X.X.o.X.o.X.o.X.o.X.o.o.o.X.X.X. .o.X. . . .o.X.X. .o. . .o. .o.o.` (  .o. .` o.` o.X.o.` o.o.` ` X.` X.X.` X.` X.X.X.` X.X.X.X.X.X.X.H X.X.X.H H H X.X.X.K X.X.X.X.` H X.V H H X.H H X.H X.` H X.H O.H H H X.H H X.H H H X.H H X.K H X.X.H H X.H X.H H H H H H X.V H H X.H H H H H H X.H H H X.H H H X.H H H H H H H X.H H H X.H H H H H H H V H H X.V V H H H H D G H G H H H H G H G H G G H H H G K D H H H H H B H H H B H H G G H H B H G G H G G H B H H H B H H G V G G G V H G G G V G G G G G J G G G G B H D B H G G G H G G G G G H G G G G D G G B G B H G G G H B B B V G V B B B V B B V B B B B V B B V B B B B B V b ` o.o.*.=.*.&.&.*.=.=.=.=.*.%.*.*.*.*.*.&.*.&.&.&.&.*.&.&.&.&.&.&.&.&.&.&.&.&.&.&.&.&.&.=.&.&.=.&.&.&.&.&.&.&.&.&.&.&.*.&.*.&.&.&.&.&.&.&.&.&.&.&.&.=.=.&.&.&.&.&.&.&.&.&.&.&.&.&.&.&.&.&.&.*.&.&.&.*.&.&.&.&.&.&.&.&.&.&.&.$.*.&.&.&.&.&.=.=.*.&.&.%.*.*.@.$.$.*.$.=.=.=.=.*.*.%.+.%.o.o. .H V H F n n n n k n k B B B G S S S c c c c c c c c c S c c l z c c c c c c c c c c c c x x c c c c c c c c z c c c x c c c c c x c c c c c c c x c c c c c c c c c x S k S c c S c c x c c x c c x c c c k x c x c c c c c c l c c c x c c x z x l c x c c c c c x c c x c c c l x c c c x c c c x c c x c x c x c l x c l x c x c l c x z x c l c l c x c x k C x x x A x A c x c k c k k X.5.e.w.q.9.e.9.e.e.e.e.e.e.e.e.e.e.e.e.e.e.e.e.e.e.e.e.e.e.e.e.e.e.e.e.e.e.e.e.e.e.e.e.e.e.e.e.e.e.e.e.e.e.e.e.e.9.e.e.9.q.e.e.w.w.4.) a # t u t a ( ( %.@.*.*.*.=.4.4.4.=.=.=.=.o.' / v v a v n z z z c x x x x A x x 8 x x x x x x x x x x x j x 8 l x x l x x x 8 8 x x 8 x x 8 A 8 x x 8 x x x 8 8 A x x 8 x 8 x 8 x 8 x x 8 8 x 8 x 8 x 8 x x 8 x 8 A 8 x 8 8 x 8 x 8 x x 8 8 x x 8 x 8 A 8 x 8 x x A 8 8 x 8 x 8 x x x 8 6 8 x x 8 8 x x 6 8 x x 6 x 8 x 8 x 8 8 8 8 8 8 9 8 x j k D +.*.=.&.$.&.2.2.2.2.&.&.&.&.&.&.&.&.&.&.=.&.=.&.*.=.&.&.&.&.&.&.&.&.&.&.&.&.&.&.&.&.&.&.=.&.=.&.&.&.&.&.&.&.&.&.2.>.#.5.3.5.5.w.5.w.w.w.w.3.2.>.&.| $.&.=.=.=.&.&.&.2.2.>.2.2.2.3.3.3.w.w.w.w.w.w.e.e.w.w.e.w.e.w.w.w.w.w.w.5.3.3.2.2.2.2.| 2.&.2.2.&.&.&.2.&.2.2.:.2.3.3.3.w.w.w.w.w.w.w.w.w.w.e.w.w.5.5.2.3.2.2.2.#.$.&.&.&.&.&.&.=.&.| 2.:.2.2.2.5.w.w.w.w.w.w.e.e.w.e.e.w.w.w.w.w.3.3.3.>.>.<.4.5.w.w.w.w.e.e.w.e.e.e.e.e.e.e.e.e.e.w.w.w.w.w.w.3.w.w.w.e.e.e.e.e.e.e.e.e.e.e.e.e.e.e.e.e.e.e.e.e.e.e.e.e.e.e.e.e.e.e.w.e.e.e.w.w.5.4.2.2.2.&.=.+.X.k 2 x 7 7 q 7 8 8 8 8 8 8 x 6 6 6 8 8 8 6 x 8 6 x 8 8 6 8 8 6 8 8 8 6 8 8 8 6 8 8 6 8 ",
"%.%.o.%.%.o.+.%.o.+.%.+.%.o.%.o...%.%.o.o.o.%.%.%.%.%.%.%.o.o.%.o.%.o.+.%.o.o.%.o.%.o.o.' %.' %.%.o.%.o.o.o.o.o.o.%.o.%.+.o.o.o.o.o.o.%.o.o.+.o.o.o.%.o.o.o.%.o.+.o.o.o.O.o.+.+.o.+.o.o. .o.o.o.o.o.o.o.o.o.o.o.X.X.' X.' X.o.o.o.' o.` ` X.o.X.o.X.o.X.o.o.o.X.o.o.o.X.' o.o.o.o.X.X.o.o.o.o.X.o.X.o.o.o.O.X.O.O.O.X.X.o.X.o.X.o.O.X.X.o.X.X.X.X.O.o.O.X.o.o.X.o.X.X.X.X.X.o.X.o.X.o.X.X.X.o.X.`  .X. .X. .O.X.X.O.X.O. .X.O. .X.X.X.X.X.X.X.X.O.X.X.X.X.X.X.X.O. .O.o.X.O.O.O.X.X.X.X.X.` X.X.X.X.X.X.X.X.X.H V X.V X.X.X.X.X.X.H K X.K X.H X.X.H X.H H X.X.X.X.X.X.` X.X.X.H H X.X.H H X.X.H H H H H X.H H  .X.H K X.H K X.X.H H X.H H X.H H H V V H X.H X.V H H V X.H H V X.X.H H V X.H H H H H H H H H X.H H H H H H H H H H H X.V H H H X.H H H H H H V H H H F H G H H D H H H G H H H G G H H D H G G H B B H H H B B H G V H B B H G G V G B H B H H B B H H B H G G H H G G V G H H G G H H G H H G G G G H B G G B D G B G B B G G B B H B B H B G H G G G B G B G G H B B B B B V B B B B B V B B V B B B B V B V B J S k V ` ` ' o.o.o.%.o.%.*.*.*.*.*.*.*.*.&.*.&.&.&.&.&.&.&.&.&.&.&.&.&.&.*.&.&.&.&.&.&.&.&.&.&.&.*.*.&.&.&.&.&.&.&.&.&.&.&.&.&.&.&.&.&.&.$.&.2.&.&.&.&.=.#.&.&.&.=.2.&.2.&.&.&.&.&.&.&.&.&.&.&.&.&.&.&.&.&.&.&.&.&.&.&.&.&.&.&.#.*.&.=.&.&.&.&.=.=.&.%.*.*.=.*.*.*.*.*.*.%.+.+.o.o.O.` V V N b V n n n G n B k k c c k c S k S c c k x c x c c S c c c c c c c c z c c c k B c c c c c c S k c x c z c c c c c x c c c c x c c c c x c x c x c c c c c k x c x c c c c x c x c k x c c S c c c c c c c k x c c k c l c x c x k x c l c c x c x x c c c x c x c c x l c c x x c x c c x c x x c x c c x x z x c l c x c c l c c l c x c x c x c x c x c l c l c x x S x x x c x x x c j k k h +.5.w.w.e.e.e.e.e.e.e.e.e.e.e.e.9.e.e.e.e.e.e.e.e.e.e.e.e.e.e.e.e.e.e.e.e.e.e.e.e.e.e.e.e.e.e.e.e.e.e.e.e.e.e.e.e.e.e.e.w.e.e.q.e.w.w.4.T $ s ( o.&.4.5.w.w.w.w.w.5.w.w.w.w.w.w.5.5.4.&.@.' ( s s - - z l k x x x x 8 x A x x x x x x 4 x x x x 8 x x x x 8 x x x 8 x x 8 8 A x 8 x x x 8 x x 8 8 8 x x 8 x 8 x 8 x x x 8 A x 8 x x 8 x x A 8 x 8 8 x 8 x 8 x 8 A x 8 8 x A 8 8 x x 8 x x 8 x x x 8 x x 8 8 x x 8 x 8 x 8 8 x 8 x x 8 6 x x 8 8 x x 8 8 x x 8 8 x 8 8 x A 8 A 8 8 8 x j h O.*.*.=.&.&.$.$.| 2.&.&.&.&.&.*.&.&.2.&.#.=.&.=.&.#.&.&.&.&.&.&.&.&.&.&.&.&.&.2.&.&.&.&.&.&.&.=.&.*.&.*.&.*.&.&.&.&.2.2.>.&.2.2.2.2.2.2.:.2.:.2.2.&.&.*.=.&.&.&.*.&.&.&.&.&.&.#.&.#.2.2.2.2.3.3.w.3.3.w.w.3.0.5.5.0.5.5.3.5.2.>.2.2.2.2.:.&.2.&.&.&.=.&.&.&.&.&.2.2.2.| 2.3.3.2.3.3.w.w.w.w.3.w.3.3.0.3.2.4.#.#.#.$.&.&.&.&.&.&.&.&.&.&.&.&.&.&.2.2.2.2.2.3.3.w.5.w.w.w.w.w.w.w.5.5.3.3.>.| | @.&.2.&.2.5.w.w.w.w.w.e.e.e.w.e.e.e.e.e.e.e.w.w.w.5.w.3.>.w.w.w.w.w.e.e.e.e.e.e.e.e.e.e.e.e.e.e.e.e.e.e.e.9.e.e.9.9.e.e.e.e.e.e.w.w.w.w.w.@.&.&.2.2.4.&.%.O.M g 4 8 8 7 8 8 8 8 l 8 8 8 8 x 8 8 8 8 8 6 8 8 8 6 6 8 8 6 x 6 x 8 x x 8 6 x 8 8 8 6 ",
"%.%.%.%.%.%.%.%.%.%.%.%.%.%.o.@.%.o.o.%.%.o.%.o.o.o.o.%.o.%.%.o.%.o.%.%.o.%.%.o.%.o.' %.o.%.%.o.%.o.%.o.o.%.%.o.%.+.o.o.o.%.o.o.%.o.o.o.o.%.o.o.%.o.o.%.o.o.o.+.o.o.o.o.o.o.O.o.o.o.o.o.o.o.o.o.o.o.o.o.o.o.o.o.o.o.o.o.o.X.' X.X.o.o.' o.o.o.' o.X.o.X.o.X.' o.' o.o.' X.X.o.X.o.o.' o.o.' X.o.o.O.X.o.o.X.X.O.X.o.O.o.o.X.X.o.o.X.o.X.X.X.o.X.o.X.X.X.X.X.X.X.X.o.O.o.o.O.X.O.X.X.X.X.X.X.X.X.X.X.X.H H  .X.X.X.X.X.X.X.X.X.X.X.X.X.X.X.X.` X.X.X.O.X.X.X.X.O.X.O. .X.X.X.X.X.X.X.X.X.X.X.X.H X.V ` X.H X.X.X.H ` H H X.H X.X.K X.X.H H X.K H K X.K X.X.K X.X.X.o.` ` ` X.H ` H H X.V X.X.` ` X.F X.H H H X.K X.H X.H X.H X.H X.H X.H H X.X.H V X.H H V H H X.X.H X.H X.H X.H V X.H X.V X.H X.H X.H H V H H H H X.H H V X.H H H H H H H X.H H H H H H H V H H H G H H H G H H G H K H G H H H G H H G H H H H H B H B B H H B G G G G H G G V V G H V B H H B V G B H V G G G G G H G H G G V G G H J H G H G H B B G G G H B G G G G B H G H G G D H B G G B B G G B G B G G H G V G B V B B B B B M B B B B M B B B B B B B S A c J n n m H V  .` X.o. .+...+.+.%.%.*.*.&.&.&.&.&.&.&.&.&.&.&.&.&.&.&.&.&.&.&.&.&.&.:.2.&.&.&.&.&.&.&.2.2.2.2.2.&.$.2.&.$.$.#.$.$.$.&.&.=.$.2.2.$.$.&.=.$.&.=.$.=.=.=.&.$.&.&.&.&.&.&.&.| 2.&.&.&.&.&.&.&.&.&.&.&.&.&.=.&.=.=.$.&.#.&.&.=.&.*.&.&.&.&.*.&.%.+.O.O.O.X.H H F M B M B c B B c c n n J G S S S c S S x x x x c c c S S S c c S c S c c c c c c c c B z B c c c c k S k c S c c c c c c c c c c c c k c c c k A c A c c c S x c k S c x S S c c c k c c c c x c S x c c c c c c x k c c x c c c x c c k c k x c c c x c c x c c c c x x c c x c c c c c l c c x c c c c x c c x c l c x c l c l c x c x x c x c c x c x c l c x c x c x c x c x x c C x x A x x c x c x k B k *.w.w.w.9.e.e.e.e.e.e.e.e.e.e.9.e.e.e.e.e.e.e.e.e.e.e.e.e.e.e.e.e.e.e.e.e.e.e.e.e.e.e.e.e.e.e.e.e.e.e.q.e.e.e.e.e.e.w.w.e.e.q.q.e.q.e.w.3.@.@.4.5.5.w.w.e.w.w.w.w.e.9.e.9.e.e.e.e.w.e.w.w.5.=.} ( V c z z l c x x x A 8 A x x x x x x x x 8 x x x x x l x x l x 8 A 8 x x x 8 8 x x 8 8 x 8 x 8 A x x 8 x x 8 x 8 A 8 x x 8 x 8 x 8 8 A 8 x 8 x x A x 8 x x x 8 8 8 x A 8 8 x x 8 x 8 x 8 8 x 8 x x 8 8 x x 8 8 x 8 x 8 x x 8 x 8 8 8 x 8 8 8 x 8 8 x 8 8 8 x 6 8 8 8 8 8 8 8 x 4 j j g n o.*.=.$.=.$.$.$.&.@.&.&.&.*.*.=.&.&.&.2.&.&.&.&.&.&.&.&.&.&.&.&.&.&.:.&.&.2.2.&.2.&.2.$.&.&.&.&.&.$.&.&.*.&.&.&.&.&.&.&.&.2.2.#.:.&.2.| | &.&.2.&.&.*.&.*.*.&.*.&.&.2.2.&.&.&.&.&.=.&.2.>.#.:.#.2.>.3.>.3.>.>.>.>.2.2.2.| #.| &.2.2.&.2.&.:.&.&.&.*.&.*.*.&.*.&.&.2.&.&.2.2.2.2.2.2.2.2.2.2.2.2.2.2.:.| 2.2.&.#.&.&.&.&.&.&.&.=.&.&.&.*.&.&.&.&.&.2.&.:.| >.>.2.3.3.3.3.3.3.3.2.2.2.| | &.&.&.&.&.=.&.#.2.3.5.5.w.w.w.w.e.w.w.e.e.e.e.w.w.w.5.5.3.>.>.#.2.3.1.w.w.w.w.e.e.e.e.e.e.e.e.e.e.e.q.e.e.e.e.9.e.9.9.9.e.e.e.e.e.e.w.w.w.w.w.2.&.*.&.&.&.&.&.=.+.H j 2 4 8 8 8 6 8 8 8 6 x 8 x 8 8 8 6 x 6 8 8 8 8 8 x 8 6 8 8 8 6 6 x 6 8 8 8 8 8 8 x ",
"o.%.+.%.%.+.%.o.%.%.%.%.o.%.o.o.%.o.%.%.o.%.o.%.%.@.%.o.%.%...%.o.%.%.o.%.%.o.%.} o.%.o.%.' %.o.o.o.o.+.o.o.o.o.o.o.o.%.o.o.%.o.o.o.o.%.o.o.%.o.%.o.o.%.o.%.o.o.O.o.+.+.o.o.o.o.+.O.o.o.o.O.o.O. .o.o.O.X.o.o.o.X.' X.o.' o.o.o.o.o.X.o.X.o.X.o.o.' o.o.o.o.X.o.X.o.X.o.o.o.o.' o.X.o.X.X.o.o.o. . .o.o.o.X.o.o.X.O.X.o.X.O.X.o.X.o.X.o.` o.X.o.` o.X.o.o.X.o.o.X.X.X.X.X.X.X.X.O.X.O.X.X.O.X.X.X.X.X.X.O.X.X.X.X.K X.X.X.X.X.X.X.X.X.K X.X.X.X.X.X.X.X.X.X.X.X.X.X.X.K X.X.X.K ` H X.H X.H X.X.X.X.X.X.X.X.X.K X.X.X.H X.H X.X.X.X.X.X.K X.X.H  .H X.H X. .H X.X.` ` V H X.X.V X.H X.X.` X.V X.H K K H  .X.H  .X.H ` X.X.H H H X.H H H X.H K X.H H V V X.H H H H H H H V H H H H H H H H H H H H H H H X.H H H H H H H H H H H X.H H H H H H H H X.H H H V H V G H H J G H H G H G D H H D G H H G H H G H G G H H B H H B H H H G V H G V H G G H G G H B H H G H B H H B H H G V B H B H G G G G H G G H G B G G G G B G G G B F B G G D B B G G B G H G G G G G G G G F G B G H B B B V B V V B B V B V B B V B B V B B B B S S G S G D D m B n B n D f n m ( (  .X.o.' %.%.%.%.*.&.&.&.&.*.*.*.*.*.&.*.&.*.&.&.&.&.&.&.2.&.&.=.&.=.&.&.&.&.&.$.&.&.$.=.&.=.=.=.&.&.&.#.$.2.$.&.&.&.=.#.&.$.$.=.@.$.=.&.&.&.&.&.&.&.&.&.&.&.&.&.&.&.&.*.&.&.*.*.*.=.*.*.*.*.*.*.*.=.%.*.*.*.%.%.o.o.` ` N N n B n n k M B B c c c B c G c c B S k k S c c c x S x S S c c c S c c c c c k S c c c B c B k c c c c z c c B k c c c c c x x c c c z c c c z c c S x c S x c c c k c c c k S c S x c c c x c c c S x c c c c c c c x c c A k c c c c c x c x c k c c x x c c z x c c x x c z x c x c c x c c l x x c x c c x c c x x c c x z c c x c c x c x c l c x z x c z x l x c z x c l c x z x z x c l c k x c c x x x x x z c j S n t =.w.e.e.e.e.e.q.e.e.e.e.e.e.e.9.e.e.e.e.e.e.e.e.e.e.e.e.e.e.e.e.e.e.e.e.e.e.e.e.e.e.e.e.e.e.e.e.e.e.e.e.e.e.e.e.e.w.e.w.w.e.e.e.q.e.e.w.w.w.w.5.w.w.e.e.e.e.e.e.e.9.e.9.9.e.9.e.e.e.e.e.w.w.w.w.5.' ` M h h x x x 8 8 x x x x x x x 8 x x x x x x l x x 8 x x x l 8 x 8 A 8 x 8 x 8 x x 8 A 8 x 8 x 8 x 8 x A 8 x 8 x 8 8 x 8 x 8 x x 8 x 8 x 8 x 8 x x 8 x 8 x x x x 8 x x x 8 x 8 A 8 x x q x 8 A 8 x 8 x x x x 8 8 x 8 8 x 8 6 x 8 8 x x 6 8 x x 6 8 x x 8 8 x 8 q 8 8 9 x q 8 8 j g B +.=.2.=.#.$.=.=.&.&.#.*.*.*.*.=.&.&.&.&.&.&.&.&.&.&.&.&.&.&.2.&.2.&.&.:.:.&.&.2.&.&.2.&.&.&.&.2.&.&.&.&.&.&.&.&.2.&.2.&.2.2.&.2.&.&.2.2.&.&.&.&.&.&.&.*.&.&.&.&.&.&.&.| &.&.*.&.&.&.&.&.2.&.&.2.2.2.2.2.2.2.&.2.2.2.2.&.2.2.&.2.&.&.&.&.&.&.&.| &.&.&.*.&.&.&.&.&.| &.2.| &.&.2.&.2.&.| 2.2.2.2.2.&.2.&.&.$.&.&.&.&.&.&.&.&.&.=.&.&.=.&.&.&.*.&.&.&.&.&.2.#.2.2.>.| >.;.&.2.#.2.2.&.2.&.&.&.&.*.&.=.*.=.#.#.>.2.2.5.5.5.w.w.w.w.w.w.w.w.1.4.3.#.{ #.#.2.#.#.>.4.w.w.w.w.w.e.w.e.w.e.e.e.e.e.w.e.e.w.e.e.9.9.e.e.9.e.e.w.e.q.w.w.5.3.:.| &.*.&.&.&.&.&.=.+.O.j > 8 8 7 8 6 8 8 8 8 6 8 8 8 6 x 8 8 8 8 l 8 8 8 8 6 x 8 8 8 8 8 8 6 8 8 8 l 8 8 8 ",
"%.%.%.%.%.%.%.o.%.%.o.%.o.%.%.o.%.o.%.o.%.o.%.%.%.o.%.%.o.%.o.%.%.%.%.%.o.o...%.%.' %.o.o.} o.} o.+.o.%.o.%.o.o.o.%.o.%.o.o.o.%.o.+.%.o.o.o.o.o.%.o.o.o.o.o.%.o.o.+.o.+.O.o.o.+.o.o.O.o.o.o.o. .O.o.o.o.o.o.o.X.X.o.o.o.o.X.o.o.X.o.o.X.o.o.o.o.X.o.o.o.' X.o.X.o.X.o.X.o.' o.o.o.o.o.o.o.X.X.o.o.o.O.X.O.X.o.X.o.O.X.O.X.o.O.X.X.o.X.o.X.X.X.o.X.o.X.X.o.X.X.X.X.o.X.o.X.o.X.o.X.X.X.X.` X.X.X.X.X.X.X.X.X.o.X.X.X.X.X.X.X.o.X.X.X.X.o.X.X.X.X.X.X.X.X.O.X.X.X.X.O.X.X.X.X.X.X.X.X.X.X.X.H ` X.X.X.X.H X.X.X.X.X.H X.X.X.H X.X.H X.X.X.X.X.X.X.H X.H X.X.X.X.X.X.` X.` X.X.X.H X.X.H X.H X.X.V X.X.H X.H H X.H H X.X.H H X.H H H X.H H X.H H H X.H X.H H X.H X.H V H H H H H H H V H H H H H H H H H H H H H H H H X.H H H H H H H H V H H X.V H H H H H H H H H G G H H D H J G H H G G H H H D H H G H H H G V G H H B H G H G H H G G H G G V G H V G H H B G G H G G H G G G G H G G H G G G H G G G G G G D H B B H G B G G G G G D G G G B H G G G G G B B V B V G H B B V B B G G B B B B B B B V B B G B B G B G c B B S G S G B B B D B B B B B D B m B m B m V m V m ` V V  .` ` o.o.o.+.+.%.*.*.*.*.*.*.*.*.*.*.&.*.%.*.*.*.*.*.*.*.=.*.*.*.*.*.$.*.*.*.*.*.*.*.&.*.*.&.*.*.*.*.&.*.*.*.*.*.%.*.=.*.*.*.*.*.*.*.*.*.*.%.%.*.*.*.%.*.*.*.+.+.*.+.+.+.o.O.X.X. .H  .H n m n n n B B B B B k G B c B B c S c c B c c S c S c c S c S c c c S c c c c c c c c c c c c B c c c c z c c c c c c c c c c c c c c c z c c x c c c c c c x c c c x k c c x c c S c c c c x c x c c c c c c c x c c c x S k c c c c x S c c x x S c c x S c c x x c x c x c c c x c c x c c x c c x c c x x c c x x c z x c c x c c x c c c x c x x c z c x c x c l c l c l c c z l c l l c z c x c x c x x c z x x x x A A x c x x c x t ` 4.w.e.e.e.e.e.e.e.e.e.e.e.e.e.e.e.e.e.e.e.e.e.e.e.e.e.e.e.e.e.e.e.e.e.e.e.e.e.e.e.e.e.e.e.e.e.e.e.e.e.e.e.e.e.e.e.e.e.e.e.e.e.e.e.e.e.e.e.e.w.e.w.e.e.e.e.e.e.e.e.e.e.e.e.e.e.e.e.e.e.e.e.e.w.e.w.w.4.' s a u k A 8 A x 8 8 A A 3 4 x 8 x 8 x x 8 x 8 x x x 8 8 A x x 8 x 8 x 8 x x 8 8 x x 8 x x 8 A 8 8 x 8 x 8 x x 8 x x x 8 A 8 x A 8 x 8 x 8 A 8 8 x x x 8 x x 8 x x 8 x 8 x 8 A A 8 x 9 8 x x 8 x x 8 x 8 x 8 8 x 8 8 x 8 x x 8 x 8 x 8 x 8 8 8 x 8 8 8 x 8 8 8 8 x l 8 x 8 4 A 4 n +.=.#.4.&.&.&.=.&.*.=.=.*.*.*.&.*.&.&.*.&.&.&.&.&.2.&.2.:.&.2.2.:.&.2.2.&.&.&.&.&.&.&.&.&.&.&.&.&.&.&.&.&.2.&.&.&.&.&.&.&.&.2.&.&.&.&.&.2.2.&.&.&.&.&.&.&.&.&.&.&.&.&.&.&.&.&.&.&.&.2.&.&.2.&.2.2.2.2.&.:.&.2.| 2.2.2.2.&.&.| &.&.:.2.2.2.2.&.2.2.&.&.&.:.&.&.&.&.:.| 2.&.&.&.&.&.&.&.&.&.&.&.&.&.&.&.&.&.&.&.&.&.&.&.&.&.&.*.&.&.*.&.&.&.&.&.&.&.&.&.&.&.&.&.&.&.2.&.&.&.#.&.#.&.#.=.*.&.&.&.=.=.*.&.#.=.$.2.2.>.2.>.2.2.3.2.3.>.>.2.2.>.2.2.$.&.>.&.#.#.#.#.$.3.2.2.5.0.0.w.w.w.e.w.w.w.e.w.e.e.e.e.w.e.e.e.e.e.w.w.e.w.w.3.3.:.:.:.:.| &.&.&.2.| &.*.+.O.c g l 8 8 8 8 8 8 8 8 8 x 6 8 8 8 6 x 8 8 8 8 6 8 6 8 8 8 8 8 8 8 6 8 8 8 6 8 6 6 8 ",
"%.%.%.o.+.%.%.%.%.+.%.%.%.o.%.o.o.@.o.%.@.+.%.o.o.%.%.o.o.%.%.o.%.o.o.%.%.%.%.o.o.%.o.%.%.o.o.%.%.o.o.o.+.o.%.o.o.o.o.o.%.o.o.o.o.%.o.o.+.%.o.%.o.+.o.%.o.%.o.o.o.o.o.+.o.o.o.o.o.+.o.o. .O.o.o.O.o.o.o.+.o.o.o.o.o.' X.o.o.o.X.' o.o.o.o.` o.` ' o.o.X.o.o.o.` o.' o.o.X.o.X.o.X.X.' X.' o.o.o.O.X.O.o.o.X.O.X.o.X.o.O.o.X.O.o.X.o.X.X.o.X.X.X.X.X.X.o.X.X.o.X.X.X.X.X.X.X.X.X.o.X.o.X.X.o.X.X.X.X.X.X.X.X.` X.X.X.` o.X.X.X.` X.X.X.X.X.X.X.X.O.X.X.X.X.X.X.X.X.X.X.X.X.O.X.X.X.X.X.H X.X.X.X.X.X.X.X.H ` X.X.X.X.X.X.` X.X.X.X.X.X.H H ` X.X.X.X.X.X.H X.X.H H X.H X.V H ` X.V V X.X.X.V X.X.H H K H X.H H X.K H H H X.K H X.H X.X.H H X.X.H H H H H H V H H H X.H H H X.H H H X.H H H X.H H H H V X.H H H X.H H H H H H H X.H H H X.H H H H H H H V V H H H G F H G H H H H H H G H H G H D B H G H H G G H G G G G G V G V H B G V V G B H G G G G G G H B H G G G G G G G G G G G H J G H H J G H G G G G B G G G B G H D G G G B V G G B G G B G B G H B B G G B B B G V B B V G G V B B B B B B G B B B B G B B B G G B B B G B B B B B G B G B B B B B B n B n B n B n n B N V V V V m H F H  .m V O. .O.O.o.X.+.o.o.+.*.%.%.*.*.*.*.%.*.*.*.*.*.%.+.*.*.%.*.%.*.%.%.%.*.*.*.*.*.*.*.*.*.%.*.*.*.%.*.*.*.*.*.*.*.*.*.%.+.*.+.+.+.o. .O.O.F F O.F F F F B D n B M n B k B B B B B S k G c S c S c S S c S c S S S c G c S c S G c S S c c c c c c c c c B c c c c c c c c c c c c c c z z c c c c z c z c c c c c c c c S x x c x c c c c c c S c S c c c x c c c c c c S c c x c x c c S c c x c c S x c c k S c c c c c S x S x c x c c c c c x c c x c c x x c c x c l x c c x c c x c c c x x c c x c x l c c x c x c c c x x c c x c x c x c x c x x c c c c c c x x z l c x z x c c c c x x 4 q 8 l x l x C h ` 4.w.w.e.e.e.e.e.e.e.e.e.e.e.e.e.q.e.e.e.e.e.e.e.e.e.e.e.e.e.e.e.e.e.e.e.e.e.e.e.e.e.e.e.e.e.e.e.e.e.e.e.e.e.e.e.e.e.e.e.e.e.e.e.e.e.e.e.e.e.e.e.e.e.e.e.e.e.e.e.e.e.e.e.e.e.e.e.e.e.e.e.e.e.e.e.e.0.w.5.$.T e j c x 8 8 x A 8 4 A x 8 A x A 8 x x 8 x 8 8 8 x x 8 x 8 8 x x x x 8 8 A A 8 8 x x 8 x 8 x x 8 x 8 x 8 A x 8 8 x x 8 x x 8 x x A 8 x 8 x x 8 8 8 x 8 x x x x x x A 8 8 8 8 8 9 8 4 q 8 x 8 x x 8 x x x 8 8 x 8 x x 8 8 x 8 6 6 x 8 x x x 8 x x x 8 8 A 4 9 8 x 6 8 8 8 A , k +.*.&.2.&.&.&.&.&.&.&.&.&.=.*.&.*.&.*.&.&.&.&.&.&.&.&.&.&.&.:.&.&.:.2.2.&.&.&.&.&.&.&.&.&.&.&.&.&.&.&.&.&.&.&.:.&.&.&.:.&.&.&.&.:.&.&.&.&.| &.:.&.:.&.&.&.&.:.&.&.&.:.&.&.&.&.&.| &.2.&.&.&.&.&.&.&.2.&.&.&.2.&.2.&.2.&.&.:.2.2.&.&.| &.2.&.2.:.&.:.:.&.&.&.&.&.&.&.2.&.&.2.2.&.&.2.2.&.&.&.&.&.&.*.&.&.&.&.&.&.&.&.&.&.&.&.&.&.&.&.&.&.&.&.&.&.&.&.&.&.&.&.&.2.&.&.&.&.&.=.&.&.&.*.=.#.&.&.&.@.&.=.&.&.&.&.#.$.&.&.$.$.$.&.$.&.$.&.2.$.&.2.$.&.2.&.$.&.&.&.&.#.#.$.&.2.<.1.1.1.5.5.0.0.w.w.w.w.w.w.e.w.w.w.w.8.w.w.5.5.3.3.2.| &.>.2.&.&.&.:.:.2.&.&.&.%.+.M g l 6 x 8 x 6 x 8 8 8 6 8 x 8 8 8 6 8 6 x 6 x 8 x 8 8 8 8 x 6 8 8 8 6 6 x 8 x 8 8 ",
"+.%.o.%.%.o.%.+.%.%.%.%.o.o.%.%.%.%.o.%.%.o.o.%.@.+.o.%.@.o.%.%...o.%.%.o.%.o.%.o.o.o.%.o.o.%.o.o.%.o.%.o.o.o.o.+.%.o.o.o.%.o.%.o.o.o.o.%.o.o.o.%.o.%.o.o.o.o.o.o.o.o.o.o.+.+.O.o. .o.o.+.o.o.O.o.o.o.o.o.o.o.X.o.X.o.o.' o.o.' X.X.o.X.o.X.o.X.X.o.o.' o.o.` o.o.X.X.o.o.o.' X.o.o.o.o.o.X.o.X.o.o.X.o.o.O.o.O.O.O.X.X.o.X.X.O.X.X.X.X.X.o.X.o.o.X.X.X.o.X.o.X.X.o.o.X.X.o.X.X.X.X.X.o.X.X.X.X.X.` ` X.X.X.X.X.X.X.X.X.X.` X.X.O.X.X.X.X.X.X.X.X.X.X.X.X.X.X.X.X.X.O.X.X.X.X.X.H X.X.` X.X.X.X.X.X.X.X.X.X.X.X.X.X.X.X.X.X.X.X.X.X.X.H X.H X.H X.H X.H X.X.X.H X.H X.H X.X.` H X.X.X.V ` H H X.H X.X.H H X.H X.X.H H X.X.H X.H H K H H H K X.H H H X.V H X.H H H H H H H H H H H H H H H H H H X.H H H X.V H H H V H H X.H H H X.H H H H H H H H H H V V H V H H G H H G H G H G H D H H G H H H H G H H H F G G H H G G V G G B V G G V G H V G H B H H B H H G G H G H G H J G H J H G H G G G H G G G G G G G G H B G G B B B G G G B G G G G G F B H H B G G G B G H B B B B B B H B G B B B B B B B G B G B B B B B B B B B B B B B B B B B B B B B G B G B n n J n D D B V M B N B V m B B n n n m m m m v v m v N m N ` N N V N F ( m  . .o.O.o.X.O.o.O.o.' O.o.o.O.o.O.X.o.X.X.o.X.O.X.X.X.O.O. .X.X. .O.( V V V m ( V V m V N n n m m m n n n n n n n n n n n B k k B B k c B B k B k c S S c S c c G S c S c S c S c c S S c S S c S c c c c c c c B c c c c c c c c B c c c c c c c c c c c c c z c z c c c c c c c k S x c c c x c x c c x c x x c c c x c c x c c c c k S c c k A S k c c c c c c x c c x c k c c S x x c c x c S c x x c x c c x l c x c x c l c c c c x c z c c l c c c l c c x c c x c x l c c l x c c l c c x x z l c x c x c c z c x k x c l c x x c c c c l l c l c A q A x z c x c k u ` 5.w.e.e.e.e.e.e.e.e.e.e.e.e.e.e.e.e.e.e.e.e.e.e.e.e.e.e.e.e.e.e.e.e.e.e.e.e.e.e.e.e.e.e.e.e.e.e.e.e.e.e.e.e.e.e.e.e.e.e.e.e.e.e.e.e.e.e.e.e.e.e.e.e.e.e.e.e.e.e.e.e.e.e.e.e.e.e.e.e.e.e.e.e.e.e.e.w.e.w.5.$.o.d r c 8 8 x x 8 x x 8 x x 8 8 x x 8 A x 8 x x 8 8 x x 8 A 8 A 8 x x x x 8 x x x 8 A x x x 8 x A 8 x A 8 8 x x 8 8 x 8 x x 8 8 x 8 x x 8 8 x x 8 8 A x x 8 x x 8 x x A q 8 A x 8 q x 8 x 8 x x 8 x 8 8 x x 8 x 6 8 x 8 x 8 x 8 x 6 8 8 x 8 8 8 x 8 x 8 9 8 x x x x 8 8 A 2 k O.*.&.| 2.&.&.&.&.&.&.&.&.&.&.#.&.$.&.&.&.*.&.*.&.&.=.=.&.&.&.&.&.&.&.2.2.&.2.&.&.&.2.&.:.&.&.&.&.&.&.&.&.2.2.&.&.2.&.&.2.| &.2.&.&.&.&.&.&.&.&.&.&.&.&.&.&.&.&.&.&.&.&.&.&.&.&.&.&.&.&.&.&.&.&.&.&.&.&.2.&.:.&.2.&.| &.&.&.&.&.&.&.2.&.&.:.&.&.&.&.&.&.&.&.&.&.&.&.&.&.:.:.&.| 2.2.&.2.&.&.| &.&.&.&.&.2.2.:.&.2.&.2.&.&.&.&.2.&.| 2.&.&.&.&.2.&.2.2.2.:.&.2.&.2.&.2.2.&.&.2.&.2.&.&.&.&.&.2.2.2.&.2.&.&.$.*.=.*.$.&.*.*.@.*.&.&.=.*.&.&.&.&.&.&.&.&.&.2.&.&.&.&.&.&.@.#.>.=.<.3.#.2.>.3.2.5.3.3.3.5.5.5.1.4.<.>.=.#.#.#.@.#.&.&.*.&.&.&.&.&.2.2.&.&.%.*.O.k g x 6 8 7 x 8 6 8 x 6 8 8 6 6 8 8 8 6 8 6 8 8 8 x l 8 8 l x 6 x 6 8 x 6 x 8 8 x 6 ",
"%.%.%.%.%.%.%.%.%.%.o.%.%.%.%.o.o.%.%.o.@.%.o.%.o.%.%.o.o.%.o.%.%.%.o.%.%.o.%.' %.o.} o.o.%.' %.o.o.o.o.%.o.%.o.o.o.%.o.o.o.+.o.o.%.o.%.o.o.o.%.o.o.o.o.o.%.+.%.o.o.+.o.o.o.o.o.o.o.O.o.o.o.o.o.o.X.o.o.o.o.o.o.' o.X.o.X.o.X.o.o.o.o.' o.' o.o.o.o.X.o.X.o.o.o.o.o.' o.o.X.o.o.` o.` o.o.o.o.X.O.X.X.O.X.O.X.X.X.o.o.O.O.O.X.o.X.o.X.o.X.X.X.X.X.X.X.o.X.X.X.O.X.X.X.O.X.X.o.X.o.X.X.o.X.X.` o.X.X.X.o.` o.X.X.o.` X.X.X.o.X.X.X.X.X.X.O.X.X.X.X.O.X.X.X.X.X.X.X.X.X.X.X.X.X.X.X.X.X.X.X.X.H X.H X.X.` X.X.X.X.X.` X.H X.X.H X.H X.X.X.X.X.X.X.X.X.X.X.H X.X.` ` X.V X.X.V X.H X.V X.V X.X.` X.H H H X.K X.H H H X.X.H H H X.H X.H X.X.X.H H X.H X.H H H H X.V H H H X.H H V X.H H H X.H H V X.H H H H H H H H H X.H H V H H H H H H H H X.H H H V H H H H H H H H G H G H H G G H H H G H H J G H F G G G H G V G G V H G G H H G H G G H G G V G H H B H H B G G J H G G G H G G H G G G G G G G G G G G G G G B G G G G H G G G B H G H B G B G G G D B G G B V B V B B G V V B B B B V B B B B B B B B B B B G B B G B G B G B G B G B G B B G B G B B B B J D B k J B S n G D G F B B B B F G G F B B V B V n V V N n V N b V m N N B V n D n n n m V m m V N m V N N V n V b b V b m m n b n m n V v V n n n m n m V m n M b n b B m V M n B D n n B Z n n n B n B B B G c B B c B S c B S S c S S c S c c G c S c S c S S G c S S c G c B c c c c c c c c c c B c c c c c c c c c c c x c c z c c c c c c c c z c c z c c c c c k S S c c c c S c S k c k x S k c c A k x c c c x c c c c x c c c c x c c c c c c S x c A k S S c c c x c c x c c l c c c x c c x z c c c x x c c x x c c x x c c c x c x c c l c c c x c c x c c c x c c x c x z x c l x x x k x c x c x z c c c l x c c z c x x A 8 A z c x x S k ) 4.w.e.e.e.e.e.e.e.e.e.e.e.e.e.e.e.e.e.e.e.e.e.e.e.e.e.e.e.e.e.e.e.e.e.e.e.e.e.e.e.e.e.e.e.e.e.e.e.e.e.e.e.e.e.e.e.e.e.e.e.e.e.e.e.e.e.e.e.e.e.e.e.e.e.e.e.e.e.e.e.e.e.e.e.e.e.e.e.e.e.e.e.e.e.e.e.w.w.w.w.w.4.o.i z c x 8 8 x x 6 A 8 8 x x 8 x 8 x 8 x 8 x A x x x x 8 x 8 x 8 8 8 x x 8 8 8 x 8 8 x 8 A x 8 x 8 8 x 8 x x 8 A 8 x 8 x 8 x 8 x 8 x x x x 8 A x x l x x 8 8 x 8 8 8 x x 8 8 x q 8 x 8 x x 8 x 8 A x 8 x 8 8 x 8 8 x 6 x 8 x 8 x 8 x 6 x 8 x 8 x 8 8 8 4 8 x x 8 q 4 q 4 ; K %.*.&.&.#.#.&.&.2.2.$.&.$.&.&.&.#.&.&.#.*.*.#.*.&.=.@.&.&.&.#.&.&.&.&.&.2.| &.&.:.&.&.&.&.:.&.&.&.:.&.&.&.&.&.&.&.&.&.&.&.&.&.&.2.&.&.2.&.&.2.&.&.&.&.&.&.&.&.&.&.&.&.&.&.&.&.&.&.&.&.&.&.&.&.&.&.&.&.&.&.&.&.&.&.&.2.2.&.&.&.&.&.&.&.&.&.&.&.&.2.&.&.&.&.&.&.&.&.&.&.&.2.2.2.2.| &.:.:.2.2.2.&.&.2.&.2.&.&.:.:.:.2.2.:.&.:.&.2.&.2.2.2.:.:.&.:.&.:.2.2.&.:.:.2.2.:.&.2.2.2.2.2.2.2.2.&.:.2.2.2.2.2.&.&.*.*.*.*.*.&.*.*.#.*.*.*.*.=.*.&.&.&.&.&.&.&.&.&.&.&.&.&.&.&.&.&.2.$.$.$.=.#.#.$.>.>.#.>.&.>.>.$.$.$.#.#.#.#.$.*.&.=.=.&.*.*.*.&.&.&.&.:.&.&.%.*.+.k g x 8 8 7 8 8 8 6 8 6 8 8 8 8 x 6 8 x 8 8 8 8 6 8 8 8 8 8 6 8 8 8 8 6 8 8 6 x 8 8 ",
"%.%.%.%.%.%.%.%.%.o.%.+.%.o.o.%.%.%.o.%.o.%.o.%.%.o.%.%.o.@.o.%.o.%.o.%.@.o.o.%.%.o.%.o.%.' o.%.%.o.%.+.o.o.+.o.o.o.%.%.o.o.o.o.o.%.o.%.o.o.+.o.o.%.o.o.o.o.o.+.o.O.o.+.+.+.O.o.O. .+.o.O.o.o.o.o.o.o.o.o.o.o.o.o.X.o.X.o.X.X.o.o.` X.o.X.o.` o.' X.o.X.o.X.` o.` o.` o.o.' X.X.o.o.o.' o.o.' o.o.X.o.O.X.o.O.o.X.O.X.o.X.X.o.O.X.X.o.X.X.o.X.o.X.X.o.X.X.X.X.X.X.o.X.X.X.o.X.X.X.X.X.X.X.X.X.X.X.o.X.o.` X.' X.X.` X.X.X.o.` X.X.O.X.X.X.X.X.X.X.X.X.X.X.X.O.X.X.X.X.O.X.X.X.X.X.` X.X.X.X.X.X.X.X.X.X.X.X.V X.X.H X.X.X.X.X.H X.X.X.X.X.X.H X.X.X.X.H X.X.X.X.H V X.X.H X.` X.X.X.V X.H X.` H X.H H X.H H H X.X.H H X.X.X.H X.H X.H H K X.X.H X.H H X.H H H X.X.H H H H H H H X.H H H H H H H H H X.V H H X.H H H X.H H H H H H H H H H H X.H H H H V V H H H G H H J G H D H H H G H H G H H G F G H H G G G V G G G H G G H B H H B G B H H B H H B H B G H H G G G G H G G G G H G G G H G H G G H G G G D B H B G B G G V G B F B G B H D H G B G B G G B B B B G B B B B B B V V V B V B G B G B B B B G B G B G B B B B B B B B B G B B B B G B B B B B k S S G G S J M G J B B G G G G G G J G G S B B V B B B B B B M B V B B B D V G B B B B n B B n M M k B M B n M M M B B B M B M B V B B n B B V V B B B B B B B B B V B B B B B c B k S B c c B c B B k B G c G B B c B B c S c c G c S c S S S S S c G G S c S c S S c c S c S c c c c c c c c c c c c c c B c c c c c c c z c c c c z c c c c z c c c c c c c c c x c c c x c c c c c c x c c S x c c c c x c c c x c c c c c c x c c c c x S c c x c x c c c A c x x c x x c x c c x c c c x c c x c x c c x x x c x c c x l x c c l x x c x c x c c c x l c l c l c x z x c x c x c x c l c C j x A k x k x k A c x z c c c c x k c A q A x c z x x S h  .5.w.e.e.e.e.e.e.e.e.e.e.e.e.e.q.e.e.e.e.e.e.e.e.e.e.e.e.e.e.e.e.e.e.e.e.e.e.e.e.e.e.e.e.e.e.e.e.e.e.e.e.e.e.e.e.e.e.e.e.e.e.e.e.e.e.e.e.e.e.e.e.e.e.e.e.e.e.e.e.e.e.e.e.e.e.e.e.e.e.e.e.e.e.e.e.e.w.e.w.e.w.w.4.%.v k l x 6 x x l x 8 x 8 8 x 8 A 8 x x 8 x 8 x 8 8 x 8 A 8 x 8 x x x 8 x x x 8 x 8 x 8 8 x 8 x 8 x x x x 8 x 8 x x 8 x 8 x x 8 A 8 x 8 A 8 x x 8 8 x 8 x 8 x 8 A C 8 8 x A x 8 4 8 8 x 6 6 x 8 x 8 x 8 x 8 x 6 x 8 x 8 8 x 8 8 x 8 8 x 8 8 x 6 8 A 4 8 8 x x 8 8 3 q 4 j n O.*.=.&.$.#.#.&.4.2.2.2.$.>.&.2.2.&.>.=.=.=.$.*.=.#.$.#.#.=.=.$.&.2.2.2.&.&.2.&.&.2.&.&.2.2.&.2.2.&.&.&.&.&.&.&.2.&.&.2.&.&.&.&.2.&.2.&.&.&.&.&.&.&.&.&.&.&.&.&.&.&.&.&.&.&.&.&.&.&.&.&.&.&.&.&.&.&.&.&.&.&.&.&.&.&.&.&.&.&.&.&.&.&.&.&.&.&.&.&.&.&.&.&.&.&.*.*.&.&.&.&.:.2.&.:.&.&.&.&.&.2.&.&.&.&.&.&.2.&.&.&.2.:.&.&.:.&.:.&.:.2.&.:.2.2.&.&.2.:.&.2.&.2.&.:.&.2.2.&.:.:.&.:.:.&.2.:.&.2.2.&.:.2.&.&.&.&.&.&.&.&.&.&.&.&.&.&.&.&.&.&.&.&.*.&.&.&.&.&.&.&.*.&.&.&.&.&.&.&.=.=.=.*.&.&.&.&.&.&.&.&.&.&.&.&.&.&.&.=.&.&.&.&.&.&.*.*.&.&.&.&.&.&.&.&.&.*.O.J g 8 8 0 7 6 6 8 6 8 6 6 8 8 6 8 6 6 6 8 6 8 6 8 6 6 8 6 8 8 6 6 8 6 8 6 8 6 6 8 6 ",
"o.%.+.%.%.+.%.o.%.%.%.%.o.%.%.+...o.%.%.o.%.%.o.o.@.o.%.%.o.%.%.%.o.%.%.o.%.@.o.o.%.' %.o.%.o.o.o.o.o.o.o.%.%.o.o.%.o.o.o.%.o.%.o.o.+.o.%.o.o.%.o.o.o.%.%.o.%.o.o.+.o.o.o.o.o.o.o.o.o.o.o.o.o.O.o.X.o.o.O.o.o.X.o.X.o.' o.' o.o.o.o.o.o.o.o.X.o.o.X.o.o.o.o.o.o.o.o.X.o.o.X.o.o.o.X.o.X.X.o.X.o.o.X.X.O.X.O.X.O.o.o.X.O.o.O.o.X.X.o.X.X.X.X.X.X.X.o.X.X.X.o.o.X.X.` X.X.X.O.X.o.X.o.X.o.' X.X.X.` X.X.X.X.X.X.X.X.o.X.X.X.X.X.X.X.X.X.X.X.X.X.O.X.X.X.X.O.X.X.X.X.X.X.X.X.X.X.X.X.X.X.H X.X.X.X.X.X.X.X.X.X.X.X.X.X.X.X.` X.X.X.X.V H X.H X.X.X.X.V X.X.H X.X.H X.X.X.V X.V H X.V X.V X.X.X.H X.H X.X.H H X.H X.H X.H H H K H H K X.H X.X.H H X.H H V X.X.H H H H H H H H X.H H H H H H H X.H H H H H H H H H H H H V H H H H X.H H H X.H H H H H V H V V H V H H G H F H H H H D H J H G H G H H G H H G F V G G H H G G V G G H H B H H G H B G H B H V H G G G H J G G G J G G G G G G G G H G G G G B G G V D H G G G G G D G G G G G G H B B G G G H G G G V H B V V G B H V B B B B B B B B B B B G B B B B B B B G B G B B G B B B B G B B G B B B G B S G S S S S S B J S S B n k G c G S S S G S B S G c c B c B B B B c c B c B B c c J B G G G k c G S G S G B B S G G S S G G G S G B c B B B B S B c c k k k B k M c B c c c c k c c c c c c S S c B B B B c B k S c c c S S c c S S c S G S c c S c c S c S c S c G c c S S c S G c c c c c c c c c c c c c c c c c c M c c c c c z c c z c c c c c c c z z c z c c c c c x S k c c c c c c c c c c c c c c c S c k S c c c c x S c S A k c x c k c c c c S c c x k x S c l c c c c x c l c x c x x c c x c x x c c c z c x c c c c x c c c c c c c x x c x c c c c x c x c x c x z x c l z x c x x S x A x c k x x c x c x x x x x c x x 8 A x x z l x c C k ` 4.w.w.e.e.e.e.e.e.e.e.e.e.e.e.e.e.e.e.e.e.e.e.e.e.e.e.e.e.e.e.e.e.e.e.e.e.e.e.e.e.e.e.e.e.e.e.e.e.e.e.e.e.e.e.e.e.e.e.e.e.e.e.e.e.e.e.e.e.e.e.e.e.e.e.e.e.e.e.e.e.e.e.e.e.e.e.e.e.e.e.e.e.e.e.e.e.q.e.e.e.q.w.w.4.' M g z x l l c x x 4 x x x x 8 x 8 8 x x 8 8 x A 8 x x x 8 x 8 8 8 x 8 8 x A 8 x x x x x A 8 x x 8 8 A x 8 x x 8 A x x 8 x x 8 x 8 x 8 x 8 8 x x 8 x x 8 x x 8 8 8 A q 8 q 8 A x 8 8 x 8 8 x 8 8 8 x 8 8 6 x 8 x 8 6 x 6 x x 8 x 8 6 x x 8 x 8 8 8 x 4 x 8 x 8 8 q 4 j k V +.=.=.&.&.&.&.&.&.&.&.2.&.&.&.&.2.&.#.*.*.#.=.#.=.=.&.*.&.$.&.2.$.&.2.&.&.&.2.&.&.&.&.&.&.&.&.&.:.&.&.&.&.&.&.&.&.&.&.&.&.2.&.&.&.&.&.&.&.&.&.&.&.&.&.&.&.&.&.&.&.&.&.&.&.&.&.&.&.&.&.&.&.&.&.&.&.&.&.&.&.&.&.&.&.&.&.&.&.&.&.&.&.&.&.&.&.&.2.&.&.&.&.&.&.&.&.&.&.&.&.&.&.&.&.&.2.&.&.&.&.&.&.&.&.&.&.&.&.&.&.&.&.&.&.&.&.&.&.&.&.&.&.&.&.&.&.&.&.&.&.&.&.&.&.&.&.&.&.&.&.&.&.&.&.&.&.&.&.| &.&.&.&.&.&.&.&.&.2.&.&.&.2.&.&.&.| &.&.&.&.&.&.&.&.&.&.&.&.&.&.&.&.&.&.&.*.*.&.*.*.&.=.&.=.=.&.&.&.&.&.&.&.&.&.&.&.&.&.=.&.&.&.&.&.&.&.%.&.@.&.:.&.&.&.*.+.n 2 4 7 7 0 8 8 6 8 6 8 8 6 6 8 6 8 6 8 6 8 6 6 6 8 8 6 8 6 6 8 8 6 8 6 8 6 6 8 6 8 ",
"%.%.%.o.%.%.%.%.o.%.o.%.%.%.o.@.%.o.%.o...%.%.o.%.o.%.o.o.%.%.o.%.o.@.+.%.o.o.o.o.o.o.o.%.o.' %.o.o.%.o.%.o.o.o.o.o.o.o.%.o.o.+.o.%.o.o.o.%.o.o.o.%.%.o.o.o.o.%.o.o.+.o.O.o.o.+.o.o.o.o.o.o. .o.o.o.X.o.' o.o.o.o.' o.X.o.X.X.o.o.` X.o.o.o.o.o.o.o.o.o.o.` ` o.X.o.o.o.o.o.o.X.o.X.o.o.` o.X.o.o.X.o.o.O.O.X.o.O.X.O.X.o.X.X.O.X.X.X.X.o.X.X.X.X.X.X.X.X.X.X.X.` o.o.X.X.o.X.o.o.X.X.X.X.X.o.X.X.X.o.X.X.o.` X.X.X.` X.X.X.X.X.X.X.X.X.X.X.X.X.X.X.O.X.X.X.X.X.X.X.X.X.X.X.X.X.X.X.X.X.` H X.X.X.` X.X.V X.X.X.X.X.X.X.X.` X.X.X.X.X.X.X.X.H X.X.X.X.X.X.X.H X.V X.H X.X.X.V X.X.X.X.H X.V X.H H X.H H X.X.H H H X.X.H H X.X.H X.H H X.H H H H X.H X.H H X.V X.H H X.V H H H H H H X.V H H H H H H H H H H H H H H H H X.H H H X.V H H H H H H H H V V H G H H G H H G H G G H G F H H G F H G H G H G H D D B G G G G G H G V B H B H H B B H G G G G G G G V G G G H H G H H G H G H H G G J G J G G G G G G G B B G G G G G G G G G H B B G G G H B G G B H G B B B B H B V V B B B B B B B B B G B B G B G B G B B B B B G G B B G B B B B B B B B G B G S G S S J S S S G S G G S c G B B S S S S S S G G G G G G G G B B S G G S c B c G B G S S S S S S S G c G S S G B c B c B B c S G c c S c k S S c S c S S S S S G c c c G B c S S c c S S S S S S c B c B G c B c c c S c c S c S c c S c c c S c S c c S S c S c c S S c S c S c c c c c c c c c c c c c B c c c c c c c z c c c c c c c c c c z c c c c c z c c k A c c S c c c k c c c k S c x k c c x c c S k c c c c c x x c c c c c c c c c k A S c S k c c c c c c c c c x c x c c x l c c x c c l c c x c c x x c c x x z c x x c c x x c x c z c c c c x x c x c x c l c x c x c x c l c c x x k x x x x x x x x x x x x x c c x 8 A A x z c x C j j  .4.w.e.e.e.e.e.e.e.e.e.e.e.e.e.e.e.e.e.e.e.e.e.e.e.e.e.e.e.e.e.e.e.e.e.e.e.e.e.e.e.e.e.e.e.e.e.e.e.e.e.e.e.e.e.e.e.e.e.e.e.e.e.e.e.e.e.e.e.e.e.e.e.e.e.e.e.e.e.e.e.e.e.e.e.e.e.e.e.e.e.e.e.e.e.e.e.e.e.9.q.e.e.w.w.4. .v c c l l x 8 x x 8 x 8 x x 8 x A 8 8 A x 8 8 8 x 8 x 8 x x x 8 x x x 8 8 x x 8 x 8 8 x x 8 8 x x 8 8 x x 8 x A 8 x x 8 8 A 8 x x 8 8 A x 8 8 8 x 8 A 8 x x x q x 8 8 A x 8 6 x 8 8 x 8 8 x x 8 x x x 8 x x 8 x x 8 x 8 8 x 8 x x 8 8 x x 8 8 4 x x 8 x 8 8 8 3 4 4 g n K o.%.*.*.*.=.=.&.=.&.=.=.&.&.&.&.&.&.&.&.&.&.&.&.&.&.&.&.2.&.&.&.&.&.&.&.&.&.&.&.&.&.&.&.&.&.&.&.&.&.&.&.&.&.&.&.&.&.&.&.&.&.&.:.&.&.&.&.&.&.&.&.&.&.&.&.&.2.&.&.&.&.&.:.&.:.&.&.&.&.&.2.&.&.&.2.&.&.&.&.&.2.&.&.&.&.2.&.2.&.&.&.2.&.&.&.&.2.&.&.&.&.&.&.&.&.&.&.&.&.&.&.=.*.&.&.&.=.=.&.*.&.&.*.=.&.&.&.&.&.*.&.&.&.&.&.&.&.&.&.&.&.*.&.*.&.&.&.&.*.&.*.&.&.&.=.*.&.&.&.&.&.&.&.&.*.&.&.&.&.&.&.&.2.:.:.2.&.:.2.:.2.2.2.2.2.2.2.&.2.&.&.&.2.&.&.2.&.2.&.&.&.&.&.&.*.*.&.*.*.*.&.=.*.&.&.*.&.=.&.&.&.:.&.&.&.&.&.&.4.&.&.&.&.2.&.2.&.&.2.&.:.&.&.*.*.+.k g 8 8 0 7 8 6 8 6 8 6 8 6 8 6 8 6 8 6 8 6 6 8 6 8 6 8 6 8 6 8 6 8 6 8 6 8 8 6 8 6 ",
"+.%.%.%.+.%.%.o.%.%.%.%.%.o.%.o.%.%.%.o.%.%.o.%.%.o.%.%.o.%.o.%.o.%.o.%.%.%.o.%.} o.%.%.' %.%.o.o.%.o.o.o.o.%.o.+.o.%.%.o.o.o.%.o.o.%.o.o.o.o.%.+.o.o.o.%.o.o.o.o.+.o.o.o.+.o.o.o.o.O.+. .o.o.O.o.X.o.o.X.o.X.o.o.X.o.o.' o.' o.o.o.' o.X.o.X.' o.X.' X.o.o.o.o.o.o.X.' X.o.' o.o.' o.X.o.o.o.o.X.O.O.X.o.X.o.X.O.o.o.X.O.O.o.X.X.o.X.o.X.X.o.X.X.o.X.o.o.X.o.X.X.X.X.X.X.o.X.X.X.X.X.o.X.X.` X.X.X.` X.X.X.X.X.' X.o.X.X.X.' X.X.X.X.O.X.X.X.X.X.X.X.X.X.X.X.X.X.X.X.X.X.X.X.X.X.X.X.X.X.X.X.X.X.X.H X.X.X.X.X.X.` X.X.H X.X.X.X.H X.X.H X.X.X.X.H X.H X.X.X.X.X.X.H ` V X.X.X.V V X.X.X.H ` X.X.K H X.H K H X.X.H K X.H H X.H H H X.H H X.X.H V H H H H H H H H H H H H H H X.H H H H H H H X.H X.H H H X.H H H X.H H H H H H H H H H H X.H H V H V H V V H V H H G H G H H G H H G H H G H H G H H H B V B V V G H V H B H B B H H B H H B H V G H V G H G H H G G G G G G G G H J G G G G H G H G H G G B G G G G H B G G B G B G B G G G G G B G G D B G G V B G V B B B G B B V V B B V B B G B B B B B B B B G B G B B B B B B B G B G B B G B G B B B G S B S G G S G S G S G B G B B B G S G S G S S c G c c B c c B c G S S G S c S S k S S c S S S c c c c c c c c c S S c c S S c k S S S S S S S S c c c c c S S S S G c c c c c c c S c S S S S c G G c c c B c B S S c G S c S S S S c S G S c S c S S S c G c S S S c G c S c S c c c B c B c c c c z c c c c B c c c c c c c z c c z c z c c c c c c c c c c c c c c x c c c c A c c x S x c c A c c S x c c x c S x c c S k c c x c c c c x S c c x c c x c c x k x x c x x c x c c x c c x c c c x c l c c x c c x c c x c c x c c x c c l c c c x x c x x c z x z x c l c x c l c l c x c x x k k x c x S x c x A x x x A A x x x x A q A x x c x x C y H =.w.e.e.e.e.e.e.e.e.e.e.e.e.e.e.e.e.e.e.e.e.e.e.e.e.e.e.e.e.e.e.e.e.e.e.e.e.e.e.e.e.e.e.e.e.e.e.e.e.e.e.e.e.e.e.e.e.e.e.e.e.e.e.e.e.e.e.e.e.e.e.e.e.e.e.e.e.e.e.e.e.e.e.e.e.e.e.e.e.e.e.e.e.e.e.e.e.e.9.9.e.9.e.w.w.=.` v z c x 6 x 8 x x 8 A 8 8 x 8 x x x 8 x x x x 8 x 8 x 8 A 8 A 8 A 8 x x 8 8 A 8 x x 8 x 8 x 8 8 x A 8 8 x 8 8 x 8 x 8 x 8 x x 8 x x 8 x x x x 8 x 8 x 8 x x 8 8 A 8 8 x q x 8 x x 8 x 6 x 8 x 8 8 8 x 8 8 x 8 8 x 8 x 8 6 x 8 8 x 8 x 6 x A 8 8 8 x 8 8 8 8 5 4 x j j n H +.+.*.*.%.+.*.*.%.*.*.*.*.*.*.&.*.=.&.*.*.&.&.&.&.&.&.&.&.&.&.&.&.&.&.*.&.&.&.*.&.&.*.&.&.*.&.&.=.&.&.&.&.&.&.&.&.&.&.&.&.&.&.&.&.&.&.&.&.&.2.&.&.:.&.&.&.&.2.&.&.&.&.&.&.&.&.&.2.&.&.&.2.&.&.2.&.&.&.2.&.&.2.&.&.2.&.&.2.2.2.&.:.&.&.:.&.&.2.| :.&.2.&.2.&.&.&.&.&.&.*.&.&.&.*.#.*.&.&.=.*.#.=.&.&.&.*.&.&.&.&.&.&.&.&.&.&.&.&.&.&.&.&.*.&.*.&.&.&.&.&.&.*.&.=.*.&.*.&.*.&.*.&.&.&.*.*.&.&.*.&.&.&.&.2.2.2.&.&.2.| 2.| 2.2.2.&.&.&.&.&.&.&.&.&.&.&.| &.&.&.4.&.&.=.&.*.&.&.=.&.*.&.=.&.&.=.&.=.&.&.&.2.&.&.2.&.&.2.2.&.&.&.&.&.&.$.&.2.2.:.&.*.*.+.k g 4 3 7 7 8 6 6 8 6 8 6 8 6 8 6 8 6 8 6 8 8 6 8 6 8 6 8 6 8 6 8 6 8 6 8 6 6 8 6 8 ",
"%.o.%.%.%.+.%.o.%.+.%.%.%.o.%.%.o.%.%.o.%.%.o.%.%.o.%.o.%.%...%.%.o.@.o.@.o.o.%.o.o.%.o.%.o.o.%.o.o.o.+.o.o.+.o.o.o.o.%.o.o.%.o.o.o.o.%.o.o.%.o.%.o.%.o.o.%.o.%.o.O.o.+.+.o.o.o.O.o.o.O.+.o.o.o.o.o.X.o.X.o.' o.o.o.' X.o.X.o.o.X.o.` o.X.o.o.o.o.o.o.` ' X.o.X.o.o.o.' X.o.X.o.o.o.X.' X.o.o.X.o.O.o.X.O.o.o.X.X.O.X.o.X.o.X.X.X.X.X.X.X.o.X.X.X.X.X.X.X.X.X.X.X.X.X.X.X.X.X.o.X.X.X.` X.X.X.X.X.X.X.X.o.X.X.X.X.X.X.X.X.o.` X.X.X.X.X.X.X.X.X.X.X.X.O.O.X.X.X.O.X.X.O.X.X.X.X.X.X.X.X.X.X.X.X.H X.X.` X.X.H ` X.X.H X.X.X.X.X.X.X.H X.H X.V X.V X.X.H V X.X.H X.V X.V X.X.H X.X.V X.X.` H X.V X.H H X.X.H H X.H K H X.K H X.H H H X.H H H X.V H H H H H H H H X.H H H H H H H H H H H X.H H H H H H H H H H H H H X.H H H H H H H H H H H X.V H V H V H H H V G H H H G H K D H D H G H G H G H H J H V G H V G G H B G H G H H H B H V G H H B G G H H B H G G G H G H G G H G G J H G H G G H G B B B H G G G H G G G G G G G B H G G G G G G G G D H G B B B B B V B B V H B B B B B B B M B B B B B B G B G B G c G c G G G B G B G B B B B B B B B B G B B c B B B B B B B V B B B B B B G S G S G S G k c B S G c G c G B c G S c G c G S S c S S S S S S c k S S c J k c S S S S c S S c S k S S k S S S S k G S S S k c B c c S S S S S c S c S S c S c c B c c B c c c c S S c S S c S c S G S c S c G S S c S S c G S S c c c c S c c c c c c c c c c z c c c c B c c c c c c c c c c c z c z c c c z c z c c c z c c c c c c c c x k c c c x c c c c c k S x c c x x c c c c x c c c c x c c c x k c x k A c c x c S x c x c c x c z c c x c c x c x c c c x l c x x c c c x c c x c c c x c x c c x l c x c c x c x c l c x z c l c x l c l c x c c c c x l c x c x x S A A 8 4 8 x c l j x C x x c z x 8 A Z n 4.w.e.e.e.e.e.e.e.e.e.e.e.e.e.e.e.e.e.e.e.e.e.e.e.e.e.e.e.e.e.e.e.e.e.e.e.e.e.e.e.e.e.e.e.e.e.e.e.e.e.e.e.e.e.e.e.e.e.e.e.e.e.e.e.e.e.e.e.e.e.e.e.e.e.e.e.e.e.e.e.e.e.e.e.e.e.e.e.e.e.e.e.e.e.e.e.e.q.9.9.e.e.8.w.w.w.&./ - c 8 7 q x x 8 x x 8 A 8 x x 8 A 8 x 8 x x 8 x x x 8 x x x x x 8 x 8 A x 8 x x 8 A 8 x 8 x 8 x 8 x x 8 x 8 x 8 x x 8 A 8 x 8 8 A 8 x 8 8 A 8 q x 8 8 A 8 x 8 x x 8 x 8 x 8 x 6 x 8 x 8 x 8 6 x x 8 8 x 6 x 8 x 8 x 8 8 8 x 8 8 x 6 x 8 8 x x 8 8 x 8 q q 8 4 x x j j k k n F V X.X.X.O.O.O.o.+.%.%.+.%.*.*.*.*.=.=.*.*.*.*.*.*.*.*.*.*.*.*.*.%.*.*.*.%.*.*.*.*.=.*.*.*.&.&.=.=.=.=.=.&.&.&.&.&.&.&.&.=.2.&.&.&.&.&.&.&.&.&.&.&.&.2.&.2.2.&.&.:.&.&.2.&.&.&.&.>.$.2.&.$.&.$.2.&.&.$.2.$.2.2.2.&.2.2.2.2.2.2.2.2.2.2.2.2.2.2.2.&.&.2.2.2.&.&.&.=.#.*.=.&.&.&.$.&.&.#.=.=.*.$.&.&.&.&.&.&.&.2.&.4.&.&.2.2.&.&.&.&.&.&.&.&.=.&.&.#.&.&.&.&.&.&.*.&.&.&.=.=.*.&.#.*.&.*.&.&.&.#.&.*.#.#.&.$.&.=.#.=.&.=.&.#.&.2.&.2.&.2.&.&.&.&.| &.&.2.&.&.#.&.&.&.&.&.&.&.&.&.&.&.&.&.&.&.=.=.&.&.*.&.=.&.&.&.&.&.#.=.&.&.#.&.2.2.&.2.&.&.%.+.k 2 j 8 5 8 8 6 8 6 8 6 8 6 8 6 8 6 8 6 8 6 6 8 6 8 6 8 6 8 8 6 8 6 6 8 6 8 8 6 6 8 ",
"%.%.%.%.%.%.%.%.%.%.o.%.%.o.o.%.%.o.o.%.o.%.%.o.o.@.o.%.o.%.%.o.' %.o.o.o.o.%.o.} o.o.%.o.%.%.' o.%.o.%.%.o.%.o.%.o.o.o.o.%.o.o.%.o.o.o.o.%.o.+.o.o.o.o.o.o.o.o.+.o.o.o.o.o.o.o.o.o.o. .o.o.o.o.o.o.o.o.o.o.X.o.X.o.o.o.' o.o.X.o.o.X.o.o.o.' X.o.X.o.o.o.X.o.o.o.` X.o.o.o.' o.` o.o.o.X.o.o.X.o.X.O.o.X.X.O.O.X.o.O.o.O.X.O. .o.X.o.X.X.X.o.X.o.X.o.X.o.o.X.o.X.o.o.X.o.X.X.X.` X.o.X.X.X.X.` X.` o.X.` X.X.X.X.X.' X.X.X.X.X.X.X.O.X.X.X.X.X.X.X.X.X.X.X.X.X.X.X.X.X.X.X.X.X.X.H X.X.X.V X.V X.X.X.X.X.X.X.X.H X.X.X.X.X.` X.X.X.X.X.X.X.X.X.X.X.X.X.X.X.V X.X.X.X.V X.V H ` X.H X.H H X.X.V H H X.H H X.H H H X.H X.H X.X.H X.K H X.H X.H H X.H X.V X.H X.H H H H H X.V H H H H H H H H H H H H X.H H H X.H H H H H H H H X.H H H X.H H H H H H H H H V H H G H G H H G H H G H H H H H G H H G F H G G G G H G V H G V H B B H H B G G G G H V V G B H G V G G J G G G G G G G G H G G G G G G B B G D B G G B G B G B B H G G G B G B B H B G G V B G D H B H B G H B G G B B B V B V V B B G B G B G B B B B B G B B B B B B B B B B B G B G B G B G B B B G B B B B B G B B B B B B B B S G S G S G S B c G G k G c B c B S c G J c G c B S G S S S S S k S B S c S B c c S k S k J c c G S S S S S c S k B S S S c S S B c G c B c c S c S c S c c S c c S c S S c S c S c c S S c c S c S c c c S c S S c c S c S S c k c c S c S c c c c M c c c c c c c c c c c c c c c z c c c c c x c c c c c c z c c c c c c c c A k c x c c c c A c c x k c c c c c c c S c c c c c c c k c S x x c S k x c S c k c c c c c x c k x x S c x c x x x c c x x c c x c x c c c c c c l x c c x c x c l x c c x x c c c c c l c c x c x c x c x x c x c x c c x c l x l z c x c c x x x x 2 j x S J c c B k k C k c B B x j C y n 4.w.9.e.e.e.e.e.e.e.e.e.e.e.q.e.e.e.e.e.e.e.e.e.e.e.e.e.e.e.e.e.e.e.e.e.e.e.e.e.e.e.e.e.e.e.e.e.e.e.e.e.e.e.e.e.e.e.e.e.e.e.e.e.e.e.e.e.e.e.e.e.e.e.e.e.e.e.e.e.e.e.e.e.e.e.e.e.e.e.e.e.e.e.e.e.e.e.q.9.e.e.8.8.e.w.w.5.} v x A 8 x 8 4 x x 8 x 8 x 8 8 x 8 x 8 A 8 8 A 8 8 8 x x x 8 8 x x 8 8 x 8 x x 8 x 8 A 8 A 8 x x x 8 x A 8 x 8 x 8 x x 8 x 8 x x 8 x x 8 8 8 x x 8 x q 8 8 x x 8 8 A x x 8 8 8 x x 8 8 x 8 x 8 8 8 x 8 6 x 8 8 x x 6 8 x x 6 8 x 8 x 8 8 8 8 4 x q 8 8 8 8 8 8 9 j j j j r g k j k k h g h M M B B M B M V V V m V V ` V X.X.X.X.X.o.O.o.+.+.%.+.+.*.%.+.%.%.%.%.*.*.*.*.*.*.%.%.*.*.=.*.*.*.*.*.*.&.*.*.*.&.*.&.&.=.&.&.&.=.&.&.&.&.&.&.&.&.&.&.&.&.&.&.&.&.&.&.=.=.&.&.&.&.&.&.=.#.&.&.&.2.&.2.2.&.2.&.&.&.&.&.&.&.&.&.2.&.2.2.2.&.2.&.*.@.&.#.&.&.&.$.&.$.&.&.&.&.&.&.$.&.$.&.#.&.2.&.$.$.&.@.&.:.#.&.&.$.2.&.2.&.&.2.$.2.&.&.2.&.&.4.&.&.&.@.&.&.&.&.&.&.&.&.&.&.&.&.&.=.&.=.=.=.=.=.*.=.=.=.=.=.=.=.2.&.&.2.2.&.2.2.&.2.2.2.2.&.2.&.=.&.&.&.&.&.&.&.&.&.&.2.4.&.&.2.=.&.=.=.=.=.&.&.=.&.&.&.&.=.&.&.$.&.&.2.:.| &.&.*.O.B g 8 8 7 8 8 8 6 8 6 8 6 8 6 8 6 8 6 8 6 8 8 6 8 6 8 6 6 6 6 8 6 8 8 6 8 6 6 8 8 6 ",
"%.%.+.%.o.%.o.%.%.%.%.%.o.%.o.%.o.%.%.@.%.o.%.%.%.%.%.%.%.o.o.%.o.%.%.o.o.%.%.' o.%.o.%.%.' o.%.%.o.o.o.o.o.o.%.o.%.o.%.o.o.+.o.o.%.+.%.o.o.o.o.o.o.%.o.o.%.+.o.o.+.+.o.o.+.o.o.o.o.o.o. .O.O.o.o.o.o.o.X.o.X.o.o.o.X.o.o.X.' o.o.o.o.o.' X.o.o.o.o.o.` o.o.o.o.o.o.' o.' o.X.o.o.o.X.o.o.` o.o.X.X.O.X.O.o.X.o.O.O.X.X.X.O.X.X.X.X.X.o.o.X.o.O.X.X.X.o.X.X.X.X.X.X.X.X.X.o.X.o.o.X.X.X.o.X.X.o.X.X.X.X.X.X.X.' X.` X.X.X.X.X.X.X.X.O.X.X.X.X.X.X.X.X.X.X.X.X.X.X.X.X.O.X.X.X.X.X.X.X.X.X.X.X.X.X.X.X.X.X.X.X.X.X.X.X.X.X.X.H X.X.H X.X.X.X.X.X.X.X.X.X.X.V V X.V X.X.X.X.H X.X.X.` X.X.X.X.X.X.K X.X.H K X.H X.H X.H H K H H X.X.H H X.H H H H V H H X.V H H X.H H H H H H H X.H X.H H H H X.H H H H H H H H H H V H H H H H H X.V H H H H H H V H V H V H V H H H G G H G G H G H H G G H F H H G G H G F H G G G G G H G G H B H H B G H B H G G G G H G G H G G H G J H G G G G G G H G G G H G B F G B G G G G G G G G B G G G G G H G B G G G G G G G G H B H B V G B B H B B B B B B B B G B B B B B B B B G B G G B G B B B G B G B G B G B B B B B B B G B B B B B B B B B B B V B B B B G B G B B n B B B n B B B B B B n M V V B B S c c G S c G S G G B k S B c c B k G B c B B k B k S S c G c G k S k G c G c c G c B B B B k S B B c c B B c c S c c B c c c c B G c c S c S S c S S c S G S S B c S c c S c c S c G c c c c k c c c c c B c c c c c c c c c c c c z c z z c c c c c c c c c c c c c z c c c c c c c x c c c k S c c c c S c c x x c c c S k c c c c c S S c c c c c S c c c c c x c c c c c k c x S x S x x c c c x c x c c c x c c x x c x x c c c c c c x c c z c c c x c c c c x x c x c c x x c l c l c l c c l c l l c l c x l x c z x k l g x c G c k j r t h a h u y t h - - h k S u b =.w.e.e.w.e.e.e.e.e.e.e.e.e.e.e.e.e.e.e.e.e.e.e.e.e.e.e.e.e.e.e.e.e.e.e.e.e.e.e.e.e.e.e.e.e.e.e.e.e.e.e.e.e.e.e.e.e.e.e.e.e.e.e.e.e.e.e.e.e.e.e.e.e.e.e.e.e.e.e.e.e.e.e.e.e.e.e.e.e.e.e.e.e.e.e.e.q.e.e.e.w.w.w.e.9.e.w.4.` h j q 8 A 8 8 x 8 8 x x x x 8 x x 8 8 x 8 x x A 8 x 8 8 x x 8 8 x x 8 x 8 8 x x 8 x x x 8 x 8 8 x x 8 x x 8 x x 8 8 x x x x 8 x x 8 A A 8 A 8 q x 8 x x 8 x x 8 A 8 x 6 x 8 8 8 x 6 8 x 8 8 x x 6 8 x 8 8 x 8 8 8 x 8 8 x x 8 x x 8 x x 4 q 8 x 8 8 x 8 x 8 8 4 x 8 j x j x x 8 j 6 g g g g l j g g g g g g g g g j k g g l k h k c k n b b b m V V b V V V V ` V K X.O.X.O.O.+.+.+.+.+.%.+.%.%.*.%.*.*.*.*.*.=.*.*.=.=.=.*.=.&.*.=.*.=.=.*.=.=.=.=.=.=.*.*.*.*.=.=.*.*.%.&.*.*.*.&.*.@.*.&.&.#.*.*.&.&.&.&.&.=.=.=.&.&.=.=.&.&.&.*.&.&.&.&.&.&.&.&.&.&.&.2.&.&.2.&.&.&.&.2.2.&.&.2.&.2.2.2.2.2.2.2.2.2.2.2.2.2.2.&.:.2.2.2.2.2.2.2.2.&.:.2.2.2.&.2.&.| &.&.#.| 2.2.| &.&.#.*.&.*.*.&.&.@.@.&.=.@.@.*.&.@.$.&.#.#.&.#.@.$.*.#.&.@.$.&.#.&.#.&.#.#.&.#.$.$.&.#.#.#.$.&.&.&.&.&.&.&.&.$.#.&.#.#.=.$.#.#.&.&.4.$.&.&.&.%.*.H k 2 2 6 7 8 6 8 8 6 8 6 6 6 8 6 6 6 6 6 8 6 6 8 6 8 6 8 6 x 8 6 8 6 6 8 6 8 8 6 8 8 ",
"%.o.%.%.%.%.%.%.%.+.%.%.@.o.%.%.%.%.o.o.+.@.o.o.o.o.%.o.%.o.%.%.%.o.o.@.o.@.o.%.} o.%.' o.%.o.' o.o.o.%.%.o.o.o.o.+.o.o.o.%.o.%.o.o.o.o.o.%.o.%.%.%.o.o.o.o.%.o.o.o.o.+.O.o.o.o.o.o.o.O.o.o.o.o.o.o.o.X.' o.o.o.o.X.' o.o.o.X.X.X.o.X.' o.o.X.X.' X.o.o.o.X.' X.X.o.X.o.X.o.X.o.` o.o.o.o.o.o.X.o.o.X.o.O.X.O.o.X.o.o.O.o.X.o.X.o.X.X.X.X.X.X.X.o.X.X.X.o.X.X.o.X.o.o.X.X.X.X.X.X.X.` X.` X.X.X.` o.' X.X.X.X.X.X.o.X.X.X.X.` o.X.X.X.X.X.X.O.X.X.X.X.X.X.X.X.X.X.X.X.O.X.X.H  .` X.X.X.X.X.X.X.X.X.X.H X.X.X.X.X.X.X.` X.X.X.X.X.X.H X.H X.H X.X.H H X.X.X.X.X.X.H V X.` X.X.V H X.V V ` H V X.X.H H X.H H H X.X.H H X.X.X.H H H X.H H H X.H  .X.H H H X.H H V H H X.H H H H H H H H V H H V H X.H H V X.H H V H X.H H X.H H H H H H H H X.H H V H H H V H H H D H H H G H H G H G H H H J H G H H G H G V G G H V G H G G V G H H B H V G H B H V G H G G V G H G G H G H G G G G H G G H J H G G B B H B G G B G V D G G G F G G V D B G D H G G B G G G B B B B B G V B B B B B V B B B V B c B B G B G B G B B B B B B B B B G B B B B B B B B B G B G B G B B B V B B B B B B B B B B V B B B B D B G B B B B J M B D n B B B B B k B k G B B c c G S S S S c G c B S G k B c M B B c B c c B G k B c c B G c S c c B S k S G k c c B B c k G S G k B G c c S c c B S c c c S S c S c c S S c S c S c c S S c S G c S c S c c S c c S S S c c c c c c B c c c M c c c c B c c c c c c c z c z c z c c c c x c c c c c c z c c c c x c S x c c c S x c c c c c c x c c x c c A k x c x c c c c x c c c S x c c x c c c x c c A k x c c x c c c c x c l l c z x c c l c c x x c x x l c c x x x c x z c x x x c c x c x c c c l c x c x c x x c x c c x c x c c c l c x c c M k v k m a d m `  .) ..o. . . .( b v t u a s &.w.e.e.e.e.e.q.e.e.e.e.e.e.e.e.e.e.e.e.e.e.e.e.e.e.e.e.e.e.e.e.e.e.e.e.e.e.e.e.e.e.e.e.e.e.e.e.e.e.e.e.e.e.e.e.e.e.e.e.e.e.e.e.e.e.e.e.e.e.e.e.e.e.e.e.e.e.e.e.e.e.e.e.e.e.e.e.e.e.e.e.e.e.e.e.e.e.e.9.e.w.8.e.9.e.e.e.w.*.N j x x 8 x x x x 8 x 8 A 8 x x 8 x x 8 x 8 x 8 x 8 A x 8 8 A x x 8 x x 8 A 8 8 x 8 x 8 x 8 A 8 x 8 x x 8 A 8 8 x 8 x 8 A 8 x x 8 x 8 q x 8 8 C 8 A 8 8 A x 8 x 8 x 8 x 8 x x x 8 x 8 6 x x 8 8 x x 8 8 x 6 x x x 6 x 8 x 8 x 8 8 x 6 q 8 8 x 8 8 8 x q 8 8 x 8 8 8 8 8 A 4 8 8 j 8 x 6 l l x l l l l 6 2 g 8 l x j 6 8 g 8 4 j 8 l g g = g = = = # h h h = h h h h k h a h n n v n M v V n n V V N N V ` H  .X.X.X.X.X.X.o.o.o.o.o.o.o.o.o.+.+.+.+.+.%.+.*.%.+.*.*.*.*.*.*.%.*.*.%.%.*.*.%.%.*.*.=.*.+.*.*.*.*.=.*.*.*.*.=.*.*.=.*.*.&.*.&.&.| &.&.&.| &.&.&.&.&.&.&.&.&.&.&.&.&.&.#.&.| 2.2.&.2.2.2.2.2.2.&.2.2.| &.&.2.2.&.2.2.2.&.| &.2.&.2.&.2.2.2.2.2.2.2.2.2.&.=.=.&.=.=.&.&.&.=.=.=.=.&.&.&.&.&.&.2.&.=.=.&.=.=.#.&.#.&.&.2.&.&.&.&.4.&.&.2.$.2.&.2.&.&.&.&.2.&.&.&.2.&.2.&.2.&.$.&.&.2.$.&.&.2.&.&.&.&.&.*.+.+.M g l 6 6 8 7 8 6 6 8 6 8 8 6 6 x 6 8 8 8 6 8 8 6 8 6 8 6 8 6 6 8 6 8 6 6 8 6 6 8 6 6 ",
"o.%.%.%.%.o.+.%.o.%.%.%.o.%.%.o.o.%.%.o.%.o.o.%.@.o.%.@.o.+.o.o.' %.@.o.o.%.o.o.o.o.o.o.%.o.o.%.o.o.%.o.o.o.%.o.o.%.o.+.o.%.o.o.o.%.o.o.o.%.o.o.o.+.o.%.o.+.o.%.+.o.o.+.o.O.O.o.O.o. .+.o.o.o.o.X.o.o.o.` o.' X.X.o.` o.o.X.o.o.o.' o.o.' X.' o.X.o.X.o.o.o.o.o.o.o.o.o.o.X.o.' X.o.o.o.o.o.o.X.O.X.O.o.O.X.o.X.O.o.X.o.O. .O.X.X.X.X.X.o.X.o.X.X.o.X.X.O.X.o.X.X.X.X.X.X.X.o.X.X.X.X.o.' X.X.X.X.X.X.' X.X.o.X.X.X.X.X.X.X.X.X.X.X.X.X.X.X.X.X.X.X.X.X.X.X.X.O.X.O.X.X.X.X.X.X.X.X.X.X.X.H X.X.X.X.H X.X.V X.X.X.X.H X.X.X.X.X.H X.X.H X.H X.X.X.X.X.X.X.` H V X.H V X.H X.` H V X.X.X.X.V V X.H H X.H H X.H H H X.X.H H H X.H K H X.X.X.H X.H H X.H H H X.H X.H X.H H H H H H H H H X.H H H H H H H H H H H X.H H H H V H H H H H H H H H H H H V H H H V H V H H H G H H H G G H F G H G G H G H H G H D G V G V H G G V V G B H B H V G G H G V H G G H V G G G G H G G G H H G G G H G G G G G V G G G G B G G H D B H G B B G B F G B G B B H B H G G G G B B G B B H B H V B B V B B V B G B B G B B B B B G B B B G G B G B B B G B B B B B B G B B B B B B B B B B V B G B G G B G B B B B B D B D B B M J B B B n B B B B B B B B B B c B c B B G S G B c c B c B B c c B B c B c c B S B c B c B c c c G c c c B c S c B k c S G c B S c B c c B k c S c c S S c S S S S c S S k G c c S c S c S S c c S c G G S c S S c S S k B c c c c c c c c c c c c c B c c c B c c c c c c c c c c z c c c c c c c c c c c c c S c c c S k c c x c c c c c k S c c x c x c c c c c c c c S c S c S k c x c c c c c c S c S c x c x k c x c c c x c c x c c x c c x c c c c c x z x c c c x x c c c x c c x x c c z c l c c c x x z x z x c x c c l c x c l c x x x x x c c M n v a s s T %.=.4.4.4.5.5.5.4.4.4.5.2.*. .m s L Q w.9.e.e.e.e.e.e.e.e.e.e.e.e.e.e.e.e.e.e.e.e.e.e.e.e.e.e.e.e.e.e.e.e.e.e.e.e.e.e.e.e.e.e.e.e.e.e.e.e.e.e.e.e.e.e.e.e.e.e.e.e.e.e.e.e.e.e.e.e.e.e.e.e.e.e.e.e.e.e.e.e.e.e.e.e.e.e.e.e.e.e.e.e.e.e.e.e.e.w.w.e.e.e.e.e.e.w.=. .h x x 8 x x 8 x 8 x 8 x 8 8 x 8 x x x x 8 A 8 x x 8 x 8 x 8 8 x x 8 x 8 x x x x 8 x x x 8 x 8 x 8 x x 8 x x A x 8 x x x 8 x x x 8 x 8 8 8 A 8 A 8 8 8 8 x 8 8 x x 8 x 8 x 8 x 8 8 x 8 x 8 x x 6 x 8 x 8 6 x 8 x 6 x 8 x 8 8 8 x 8 8 8 8 8 q 8 8 8 8 x 8 x 8 8 q 8 8 8 8 8 8 8 8 8 8 8 8 8 x 8 8 x 8 8 4 7 8 8 8 9 8 8 4 8 8 q 4 8 4 l x l z x x j l l l l j l l l j g g g g g g g j g g g = g h g z g g j r j h g h k k h h k k n M k B k M B B B B G D D H D H H D K K K X.X.K X.X.+.O.O.+.O.o.o.O.o.O.+.O.+.+.+.+.+.*.*.+.*.*.*.*.*.*.%.*.*.*.=.*.&.*.*.=.=.=.*.=.&.*.*.*.$.*.=.=.&.*.=.*.&.=.=.=.&.&.=.&.=.&.&.&.&.&.=.=.=.&.=.&.&.&.&.*.&.&.&.&.&.&.&.&.&.&.&.&.&.*.&.&.&.&.&.*.&.=.&.=.&.=.&.&.&.&.=.=.*.&.&.=.&.=.=.&.*.&.=.=.=.&.&.*.&.&.*.*.=.&.=.=.&.=.&.&.&.&.2.&.2.&.2.&.2.&.2.2.&.&.&.&.#.&.=.*.*.*.%.+.H j 2 j 6 6 8 6 6 8 6 8 6 8 6 8 6 8 6 8 6 8 6 8 8 6 6 8 8 6 8 6 8 6 8 6 6 8 6 8 6 8 6 8 ",
"%.%.+.%.%.%.%.%.%.%.o.%.o.%.o.%.o.%.%.o.%.%.%.%.o.%.o.%.o.%.@.%.o...o.%.@.o.%...o.%.} o.o.%.%.o.o.%.o.o.o.%.o.o.o.o.o.%.o.o.o.%.o.o.%.o.o.o.%.o.o.o.o.o.o.o.o.o.o.O.+.o.o.o.o.o.+. .o.o.O.o.o.o.o.o.o.X.o.o.o.o.X.' o.o.o.o.o.X.o.X.X.o.o.o.o.X.X.o.' o.o.X.X.' X.` o.X.o.o.o.X.o.o.' X.o.` o.o.o.X.O.X.o.X.O.X.X.X.O.O.X.o.X.X.o.X.o.X.X.X.X.X.X.X.o.X.X.X.X.X.X.o.X.o.o.X.X.X.X.` X.` X.X.X.` X.X.X.X.X.X.` X.X.` o.X.o.` ` X.X.X.X.X.X.O.X.X.O.X.X.X.X.X.X.X.X.X.X.O.X.O.` X.` X.H X.X.` X.X.X.` X.X.X.X.X.X.X.X.X.` X.H ` X.X.X.X.` X.X.X.V X.H H X.H X.X.X.` X.X.X.X.H X.X.X.X.V X.X.X.X.H H X.X.H H X.X.K X.H H H X.H H X.X.H H H H H V H H H X.H V X.H H H H H H X.H H H H H H H H H X.H H H X.H H H H H H V X.H H H X.H H H X.H H H H H H H H V H V H H H H J H H D H H H H G H G H H G H G G H G H F B G G G V H G G H B H H G H G H G G G G V H B G H G G G G G G G G G G G G G G G G G G B B G G G H G G B G G B G G G G G G G G G G B G G G G B B H B V V B B B B H B B B B B B B B G B B B G B B G B B G B B B B B B B B G B B G B B G B G G B B G B B B B B B B G G G c G B G B B G B B G B B B B B n B B B B B B B M M B B B B B B c c B S G S c c B B c B c c B B c c B c B B c B c c c c G G c c c B G B c c B B B S G c k B c c G G k G c S G c B c c c S G c S S G c S S c c G c c S G c c S S c S c c S S c k S c c c c c c c B c c c c c c c c c c c c c c z c x c c c z c c c c c c c z c z x c c z c z c k x x S c c x c c c c x x c S x c c c c S c c x x c c c c x c k c x x c c c c c x x c k x k c c c x A c c c x l c x c c x c c x c c l x c x x c c x c x x c c x c x c l c c c c c x c x c x c x c x c x c x z x x c l c x c c x x x A k c h h m s T %.&.5.5.w.w.w.w.w.w.w.5.w.w.w.5.5.4.=.$.Q Q w.e.e.e.e.e.e.e.e.e.e.e.e.e.e.e.e.e.e.e.e.e.e.e.e.e.e.e.e.e.e.e.e.e.e.e.e.e.e.e.e.e.e.e.e.e.e.e.e.e.e.e.e.e.e.e.e.e.e.e.e.e.e.e.e.e.e.e.e.e.e.e.e.e.e.e.e.e.e.e.e.e.e.e.e.e.e.e.e.e.e.e.e.e.e.e.e.e.e.e.e.e.e.e.9.9.e.w.5.%.m h x C 8 8 A 8 x 8 A 8 x x 8 x 8 8 x 8 x 8 x 8 8 x x A 8 x A 8 8 x 8 x 8 x 8 8 x x 8 x A 8 x x x 8 8 A 8 8 8 x x 8 8 x x 8 8 8 A 8 x 9 x 8 A 8 8 C x x 8 x x 8 x x 8 8 6 x 6 8 x 8 x 8 x 8 8 x 8 x 8 x 8 8 x 8 8 8 x 8 8 x x 8 x x x 4 x 8 8 x x 8 l x l 6 x 8 8 q q q q 8 8 8 8 8 8 8 6 6 6 8 6 8 8 8 8 8 8 8 8 8 7 6 8 4 8 7 8 8 x 8 x 8 8 8 l 6 x 8 x 8 6 6 l l 8 q 8 8 8 x x x l 6 l x x j l x x 4 j x j 4 j j 4 j g 6 g g 2 2 g 6 l 2 g g 2 2 2 j 2 , 2 j j j g r g j g h j k k k k h z k v k n M n n n B n B F G V V B K V V H ` X.X.X.O.X.O.O.o.o.O.o.O.+.o.+.+.+.+.+.+.+.+.+.%.*.+.*.%.*.*.*.%.*.*.*.%.*.*.%.%.*.*.*.*.*.*.*.&.=.=.=.*.*.=.&.*.*.&.*.*.*.*.*.*.*.*.*.%.&.*.*.*.*.*.*.*.*.*.*.*.*.*.*.*.*.*.*.*.*.*.*.=.*.*.*.*.&.*.*.=.*.&.*.&.*.*.=.*.*.&.=.=.&.#.&.&.&.&.&.&.&.&.&.=.&.&.*.=.*.=.*.%.+.K k 2 4 8 8 8 8 6 8 6 8 6 8 6 8 6 8 6 8 6 8 6 8 6 6 8 8 6 6 8 6 6 6 8 6 8 8 l 8 6 8 6 8 6 ",
"%.%.%.%.%.%.%.%.+.%.o.%.%.%.o.%.%.@.o.%.o.%.%.o.%.%.o.o.%.%.o.o.%.o.@.o.o.%.' %.%.' %.%.%.o.o.%.o.o.+.o.o.o.o.+.o.o.o.o.o.o.%.o.o.o.%.o.%.o.%.+.%.o.%.%.%.%.o.%.o.o.o.+.o.o.o.o.o.o.o.o.o.o.o.+.o.o.o.o.X.o.X.X.o.X.o.o.o.o.X.' o.o.' o.X.' X.o.o.` o.o.' o.o.o.o.o.o.o.o.` o.o.' X.o.o.X.o.X.o.o.O.o.X.o.O.o.O.o.X.O.X.o.X.X.o.X.X.o.X.X.X.o.X.o.X.X.X.X.o.X.X.o.X.X.X.X.X.o.X.X.o.X.` X.X.X.o.X.` X.X.` X.X.X.X.X.` X.X.` X.o.X.O.o.X.X.X.X.X.X.X.X.X.X.X.X.X.X.X.X.X.X.X.X.X.X.X.X.X.X.X.X.X.X.X.X.X.X.X.X.V X.X.X.X.X.X.X.X.H X.X.H X.H X.X.X.X.X.X.X.V X.H H X.` H V X.V X.X.H V X.V X.X.X.H H H H X.H H H H K H X.X.H H X.H X.X.H H H H X.H H V H H H H V H H H H H H H X.H X.H H H H H H H H V H H X.H H H H H H H H H H V H H H H X.H H H H H V H H H V G F H H H H G H J H H H H H H H H H G H H V H H H G G G G B H G H H B H G G H G H V G G V H G G H H G G H H G G J G G H J G G H H G B B G H B B B G B G G H G G G G G G G H G G G G B B G B H D B B B G V B V G B B B B V B B M B G B G B G B B B B B B B B B B G B G B B B B G B B B c B G B B J B J B B B G S B k G k S G S G B B B G B B B B B B B c c G B B B B M B c B c B B c B c c c B c B c c B c B B c c B c B B c c B B S c G c c S c c S c c c c c c S c c c c S c S c S S S B c c B c c S c S c c S S k c S S J J k S c S c c S S c S c S S S c c G c c c c S c c c B c c c M c c c c B c c c c z c c c c c c z c c c c c c c z c z c c c z c z c c c c x c x S c c c S c c c c x c k A S c S k c c c c c c c x c x c c S c k S c c k c c x c x x k x S c x x c x c c x l c x c c x x c x c c x c c x c c x c c c c x x c c x c c x c x c c x x c z x c x c l c l c c x c x c c c x A q A S j t n m *.=.5.w.w.w.e.e.e.9.9.e.9.e.8.e.e.w.w.w.4.5.w.e.q.w.e.e.e.e.e.e.e.e.e.e.e.e.e.q.e.e.e.e.e.e.e.e.e.e.e.e.e.e.e.e.e.e.e.e.e.e.e.e.e.e.e.e.e.e.e.e.e.e.e.e.e.e.e.e.e.e.e.e.e.e.e.e.e.e.e.e.e.e.e.e.e.e.e.e.e.e.e.e.e.e.e.e.e.e.e.e.e.e.e.e.e.e.e.e.e.e.e.e.e.e.e.e.e.e.9.w.5.=.) v k 8 8 x x 8 x 8 8 x 8 x A x 8 x A 8 x 8 x x 8 x 8 x x 8 8 x x 8 8 x x 8 x 8 8 8 x 8 8 x x 8 8 x x 8 8 x x 8 x 8 x 8 x 8 x 8 8 x 8 q 9 8 A 8 x 8 8 x x 8 x 6 l 8 8 x 8 x x 8 6 x x 8 6 8 8 8 6 x x 8 8 x 8 6 x 8 8 x x 8 8 8 x 8 8 x 8 8 8 8 x 8 8 l x x 8 8 8 q 8 8 8 8 8 8 6 8 8 8 8 8 8 x x 8 8 8 6 6 8 x 8 8 6 8 8 8 8 8 8 8 8 8 8 8 8 8 8 7 6 5 8 7 7 7 6 7 7 7 7 7 7 7 7 7 7 8 6 8 8 8 8 8 8 0 7 0 7 q 7 8 q 8 8 8 8 8 8 8 6 8 8 8 7 4 8 4 8 8 4 q 4 4 q 4 4 j 4 j j 4 j 4 6 g g g l j l l g j 2 g g g g 2 g g g g r g j j g w g g g g h j g h h k k h h h k k k Z Z u n u n n n n D m F B K K H X.K F X.K K K X.X.K K X.X.X.o.o.X.X.o.o.o.o.+.+.+.+.+.+.+.+.+.+.+.+.+.+.+.+.+.+.+.+.+.+.+.%.%.%.%.*.*.%.%.%.*.*.*.*.*.$.*.*.*.*.*.*.*.*.*.*.*.*.*.*.*.%.*.*.*.*.%.%.*.*.*.*.*.%.%.*.*.*.*.%.*.%.%.+.o.D k 4 4 4 3 7 8 6 8 6 8 6 8 6 8 6 8 6 8 6 8 6 8 6 8 8 6 8 6 8 6 x 6 8 6 8 6 6 8 6 8 6 8 6 8 ",
"+.%.o.%.%.+.%.o.%.%.%.%.o.%.%.o.o.%.%.o.%...o.%.o.%.%.%.%.o.%.%.o.%.o.o.o.o.%.o.o.%.o.o.' %.%.' o.%.o.%.%.o.%.o.%.o.%.o.%.o.o.o.%.o.o.+.o.o.o.o.o.o.o.o.o.o.o.o.o.+.+.o.+.o.O.o.o.o.O.o.o.o.O. .o.X.o.o.o.' o.o.o.o.o.` ` o.o.o.o.X.o.X.o.o.o.o.o.o.o.X.X.o.X.o.X.' ` o.o.o.o.X.o.o.X.o.X.' o.o.X.o.X.O.X.O.X.X.o.O.o.X.O.X.O. .o.X.X.X.X.o.X.X.X.X.X.o.X.X.o.o.X.X.X.o.X.o.X.X.X.X.X.o.X.X.X.X.X.o.X.X.o.X.X.X.` o.X.o.X.X.X.X.X.X.X.X.X.X.X.X.X.O.X.X.X.X.O.X.X.X.X.X.X.X.X.X.X.X.H X.X.X.X.X.V X.X.X.X.X.X.X.X.X.X.X.X.H X.X.X.X.X.X.X.X.X.H X.X.H X.X.V X.` X.H X.H X.X.V X.V X.X.X.V X.V X.X.X.K X.H H X.X.H X.X.H K X.H H H X.H H H  .H V X.H X.H H X.H X.H H X.H H H H V H H H V X.H H H X.H H H H H H H X.H H H X.H H H X.H H H H H H H H V H H V H H H H G D H G G H G H H G D H G D H D H H G G D G G G V H G G H V G B H H B V G G V G G H G G G V G G J G H G J G H H H G G H H G G G G D B B D G G H G G G G B G B B H B G G B G B G G H D G G G B B V V B G B G G V B B N B B V B B B B B B B B B G B G B G B B G B B B B G B G c B G B G B B B B n B S n B B J S J S G B J S G G B B B G B B B B B c B c B B k B B B B B B B B B S G c G B c c c B c B c B c c B B c B c c B B c c c c c c B c c B c c G c S c B c c S G c c c G c c c c c c G c c G c G c S S c c S S k B k c B c S B S S S c S c G c S c S c S c S c S c c c c c c c c c c c c c c c c c c c c c c z c c c z c c c c z c c c c c c c c c c c c c c c c c c x c c x S k c c c c c c x c c x c c c A k c c c c c c x c c x c c c c x c c c c c c k x c c l c c c x c c x c x z c x c c c x c c l c c x c c l x z c c x c c x l c x c c x c c x c c l c l c x c x l c l c l x x x 4 4 j j a m ..=.4.w.w.w.w.e.e.e.9.e.9.9.9.e.9.e.e.q.e.w.5.w.w.q.e.e.e.e.e.e.e.e.e.e.e.e.e.e.e.e.e.e.e.e.e.e.e.e.e.e.e.e.e.e.e.e.e.e.e.e.e.e.e.e.e.e.e.e.e.e.e.e.e.e.e.e.e.e.e.e.e.e.e.e.e.e.e.e.e.e.e.e.e.e.e.e.e.e.e.e.e.e.e.e.e.e.e.e.e.e.e.e.e.e.e.e.e.e.e.e.e.e.e.e.e.e.q.e.9.9.e.w.w.4.} v j x x 8 x A 8 x x x x 8 x 8 x 8 x x 8 x 8 x q 8 A 8 x 8 x x x x x 8 x x x x x x x x x x x 8 A 8 x x x x 8 A 8 x 8 x x x x x x q x 4 A 8 8 x 8 8 x 6 8 8 l x l x x 6 x 8 8 x x 8 8 x 8 x x 8 x 8 x 8 x 8 x x 8 x 8 x 8 x 8 x 8 x 4 8 q 8 8 8 6 8 x x x x 8 q 8 8 8 8 8 8 8 8 8 8 x x 8 8 8 8 8 8 x x x 8 l 8 l 8 6 6 8 8 8 8 8 8 8 8 8 8 8 7 8 8 8 8 7 8 8 8 8 8 7 0 7 0 7 8 7 q 8 7 8 8 8 8 8 8 q 7 0 7 0 8 0 7 7 7 8 7 8 8 8 q 6 8 8 8 8 8 8 q 8 4 8 8 4 8 8 3 8 8 8 8 8 8 8 6 6 8 8 8 x 8 l x x 4 x j j 4 x j j x j 8 j j l g j 8 4 j j j 2 j g 2 4 2 6 j j j 4 j , j j j j j g j y j g j j g g r g r g g j j h g g r h j g k h h h h h h h h h k h h h h v h v M k n k n v k M n B n V k V n V H m V V N V V N V V V N V V V H ` V ` ` V  .V X.X.X.X.K X.X.X.F O. .O.X.X.X.K O.X.K O.K X.X.O.X.O.X.H F B r : 2 4 5 5 8 7 6 x 8 6 8 6 8 6 8 l 8 6 8 6 8 6 8 6 6 8 6 8 6 8 6 8 6 8 6 8 8 6 8 6 8 6 8 6 ",
"%.+.%.o.%.%.%.%.o.%.%.o.%.o.%.%.@.%.o.%.o.%.%.' o.@.%.o.o.%.%.o.o.o.o.%.o.%.o.%.o.%.o.%.o.%.%.o.o.o.o.%.o.%.o.%.%.o.%.o.%.o.%.o.o.o.o.o.o.o.o.o.o.O.+.o.+.o.o.o.o.O.o.+.+.O.o.o.o.o.o.o.o.o.X.o.o.o.o.X.o.X.o.o.X.o.' o.o.o.o.X.' o.o.o.o.` X.o.' o.o.o.o.o.o.X.o.o.X.o.o.o.' X.o.o.X.X.o.o.o.X.o.O.X.o.X.o.O.X.X.X.o.X.o.o.X.X.o.X.X.X.X.X.o.X.X.X.X.o.X.O.o.X.o.X.X.X.o.X.o.X.X.X.X.` X.X.X.X.X.X.X.X.O.X.X.X.X.X.X.X.X.X.X.X.X.X.X.O.X.X.O.X.X.X.X.X.X.X.X.X.X.X.X.` X.X.X.X.X.X.X.X.X.X.X.X.X.X.X.X.X.H X.X.H X.X.X.X.X.X.X.H X.X.X.X.X.X.X.V X.` H V X.X.X.V X.V X.X.X.V X.X.V X.X.` H H X.H H X.H X.H K H X.H H X.H H X.H H H H H H X.H H X.H X.H H X.H X.V H H H X.H H H X.H H H H H H H H H H H X.H H H H H H H H H H H H H H H H H G H J H G H K D H H G H H H G H H G H H G H H G G H G H H G H B H G H H B H H B H H G V G G H B H H B H H G V G H B G H G G H J G G H J G G J G G G H B B D G G B G F B G G G G V D G H G G B G G B G B G G G H G G B V V B B V B B V B B V B B V B B B B B B B B B G B G B c G B G B B B B G B G B B G B B B B B B B B B G B G B G B S B G B S B B D B B B B B B B B B B B B B B B M B B B B B c B c B c c G S c G c c c B c B c c B c G c c c G c B c B c c B c B c S B c c c B c S B c B c G c c c c B c S B c B S c S S G c S S c S G S c S c S S S c G c S c S c G S c G c S S c c c c c c c c B c c c c c c c c c c c c c c c c c c c c c c z c c k x c c c c c c x c c c c c c x k S c x c c c x c c c S k c c c x c c c c c c x S k c x c c c c c c c S k S c c l c x c z x c c x c c x c c l c c x c c x c c c x c c l x c x x c x c c x c c c c x c l x c c l c l c l c l x k c l c l c l x c x k x x x A 4 C t i Y 2.w.e.e.w.e.w.e.e.e.e.e.e.e.e.e.e.e.e.e.e.e.e.w.e.e.e.e.e.e.e.e.e.e.e.e.e.e.e.e.e.e.e.e.e.e.e.e.e.e.e.e.e.e.e.e.e.e.e.e.e.e.e.e.e.e.e.e.e.e.e.e.e.e.e.e.e.e.e.e.e.e.e.e.e.e.e.e.e.e.e.e.e.e.e.e.e.e.e.e.e.e.e.e.e.e.e.e.e.e.e.e.e.e.e.e.e.e.e.e.e.e.e.e.e.e.e.e.e.e.e.q.q.e.e.w.5.@.i j x x A x x 4 x x x x x x x A 8 x x x 8 8 4 4 q 8 4 8 x x x x l x x 8 x l x x x x x x l x x x x x 8 x 8 q x 8 x x l x l x x 8 q x 8 x x 8 x x 8 x 8 x 8 x 8 8 x 8 x 8 8 x 8 8 8 x 6 x 8 8 x 8 x 8 8 8 8 8 8 8 x 8 8 x 8 x 8 x 8 8 8 8 x 8 x 8 x 8 x x 8 8 8 8 8 8 6 8 8 8 8 8 8 x 8 8 6 8 l 8 8 8 x x 6 8 6 8 8 8 8 8 8 8 8 6 8 x 8 8 8 8 8 8 8 8 8 8 8 8 8 8 8 8 8 8 8 8 8 8 8 8 8 8 8 8 8 8 8 8 8 8 8 8 4 8 8 8 8 8 8 8 8 8 4 8 8 8 8 8 6 8 8 8 8 8 8 8 8 8 8 8 q 8 q 8 0 8 8 8 8 8 8 8 8 8 8 8 8 8 8 8 8 8 8 8 8 8 q 8 8 8 8 8 q 8 8 8 4 8 8 8 4 8 8 8 4 8 8 8 8 4 8 4 8 x 8 8 8 j 8 4 8 4 x 8 4 x 8 x 4 x 8 x 8 4 8 x 4 x x l j l x l j l l l l l 6 l l l l 6 2 6 2 6 2 2 2 2 2 6 2 2 2 2 6 g 2 g 6 g 6 g 6 = 6 6 g g 6 g g l g l l l l g l g = 6 = g 6 = g g g g g l l g j g k j g j j j l j l j g l l 8 8 2 8 8 8 8 8 6 8 6 8 6 8 6 6 8 6 8 6 8 6 6 8 6 8 6 8 6 8 6 l 8 8 8 6 8 6 8 6 8 6 8 8 6 8 ",
"%.%.%.%.%.o.%.+.%.%.o.%.%.%.o...o.o.%.%.%.o.%.%.%.o.%.%.@.o.%.%.o.%.o.o.o.o.o.o.o.o.o.o.o.o.o.o.+.%.o.o.o.+.o.o.o.o.o.+.o.o.o.o.o.O.+.+.+.+.o.o.o.o.o.o.o.o.+.O.o.o.o.o.o.o.o.O.o.X.o.o.o.o.o.o.X.o.o.o.o.o.o.o.o.o.X.o.o.X.' o.X.o.X.` o.o.o.o.X.o.X.X.' X.o.' X.o.o.' X.o.o.o.o.X.o.' X.o.o.X.o.X.X.O.O.o.X.o.X.o.X.O.O.X.X.X.X.X.X.o.X.o.X.X.X.o.X.X.X.o.X.X.X.X.X.o.X.X.o.X.` X.X.o.X.X.` o.X.X.X.X.X.X.X.X.X.X.X.X.O.X.X.X.X.X.X.X.X.X.X.X.X.X.X.X.X.X.X.X.X.O.X.X.X.X.X.X.X.H X.X.X.H X.H X.H X.H X.X.X.X.X.X.H X.H X.X.H X.X.X.H H X.X.H X.H X.X.X.X.V X.V X.X.X.V X.X.H X.H X.H H X.X.V X.H H X.H X.X.H H X.X.K H X.X.H X.H X.V H H H X.V H H H H V H H H H H H H H H H H H H H V X.H H H X.H H H H H H H X.H H H X.H H H H J K H H H H F H G H H G H G G H G H H G D H G H H G K H H G H H G H H H B H B B H H H H B B G G H V H H B B H G G V G H B H G H J G G H G G G G H G H G H G G G G H B G G G G G G B B G G G G B G G H G G G G G G B B B G G B B B B B B B B B B B B V M B B B G B G B G B B B B B B G B B B G B G B B B B B B B B G B G B G G B B B B B B B G B B B G B B B B B B B n B B B B B B B B B B B B B B B c B c B c G G S S S c S c G B c B c c B c G c B B c c B S c c B B c c G B c c B G c c B B c c G B c c B G c c B B c c G c S G c c S c S G c c S S c S c c S S c S c S c S c c S c S S c c c c c c c c c c c c c c c c M B c B c c c c c z c z c z c c c c x c c c c c x c c c c S x c x c c c c c c c c k S c x c x x c c c c c S x x c c c c c c c c c S x c x c x c x x c c c c c c c c x x c c x x c c x l c c x x c x c c x x c z c c c c c x c c x x x z c x c c c x c x c x c x c c c x c x c x c z z k l x x x x C k a ( :.w.e.q.e.e.9.e.e.e.e.e.e.e.e.e.e.e.e.e.e.e.e.e.e.e.e.e.e.e.e.e.e.e.e.e.e.e.e.e.e.e.e.e.e.e.e.e.e.e.e.e.e.e.e.e.e.e.e.e.e.e.e.e.e.e.e.e.e.e.e.e.e.e.e.e.e.e.e.e.e.e.e.e.e.e.e.e.e.e.e.e.e.e.e.e.e.e.e.e.e.e.e.e.e.e.e.e.e.e.e.e.e.e.e.e.e.e.e.e.e.e.e.e.q.e.e.e.e.w.e.9.e.e.q.e.w.5.=.f j 4 x A x x x x x x j 8 8 8 8 8 8 x 8 x A q q 4 8 9 4 x 8 x x x A 8 x x x x x x l x x x x 8 x x 8 x A 8 x 8 x x x l l x x 8 x 8 8 x A 8 x 8 8 x 8 x 8 x 8 x x 8 x 8 x 6 8 x x 8 8 x 8 x 6 x x 8 x 8 A 8 A 8 q 8 x 8 8 q x 8 8 q 8 A 8 8 8 x q 8 8 8 8 x x 8 8 x 8 6 x 6 8 8 6 8 6 8 x 8 8 8 8 8 8 6 6 8 8 x 6 8 8 8 l 8 x 8 8 8 6 8 8 8 8 8 8 8 x 8 6 8 8 8 8 x x 8 8 8 8 8 8 8 x 6 8 8 8 6 8 8 8 8 x 8 8 8 8 8 4 8 8 q 8 8 8 8 x 8 8 8 8 x 8 8 8 6 x 8 8 6 8 8 8 8 7 7 8 8 8 0 7 q 8 7 0 8 7 q q 8 8 0 8 8 q 7 q 8 8 7 8 8 q 7 8 7 8 8 q 7 q 8 0 8 8 q 8 8 8 0 8 q 8 8 8 8 8 8 8 8 8 8 8 8 8 8 8 8 8 8 8 8 8 8 8 8 8 8 8 8 8 8 8 6 8 l 8 8 8 8 8 8 6 8 6 8 8 6 6 8 6 8 8 7 8 8 8 6 8 8 8 7 6 6 8 6 6 6 6 6 6 6 6 6 6 8 6 6 6 6 6 6 l 6 6 l 6 6 6 6 6 5 6 6 6 6 6 6 j 6 6 j 8 l 8 6 6 l 6 l g 8 6 6 6 6 6 8 8 6 8 8 6 8 6 8 8 6 8 6 8 6 6 8 6 8 6 8 6 8 8 6 8 6 8 6 8 6 8 6 8 6 6 8 6 8 6 8 6 8 6 6 8 6 ",
"%.o.%.%.+.%.%.%.o.%.@.+.o.%.o.%.o.%.%.o.@.o.o.%.o.%.%.o.+.%.o.%.%.o.o.+.%.o.+.o.o.%.%.o.+.o.%.o.o.%.o.o.o.%.o.o.o.o.%.o.o.o.%.o.+.o.o.o.O.o.+.O.+.o.o.+.o.o.+.o.o.+.o.+.o.+.o. .o.X.X.o.X.o.o.o.o.o.o.o.o.o.o.X.o.' o.X.X.o.o.o.o.o.o.o.o.X.o.` o.o.' o.X.o.o.o.o.o.o.o.o.o.o.X.o.' o.X.o.X.o.o.o.O.o.O.O.X.X.o.X.O.X.o.O.o.X.o.o.X.X.X.X.X.X.X.X.o.X.o.X.X.X.X.o.X.o.X.X.X.X.X.X.o.X.X.X.X.X.X.X.X.X.O.X.X.X.X.X.X.X.X.X.X.X.X.X.X.X.X.X.o.X.X.X.X.X.O.X.O.X.X.X.X.X.X.X.X.X.X.X.` X.X.X.` X.X.X.X.X.X.X.H X.X.H X.` X.X.X.X.X.H X.X.H X.H X.X.V X.V X.X.V V X.X.X.H V X.X.` H X.` X.X.X.X.X.X.X.H H X.H H H H H X.H H H H H H V H H X.H H H H H H X.V H X.H H H H X.H H H X.V H H H X.H H H H H H H H H H X.H H H H V H H H H H H H H H J H G G H H G H H H G H H D G H J H H H G H G D G H H G H H G B H G G H B H B B H B H H G H G B H B H V G G G H G H G G G G H G G G H G H H G G H H G G B G B H G G G B G G G G G G G B G G B G B B H G G G G G G G B V B B V V B V B M B B B B B B B G B B B G B B G B B G B B B B B B B B G B B G B B G B B G B B B B G B G B G B B B G B G B B G B B B B M B B B B k B B B B B B B B B B B c B B B c c c B B G c c G c c G S B B c c B c c G c c G c B G c c c B c c B B c c B G c c c B c c B G c c B B c c c B c S S c S S c c S c S S c c S S B S c S S S c G S c G S c S c c B c c B c c c c c c c c B c c c c c c c c c c c z c z c c c c c c c c c c k S c c c c S x k x S c c x x S c c S x S c c c c c S c x c x c k c c c x c x S x c S x k c c c c x c c c c c x l c x x c c c x x c z c c c x c c c c z x c c x c c x x c x x c c x c x c x c x c c c x c l c x c l c x l c c x c l l c c l x c x A x x k u m =.w.w.e.q.e.e.9.e.e.e.e.q.e.e.e.e.e.e.e.e.e.e.e.e.e.e.e.e.e.e.e.e.e.e.e.e.e.e.e.e.e.e.e.e.e.e.e.e.e.e.e.e.e.e.e.e.e.e.e.e.e.e.e.e.e.e.e.e.e.e.e.e.e.e.e.e.e.e.e.e.e.e.e.e.e.e.e.e.e.e.e.e.e.e.e.e.e.e.e.e.e.e.e.e.e.e.e.e.e.e.e.e.e.e.e.e.e.e.e.e.e.e.e.e.e.e.e.e.e.e.e.e.e.e.e.q.w.w.<.m j 8 8 8 8 8 4 A 8 8 8 8 q 8 q q q 8 8 q q A A 8 q q 8 8 8 8 x 8 7 q 8 q 8 8 8 8 8 8 8 8 q 7 7 8 8 x x 8 8 q 8 A x x x x x 8 x 8 x x 8 x 8 x x 8 8 x 8 8 x 8 8 x x 8 x 8 x 6 8 x 8 x 8 x x 8 x 8 8 8 8 8 q 8 8 x 8 q x 8 8 x 8 8 8 A q x q 8 8 x 8 8 x 8 8 x 8 x 8 x 8 6 l 8 8 6 6 x 6 8 8 8 8 8 6 x 6 8 x 8 x 6 x 6 8 6 6 8 8 8 8 8 8 x x 6 8 6 8 8 8 8 8 8 8 8 6 8 8 8 8 8 l 8 8 8 8 8 8 x 6 x 8 8 8 8 4 8 q 8 8 8 8 8 x 8 8 x 8 6 6 8 8 8 8 8 8 8 8 8 8 8 x 8 8 7 7 8 8 7 8 8 8 7 8 q 8 8 8 8 7 8 7 8 0 8 8 8 7 8 8 8 0 8 8 8 8 0 8 0 7 8 8 7 8 8 8 7 q 7 8 8 8 8 8 8 8 8 8 8 8 8 8 q 8 8 8 8 8 8 8 8 8 8 8 8 8 8 8 8 8 8 8 8 8 8 8 8 8 8 8 6 6 8 8 6 8 6 6 8 6 1 5 8 8 6 8 8 8 8 8 8 8 8 8 8 x 8 6 8 8 x 6 x 6 6 6 6 6 6 6 6 6 6 6 8 8 6 6 6 6 6 6 6 6 x 8 l l 8 8 j 8 j j 8 8 j j 8 8 8 j 6 6 8 6 8 8 6 6 8 6 8 6 6 6 8 6 8 6 8 8 l 8 6 8 6 8 6 8 6 6 8 6 8 6 8 6 8 6 8 6 8 8 6 8 6 8 6 8 6 8 6 6 x ",
"%.%.%.o.%.%.%.o.o.%.o.%.o.%.%.%.o.%.%.o.%.+.%.o.o.%.%.o.%.o.%.o.o.o.o.%.o.o.o.%.+.o.o.o.o.%.o.o.o.o.%.o.o.o.%.o.o.%.o.o.o.%.+.o.+.o.+.o.o.o.o.o.+.o.o.o.O.+.o.o.o.o.O.o.o.o.o.o.o.o.o.o.o.o.o.X.o.o.o.o.X.o.o.o.o.X.o.X.o.' X.' X.o.o.` o.o.o.o.o.X.o.X.o.o.X.o.' X.o.X.o.X.' o.o.X.o.o.' o.o.X.X.X.o.X.X.o.O.O.X.o.o.X.X.X.X.` X.X.o.X.X.o.X.o.X.X.X.X.X.o.X.o.X.X.X.X.o.X.o.X.X.X.` o.o.` X.X.X.X.X.X.X.o.X.X.O.X.X.X.X.O.X.X.X.X.O.X.X.X.X.X.X.X.X.X.X.X.X.X.X.X.X.X.X.X.X.X.X.X.X.X.X.X.X.X.H X.H ` X.X.H X.X.X.H X.H X.X.H ` X.X.X.X.X.X.X.X.X.V X.H X.X.X.X.V X.X.H V X.X.H X.V V ` H V X.K H X.H X.H X.X.X.H H X.X.X.K X.X.H H H X.V X.H H X.H H H H X.X.H H H H H H H H H H H H H H H X.H H V X.H H V H H H H X.H H V X.H J H K H H H H F G H H G H G H G H H H H H G H H D H H H H G H H G V G H B V G H H B H H B H H B H G G V G H H H G H G V G G G G H G G G H G G G G G G G G G G G G G G G B V D G G H B G G B G G G H B G D G G H B F B G G G G H B B V B B B M V B B V B B V B B B B G B B B B B G B B B G B G G B B B B G B B B B B G B B B G B B B B B B G B B B B B B G B B B D B B B B B B G B M B B c B B c B B c B B c B G c G S c c S S c B c c c B c c B c G c c c B c B c c B G c c B G c B c B c c B B c c B S c B c c G c B B c c B c c S c S c S c S c c S S c S c c G c c c S c S S S c S c S S S c c c c M c c c c c c c c c c c c c c c c c c c c c c c c c z c c c x c S x c c x S k c c c c c c c c c x S k c x c c c c x c c S k S c S x c c c c c c S k c c S x c c c c c c l c c c c c c c x l c c c c x x x c c x x x c x c x z c c x c c c c l c c l c c c c c x c x x c x c l c x c c l x k l c x c c c l k k c x c x x t F %.5.w.e.e.e.9.e.e.w.e.e.e.e.e.e.e.e.e.e.e.e.e.e.e.e.e.e.e.e.e.e.e.e.e.e.e.e.e.e.e.e.e.e.e.e.e.e.e.e.e.e.e.e.e.e.e.e.e.e.e.e.e.e.e.e.e.e.e.e.e.e.e.e.e.e.e.e.e.e.e.e.e.e.e.e.e.e.e.e.e.e.e.e.e.e.e.e.e.e.e.e.e.e.e.e.e.e.e.e.e.e.e.e.e.e.e.e.e.e.e.e.e.e.e.e.e.e.e.e.w.e.9.e.e.q.e.e.w.w.4.T k x x x x x x x A A x x A 8 8 8 q q 8 8 8 8 8 8 8 8 x q x A 8 8 8 8 q q 8 A A q C 8 A q 8 q q 8 8 x 8 A 8 7 8 8 x x x x x x 8 x 8 8 x 8 x x 8 x x 8 x 8 8 x 8 8 6 x 8 x 8 x x 8 x 6 x 8 8 x 8 6 8 x 8 x 8 x 8 8 x 8 8 q q 8 8 x 8 8 8 8 8 x 8 8 x 8 8 8 8 8 8 8 8 8 6 x 8 8 8 x 8 8 8 8 6 x 6 8 8 8 8 8 6 8 8 8 8 6 8 x 8 6 x 6 6 8 8 6 8 8 6 x 6 8 x 6 8 l 8 8 8 6 x 8 8 8 8 8 8 6 x 8 8 6 8 8 x 8 8 4 8 8 8 8 x 8 8 8 4 8 8 8 8 8 x 6 8 8 8 6 x 8 8 8 6 x 8 8 8 8 q 8 7 q 8 8 7 q 7 q 7 8 8 8 q 7 8 q 7 8 8 8 0 8 8 0 8 8 8 8 8 8 8 8 0 8 8 8 7 8 8 0 8 8 8 8 8 8 8 8 8 8 8 q 8 8 8 8 8 8 8 8 8 8 8 8 8 8 8 8 8 8 8 8 8 8 8 8 8 8 8 8 6 x 6 x 8 6 6 8 6 8 8 6 5 6 6 5 8 8 8 8 8 8 8 8 8 8 8 8 6 6 8 8 8 6 8 8 6 6 6 6 6 5 6 6 8 6 8 l 6 x 6 8 8 x 8 6 8 6 8 8 6 l l 8 6 l 6 x l 6 6 2 l 2 6 6 8 6 8 6 6 8 6 6 8 6 6 8 8 6 8 6 8 6 8 6 6 8 6 8 6 8 6 8 8 6 8 6 8 6 8 6 8 6 8 6 6 8 6 8 6 8 6 8 6 8 6 6 ",
"%.%.%.%.%.%.+.%.@.o.%.%.o.%.%.o.%.%.o.%.%.o.%.%.%.%.o.%.%.%.o.%.%.+.%.o.o.o.o.o.o.o.o.%.%.o.o.o.o.o.%.o.o.o.o.o.o.o.o.%.%.o.o.o.o.o.o.+.o.o.+.+.o.O.o.o.O.o.o.+.o.+.o.o.o.o.O.o.o.o.o.o.o.o.o.o.o.o.o.o.o.o.o.o.o.o.' o.` o.o.o.o.o.o.o.o.X.o.X.o.o.o.o.X.o.' o.o.X.o.` X.` o.o.o.o.o.' ' o.o.o.o.X.O.X.o.O.O.X.X.o.o.X.o.X.o.X.X.o.X.o.O.X.X.X.X.o.X.X.o.X.X.X.o.X.o.X.X.o.X.X.X.X.X.X.X.X.X.X.X.X.X.O.X.X.X.X.X.X.X.X.X.X.X.X.X.X.X.X.X.X.X.X.X.X.X.X.O.X.X.X.X.X.X.X.X.X.X.X.` X.X.X.X.H X.X.X.X.X.X.X.H H X.X.H X.H X.H X.X.X.X.X.X.X.X.X.X.H X.H X.` H X.V X.X.X.H X.X.H X.H X.X.X.X.H X.X.H X.X.H X.H K H K X.X.H H H X.H V H H H V X.H X.X.V H H X.H H H H H H H X.H H H V H H H H X.H H H H H H H H H H X.H H H H H H H H H H H H H H G G H G H H G G H H H G H H F G H G H G G H D G H G H H B H G V H B H H B V G G B H H B H B H H B G G H G V G G V G H G G H G G G G G G G J H G G G H G B G G B G G G G B G G G H D G G G F G B G G G G D G D V G B G B B B V B B B B V B B B V B G B G B G c G G B B B B B B G B B G c G G B B B B B B G B B G B B B G B B B B G B B B B G B G B V M B J B B B B G B B M B B B B B B B c B B M c S c G G c B c B c B c B c B c G c c B c c B c G c G c c G c c G c c B c c G B c B S c B B c c B c B c c G c B c S c c S c S G S c S G c S c S c G S c S c S S c c c c S c c S c c c B c c c c c c c c c c c c c c c c z z c c c c c c c z c c c c c c c x c c c c x c c x c c S c c c c x S c c S x S k c x S k c x c c x c c A c c x c c c c c S x k S c x S k c z c c x c c c c x x c c x x c c x x c c c x c c c x x l c c x x c c x c c c x x c c l c c x c c x c x c l c x c z x c c x c x c x k c k x c k d +.4.w.w.e.e.e.e.e.e.e.e.e.q.q.e.e.e.e.e.e.e.e.e.e.e.e.e.e.e.e.e.e.e.e.e.e.e.e.e.e.e.e.e.e.e.e.e.e.e.e.e.e.e.e.e.e.e.e.e.e.e.e.e.e.e.e.e.e.e.e.e.e.e.e.e.e.e.e.e.e.e.e.e.e.e.e.e.e.e.e.e.e.e.e.e.e.e.e.e.e.e.e.e.e.e.e.e.e.e.e.e.e.e.e.e.e.e.e.e.e.e.e.e.e.e.e.e.e.e.w.w.e.e.e.e.q.e.q.w.w.5.) t g l j k l k g j l l l x x x x 8 q q 8 8 8 x x x 8 x x q 8 9 4 q A 4 j 4 j j j j j 4 j 4 A x x l x x 8 q 8 0 8 x x x x x x x 4 x 8 8 x 8 x 8 x 8 x 8 x x x 8 x 8 x 6 8 6 x 8 8 8 8 6 x 8 8 8 x 8 x 8 x x x 8 q x 8 8 8 8 8 8 A x 8 8 x 8 q 8 q 8 8 6 x 8 8 8 8 x 6 8 8 8 8 8 8 6 8 8 8 6 x x 6 8 6 8 8 8 8 8 x 6 8 6 8 6 8 x 8 x 6 6 8 8 8 8 8 8 8 l 8 8 6 8 8 8 8 8 8 6 x 8 8 8 l x 6 8 8 8 8 8 x 8 4 8 8 8 8 8 8 8 4 8 8 8 8 8 8 8 6 6 8 8 x 6 8 8 8 8 8 l 8 8 8 8 8 8 8 8 8 8 8 8 8 8 8 8 8 8 8 8 8 8 8 8 8 8 8 8 8 8 8 8 8 8 8 8 8 8 8 8 8 q 8 8 8 8 8 8 8 8 8 8 q 8 8 8 8 8 8 8 8 8 8 8 8 8 8 8 q 8 8 8 8 8 8 q 8 8 8 8 8 8 8 x 6 l 8 8 8 6 8 6 8 8 6 8 6 8 8 8 8 8 8 8 8 8 8 8 8 8 8 8 8 6 8 6 8 6 8 6 8 8 8 8 8 8 8 8 8 6 6 6 8 8 6 6 8 8 l x 6 6 6 6 6 8 6 8 l 8 8 6 6 6 6 6 6 6 6 6 6 6 8 8 6 8 6 6 8 8 6 8 6 6 8 6 8 6 8 6 8 6 8 6 8 8 6 8 6 8 6 6 8 8 6 8 6 6 6 8 6 6 8 6 6 8 6 8 6 8 6 6 8 ",
"%.+.%.o.%.%.%.%.o.%.%.o.%.o.o.%.o.%.%.o.%.+.o.%.o.%.%.o.o.%.@.o.o.o.o.o.%.o.%.o.%.o.o.o.+.o.o.%.%.o.o.o.%.o.%.o.%.o.+.o.o.o.o.%.O.o.o.o.o.O.o.o.o.+.o.o.+.o.o.o.O.o.o.+.o.o.o.o.X.o.X.o.O.o.o.o.X.o.X.o.o.X.X.o.o.X.o.X.o.o.X.o.o.` o.X.o.X.' o.' X.o.X.o.o.o.X.' o.o.o.o.o.` o.X.' X.o.X.o.X.X.O.o.o.X.o.X.o.X.o.X.X.O.X.X.X.X.X.X.X.X.o.X.o.X.X.X.o.X.X.X.X.o.X.X.X.X.X.X.o.X.o.` X.` o.X.X.' X.X.X.X.X.X.X.X.X.X.X.X.X.X.O.X.X.O.X.X.X.X.X.X.X.X.X.X.X.X.X.X.X.X.X.X.X.X.X.X.X.X.X.H X.X.X.X.X.X.X.H X.X.X.X.X.X.X.X.X.X.X.X.X.H H X.H X.V X.H ` X.H X.X.X.H H V X.` ` H H ` ` X.V X.` X.V V X.H K H X.H X.H X.H H X.X.H X.H X.H X.H H H H H H H V X.H H V X.H X.H H H H H H X.H H H H H H H H X.H H H X.H H H H H H H X.H H H J H H H H G H G H F H G H H H G G H H G H H G H H H H H H H G G B B H G G G G H B B H G H H G B H H B H B B H V G H B G H H G G G J G J G H G G H H G G G H G G B H D H B G G B H G G B G G B V G G B B G G G B G G V B G G G B V G V B V B B B B B B B B B B B B B B B B B B B G B G B G B B B B B B B B B G G B B B B G B B B G B B B G B B B G B G B B B B J M B k B B B B c B B B B B B B B c B B c B B B G c c c c c B c B c B S c c B c B B c B B c c c B c c B c c B c c B c c B c c c c c B c c B B c B S c B c B c c c G S B S c c S S S c S c G S S c S S c S S c G S c S k S c c S B c c c c c c c c M c c B c c c c c c c c c c c z c c c c c c z c c x c c c x c c c c c c c c x k c c c k c c c c c c x c c c c c c c c c c c k c c c c c c c c c c c x c c c c x c x c c c l c c c c x x c c c x c c l x c l c x c c c c c x c c x x c c x c x c x c c x c c l l c x z x c x c x c c x l c l c c c c l c z z M o.<.5.w.w.e.e.q.e.e.w.9.e.e.e.e.q.e.e.e.e.e.e.e.e.e.e.e.e.e.e.e.e.e.e.e.e.e.e.e.e.e.e.e.e.e.e.e.e.e.e.e.e.e.e.e.e.e.e.e.e.e.e.e.e.e.e.e.e.e.e.e.e.e.e.e.e.e.e.e.e.e.e.e.e.e.e.e.e.e.e.e.e.e.e.e.e.e.e.e.e.e.e.e.e.e.e.e.e.e.e.e.e.e.e.e.e.e.e.e.e.e.e.e.e.e.e.e.e.e.e.e.9.e.e.9.q.e.e.q.e.w.5.$.s m N F V V V V n M v k M k k j 4 4 A C x x x l x l x x x x 4 x r g g g h g y h k j k r j j h j l x x 8 8 q q q q 4 4 x j x x A x 8 8 x x 8 8 x 8 6 x 8 8 8 x 6 x 8 x 8 x 8 x x 8 x x 8 8 x x 8 8 q 8 8 8 8 x 8 q 8 8 x q x 8 8 q 8 8 8 8 x x 8 8 6 8 8 8 x 8 8 6 8 8 8 8 8 l 8 8 8 8 8 8 6 8 8 6 x 8 8 6 8 8 6 x 8 8 8 8 8 6 8 8 8 x 8 x 6 8 8 8 8 8 8 8 x 8 6 8 8 l 8 8 8 8 6 8 8 8 8 6 8 8 8 8 8 8 8 8 x 8 8 8 8 8 x 8 8 x 8 x 6 8 8 x 8 6 8 8 6 6 x 8 8 8 8 8 q 8 8 8 8 8 8 8 8 8 q 8 8 8 8 8 8 8 8 8 8 8 8 8 8 8 8 8 8 8 8 8 8 q 8 8 8 8 8 8 8 8 8 8 8 8 8 8 8 8 8 8 8 8 8 8 8 q 8 8 8 8 8 8 8 8 8 8 8 q 8 8 8 8 8 8 8 8 8 6 8 8 8 8 8 8 8 8 6 8 6 6 8 6 8 8 8 8 8 8 8 8 8 7 8 7 8 8 6 7 8 8 6 8 6 8 6 8 6 6 8 6 8 8 6 8 6 x 8 8 6 6 6 x 6 6 8 6 8 6 8 6 6 l 8 6 6 6 6 2 6 8 6 8 l 8 8 6 8 8 6 6 8 6 x 8 6 6 8 6 8 8 6 8 6 8 6 8 6 8 6 8 6 6 8 6 8 6 8 6 8 6 8 6 8 6 8 6 8 8 6 6 8 6 8 6 6 6 8 8 6 ",
"o.%.%.%.%.o.%.%.@.o.o.%.o.%.%.o.o.%.%...@.o.o.%.%.o.@.o.%.o.o.%.o.o.%.o.o.o.o.%.o.%.o.%.%.o.%.o.o.%.%.o.o.+.o.%.o.%.o.o.%.o.o.+.o.o.+.o.+.o.o.o.O.o.+.o.+.o.o.o.o.+.o.o.o.o.o.o.X.o.o.o.o.o.o.o.o.X.o.o.o.o.X.o.o.X.o.X.X.o.o.o.o.X.' X.' o.o.o.o.X.' X.X.o.X.o.X.o.X.o.X.' o.o.X.o.` o.o.o.X.o.o.O.X.O.O.o.X.O.O.X.o.X.X.X.o.X.X.o.X.X.X.X.X.o.X.X.X.X.o.X.o.X.X.X.X.o.X.X.X.X.X.X.o.X.` X.X.X.O.X.X.X.X.X.X.O.X.X.X.O.X.X.X.X.X.X.X.X.O.X.X.X.O.X.X.X.X.X.X.O.X.X.X.X.X.X.X.X.X.X.X.X.X.` X.X.H X.H X.X.X.X.X.X.X.X.X.X.X.V X.X.X.X.X.X.X.H X.X.X.X.` V V X.` X.` H X.X.V X.X.X.H H X.H X.X.X.H H X.X.H H X.X.H H H H X.H H X.H H V X.H X.X.H X.H X.H X.H X.H H H H H H H X.V H H H X.H H V H H H H V H H H H H H X.V H H H H K H H H H J H G H H G H H H G D H J D H H G G H F G H G G H H H V B V G H V H B H H H H G G H G B H H B H H H H B H H B G G H G H G H H G H H G G H G J H G G H G G B G G G G H D B G G G G G F B G G G G G G H G G G G B H G B G V B B B B B B V B B V B V V B B B G B G B G B G B B B B B B B B B G B G B G B c G B G B B B B B B B B B c G G G B B B B B G B B J G k B B B B B B B B c B B B c B c B B B c B S G B B B c c B c c B c B c G B c B c S c c B c G c B c B c B c B c c G c c c G B c G c B c c B B c c G c B c B S S c S c c S c c S S c c S c S S c S S c S S c c S c S c c c k c c c c c c c c c c c c c B c c z c c c c c c z c c c c c c c c c c c c S x c c c c k S c c c k A c c c S c c c c c c c c x x S x S S x c c c c x c c c k c c c c c c c x c x S x c x z c c c x x c z c c c c x c c c c x c c x c l x c c x x c c x c c x l c c c x x c c x c x c x c x c l x c x c l c c x x c x c z c k c M m 4.w.w.w.e.e.e.e.e.e.e.e.e.e.e.q.e.e.e.e.e.e.e.e.e.e.e.e.e.e.e.e.e.e.e.e.e.e.e.e.e.e.e.e.e.e.e.e.e.e.e.e.e.e.e.e.e.e.e.e.e.e.e.e.e.e.e.e.e.e.e.e.e.e.e.e.e.e.e.e.e.e.e.e.e.e.e.e.e.e.e.e.e.e.e.e.e.e.e.e.e.e.e.e.e.e.e.e.e.e.e.e.e.e.e.e.e.e.e.e.e.e.e.e.e.e.e.e.e.e.w.e.e.e.e.e.e.q.e.e.e.w.w.5.4.=.4.4.4.4.4.4.=.4.=.*.o.( s a k y j x c c l x l l g g j k k u a b m `  .X.+.o.o.o. . .( m b v V z j j x 4 x 9 9 8 x 8 8 x x 8 8 8 x 8 8 8 x 8 x 8 x 8 x 8 8 x 8 x x 8 8 x x 8 x 8 8 x x 6 x x 8 x A 8 x 8 8 8 8 x q 8 x 8 8 8 x 8 x x 8 8 q 8 x 6 8 8 8 6 x 8 8 8 8 6 8 x 8 8 x 8 6 6 8 x 6 8 8 8 l 8 8 8 8 6 8 8 8 8 x 6 6 8 8 6 8 8 6 8 8 8 x 6 8 8 6 8 8 x x 6 8 6 6 8 6 x 8 x 6 8 x 8 8 l 8 8 8 8 q 8 x 4 8 x 8 4 8 8 8 8 x 6 x 6 8 8 6 8 8 6 8 8 6 8 8 8 8 8 8 8 x 6 8 8 8 8 8 8 8 8 8 8 8 8 8 8 8 8 8 8 x 8 8 8 6 8 8 8 8 8 8 8 8 x 8 8 8 8 8 8 6 8 8 8 8 8 8 8 8 8 8 8 8 8 8 8 8 8 8 8 8 8 8 8 8 8 8 8 8 8 8 8 8 8 8 8 8 8 8 6 8 8 8 8 8 6 6 8 8 6 8 6 8 6 5 8 5 8 8 5 8 8 8 8 8 8 8 8 6 8 6 8 6 8 6 8 6 6 6 6 6 6 6 6 6 8 8 6 8 6 6 x 8 6 8 6 8 6 8 6 8 6 6 8 6 8 8 6 6 8 6 8 6 8 8 6 6 8 6 6 6 8 6 8 8 6 8 6 8 6 6 6 6 8 6 8 6 8 6 8 8 8 6 6 8 6 8 6 8 6 8 6 8 6 8 6 6 8 6 8 8 6 6 8 8 6 8 8 ",
"%.%.%.+.%.%.+.%.o.%.o.%.@.o.%.%.%.%.o.%.%.o.%.%.o.%.%.o.%.o.%.o.o.%.o.o.%.o.o.o.+.o.o.o.o.o.o.o.o.o.+.o.%.o.o.o.o.o.o.%.o.o.%.o.o.O.+.o.o.o.+.+.o.o.+.o.o.o.+.o.o.o.O.o.o.o.X.o.o.o.` o.o.o.o.o.o.o.o.o.o.o.o.o.o.' o.o.o.o.` o.' o.o.o.o.X.o.` o.o.o.o.' o.o.o.o.o.o.o.o.o.o.X.o.o.o.o.X.o.o.o.X.o.X.o.X.O.X.o.o.X.X.o.X.o.X.X.X.X.o.X.o.X.X.X.o.X.o.X.X.X.X.X.X.o.X.X.o.X.o.X.X.X.` X.X.X.X.X.X.X.X.X.X.X.X.X.X.O.X.X.X.X.X.X.X.X.X.X.X.X.O.X.X.X.X.X.X.X.X.X.X.X.X.X.H X.X.X.X.H X.X.X.X.X.X.X.X.X.X.H X.X.V X.H X.H X.H X.X.X.H X.H X.X.X.X.X.V H X.X.X.H X.X.H X.V X.X.X.V H ` X.X.V X.V X.H X.H H H X.H H H X.X.H H X.K H X.H H H H H H H H H H H V H H H H H H X.H H H H H H H H H H X.H H H H X.H H H X.H H H H H H H X.H H H H H H H H G H H J H G H H F H H G H H G H H H J H H G G H G G V B B H G H B B H B V H B G H H B H B H B B H H B H V H B G G G G G G G G G G G G H G G G H B H B G G G B B G G H B G B G B G H B G G B G B G G B G G G G G B B B H B V B M B B B B B M B B B G B B B B B B B B B G B G B G B G B B B B B B G B B B G c G B B G B G B G B B B B B G B G B B B G B n B B B B B B B B B B B B c B B B c B c B G B c c c B B c G c c B c B c c G c B c B G c B c B c c G c c c c G B c c G B c B c c B c c G c c B c c B c B c S c S c G S c S S c c S S c G c c S c c G c S c c c c c c S c S c c c c c c c B c c c c c c c c c c c z c c c c c c c z c l c c S x x S k c c c c x S x c c S x c c x c x c c x c x c c c c c c c k c c c c c c k S x S A c c x c x c c c c c c c c c c c x c c c x x c c l x c c l x c c x c c c x c c x c c c x c z x c c c x x c c x c x c c l c l c c l c l c l c x x z c l c x z l k n B ( 5.w.e.e.w.q.9.9.e.e.e.e.e.e.e.e.e.e.e.e.e.e.e.e.e.e.e.e.e.e.e.e.e.e.e.e.e.e.e.e.e.e.e.e.e.e.e.e.e.e.e.e.e.e.e.e.e.e.e.e.e.e.e.e.e.e.e.e.e.e.e.e.e.e.e.e.e.e.e.e.e.e.e.e.e.e.e.e.e.e.e.e.e.e.e.e.e.e.e.e.e.e.e.e.e.e.e.e.e.e.e.e.e.e.e.e.e.e.e.e.e.e.e.e.e.e.e.e.e.e.e.e.e.w.e.e.e.e.e.e.q.w.w.w.w.w.w.w.w.w.w.5.w.w.5.5.5.5.5.4.o.F a t k c z z c c z k a a m ( &.&.4.4.5.5.5.5.5.4.4.5.5.4.&.*.N b h u j x 4 4 x 8 9 x q 8 8 8 8 x 8 x x 8 8 x 8 x 8 x 6 x 8 8 8 x 6 x 8 8 6 x 6 x x 8 8 x 8 8 q 8 8 8 8 q 8 x 8 8 x x 8 8 x 8 8 8 8 q 8 x 8 x 8 8 8 6 x 8 8 8 8 6 x 8 8 6 6 x 6 8 8 x 8 8 8 6 6 x 8 8 8 6 x 8 8 8 l 8 8 8 8 6 8 x 6 8 8 8 8 l 8 8 8 6 x 8 8 6 6 8 8 x 8 8 8 8 8 8 8 6 6 8 8 8 x 8 x 8 8 8 8 8 8 4 8 8 8 x x 8 6 8 8 8 8 6 x 8 8 x 8 6 x 6 8 6 8 8 8 8 6 8 8 8 x 8 8 8 8 8 l 8 8 8 8 8 8 x 8 8 8 8 8 8 x 8 8 8 8 8 8 8 8 8 8 x 8 8 8 8 x 8 6 8 8 8 8 8 8 q 8 8 8 8 8 8 8 8 8 8 8 8 8 8 8 8 8 q 8 8 8 8 8 8 8 8 8 8 6 x 8 6 x 8 6 6 8 6 6 8 6 8 5 5 8 8 8 8 8 8 8 7 6 8 8 8 8 8 8 6 8 6 8 6 8 6 6 8 6 8 6 8 6 8 x 8 6 8 6 8 8 8 6 8 6 8 x 6 8 8 8 8 8 8 8 6 8 6 8 6 x 6 8 8 6 8 8 6 8 6 8 6 8 6 6 8 6 8 6 8 6 8 8 6 8 6 8 6 8 6 6 6 x 6 6 8 6 8 6 8 6 8 6 8 6 8 8 6 8 6 6 x 8 6 6 8 6 6 ",
"%.%.%.%.+.%.o.%.%.o.%.%.o.%.%.o.o.%.%.o.%.%.o.@.@.+.%.o.%.%.o.@.%.o.o.o.%.%.o.o.o.%.o.o.o.o.%.o.%.o.+.o.%.o.%.o.o.%.o.o.+.o.%.o.o.+.o.o.+.o.o.+.o.O.o.o.o.+.o.O.+.o.O.o.o.o.o.o.X.o.o.o.X.o.o.o.o.` o.` o.` o.o.` o.o.o.' X.o.` o.X.' X.o.X.o.' o.o.o.' X.o.' X.X.o.X.o.X.o.' o.o.' o.X.o.o.` X.o.X.o.O.X.o.O.o.X.o.X.O.X.X.X.o.X.X.o.o.X.X.X.o.o.X.o.X.o.O.o.X.X.X.X.o.X.X.X.o.X.X.` o.X.X.X.X.X.X.X.X.X.X.X.X.X.X.O.X.X.X.X.X.O.X.X.X.X.X.X.X.X.X.X.X.X.X.X.X.X.X.H X.X.X.X.X.X.X.X.X.X.X.X.H X.X.X.X.X.X.V X.X.X.X.H X.X.H X.X.X.H X.X.H H X.X.H H X.` X.H ` H H X.X.X.V X.X.X.H X.` X.H X.X.H X.X.K H X.X.K H X.X.H X.X.H X.X.H H V H H X.V H H H H H H H H X.H H H H H H H H H H H H H H H H H H H H H H H H H H H H X.H H H H J H H H J H G F H G F H H H H H G H H G H H H H F G H G F V H G H B H H B H G H G H B H G H B H G H G B H V H B H H B H G H G G H G G H G G G H J G G G G B G G H G B G G B G G G H D B G G G G H G B G G B B G G B H G H G B V V B B V B B B B B B M B B B G B B B B B B B B B G B G B B B G B B B G B G B G B B G B B B G B B B B B B B B G B c G B B B B M B B M B B B B B B B B B B B B B B c B G c G S B B c B c B c c B S c B c B c c c c B c B B c B B c S B c c c G c c B c B c c B c B c G B c B c c B c S B c B B S S c B G c S c B S S c S G c S c S c G S c c S c S S c k c c c c c c c c c c c c c B c c c c c c z c c c l c c c c z c z c c c k c c c c x c c c k S x c c c c x c c A S x S k c c c c c c k x c c c c c c x c x c c x c x c c S c c x x c c x c x c c c x c l c c c x z c x c c x c c x x c x c x c c x c c l x c c x z c c x c z c l c x c c c x c x c l x c x x c l c c x c x c x c M # F =.w.w.e.e.e.e.e.e.e.e.w.e.e.e.e.e.e.e.e.e.e.e.e.e.e.e.e.e.e.e.e.e.e.e.e.e.e.e.e.e.e.e.e.e.e.e.e.e.e.e.e.e.e.e.e.e.e.e.e.e.e.e.e.e.e.e.e.e.e.e.e.e.e.e.e.e.e.e.e.e.e.e.e.e.e.e.e.e.e.e.e.e.e.e.e.e.e.e.e.e.e.e.e.e.e.e.e.e.e.e.e.e.e.e.e.e.e.e.e.e.e.e.e.e.e.e.e.e.e.e.e.w.e.e.e.e.e.e.e.q.e.w.e.w.9.9.9.9.9.9.9.e.w.w.e.w.w.w.w.w.5.4.=. .s # h B z & a b ( *.4.5.w.w.w.w.w.e.w.w.w.w.w.w.w.w.w.w.4.=.+.F u k j j x j 8 8 8 q 8 7 8 8 x 8 x 8 x 8 x 6 x 8 x 6 8 x 8 x 6 8 x 8 x 8 8 x 8 x 6 x 8 x x 8 x 8 8 8 q 8 8 8 x 8 x 8 8 q x 8 q 8 8 8 8 8 6 8 8 x 6 8 8 8 8 8 6 8 8 8 8 6 8 8 x 6 6 x 8 6 8 6 8 x 8 8 8 x 6 8 8 x 6 8 8 x x 6 8 8 8 6 x 8 6 8 8 8 l 8 8 8 6 8 8 x 6 8 8 8 8 l 8 8 8 8 6 x 8 8 8 8 x 6 8 8 x 6 8 8 x 6 8 6 8 8 8 6 8 8 8 8 6 x 6 8 8 8 8 x 8 x 8 l 8 6 8 x 6 8 8 8 l 8 x 6 x 8 x 6 8 8 x 6 l 8 8 8 8 x 8 l x 8 x 6 8 6 8 x x 6 6 8 x 6 x 6 x 8 x 6 8 8 l 8 8 8 8 8 x 6 6 8 8 8 8 8 8 x 6 8 8 6 8 6 8 6 8 6 6 6 8 6 8 6 6 8 8 6 8 6 8 6 8 6 8 6 8 6 8 6 8 6 6 8 6 8 6 8 6 6 8 6 8 6 6 8 6 8 8 6 6 8 6 8 6 8 6 8 6 8 6 8 6 8 8 6 8 6 6 8 6 8 8 8 8 6 8 8 6 8 8 8 8 8 8 6 8 8 8 6 8 6 8 6 8 6 8 l 8 6 8 6 8 6 8 6 8 6 8 6 6 8 6 8 6 6 8 6 8 6 8 6 8 6 8 6 8 6 6 8 6 8 6 8 6 8 6 8 6 8 ",
"+.%.%.%.%.%.%.%...%.%.o.o.%.%.o.o.%.%.o.o.%.%.o.o.%.o.%.%.%.%.o.o.o.o.%.o.o.%.o.o.+.o.%.o.%.o.o.o.o.o.%.o.o.o.o.o.o.o.%.%.o.o.o.o.o.+.o.O.o.o.o.+.o.o.+.o.o.+.o.O.o.o.+.o.o.O.o.o.o.o.o.o.o.o.o.o.o.o.X.o.o.o.X.o.o.X.o.o.o.o.X.o.o.o.X.o.o.X.o.` o.X.o.o.o.o.o.o.' X.o.o.o.o.X.X.o.o.o.o.X.o.o.o.O.X.X.X.O.X.X.X.O.o.X.o.X.X.X.X.o.X.X.o.X.X.X.X.X.X.X.X.X.X.X.X.o.X.X.o.X.X.X.X.X.X.X.X.X.o.` X.X.o.X.X.X.X.X.X.X.X.X.X.X.X.X.X.X.X.X.X.X.X.X.X.X.X.X.X.X.O.X.X.X.X.X.X.X.X.X.X.H ` X.X.X.` X.X.H X.X.H X.X.X.X.V X.X.X.X.X.X.X.H X.X.X.X.X.X.X.` X.V H H X.X.X.` X.V X.H X.V V X.X.H V X.X.V X.H H H H H H X.X.H H H H H K H H H H X.H X.H H X.H X.V X.V X.H V H H H X.H H H X.V H H X.H H H X.H H V X.H H H X.H H V H H H H H H H H H H K H H H G H G H J G G H H G H D H J H G G H H B G B H B H B B H H B G V H B V G V G B H V G G H G G B H H B B H V G H G G G G G H J G G H G G B G G G G B G G G G H B G G B B H G G B G B G G G G F G G G G G B B G B G B B B B B V V B B V V B V B B B G B B G B G B G B B B B B G B B B G B B B B B B B B G B B B B G B G B G B G B B G B B G B G J n n J B B B B B c B M B B B c B c c B c S c G c B c B B c M B c c B c G c B G c B c c c S B c c B B c c B B c B G c c c B c c B c c c c c c G B c c B c c c S c c S S S S c S S c c S S c S c S S S c c S S c G c S S S c S c c c B c c c c c B c c c c c c c c c c c c c z c c c c c c c c z S x c c c c c c x S c c x c c c c c c k c c c x c c c c x S c S S x x c c c c c c c c S c c c A c c k c c c c c c c c x c x c c x l c c x x c c x c x c c c z c c x x c l c x c c l c c x x c c c x c x c c x c x z l c x c c l c x x k k x x x x c l B V v o.4.w.e.e.e.9.e.e.e.e.e.e.e.e.e.e.e.e.e.e.e.e.e.e.e.e.e.e.e.e.e.e.e.e.e.e.e.e.e.e.e.e.e.e.e.e.e.e.e.e.e.e.e.e.e.e.e.e.e.e.e.e.e.e.e.e.e.e.e.e.e.e.e.e.e.e.e.e.e.e.e.e.e.e.e.e.e.e.e.e.e.e.e.e.e.e.e.e.e.e.e.e.e.e.e.e.e.e.e.e.e.e.e.e.e.e.e.e.e.e.e.e.e.e.e.e.e.e.e.e.e.e.e.e.e.e.e.e.q.e.e.e.e.e.e.9.9.9.q.q.9.e.9.q.9.e.9.e.e.e.w.w.w.5.4.=. .b a v b o.=.5.w.w.w.w.e.e.q.e.e.e.e.q.e.q.e.q.e.e.w.5.5.=.+. .K D y j x x x A 8 q q x x 8 6 6 x 8 8 8 x 8 8 8 x x 8 x 8 8 x 8 x 8 8 8 8 x 8 8 8 x 8 8 8 x q x 8 x 8 A 8 q 8 8 q x 8 8 x 8 x x A 8 4 6 x 8 8 8 6 6 x 8 8 x 6 x 8 8 8 8 8 6 8 8 8 8 8 8 8 8 6 l 8 8 8 8 6 8 6 x 6 8 8 6 8 8 6 8 8 6 8 x 8 8 8 8 8 6 x x 8 8 8 8 6 6 x 8 8 8 8 8 6 8 8 8 8 8 x 6 8 8 8 6 8 x 8 8 8 8 8 8 8 8 6 x 6 6 8 8 8 8 8 8 l 8 6 8 8 6 x 8 x 8 6 x 8 x 6 x 8 8 8 x 8 6 8 x 6 8 8 8 6 x 6 8 6 6 x 8 8 8 l 8 x 8 6 8 8 x 6 8 8 8 6 8 8 8 8 8 8 8 8 l 8 8 8 6 8 8 8 8 8 8 x 8 8 8 6 6 8 6 8 6 8 6 8 6 8 6 8 6 x 8 6 6 8 6 8 6 8 l 8 6 8 6 8 6 8 6 8 8 6 8 6 8 6 8 6 6 8 6 6 8 6 8 6 6 8 8 6 8 6 8 6 8 6 8 6 8 6 8 6 6 8 6 8 6 6 8 6 8 8 8 8 8 8 8 8 8 6 8 7 8 8 8 8 6 8 6 8 6 8 6 8 6 8 6 8 6 8 6 8 6 8 6 8 6 8 8 6 8 6 8 8 6 8 6 8 6 8 6 8 6 8 6 8 8 6 8 6 8 6 8 6 8 6 8 6 ",
"%.o.%.o.%.%.+.%.o.%.%.o.%.@.o.%.%.@.o.%.%.o.o.%.o.%.%.o.o.%.o.%.%.o.%.o.o.o.o.+.%.o.%.o.o.o.o.o.%.o.%.o.o.o.%.o.o.%.o.o.o.%.o.o.+.o.o.o.+.o.+.o.+.o.o.O.o.o.o.o.o.o.o.o.o.o.o.o.X.o.o.X.o.o.o.X.X.' X.o.o.X.o.o.X.o.' o.o.' X.o.X.' X.o.X.' o.o.X.o.X.' X.o.X.X.X.o.o.o.` o.o.o.o.o.o.` o.o.o.X.X.o.o.O.o.O.o.O.X.o.X.o.X.o.X.o.X.X.X.X.X.o.X.o.X.X.o.X.X.X.o.X.X.o.X.o.X.` X.X.X.X.X.X.o.` X.X.O.X.X.X.X.O.O.X.X.X.X.X.X.X.X.O.X.X.X.X.X.X.X.X.X.X.O.X.X.X.X.X.H X.X.X.` H X.X.X.X.X.X.X.X.X.X.H X.X.H X.X.H X.X.H X.H X.H H X.X.` X.X.X.X.X.X.V X.X.X.X.X.X.H H X.X.V X.` ` X.` X.X.V V X.X.X.H H H X.X.H H H H H X.X.H X.X.H X.H X.H H V H H V H H X.H H H X.H H X.H H H V X.H H H X.H H V X.H H H X.H H H X.H H H X.H H H H H H H H H H H H G H G H H G G H F G H G G H H G G H H G H G F B H B H H B H H B H G G H G G V G H G V G G H H G B H H B H G V G G H G G G G G G H G G V G B H G B B D G G H G B B H G B G G B B H H B G B G G B B F G B G B H G H B B B B B B B B B B B B B V B G B B B G B B B B B B B G B G B G B G B B G G B G B G B B G B G G B B B G B B B G B B B G B B B B B B B B B B B B B B B B B M B B c B c c G c S B B B B B B B B B c G c c c B c G B c G G c c c c c c c B c G B c c c G G c c B c c B c c G c c c B B c c G c c S c c S c S S c c S S c G c c S G c S c S c S G c S S c S c c S c c c c M c c c c c c c c c c M c c c c c z c c c z c c c c c c c c x c c c k S c c c c c c c c c c c c c c c c k c c c c c c c c c c c x c c c c c c k c c c k c c S x k c c x l c c c z c c c c x c x c c c x c c x l c x x c l c c x c c x c c x x c c x c x c x c c c c c c c x c x c x c c x c l x c k k x x x l c v b %.5.e.e.e.9.e.e.e.e.e.e.e.e.e.e.e.e.e.e.e.e.e.e.e.e.e.e.e.e.e.e.e.e.e.e.e.e.e.e.e.e.e.e.e.e.e.e.e.e.e.e.e.e.e.e.e.e.e.e.e.e.e.e.e.e.e.e.e.e.e.e.e.e.e.e.e.e.e.e.e.e.e.e.e.e.e.e.e.e.e.e.e.e.e.e.e.e.e.e.e.e.e.e.e.e.e.e.e.e.e.e.e.e.e.e.e.e.e.e.e.e.e.e.e.e.e.e.e.e.e.e.e.e.e.e.e.e.e.e.e.e.e.e.e.e.e.q.e.q.e.q.e.e.e.q.e.e.e.w.w.e.e.e.w.w.5.=.%...o.*.4.5.w.e.e.e.e.e.e.e.e.e.9.9.9.e.e.e.e.e.e.w.5.5.4.=.*.+.X.B h z k x 8 8 q 7 8 8 8 x 8 x 6 x 8 x 8 x x 8 8 x 8 x x 8 x x 8 x x 6 x 6 x 8 x 8 x q 8 8 A 8 x 8 q 8 x 8 x 8 8 q q 8 8 8 8 8 x 8 8 8 6 8 8 6 8 8 x 6 8 6 6 6 8 6 x 6 8 8 8 6 x 6 6 8 8 8 8 8 x 6 8 6 8 8 8 8 x 8 8 8 8 x 8 x 8 8 6 8 6 8 8 6 8 8 8 6 x 8 8 6 8 8 8 8 x 6 x 6 8 8 6 x 8 8 8 8 8 6 6 x 6 8 8 6 8 8 8 8 8 x x 8 x 6 6 8 6 8 8 8 x 8 8 6 8 8 8 8 8 8 6 8 8 8 6 8 8 8 8 8 8 6 8 8 8 l 8 x 8 6 8 8 8 8 6 8 8 8 8 8 8 8 x 6 6 8 x 8 8 x 8 x 8 8 6 8 8 8 8 8 8 x x 8 x x 8 8 8 8 8 8 8 x 6 6 8 6 8 6 8 6 8 6 8 6 8 6 6 6 8 6 8 6 8 6 8 6 8 6 8 6 6 6 8 6 6 8 6 8 6 8 6 8 8 6 6 8 6 8 6 8 8 6 8 6 6 8 6 8 6 8 6 8 6 8 6 8 8 6 8 6 8 6 8 8 6 8 6 8 6 8 6 8 8 6 6 8 6 8 6 8 8 6 8 6 8 6 8 6 8 6 8 6 6 8 8 6 8 6 8 6 8 6 8 6 6 8 8 6 8 6 8 6 6 x 6 8 8 6 8 6 6 8 6 8 6 8 6 8 6 8 6 8 ",
"%.%.%.%.%.o.%.%.%.o.%.%.o.%.%.o.o.%.o.%.o.%.%.o.%.o.%.%.%.%.%.o.o.+.o.o.%.%.o.o.o.o.o.o.o.%.+.%.o.o.o.o.%.%.o.o.o.o.%.o.o.o.o.%.o.O.o.+.o.o.O.o.o.o.o.+.+.O.o.+.o.+.+.o.o.o.+. .o.o.o.o.X.o.o.o.o.o.o.o.o.o.o.` o.o.X.o.X.o.o.o.o.o.o.o.o.o.o.X.o.o.o.o.o.' o.o.o.o.X.' o.o.X.o.' X.o.o.X.' o.o.o.O.X.O.o.X.X.O.o.X.O.X.X.X.X.X.X.o.X.o.X.X.X.X.X.o.X.X.X.o.X.X.X.X.X.X.o.X.X.X.X.o.X.` X.X.X.' X.X.X.X.X.X.X.X.X.X.X.o.X.X.X.X.X.X.X.X.X.O.X.X.X.O.X.X.X.X.X.X.X.X.X.X.X.X.X.X.X.H X.X.H X.X.` X.X.X.X.H X.X.X.X.X.X.X.X.` X.X.X.X.H X.H X.H X.H X.V X.X.V X.V X.V X.X.H X.H H H H X.X.X.X.V V H X.X.H H X.X.H H X.K H H H X.H H H V H H X.H X.X.H H H X.H V X.H H H H H H H H H H H H H H H H H H H H H H H H H H H H H H X.H H J H H J H H H H G H G H H H H H H G H H H G H H G H H G F G V B H H B H H B H G G V G H G G H B H G H V G G V H B H H B H G H G J H G H G G H G G G D G G G B H G H B B B G D G G G G G G H G D B G G G G G G G G G G G G D B G G V B B B V B B V B B B B B B c G G B B B B G G c G B B B B B B B B B B B B B B B B B B B B B B B B G B B B G B B G B B B B G k B n B B B B B B B B B B B B B S G c G G c G G c c B c c M c c c B c B c B c c c c B c c B c B G c B G c B c c c G B c B c B S B G c B B c B B B c c B B c B G c G S c S c S c S c c G c S c S c S c S c S S c S c c G c S c c c c c c c c B c c c c c c c c c c z c c c c c c c c c z c c c c x c c c c x S x c c x c c A k c c c c c c x c c A c c x c c x c k S x c k S x S c c S x c c c c c c c c x c c c c c c x c x c x c c c x c x x c c x c c c c c x c c x c x c c x x c c x c c c x x c c x x x c x x c l c l c x x x x c c x x c x x c l B b b =.w.9.9.9.e.9.e.e.e.e.e.e.e.e.e.e.e.e.e.e.e.e.e.e.e.e.e.e.e.e.e.e.e.e.e.e.e.e.e.e.e.e.e.e.e.e.e.e.e.e.e.e.e.e.e.e.e.e.e.e.e.e.e.e.e.e.e.e.e.e.e.e.e.e.e.e.e.e.e.e.e.e.e.e.e.e.e.e.e.e.e.e.e.e.e.e.e.e.e.e.e.e.e.e.e.e.e.e.e.e.e.e.e.e.e.e.e.e.e.e.e.e.e.e.e.e.e.e.e.e.e.e.e.e.e.e.e.e.e.e.q.e.e.e.e.e.e.e.e.q.e.q.e.e.e.e.e.e.e.e.e.9.q.q.w.w.w.5.4.5.5.w.w.w.e.q.e.e.e.e.9.9.e.9.e.9.9.9.9.e.e.e.e.w.5.<.=.$.*.*.+.V B z g x q 8 8 8 x x 8 x 8 x 8 x 8 x 6 8 6 x 8 8 x 6 x 6 8 x 8 8 x 8 x 8 x 8 x 8 8 x 8 8 8 8 q x x 8 8 8 8 x 8 8 x 8 A 8 8 8 8 8 8 x 6 8 x 6 8 8 6 8 x 8 8 8 x 6 8 8 6 x 8 8 8 8 6 x 8 8 8 6 8 8 x 6 8 8 8 6 6 8 8 6 8 8 6 6 x 8 8 x 6 8 x 8 6 8 8 6 8 8 x 8 6 x 8 8 6 8 8 8 8 8 8 8 8 8 6 x 8 8 8 6 8 6 x 8 8 l 8 8 8 6 8 8 8 x 8 8 8 8 8 6 8 8 x 8 8 8 6 x 6 x 6 8 6 8 8 8 l 8 8 8 x x 8 8 8 8 8 8 x l 8 8 8 x 6 8 8 8 8 8 l 8 8 8 8 6 8 6 8 8 8 8 8 8 8 6 x x 8 8 8 8 8 8 8 x 8 8 8 6 8 8 6 6 x 6 8 6 8 6 8 6 8 6 8 6 8 6 8 6 8 6 8 6 8 6 8 6 8 6 8 8 8 6 8 8 6 8 6 8 6 8 6 6 8 8 6 8 6 8 6 6 8 6 8 8 6 8 6 8 6 8 6 8 6 8 6 6 8 6 8 6 8 8 8 8 6 8 6 8 6 8 6 6 6 8 6 8 6 8 6 6 8 6 8 6 8 6 8 6 8 6 8 8 6 6 8 6 8 6 8 6 8 6 8 8 6 6 8 6 8 6 8 6 6 8 6 6 8 6 8 8 6 8 6 8 6 8 6 8 6 8 6 ",
"o.%.+.%.+.%.o.%.o.%...o.%.o.o.%.%.o.o.%.%.%...%.o.%...o.%.%.%.o.+.o.o.o.o.%.o.o.o.%.o.%.o.o.o.o.o.o.o.o.o.o.%.o.o.%.o.%.+.o.o.o.O.+.+.o.o.o.+.O.+.o.o.o.o.+.o.+.+.o.o.o.O.o.o.O.o.X.o.o.o.o.X.o.X.o.` o.' o.X.o.o.o.` X.X.' X.o.' o.o.o.o.o.' X.o.` o.o.o.X.o.X.o.' o.o.' X.' X.X.o.X.o.o.o.o.X.X.O.o.X.X.o.X.o.X.X.o.X.X.X.X.o.X.X.o.X.X.o.X.o.X.X.X.o.o.X.X.X.X.o.X.X.X.o.X.' ` X.X.X.X.o.X.X.X.X.X.X.X.X.X.X.X.X.X.X.X.X.O.X.o.X.X.O.X.X.X.O.X.X.X.X.X.X.O.X.X.X.X.X.X.X.X.X.X.X.X.X.` H X.X.` X.X.H X.X.X.X.X.X.X.X.X.X.X.H X.H X.H X.H X.X.X.X.H X.H X.` X.` H ` H X.X.X.X.X.H ` H X.X.X.X.X.X.K H H H X.X.X.H K X.X.H H X.X.V H H X.H H H H X.H H H H X.H X.H H H H X.H H H X.H H H X.H H H X.V H H X.V H H H H H H X.V H G H G G H H G F H J H H H G F G G H H G H G G H H G H H D V H B V G G V B B H B G H B G G H V G B H H G G G V G B H B B H H B H H G H J G G H G G B H G G G G D G B H B G G B H G D V G B G B G G B H B G B H G G G G H G G B G B V V B V B B V V B B N B B V B G B G B B B B B B G B G G B G B G B G B B B B G G B B B B G B G G B G B B G B B G B G B B B B B B B k B B B B B M B B B c B B c B S G c G c G c B c M c B B B c c B c B G c B G c c B c c B c G c c B c c B G c B G c c c c B c c S c G c c B c c G c c B c B c S S c S S S c G c S S c S S c S S c S S S c c S S c S B k S S S c c c c c c c c c c c c c c B c c c c c c c c z c z c c c c c c S k c c x S c c c c c c c c c c c c k c c c c c c c x S c k S x c c c c c c x c c k S x c c c c x c c c x c x k c c c c z x c c x c z x c c l c c x c c x c c l c l c c c x c c c c x c c x c c c c x c c c x c z x c l c l c x x x x k k k x x x x x M v ( 4.w.e.e.e.9.e.e.e.e.e.e.e.e.9.e.e.e.e.e.e.e.e.e.e.e.e.e.e.e.e.e.e.e.e.e.e.e.e.e.e.e.e.e.e.e.e.e.e.e.e.e.e.e.e.e.e.e.e.e.e.e.e.e.e.e.e.e.e.e.e.e.e.e.e.e.e.e.e.e.e.e.e.e.e.e.e.e.e.e.e.e.e.e.e.e.e.e.e.e.e.e.e.e.e.e.e.e.e.e.e.e.e.e.e.e.e.e.e.e.e.e.e.e.e.e.e.e.e.e.e.e.e.e.e.e.e.e.e.e.e.w.e.9.e.e.e.e.e.e.q.e.e.q.e.e.e.w.e.e.w.e.9.e.e.e.e.w.w.w.w.w.w.e.e.9.e.q.e.e.e.e.e.e.9.e.e.9.e.9.e.9.e.e.w.5.2.$.$.&.&.%.*.o.V M z x x 8 x 6 8 x x 8 8 x 6 x 8 8 x 8 8 x 6 x 8 8 8 x 8 x x 8 8 x 8 8 x 8 8 8 8 8 x 8 x 8 8 8 x 8 8 x 8 x 8 8 8 x j 8 8 8 8 8 x 6 8 l 8 8 6 8 6 8 8 6 x 8 8 x 6 8 6 8 x 8 8 8 6 x 6 8 8 8 8 8 8 x 6 8 8 8 x 8 6 8 6 8 8 6 8 8 x 6 8 x 6 8 8 8 x 6 6 x 8 8 6 8 8 x 8 8 8 l 8 8 8 6 x 6 6 8 8 8 8 8 8 x l 8 8 6 8 8 8 8 8 x 8 8 8 6 8 8 6 x x 8 8 8 8 8 6 8 8 8 8 x 8 8 x 8 8 8 8 8 6 8 8 8 x 8 8 8 8 6 8 8 8 x 8 8 x 6 8 8 8 8 8 x 6 8 x 8 8 8 8 6 8 8 8 8 x 8 8 8 8 x 8 x 6 6 8 6 8 6 6 8 8 6 8 6 8 6 6 8 8 6 8 6 8 6 8 6 6 8 6 6 6 8 6 6 6 8 6 8 6 8 6 8 6 8 6 8 6 8 6 8 8 6 8 6 6 6 6 8 6 8 6 8 6 8 6 8 8 8 8 5 8 8 8 8 8 8 8 8 8 8 8 8 6 8 6 8 6 8 6 8 8 6 6 8 6 8 6 8 x 6 8 6 6 8 6 6 6 8 6 8 6 8 6 8 8 6 8 6 6 8 6 8 6 8 6 8 8 6 8 6 8 6 6 8 6 8 8 6 6 8 8 6 8 6 6 8 6 8 6 8 ",
"%.%.%.%.%.%.%.%.%.%.%.%.o.%.%.o.o.%.%.%.%.o.o.%.%.%.%.%.%.%.o.o.%.o.%.o.o.o.%.o.o.o.o.o.%.o.%.o.%.o.%.%.+.o.o.o.o.o.+.o.o.o.%.o.o.o.o.o.+.o.o.o.o.o.+.o.o.o.o.o.o.o.O.+.o.o.o. .o.o.o.o.o.o.o.o.o.o.o.o.X.o.' o.o.` o.o.o.o.o.o.X.o.X.X.X.o.o.o.o.o.o.X.o.' o.o.o.X.X.o.o.o.o.X.X.o.' o.o.X.o.o.o.X.X.O.O.o.O.X.o.o.X.O.o.X.X.X.X.o.X.X.X.X.X.X.X.o.X.X.X.X.X.o.X.X.X.o.X.` X.X.o.X.X.X.X.` X.X.X.X.O.X.X.X.X.X.O.X.X.X.X.X.X.X.X.X.X.X.X.X.X.X.X.X.X.X.X.X.X.X.X.X.X.X.V X.V X.` X.X.X.X.X.X.X.H X.X.X.H X.H X.X.X.H X.H X.X.X.X.X.X.X.X.X.X.H ` H H ` X.V H X.X.X.X.H X.V V X.` X.X.H X.V V X.H H H X.X.H H H H H X.H H X.K H H H H X.H V X.H H H X.H V X.H H H H H H H H H H H H H H H H H H H H H H H H H H X.H H V H H H H H H H H G G H G G H G F H G G H H G H H H H H G D H H J H G G G G H G H H H H H G H H V G G G H H G G V G H H G H H H H B B H G G G G H G G H J G G G B G B G m G G G G G G B G G G G G G G F G G G G G G G G B B G G B B G G H V B B B B B B B B B B B V B B B c B B B B G B G B B B B B B B B B B B B G B B B B B B G B B B B B B B B G c B B B B B B B G B G B k D B B B B B B B M B B B B B c S c B c G c B c B c B B c B M B c B c c c c c B G c B B c c c G c c B B c c B c c c B G c c B c B B c c B c B c c G c c B c B c S G c c S S c G S c S S c S c c S B c c S G c c S S c c c c c c B c c c c c c M c c c c c c c c z c z c c c c c c c c c c l c x S c c S k c c S x c x x c x c x S S x S x x c c c c k x S c c c c x c c c S k x S c c S x x c c c S x k c c c c x x c c c c x c x c c x c c x c c x x c x x c x c c x c c x l c x x z x c c l x x c c c x c x x c x c x c x c x x c x k x c x x x c c a ( 5.w.e.9.9.8.e.e.e.e.e.e.e.e.e.e.e.9.e.e.e.e.e.e.e.e.e.e.e.e.e.e.e.e.e.e.e.e.e.e.e.e.e.e.e.e.e.e.e.e.e.e.e.e.e.e.e.e.e.e.e.e.e.e.e.e.e.e.e.e.e.e.e.e.e.e.e.e.e.e.e.e.e.e.e.e.e.e.e.e.e.e.e.e.e.e.e.e.e.e.e.e.e.e.e.e.e.e.e.e.e.e.e.e.e.e.e.e.e.e.e.e.e.e.e.e.e.e.e.e.e.e.e.e.e.e.e.e.e.e.9.e.e.e.q.e.e.e.w.q.e.e.e.e.e.e.e.e.e.w.e.w.e.9.e.9.e.e.e.e.w.e.e.9.9.e.9.9.e.e.e.w.e.9.e.e.9.e.e.e.e.w.e.w.w.5.2.2.2.&.&.&.&.*.+.V z z j x 8 x x 8 8 x x 8 x 8 x x 8 x x 8 x 8 8 x x 6 x 8 8 x x 6 x 8 8 x 8 x x 8 8 q 8 8 x 8 8 q q 8 8 x 8 A 8 8 8 8 8 8 8 8 6 8 8 8 8 8 x 8 8 8 8 8 6 8 8 8 8 8 8 8 6 8 6 x 8 8 8 8 6 x 6 x 6 8 8 8 6 x 6 8 x 8 x 8 8 8 8 8 6 8 8 6 8 8 8 8 6 8 8 8 8 6 8 6 8 6 6 x 8 8 x 8 8 8 8 8 x 8 8 8 6 8 8 6 8 8 6 x 8 8 6 8 8 6 8 l 8 x x 6 8 8 8 8 8 x x 6 8 8 8 x 8 8 8 8 6 8 8 x 8 8 8 6 6 x 8 8 8 8 8 8 x 8 8 8 8 8 6 8 x 8 x 8 8 8 8 8 8 8 x 6 8 x x 6 x 6 8 8 8 x 8 6 8 8 8 8 6 8 6 8 8 6 6 8 6 8 6 6 8 6 6 8 6 8 6 8 6 8 8 6 6 8 8 6 8 6 8 6 8 6 8 6 8 6 6 8 8 6 8 6 8 6 6 8 6 8 x 6 8 6 8 6 8 6 8 6 8 6 5 8 8 8 8 7 6 8 8 8 8 6 7 8 8 7 8 6 8 6 8 6 8 6 6 8 8 6 8 6 8 6 6 6 6 8 8 6 6 8 8 6 8 6 8 6 8 6 6 8 6 8 8 6 8 6 8 6 8 6 6 8 6 8 6 8 8 6 8 6 6 8 8 6 6 8 6 8 8 6 8 6 8 6 ",
"%.%.%.%.%.o.%.+.%.o.o.%.%.@.%.%.%.%.%.o.o.%.%.o.%.o.o.%.o.%.o.@.o.o.o.%.o.o.o.o.o.%.o.o.o.o.+.%.o.o.+.o.o.o.%.o.o.%.o.o.%.o.o.%.o.o.+.o.o.+.o.o.O.o.o.+.O.o.o.O.o.+.O.o.O.o.+.o.o.o.X.o.X.o.o.o.' o.o.X.' o.X.o.o.o.o.X.o.X.X.o.o.o.o.' o.X.o.X.o.` o.o.o.X.` o.o.o.' o.X.' X.o.o.` o.o.' o.o.X.o.X.o.O.O.X.o.X.O.X.o.X.X.X.X.o.X.X.X.o.X.o.X.X.X.o.X.o.o.X.o.X.X.X.X.X.X.X.' X.X.X.X.` X.X.o.X.X.X.X.X.O.X.X.X.X.X.X.X.X.X.X.X.X.X.X.X.X.X.X.X.X.X.X.O.X.X.X.O.X.X.H X.X.X.X.X.X.X.X.X.X.X.X.H H X.X.H X.X.X.X.V X.X.H H X.X.X.H X.H X.X.V X.X.X.V X.X.X.X.V X.V H X.X.X.H X.X.H V X.X.X.X.H X.H X.X.H K X.X.H X.H X.H H X.X.H X.H X.H H H H X.H H V H H H H H H H H H H H H H H H H H H H H H H H H H H H H H H H H X.H H H H H G D H H J H H H H H H G H H G H J H D G H H H H G H H H H B V G H H B H B B H V G G V V G G G V G G G G H G H H B B H H B B H G G G G G G G G B G G G B B B B G G G G G F G G G B G G G G G G G G G G G G G G G G G V H G G B B B V B B V B V B B B B B B B B G B G B G B B B B G G B B B G B B B G B G B B G G B G B B G B B B G G c B G B B B B G B G B B B G B B B B B B B B B B B B B B B G G S S S G c S M c c c B B B c B c c B c B B c c B c c c B B c c B B c c S B c c B G c c B G c B c c B G B c S B c G B S B c c S c c S G c S S c S S c c S B S c S c S S c c S G c S c c c c c M c c c B c c c c c c c c c c c c c z c z c c c c c c z c z c z c c c c x c c c k x S c k c x c c c c c c c c c c x x S c c c c x c x c x c x S c c c c c c c c c S x k x x c c c z c c c c x z c x x c x c c x x c l c c c c c x c c l x c c c c c c c x c c l c x c l x c l c c x c l c l x x c x x c k x x x x x z M & ) 5.w.8.9.e.e.w.e.e.e.e.q.e.e.e.e.9.e.e.e.e.e.e.e.e.e.e.e.e.e.e.e.e.e.e.e.e.e.e.e.e.e.e.e.e.e.e.e.e.e.e.e.e.e.e.e.e.e.e.e.e.e.e.e.e.e.e.e.e.e.e.e.e.e.e.e.e.e.e.e.e.e.e.e.e.e.e.e.e.e.e.e.e.e.e.e.e.e.e.e.e.e.e.e.e.e.e.e.e.e.e.e.e.e.e.e.e.e.e.e.e.e.e.e.e.e.e.e.e.e.e.e.e.e.e.e.e.e.e.e.w.e.e.9.9.e.e.e.e.e.e.e.e.e.e.e.e.e.9.9.w.9.e.e.9.8.9.e.q.e.e.e.e.q.9.9.e.e.w.e.e.e.e.9.e.9.e.e.9.e.e.e.e.w.3.2.2.2.2.2.&.&.&.&.%.o.` k k j x 8 8 x x 8 8 x 8 8 x 8 x 8 6 x 8 x x 6 8 8 x 8 x 8 8 x 8 x x 8 q 8 8 q x x 8 x 8 8 8 8 8 8 x 8 8 8 8 8 8 8 8 8 x 6 8 8 8 8 8 x 8 8 6 8 x 6 8 8 8 8 6 x x 6 6 8 8 8 x 8 8 8 6 8 8 8 8 8 8 6 8 8 6 x 6 8 6 8 8 8 8 l 8 8 8 8 8 x x 6 8 8 8 6 x 6 8 6 8 8 6 8 x 8 6 6 8 6 8 l 8 8 l 8 8 6 8 x 6 8 8 8 l 8 8 8 8 8 8 8 x 8 6 8 8 8 8 8 8 8 8 8 8 8 8 8 8 8 8 8 8 8 8 8 8 8 8 8 8 8 8 8 8 8 8 8 8 8 8 8 8 8 8 8 8 8 8 8 8 8 8 8 8 8 6 8 8 8 l 8 6 8 6 6 6 8 6 8 6 8 6 8 8 6 8 6 6 x 8 6 8 6 8 6 6 8 8 6 8 6 8 6 8 6 6 8 6 8 6 8 6 x 6 8 6 8 6 8 6 8 8 6 6 8 6 8 6 8 8 6 8 6 6 8 6 8 6 8 6 8 6 8 6 8 8 8 8 6 8 8 8 7 8 7 7 8 8 8 8 8 8 6 6 8 l 6 8 6 8 6 8 6 6 6 j 6 6 6 8 6 6 8 8 6 6 8 6 8 8 6 6 8 8 6 8 6 6 8 6 8 8 6 6 8 8 8 8 8 8 6 8 8 6 6 6 6 6 6 8 6 8 8 6 8 8 6 6 8 ",
"%.+.o.%.%.%.%.%.o.%.%.o.%.o.o.+.@.o...%.%.o.%.%.o.%.%.o.%.%.%.%.%.o.o.o.%.o.%.+.+.o.%.o.%.o.o.o.%.o.o.o.%.o.%.o.o.o.%.o.%.o.o.%.o.+.o.O.o.o.o.+.o.+.o.o.o.+.o.+.o.o.o.o.o.o.o.o.o.o.o.o.o.o.X.o.o.X.o.o.X.X.o.o.X.o.o.' o.o.' o.X.o.o.X.o.o.' o.o.X.o.X.' o.o.o.o.X.o.X.o.o.o.o.o.o.o.X.X.o.X.o.o.O.o.X.o.X.O.O.X.o.X.o.X.o.X.X.X.o.X.X.X.X.o.X.X.X.X.X.X.X.X.X.X.o.X.X.X.X.X.X.` X.X.o.X.X.` X.X.X.X.X.X.X.X.X.X.X.X.X.O.X.X.X.X.X.X.O.X.X.X.X.X.X.X.X.X.X.X.X.X.` X.X.X.X.X.X.X.H X.X.X.X.X.X.X.X.X.X.X.H X.H X.X.X.X.X.X.X.H X.X.X.X.X.X.X.X.H X.X.V V X.X.X.X.X.` H V X.` H X.X.X.V V X.X.V H H X.H H X.H H X.H H H X.H H X.H H V H H X.H V X.H X.H H X.H X.H H X.V H H X.H H H X.V H H X.H H H X.H H H X.H H H H H H H X.H G H H H H H G H G G H G H H G H G H H H H G D H H H G H G G F B V G G H B H H B G G H G G H V G H G H G V B H B B H H B H H H G H G G G H G G H G G G F B B B B H B G B G B G G H B G G B G B G F B G B G G V D G G G D B G G G B V B B B B B B V B B V B B B B G B B B B B B G B B B B B G B B B G B B B B G c B B B B G c G B B B B G B B G B B G B B B B B G G k n n B B B B B B B c B B B B c S S S G c S B c B M B M c B B c c G c c G c c G c B c B S c B B c c B c B c c G c B c B c c B c B B c c c B c c B c c B c B c c S S c c S c c S c G c S c S c S c G S c S S c S S c S B c c c c c c c c c c c c c c B c c c c c c c c c c c c l c c c c c c c c c x c c c c x c c c c S c S c c c x c k S x c c c c c c x c c S k S c c c c c c c x c S k x c x k c c c c k x x c x c x c c c x c c x c x c c x z c c x x c x c x c c c x x c x x c x c c x c c c x c c l c x l c x c x c c x c x k x c k x c x x x c v ) 5.w.w.9.9.e.e.e.e.e.e.e.e.e.e.e.w.9.e.e.e.e.e.e.e.e.e.e.e.e.e.e.e.e.e.e.e.e.e.e.e.e.e.e.e.e.e.e.e.e.e.e.e.e.e.e.e.e.e.e.e.e.e.e.e.e.e.e.e.e.e.e.e.e.e.e.e.e.e.e.e.e.e.e.e.e.e.e.e.e.e.e.e.e.e.e.e.e.e.e.e.e.e.e.e.e.e.e.e.e.e.e.e.e.e.e.e.e.e.e.e.e.e.e.e.e.e.e.e.e.e.e.e.e.q.e.e.e.e.e.w.e.e.e.e.e.e.e.e.e.e.e.9.e.e.9.9.e.e.9.9.e.e.9.e.e.e.e.9.9.q.9.e.e.e.e.9.e.e.e.e.e.e.e.e.9.e.e.e.e.q.e.w.w.2.2.2.2.&.&.&.2.&.| &.%.*.O.n r l x l 8 8 8 x 8 8 x 6 x 8 8 x 8 8 x 8 x 8 x 8 x 6 8 x 8 x 8 8 x 8 x x 8 8 8 q 8 q x 8 x x 8 8 q 8 A 8 8 8 x 8 8 6 8 8 6 x 6 8 6 8 6 x 8 8 8 8 l 8 8 8 6 8 8 8 6 8 6 6 8 x 6 8 8 6 8 x 6 6 x 8 8 8 6 8 8 8 6 x 8 8 8 6 x 8 6 8 6 6 8 8 6 x 8 8 8 8 x 8 6 8 8 6 8 8 8 8 x 8 8 8 8 8 8 8 x 6 8 8 8 x 8 8 8 8 6 x 6 8 8 6 6 8 8 8 8 8 8 8 8 8 8 8 8 8 8 8 8 8 8 8 8 8 8 8 8 8 8 8 8 8 8 8 8 8 8 8 8 8 8 8 8 8 8 8 8 8 8 8 8 8 8 8 8 8 8 8 8 8 8 8 8 8 6 8 6 8 6 8 6 8 6 6 8 6 8 6 6 6 8 6 8 6 8 8 6 8 6 6 8 6 8 6 8 8 6 8 6 8 6 8 6 8 6 8 6 8 6 8 6 6 6 x 6 8 6 6 8 6 8 6 8 8 6 8 6 8 6 8 6 8 6 6 8 8 7 8 8 8 7 8 6 8 8 8 8 8 8 7 8 8 8 7 8 8 8 8 8 8 8 8 8 8 8 8 8 8 8 8 8 8 8 6 8 6 8 8 8 6 8 6 8 6 8 6 8 6 8 8 8 6 8 6 8 8 8 8 8 6 8 6 8 8 8 8 8 8 8 6 8 6 8 6 8 6 8 6 8 ",
"o.o.%.%.%.%.o.%.%.o.o.%.%.o.%.@.%.%.o.%.%...%.@.o.%.o.%.%.o.@.o.o.%.o.o.%.o.o.o.o.%.o.o.o.o.+.o.o.o.o.o.o.%.o.o.%.+.o.%.+.o.%.o.o.o.O.o.o.o.+.+.o.o.o.o.+.+.o.o.o.o.O.+.o.o.o.O.o.o.O. .o.o.o.o.o.' o.X.X.o.o.o.o.o.o.o.X.' X.o.o.X.o.X.o.o.o.o.o.' o.X.o.` o.o.X.o.o.o.o.X.o.X.o.X.o.X.' o.o.o.X.O.o.X.X.o.O.O.X.X.X.o.X.o.X.X.X.X.X.X.X.o.X.X.X.X.o.X.X.o.X.X.X.X.X.X.X.X.o.X.X.X.X.` X.X.X.X.X.X.O.X.X.X.X.X.X.X.X.X.X.X.X.X.X.X.X.X.X.X.O.X.X.X.X.X.X.O.X.X.X.V ` X.X.X.X.X.X.X.X.X.X.H X.X.X.X.X.X.X.X.H X.H X.X.X.X.X.X.X.H X.X.X.H X.X.V X.X.V X.V X.H V X.H H X.H K X.H H X.H H X.H H X.X.H H H X.K H X.H X.H X.H X.X.H H H H H X.H H H V H H H H X.H H H H H H H H H H H H H H H H X.H H X.H H H H X.H H H H H H H X.H H G H H G H H H G H F G G H H H H G F G H H H H G H H J H H B H G G V G G V G G H B G G H V G H H G V H G V H G G H G G J H G G G G H J G H G G G G B H G D V G G G B G G B G G G H G G G G G G G G G G D B H G B V B B V G B V G B B B B B B G B G B B B B B B B G B B B B B B B G G B B B B B G B B B B B B G B G B B B B B B B G G B B B B B G B B B B B B B B B c B B M B B B B B B c B B c c S S c B c B B B B B B c B B B B B B c c B B c B c c c B c B c c B c G c c B c B c c B c B c c S c c G S c c S c G c S c S S S S c S c S c S S G S c S c S c G c S c S c G S c c c c c c c c c c c c c c c B c c c c c c c c z c c c c c z c c c c c c c c c c c c S k c c k c x c S x S x k S c S k S S c c c c c c c c c k S c c c c c c x c c c c x c c c c c x S k k x c x c c l c c l x c c c c l c c x c c x c c x c c l c c c x c c x c c c x x c x x c c c x c c l c l c x c l c l c x M z c x c x z x l z z c h o.5.5.w.9.e.e.e.e.e.e.e.e.e.e.e.e.w.e.9.e.e.e.e.e.e.9.e.e.e.e.e.e.e.e.e.e.e.e.e.e.e.e.e.e.e.e.e.e.e.e.e.w.e.e.e.e.e.e.e.e.e.e.w.e.e.e.e.e.e.e.e.e.e.e.e.e.e.e.e.e.e.e.e.e.9.e.e.e.e.e.w.e.e.e.e.e.q.e.e.e.e.e.e.e.e.e.e.e.9.e.e.e.e.e.e.e.e.w.w.e.e.e.e.e.e.e.9.9.e.9.e.e.e.e.q.e.e.e.w.w.e.e.w.e.e.e.e.9.e.9.e.e.9.e.e.9.e.e.e.e.e.e.e.e.e.e.e.e.e.e.e.e.e.e.e.e.e.e.9.e.e.e.9.9.e.e.e.q.w.w.e.w.w.2.&.&.&.&.&.&.&.&.&.&.&.*.*.*.o.n g x x x 8 q 8 8 8 q x 4 A x 8 8 8 x 8 8 q 8 q 8 x 8 A 8 x 8 8 q 8 8 q 8 x 8 x 8 8 8 8 x 8 8 8 8 8 8 8 l 8 8 8 x x 6 8 8 x 6 6 8 6 8 8 8 8 8 8 8 8 8 x 8 6 8 8 x 8 6 x 8 6 x 8 8 8 6 x 8 6 x 8 8 8 8 l 8 6 8 8 8 8 8 8 8 8 8 8 6 8 8 8 6 8 8 6 8 8 8 8 8 8 x 6 8 6 8 x 8 6 x 8 8 8 8 6 x 8 l 8 8 6 8 6 x 6 8 8 x 6 8 8 8 8 6 8 6 8 8 8 6 8 6 8 8 8 8 8 8 8 8 x 8 8 8 8 6 8 8 x 8 8 8 8 8 x 8 6 8 8 6 x 8 8 8 8 x 6 8 8 6 8 8 x 6 6 x 6 6 6 8 6 6 6 8 6 8 l 8 6 8 8 6 8 6 x 6 8 6 8 6 8 6 6 8 6 8 6 8 6 8 6 8 6 6 8 6 6 8 6 6 8 6 6 8 6 8 6 8 6 8 6 8 6 6 8 6 8 6 x 6 8 l 8 8 6 8 6 8 8 8 8 5 8 8 8 7 8 0 8 7 8 7 7 q 7 8 7 7 7 8 8 8 8 8 8 8 7 8 8 8 8 8 7 8 8 8 8 8 8 7 8 7 8 7 8 7 8 7 8 7 8 8 8 q 8 8 8 7 8 7 8 7 8 8 8 7 8 7 8 0 8 7 8 8 8 7 8 7 8 8 8 7 8 7 8 8 8 7 ",
"%.%.o.%.%.o.%.o.o.%.%.o.o.%.%.o.o.%.%.o.o.%.o.%.o.%.%.o.o.o.o.o.o.o.%.o.o.o.o.%.+.o.%.o.%.o.o.%.%.o.%.o.+.o.%.o.o.o.o.o.o.o.o.o.+.o.+.o.o.O.o.o.O.+.O.o.o.o.O.+.+.o.o.o.o.o.o.o.o.o.o.o.o.o.X.o.X.o.o.o.o.o.' X.o.X.X.o.o.o.X.o.o.` o.' o.X.X.' X.o.o.o.o.o.o.X.o.o.` o.' o.o.' o.' o.o.X.o.X.X.o.X.X.O.o.X.X.o.o.X.X.X.X.X.X.o.o.O.o.X.X.X.o.X.o.X.X.X.X.X.X.o.o.X.X.' X.X.` X.o.X.X.o.X.` o.X.O.X.X.X.X.X.X.X.X.X.X.O.X.X.O.X.X.X.X.X.X.X.X.X.X.X.X.X.X.X.o.X.X.X.X.H X.X.X.X.X.X.` X.X.X.` X.X.H H X.X.X.X.X.X.X.H X.` H X.H X.H X.X.X.X.X.V V X.V X.X.X.X.X.H X.K H X.X.H H K H X.X.H H X.H X.K X.H H X.X.H H X.X.K X.H H V H H H H V H H H X.H H H H H H H H V X.H H H X.H H V X.H H H H H H H H H H H V H H H V X.H H H H H D H G G H G H H G J H H G J F H H G H G G F J H H H H G H H B G H H G G H H G V H V G G G G G G G G G G G G V G G G G G H G H G G G H G G G G G G G G G B G G G G G G G H B G G B G B B H B H B G H B H B B G B G G V G B B G B B B G c G B B B B G B G B G B B B G B G B G B B B B B B G B G B B B G B G B B B B G B G B G B B B B B B G B G B B B G c B B M B B B B B B B B B M B B B B B B B S G G B B c c c B M B M B M B B c c B B c c B c B B c c B c B c B B c c B S c c B B c B c c B c S S c c S S c S c S S S c B c S G c G c S G c c S S c c S S c c S S c S c c S z c c c c c c c c c c c c c c c c c c c c c c c c c c c z c z c c z c z c c c c c c x S c S x S S c k c c c c x c x c x x c c x c c c c x S c x c A x c c c c c c c S k c S x c x S x x A S x S x x c c x c c c c l c x x c x c c x x c l c x c c x x c c x l c x c c c z c c x x c x c c x x c l c x c x c l c z c l x A x z c c c x z t  .4.w.e.e.e.e.e.e.e.e.e.e.e.e.e.9.e.9.9.e.9.e.e.9.e.e.e.e.e.e.e.e.e.e.e.e.e.e.e.e.e.e.e.e.e.e.e.e.q.e.e.e.e.e.e.e.e.e.e.e.e.w.e.9.9.w.e.w.e.e.e.e.e.e.q.e.e.e.e.e.e.e.9.e.e.e.e.e.e.e.e.e.e.e.e.q.q.q.9.9.e.9.9.e.9.e.9.e.e.e.9.e.9.9.e.e.e.e.e.e.e.w.w.e.e.e.e.9.e.9.e.w.e.w.e.e.e.e.e.e.e.w.e.e.e.e.e.e.e.e.e.e.e.w.e.e.e.e.e.e.e.e.9.e.e.e.e.e.e.e.e.e.e.e.e.e.e.e.9.9.9.9.e.e.e.e.e.e.e.w.w.w.2.>.&.*.&.&.&.&.&.&.&.&.&.&.=.*.@. .v j l x 8 8 q 8 8 8 8 4 4 8 x 4 q 8 8 x 8 x 8 x 8 8 x 8 8 q x 8 8 x 8 x 8 q 8 8 8 x 8 8 x 8 x x 8 x 8 8 8 8 8 6 8 8 8 6 8 8 x 8 8 8 8 8 l 8 x 8 8 8 6 8 6 x 8 8 8 8 6 8 8 8 6 6 8 8 6 8 8 6 8 6 8 8 8 8 8 6 x 6 8 6 6 8 x 6 x 8 6 x 6 x 8 8 8 6 x 6 6 8 8 8 8 6 8 8 6 8 8 6 8 8 6 8 8 8 8 8 8 8 8 8 8 6 x 6 8 8 6 8 6 x 8 x 8 8 6 x 8 x 8 8 8 6 8 l 8 8 8 6 6 8 8 x 8 8 6 8 6 8 x 6 8 6 6 8 6 x 8 8 6 8 l 8 6 8 8 8 6 x 8 8 6 8 8 6 6 8 8 6 6 8 8 6 8 6 8 6 8 6 6 8 6 8 6 6 6 8 6 8 6 8 8 6 8 6 8 6 8 6 8 6 6 8 6 8 8 6 8 6 6 8 8 6 8 6 8 6 8 6 8 6 6 8 6 8 6 8 6 6 6 8 8 6 8 6 6 8 8 8 8 8 5 8 7 8 7 8 8 7 7 8 7 8 8 7 7 q 7 8 7 7 7 8 7 7 q 8 8 7 7 8 8 q 7 7 8 7 8 7 8 8 7 8 0 8 7 q 7 8 0 7 7 8 7 7 8 7 7 q 7 8 0 7 8 8 7 8 8 7 8 8 7 8 0 8 7 8 7 0 8 7 8 8 8 8 7 8 ",
"o.%.%.%.%.%.%.o.%.@.+.%.%.o.o.%.%.o.o.%.%.%.o.o.o.@.%.o.o.@.o.@.o.+.o.o.%.o.%.+.o.o.o.o.o.%.o.%.o.o.o.%.o.o.o.o.o.o.o.%.o.%.o.o.O.+.o.o.+.o.o.o.o.+.o.+.o.o.o.o.O.o.O.o. .o.o.o.X.o.X.o.o.X.o.X.o.o.o.` o.` o.o.' o.o.' o.o.o.o.o.o.o.X.o.o.o.o.o.o.X.o.o.` o.o.o.o.o.` X.o.o.o.o.X.` o.o.o.o.o.o.X.o.O.X.O.O.o.X.o.X.o.o.X.X.X.X.X.X.o.X.X.X.X.X.X.o.X.X.o.X.X.` X.X.X.X.o.X.X.` X.X.X.X.X.X.X.X.X.X.X.X.X.X.X.X.X.X.X.X.X.X.X.X.X.O.X.X.X.X.X.O.X.X.X.X.X.X.X.` H X.X.X.X.X.X.X.X.X.H X.X.X.X.X.X.X.X.X.H X.X.X.X.X.X.X.X.X.X.X.` X.H X.X.X.V X.H X.X.X.V X.V H X.H X.H X.H X.X.H X.H X.K X.H H H X.H H X.H H V H X.K K H H H H H X.H H H X.H H H H X.H H H H H H H H H H H H H H H H H H H H H H H H H H H H X.H H H H H H H H K H G H H G G G H H H H H H H G H G H H G G H H G H H H G H H G H G H V G G V G G V H G V V G G V V H H V G G H G H G G G G G G G G G H G G G G G G G G G G G D V B G B G G F B G G G D B G G G G G G G G G H B B B B V B B V B B B G G G B G B B B B B B B G B B B B B B G c B B B B G B B B G B c G B G B G B B B B B B B G B B B B G B B B G B G B B B B B k B B B B B B B B B B B B B B B G S G c c G B B B M M c B B M B B B B c c M B c c B c B c B B c B c c B B c c B B c c G S B B c S c c S G c c S c S S c c S c S c S c S S c c S S c S B G c S S S c G S B S S c c c c c B c c B c c c c c c c c c c c c c c c c c c c z c z c c c c z c c c c z c c c x c x c x c c c c c c c c c c c c S c c c k c c c c c c c c k c x x k S c c c c c c x x c S x x c c x x k c x c x c c c x c x c c x c c x x c c c c c x c c x c c c c c x c l x c x c c c c c c c x c x c c l c l x c c c c c x q x A x x z l l c t m 4.w.w.9.e.9.e.9.e.e.9.9.e.e.e.9.e.9.9.e.9.e.e.9.e.e.e.e.e.e.e.9.e.e.e.e.e.e.e.e.e.e.e.e.e.e.e.e.e.e.e.e.e.e.e.e.w.e.e.e.e.e.e.e.e.9.e.e.e.e.e.e.e.e.e.e.e.e.e.e.e.e.e.e.e.e.w.w.w.e.w.e.e.e.e.e.e.e.e.e.e.e.e.e.9.e.e.e.e.e.e.e.e.e.e.e.e.e.e.e.e.e.e.e.e.e.e.9.e.9.e.e.e.e.e.e.e.e.e.e.e.e.e.e.e.e.e.e.e.e.e.e.e.q.e.e.e.e.e.e.e.e.e.e.e.e.e.e.e.e.e.e.e.e.9.9.e.9.e.9.e.9.9.e.e.e.e.w.e.w.5.2.2.&.&.*.&.&.&.&.:.&.&.&.&.*.=.*.*.%.B k g l x 8 8 q 8 8 C x 8 x 8 q 8 x q 8 8 q 8 8 8 8 8 8 x 8 8 q A 8 8 8 8 x 8 x x 8 8 8 8 8 8 8 8 8 x 8 8 6 8 6 8 8 8 8 8 x 6 8 x 8 6 6 6 x 6 8 6 6 8 8 8 8 6 8 8 x 8 8 8 8 8 x x 6 8 8 8 8 8 x 6 8 8 8 8 x 8 l x 8 8 6 x 6 6 8 8 8 6 x 8 8 8 x x 8 x 6 6 8 8 8 x 6 6 8 8 8 x 6 x 6 6 8 8 8 x 6 8 8 8 8 8 8 x 8 8 8 8 6 8 6 8 x 8 6 6 x 8 8 8 x x 8 x 6 6 8 8 8 6 8 8 x x 6 8 8 6 8 8 8 8 l 8 8 x 6 8 8 8 8 8 8 8 6 8 8 x 6 8 6 6 8 8 6 6 8 8 6 6 8 6 8 6 8 6 8 8 6 8 6 8 6 8 6 6 8 8 6 6 8 6 8 8 6 6 8 6 8 6 8 8 6 6 8 8 6 8 6 6 8 6 8 6 8 6 8 8 6 8 6 8 6 8 6 8 8 6 6 8 6 6 6 8 8 8 8 8 5 8 8 7 8 7 7 7 8 q 7 8 7 7 8 8 7 7 8 8 7 7 7 7 8 8 7 7 7 8 7 7 7 7 8 8 7 7 8 7 0 7 8 8 7 8 7 8 7 8 8 7 7 8 0 7 7 8 7 8 7 8 8 7 0 7 8 7 8 7 7 7 8 8 7 8 7 7 8 0 8 8 7 7 7 8 7 ",
"%.o.%.%.%.%.o.%.%.o.o.%.o.%.%.o.%...%.%.%.o.%.%.%.o.%.%.%.o.o.o.%.o.o.%.o.o.o.o.o.%.o.%.o.o.o.o.%.o.o.+.%.o.%.o.o.%.o.o.o.%.o.%.o.o.o.+.o.o.+.o.o.o.o.o.+.+.o.o.o.o.o.o.+.o.O.o.o.o.o.o.o.o.o.o.' X.o.o.o.o.X.` X.o.X.o.X.o.X.' o.` o.o.o.` X.o.X.X.' o.o.X.o.X.o.` o.X.o.o.X.o.' o.o.o.o.X.X.o.o.O.o.X.o.O.X.X.X.X.X.X.X.X.X.o.o.X.X.X.o.X.o.X.X.o.X.X.X.X.o.X.X.X.X.X.X.` X.` X.X.X.X.X.' X.' X.X.X.X.X.X.X.O.X.X.O.X.X.o.X.X.X.X.X.X.O.X.X.X.X.X.X.X.X.X.X.X.X.X.X.X.X.X.X.X.X.H X.X.X.X.X.X.X.X.H X.X.X.H X.H X.H X.H X.H X.X.H X.X.H X.V X.` X.X.V X.V X.X.H H H X.H H H X.X.H H H X.H H H X.H H X.X.H H X.X.H H X.H X.X.V H H H H H H H H H H H H H H X.V X.H H H X.H H V X.H H H X.H H H H V X.H H X.H H H H H H H X.H H G H G H D H H H H H G H G H G G H J H G H H H H G H G H G H B H V B H B G G H G G H G G H G G H H G G B G G H G G H J G G G H G H G G H G H J H G G G G G G B G G G G H G G G B D H B G H B G G B G G B G G B B V G H B G G B G G B B B B B B B G B G B G B B B B B G B G B B G G B B G B B B G B B G B B B B B G B G B G B B B G B B G B B B G B B B B B B B B G B B B k B B B B B B B B B M c c S c S G c c B B B B B B M B B B c M B B B c B B c B c B c B c c B S c c G B c c B c c c B c c c S S c S S G c c S c G c S S c S c S c c S S c c S c S c S c S c S c S c c S S c B c c c c c c c c B c M c c c M c c c c c z c z c c c c c c c c c c c z c c c c x c c c c c c x c c c c x c c c x c c k x c c A c c x c c x c c c c c c c x S x c S x c k S c A k c A k S S x c c c x c x x c x c c x c x z c z c x x x c c x x c c l x x c c c x c c c x x c x x c l c x z x x c x c z x c l k c x A q x c c c z x B m m =.5.e.e.9.9.e.9.9.9.e.9.e.9.9.e.9.e.9.e.9.9.9.e.e.e.e.e.e.9.e.9.e.9.e.e.e.e.e.e.e.e.e.e.e.e.e.e.e.e.e.e.e.e.e.e.e.e.e.e.e.e.e.e.e.e.e.e.e.e.e.e.q.e.e.e.e.e.e.9.e.e.w.e.w.w.0.0.w.w.w.w.e.w.e.e.e.e.e.e.9.e.e.e.e.e.e.e.e.9.e.e.e.e.w.e.e.w.w.e.w.w.e.w.e.e.e.e.e.e.9.e.9.e.e.9.w.9.9.e.e.9.9.e.e.9.e.e.w.q.e.e.e.e.e.e.q.e.e.e.e.e.e.e.e.e.e.e.e.e.e.e.e.e.e.e.e.e.9.e.e.e.e.e.e.e.q.w.w.3.2.>.2.&.&.&.&.&.&.&.&.2.&.&.&.&.&.*.=.*.o.B g g A 8 8 8 q 8 8 4 8 8 x 8 8 x 8 x x 8 x 8 A 8 x q 8 8 x 8 x 8 x 8 q 8 q 8 x 8 x 8 8 x 8 x 8 8 8 8 8 x 8 8 8 l 8 8 8 6 8 8 6 8 8 x 8 8 8 6 x 8 8 6 8 8 x 6 8 6 6 x 6 8 8 8 8 8 8 l 8 8 8 8 8 8 6 x 8 8 8 8 6 8 8 x 6 8 8 8 8 6 8 8 l 8 8 8 6 8 8 8 x 6 8 8 8 8 8 6 x 8 8 6 8 8 8 6 x 8 6 8 8 l 8 8 8 8 6 6 x 6 8 8 x 8 8 6 8 8 8 8 x 6 6 8 6 8 6 8 x 8 8 6 x 8 8 6 8 8 8 l 8 8 x 6 8 8 8 8 8 8 6 6 8 8 x 6 6 x 8 8 6 8 8 x 6 6 6 8 8 6 8 8 8 6 8 6 8 6 8 6 6 8 6 8 6 8 6 8 8 6 6 8 8 6 8 6 6 6 x 6 8 6 8 6 6 x 8 6 6 8 6 8 8 6 8 6 8 6 8 6 6 8 6 8 6 8 6 8 l 8 8 6 6 8 6 8 8 8 7 8 8 8 8 8 8 7 8 7 q 7 8 7 7 q 7 7 7 8 8 0 7 q q 7 8 7 7 8 0 8 0 8 7 8 8 7 7 7 8 7 8 7 8 8 7 8 7 8 0 7 8 7 8 7 8 7 q 7 7 8 7 7 8 7 8 7 8 7 8 7 q 7 8 7 7 7 0 8 8 7 8 7 0 8 7 8 7 8 ",
"%.%.%.%.o.%...%.o.%.%.o.%.@.o.%.o.%.%.o.o.%.%.o.o.%.%.o.o.%.' %.o.o.%.o.+.o.%.o.o.%.o.%.o.o.o.%.o.o.o.o.o.%.%.o.%.o.o.o.%.o.o.o.o.o.+.o.o.o.O.o.o.+.O.o.o.o.o.+.O.o.o.o.o.o.o.O.o.o.o.o.X.o.o.o.X.o.X.o.o.o.o.o.o.o.o.X.o.X.o.o.o.o.' o.o.o.' o.o.o.X.o.o.' o.' o.o.' X.X.o.o.o.o.o.X.o.o.o.` o.X.O.o.O.X.o.o.O.X.o.X.o.X.X.X.X.X.X.X.X.o.X.o.X.o.X.X.X.o.X.X.o.X.X.X.X.X.X.X.o.X.` X.X.` X.X.X.X.X.X.X.X.X.X.O.X.X.X.X.X.X.X.X.X.X.O.X.X.X.X.X.O.X.X.X.X.X.X.X.X.X.` H X.X.H X.X.X.` X.` X.X.H H X.X.X.X.H ` H X.H X.V X.H X.X.H X.X.X.X.H X.H H X.X.` H X.V X.X.H H X.K X.H H H H X.H X.H K X.H X.H H H H X.H X.H H H X.H X.H H V H H X.H H H H H H H H X.H H H H H H H H H X.H H H H H H H V H H H H H H H H H H H H H H X.V H H G H H F H G G F H G K D G F H D H H D H H G H H G H H G B B G H G H G V B H V G H B G B H V V G H H V G G V G G H G G G H G G G G H G G G G B G G G G G B G B G G B H B G G G B G G G D G B H G H G G B G G V B V B B G B G B B B B B G B G B B B G B B B B G B B B G B B B B B B B B B B B B B B B B G B G B B B B G B B B B B B B B B B B G B B B B B B B k B B B B B B B B B B c B B B B B S B G G S B B c B M B M B B c c B c B c B M c c B c B c B c c B c G B c B c c G c c B c B c G G S c S S c S S S c G c S c G S c S c S S c S S S c S c S S c S c S c S S S c S z c c c c B c c c c c B c c c c B c c c z c c c c c z c c c z c z c c c c c c c c c x S c c x c c c c c c c c c c c c c c c c c c c x S c S k S c c x c c S x c c c c c c x c c c k A c S k A c x c c x c c x c c c l c c c x c c x c c c x c c c c x c c z x c x c l x x c c x c c x c x z l c c x c x x c l c c x x A C x c x c c l k v s =.5.w.9.9.9.e.9.e.e.e.9.e.9.e.e.9.e.9.e.9.e.e.9.e.e.e.e.e.e.9.e.e.e.e.e.e.e.9.e.e.9.e.e.e.e.e.e.9.e.e.q.e.e.e.e.e.e.e.w.e.e.e.q.e.q.e.e.e.e.e.9.e.e.e.e.e.e.e.e.e.w.w.w.w.1.<.,.1.5.w.w.w.w.e.w.e.e.e.9.e.e.e.e.9.e.9.e.w.e.9.e.e.e.e.w.w.w.0.w.w.0.e.w.e.e.e.e.e.e.e.e.9.e.e.e.e.9.e.9.9.e.9.e.e.e.e.e.e.e.e.e.e.e.q.e.e.e.e.q.e.e.e.e.e.e.e.e.9.e.e.e.9.e.9.e.e.e.9.e.e.e.w.e.w.e.w.0.3.2.&.#.&.&.*.=.&.&.&.| 2.&.:.&.&.&.&.*.&.*.+.D h k l x 8 8 8 q C 8 x 8 8 x 8 8 A 8 x 8 8 q 8 8 8 8 8 x 8 x 8 x 8 8 8 A 8 x 6 6 8 8 8 8 x 8 8 8 x 8 8 6 8 8 8 8 6 8 x 6 8 8 8 8 8 6 8 8 x 6 8 8 8 x 8 8 6 x 8 x 6 8 8 8 6 8 8 x 6 8 8 8 x 6 x 6 6 8 6 8 8 8 6 8 8 8 8 8 x 6 6 x 6 8 6 8 8 8 8 6 8 8 8 6 x 6 8 l 8 8 8 8 x 8 8 6 8 6 8 8 x 8 8 8 6 x 6 8 8 8 6 x 8 8 6 8 8 8 8 x 6 6 8 6 8 6 8 8 6 8 8 8 6 x 6 8 8 6 8 8 8 8 8 8 x 8 8 x 6 8 6 8 8 x 8 8 6 x 8 6 6 8 6 8 6 8 6 6 8 6 8 6 8 8 8 6 8 6 6 6 8 6 8 6 8 6 6 8 6 8 6 8 6 8 6 8 6 8 8 6 6 8 6 8 6 8 6 6 8 6 8 6 8 6 8 6 8 8 8 6 8 6 8 6 8 6 8 6 8 6 8 6 6 8 8 6 8 6 8 8 8 8 7 8 8 8 7 8 7 q 7 7 8 7 8 7 7 8 8 7 7 8 8 8 7 q 7 8 7 7 8 7 8 7 8 7 8 7 q 7 8 0 8 7 7 0 7 8 q 7 8 7 8 7 8 8 7 8 8 0 8 7 q 7 q 7 7 8 0 8 7 q 7 7 7 8 7 q 8 7 8 7 7 8 7 7 8 7 7 8 ",
"%.%.o.%.o.%.%.o.%.%.o.%.%.o.%.o.%.%.o.%.%.o.@.%.%.o.%...@.o.%.o.%.o.o.o.o.%.o.o.o.o.+.o.%.o.+.o.%.o.%.o.o.o.o.o.o.o.o.%.o.o.o.%.+.o.o.o.O.+.+.o.o.o.o.o.O.o.o.o. .o.o.o.o.o.+. .o.o.o.o.o.o.o.o.X.o.' o.o.X.o.` o.X.' o.' o.o.X.X.o.X.o.X.o.X.X.X.' o.o.o.X.X.o.X.o.o.o.o.o.' X.X.o.' o.o.X.o.X.X.o.X.O.X.O.X.O.X.X.X.X.X.o.X.o.o.X.o.X.X.X.X.X.X.X.X.o.o.X.X.X.X.' X.X.` o.X.X.X.o.X.X.o.X.X.X.X.X.X.X.X.X.X.X.X.X.X.X.X.X.X.X.X.X.X.X.X.X.X.X.X.X.X.X.X.X.X.O.X.X.X.X.X.X.X.X.X.X.X.X.X.X.X.X.X.X.H X.X.X.X.X.X.X.X.X.X.X.X.X.X.X.H X.X.X.X.` X.H H X.V X.X.X.H X.X.H X.H H X.X.H H X.H X.X.H H H X.X.K X.X.H H H X.H H H H H H X.H H V H H H X.H H H H H H H H H X.H H H H H H H X.H H H H X.X.H H X.H H H X.H H H X.H H H H H D H G H J H H H G H G H H H G H H H G H H G H H G G G G H H H G G G V G G H B G H B H G H G G G G G G G H G G H G G G H G G G G G G G J G G G G H B G B H G G G G G G G G G B G H B G G V H B D B B G G G G G G B G B B V V B G B G B B B B B G B B B B B B G B B B G B B B G G B G B B G c G G B G B B B B B G B B G B B B G G B G B B G B G B B B G B B B c B B B B B B B B B B B B B B B B c S c S c B B c B c B c B c M B B c M c c B B c c c B c B c c B c c c c S c B G B c c B G c B c S c S c c G c S c S S S c S S c S c G S c G S c S c c S c c S c G c S c c S G c c c c c c c c c c c c c c c c c c c c c c c x c c c c c c c c c c c x c c z c c c c S k c c c c c c k x c c c x S x x c x c x c c c c k c x c x S k S c x k c c c c c c c S c x x S c x x c c x c l c c x c c l x x c c x c c x l c c x c c x x x x c c x c c x c c c c c x c c c x c l c x c x l c l c c x c x x A A 8 x x x z c c k v b U &.w.w.e.e.e.e.w.9.e.e.e.9.e.e.9.9.e.e.e.e.e.e.e.w.e.e.e.e.9.e.9.9.9.9.e.e.e.e.e.e.e.9.e.e.9.e.e.e.e.e.e.e.e.e.w.w.w.w.e.e.e.e.e.q.e.9.e.e.e.e.e.e.e.e.9.e.e.9.e.e.w.w.w.1.3.>.#.>.3.4.1.5.w.w.w.w.w.w.e.w.e.e.e.e.w.e.e.w.e.e.w.w.e.w.w.w.3.3.:.3.3.w.w.w.w.e.w.e.e.9.9.e.9.9.9.e.e.e.e.e.9.e.9.9.e.w.e.w.e.e.q.e.e.e.e.e.q.e.e.e.e.e.9.e.e.e.e.e.e.e.e.e.e.e.e.9.e.e.w.w.e.e.w.w.w.3.2.>.&.2.4.&.@.&.&.&.&.&.2.2.&.&.| &.2.=.&.*.&.*.O.B z j x x 8 8 8 8 8 8 x 8 8 x 8 8 8 8 8 x 8 8 x x q q 8 8 x q 8 A 8 8 x 8 8 8 8 6 x 8 6 6 8 6 8 6 8 6 x 8 8 8 6 x 6 6 8 8 6 8 6 x 8 8 6 8 8 6 x 6 8 8 8 8 8 6 8 8 8 8 8 x 6 8 6 8 8 8 8 6 8 8 8 x 8 8 8 8 8 8 6 x 8 8 8 6 8 8 8 8 8 8 6 x 8 8 8 8 6 6 x 8 8 8 8 8 8 8 8 6 8 8 x 8 8 8 6 6 8 6 x 8 8 8 8 6 x 8 8 6 6 8 8 8 l 8 8 8 8 8 x 8 8 6 8 8 6 6 x 8 8 8 8 6 x x 8 8 8 8 6 6 8 8 8 8 6 x 6 8 8 8 6 8 8 6 8 8 6 8 6 8 6 8 8 6 8 6 8 6 8 6 8 6 8 6 8 6 8 6 8 6 8 8 6 8 6 8 6 8 6 8 6 8 6 6 8 8 6 8 6 8 6 8 8 6 8 6 8 6 8 6 8 6 6 6 8 6 8 6 8 6 8 6 8 6 8 6 6 8 6 6 8 6 8 8 7 7 8 8 8 8 8 7 7 8 7 7 8 7 q 7 8 q 7 7 7 q 7 7 7 7 7 8 7 q 7 8 7 7 8 7 8 7 q 7 8 7 8 7 8 8 7 8 7 7 8 8 7 7 8 0 7 8 7 7 8 7 7 7 8 7 8 8 7 8 7 8 7 7 8 7 8 8 7 7 8 q 7 q 7 7 8 7 7 q 7 ",
"%.%.+.%.%.%.%.%.%.o...%.%.o.o.%.+.o.%.o.o.%.%.o.%.o.%.%.o.o.%.%.o.o.o.o.o.o.o.o.o.%.o.o.o.%.o.%.o.o.%.o.o.%.%.o.%.o.%.o.%.+.%.o.o.o.o.+.o.+.o.o.+.o.o.+.o.o.+.o.o.o.o.o.o.O.o.o.X.o.o.o.o.o.o.X.o.` o.o.' o.o.o.X.o.o.o.o.X.o.' X.o.X.o.o.' o.o.o.X.o.o.o.o.' o.o.o.o.X.X.o.o.o.' o.X.o.o.o.o.X.o.o.X.X.o.X.o.o.X.o.o.X.o.X.X.X.X.X.X.o.X.o.o.X.o.X.o.X.X.o.X.o.X.X.o.` X.X.X.o.` X.` X.X.X.o.X.o.X.X.X.X.X.X.X.X.O.X.X.O.X.X.X.X.X.X.X.X.X.X.X.X.X.X.X.X.X.X.X.X.X.X.X.X.X.H ` X.X.H X.X.X.X.X.V X.H X.X.X.X.X.X.X.X.X.X.X.H X.X.X.X.X.X.H X.V ` X.V V X.X.X.V H X.K H X.H H X.X.H H X.H H X.H X.H X.H H H H H H X.X.H H H X.H H H H H H H X.H H H V X.H H H H H H H H H X.H H H H H H X.H H H H H H H X.H H H X.V H H H H H H G H H G G H H G H G H H G G H H H G G H H G G H H G H G B V H B V G G H H G G H H G H G G H H G G H B H G H G H G G H H G G H H H G G G H G G H G G B G G B G B G G F B B G B H B G G G G G G G G G B G G G G B B B B H V B G B B B B G B G B B B G B G G B G B G B G B G B G B B B B G B B G B B B B G B G B B B G c B G B G B B B B G G B B B c G B G B B B B B S B B B B k G B B c B c B B c c c G G B S B c c B B c B B M B c c B B B c B B B c c B B c B c c G c B B c B c c S B c c c G B c S S c S c c S B S c S S c c G c S S c S c c S c G c S G c c G S c S S S c c S c c c c c c M c c c c c c c c c c c c c c c c z z c c c c c c c c c c c c c z c x c x c k A c c c c S c S x c c k c c c S c x c c x x S c c c c c x c x S c c c c c c x c S c c S x x k c x x c c l x c c x c x c x c x x c c l x c c x l c x c c c c x x c c x c x x c c x c l l c l c x c x c c x c l c x l x x x x C j k k B - V b N o.o.4.5.w.w.w.w.w.w.e.e.e.w.e.e.e.e.e.e.e.w.w.w.w.w.0.3.0.0.e.e.e.e.e.e.e.e.e.e.e.e.e.e.e.e.e.e.e.e.e.e.e.e.q.w.w.3.5.w.w.w.w.e.e.e.e.e.e.e.e.9.e.e.e.e.e.e.e.e.e.e.e.w.5.5.2.>.#.>.$.2.#.>.2.2.3.5.5.w.w.w.w.w.w.w.w.w.w.w.w.w.w.w.0.5.5.2.3.>.:.;.| >.3.3.5.w.w.w.w.e.e.e.e.e.e.e.e.9.e.9.e.e.e.e.e.e.w.w.w.w.w.w.e.w.e.e.e.e.e.e.e.e.e.e.e.e.e.e.e.e.e.e.e.e.e.e.e.e.w.w.w.w.w.w.5.3.2.2.#.&.&.&.&.%.&.&.&.&.2.&.2.2.2.| &.2.2.&.&.&.*.%.X.v g l x 8 8 8 8 x 8 8 x 8 8 8 8 x q 8 8 x 8 8 8 8 x 8 x 8 x q 8 8 8 8 8 x 6 x 8 8 6 8 8 8 x 6 8 6 8 8 8 l 8 x 8 6 8 8 8 x 8 6 6 8 8 6 8 8 8 8 x 8 l 8 8 6 8 8 8 8 x 6 8 6 8 8 8 x x 6 8 8 8 x 6 8 x 8 6 6 8 8 6 8 8 8 8 8 8 8 6 8 8 8 6 8 8 8 8 x 8 8 x 6 8 8 8 x x 6 8 8 8 6 8 x 6 8 8 8 8 8 x 8 8 8 6 8 8 8 8 x 8 6 8 8 8 8 8 8 8 6 6 8 8 8 8 x 8 8 x 8 8 8 8 8 6 8 6 8 8 x 8 8 6 8 8 x 8 8 x 8 x 6 8 8 8 6 8 8 6 8 6 8 6 6 8 6 8 6 8 6 8 6 8 6 8 6 8 6 8 6 8 6 6 6 6 8 6 8 6 8 6 8 6 6 8 8 6 8 6 8 6 8 6 8 8 6 8 6 8 6 8 6 8 6 8 6 8 6 8 6 x 6 8 6 8 6 8 6 6 8 6 8 8 8 8 8 7 8 7 8 8 7 q 7 8 7 7 q 7 8 7 7 7 8 8 7 7 8 7 7 8 7 q 7 8 7 7 8 q 7 8 7 8 7 7 q 7 7 8 7 q 8 7 q 8 7 7 8 q 7 7 8 q 7 8 7 8 8 7 q 7 7 7 8 7 8 7 8 8 7 0 8 8 7 q 7 7 8 7 8 q 7 8 7 7 8 ",
"%.%.%.+.o.o.o.%.o.%.%.o.%.%.o.%.@.o.%.%.o.%.%.o.o.%.%.o.o.%...o.o.%.o.%.o.%.o.%.o.o.%.o.o.o.o.o.%.o.o.o.+.o.o.o.o.+.o.o.o.o.o.o.o.+.O.o.o.o.o.+.+.o.o.+.o.O.+.o.o. .O. .o.o.o.o.o.o.o.X.o.X.o.o.o.o.o.X.X.o.X.o.' o.X.' o.o.o.X.' o.o.o.X.o.o.X.o.o.' X.X.o.X.o.o.X.' o.' o.X.o.X.o.X.o.` o.o.o.X.O.O.o.O.X.O.X.X.X.X.X.X.X.X.o.o.X.X.X.X.X.X.X.X.X.X.X.X.X.X.X.o.X.X.X.X.X.` X.X.X.X.o.X.X.` X.X.X.X.O.X.X.X.X.X.X.X.X.X.X.X.O.X.X.X.X.X.X.X.O.X.X.X.X.O.X.X.X.X.X.X.X.X.X.X.X.X.X.X.X.H X.X.X.X.X.X.X.X.H X.H X.H H X.X.H X.X.X.X.V H ` X.H X.H X.X.X.X.V H X.X.H H X.H H X.H H X.K H X.H H X.X.H K H X.X.H X.X.H H H V X.H H H H H X.H H H H H H H H H H X.H X.H H H H H H V X.H H H H H H H H H H H V H H H H H H H H X.H H H H G H H G H G G H H G H H G H H H G H G H H G H H H B G B V H G H H B G V H G V G G G V G G V V G H B H G G V G G G J G G G J J H G H G H G G V D G G G G G F B G G G G G D H G G B H G B G G B H G G D V G G B H B B G B H B G B B B B B G B B B B B B B c G B B B B B B B B G B B B G B G B G B B B B B G B B B G B B B B B G B B G c B B G G B B G M B G G B B S G c S G c c B B B B c B c B c G S B B c c B M c B B B c B M B c B c M B c c B B c c B c B B c B c c B c B B c c B c B c c S c B S S c S c S c S c S c S c c S c S c S G c S c S S c S S S c S c G c S S c c B c c c c c c c c c c c c c B c c c c c c c c c c c z c c c z c z c c c z c c c c c c c c c x c S x c k S x c S x c c k c S c c c c c c x c c c c c c c c c x k A c c k x c c x c c A c x k c x c c x c l c c c c x c c c x c c x c c c x c c c l l c c x c c x c c l c c c x c x c x c l c l x c x c l c x c q x x x S k k v M X.X.+.=.&.&.>.5.1.w.5.w.w.w.w.e.w.w.e.w.e.e.w.w.w.w.w.3.3.3.>.:.,.,.0.w.e.e.e.e.e.e.e.e.e.9.e.e.e.e.e.e.e.e.e.q.w.w.w.,.>.>.5.w.w.w.e.q.e.e.q.e.e.e.e.e.e.e.e.e.e.e.9.w.w.w.w.5.2.$.#.$.4.&.#.&.$.2.2.2.3.>.>.3.1.3.5.3.3.w.5.5.w.5.1.3.,.>.:.3.#.#.&.&.2.2.2.:.| 2.3.5.w.w.w.e.e.w.e.e.w.w.e.e.w.e.w.e.w.e.w.w.w.w.3.3.w.w.e.w.w.e.e.e.e.e.e.e.e.9.e.e.e.e.e.e.e.e.e.e.e.e.q.w.w.5.w.3.2.2.>.2.2.&.&.=.=.&.&.&.&.&.&.&.&.2.2.2.2.&.&.&.&.&.&.*.*.o.v = l c 8 8 A 8 8 x x 8 8 x 8 q 8 8 x 8 x q x 8 x 8 8 8 q 8 8 8 x 8 x 8 8 8 8 6 8 x 8 8 8 8 8 8 6 x 8 8 8 8 6 8 x 8 8 6 8 6 x x 8 8 8 6 x 6 8 6 8 8 8 8 6 8 8 8 l 8 6 8 x 8 6 8 6 6 8 8 6 8 6 8 8 6 8 8 x 6 x x 6 8 6 x 8 6 x 8 8 6 x x 8 x 6 6 8 8 8 6 8 8 6 8 6 6 8 8 6 x 8 8 6 x 8 8 6 6 8 6 8 x 6 8 8 8 8 8 8 6 x 8 8 l 8 8 8 6 x x 8 x 6 8 8 8 6 6 8 8 l 8 8 8 8 x 6 8 6 6 x 8 8 8 6 8 8 6 6 8 8 8 8 6 8 6 6 8 6 8 6 8 8 6 8 6 8 6 6 6 8 6 8 6 8 6 8 6 8 6 8 6 8 8 6 8 6 8 6 8 6 x 6 6 6 8 6 8 6 8 6 x 6 6 8 6 8 6 8 6 8 6 8 6 8 6 6 6 8 6 6 6 8 6 8 6 8 8 6 8 6 8 8 8 8 8 8 8 7 7 7 7 8 7 8 7 7 8 7 q 7 8 7 7 q 7 q 8 q 7 8 7 8 7 7 q 7 8 7 0 8 7 7 8 7 8 7 7 8 7 7 7 7 7 7 q 7 8 7 8 7 7 8 7 8 0 8 8 7 8 7 8 0 8 7 8 7 7 q 8 7 7 8 7 7 8 7 7 8 7 8 7 q 7 q ",
"%.%.%.o.o.%.%.%.@.o.@.+.%.%.o.%.o.%...o.%.o.o.%.%.o.o.o.o.o.%.o.o.o.o.o.o.o.o.o.o.%.o.o.%.o.%.o.%.o.+.o.o.o.o.+.o.o.o.+.o.o.o.o.o.O.o.+.o.+.o.o.O.o.+.o.o.o.o.o.o. .+.O.o.o.o.O.` o.X.' o.X.o.o.X.o.X.' o.o.o.o.X.o.X.o.o.o.o.` X.o.o.o.' X.o.' o.' o.o.o.X.o.X.X.o.X.o.o.X.o.o.o.X.o.o.X.o.X.o.O.o.X.o.o.X.o.X.X.o.X.X.X.X.X.o.X.o.X.o.X.X.o.X.X.X.X.X.X.o.X.o.` X.` X.X.X.o.` X.X.X.X.X.X.X.X.X.X.X.X.X.X.X.X.X.X.O.X.X.X.X.X.X.X.X.X.X.X.X.X.X.X.X.X.X.X. .H H X.X.X.X.X.H X.X.X.X.X.V X.X.X.X.X.X.X.X.X.V X.X.X.X.` H X.H X.X.X.H X.V X.V X.X.H H X.X.H H X.H H H X.H H X.H H X.H H X.H K H K H X.H X.H K H X.H H H H H X.H X.H H H H H H H X.H H H V H H H V H H X.V H H H H H H H H H X.H H H X.H H H X.H H H H H H X.V H G K D H G H G H H G H H H G H H G H H H D G H J G V G G V G G G H G H B H B H G G H G H G G H G H B H H B H H G G G G G G G G G G G G G H G D B G G G G G D B H G G D G G G G B G G H B G G G H G B H B B G G G B V G B H B V G B G B B G B G B B G B G B G B G B B B B B B G B B B B B G B G B B B G B G B B B B G B G B G B G B B G B B B B B B B B c B M B k c B B k c G c G c c B B B B B B S B S S G c B c B c B B c B c B c M B c B c M c G c S B c B c c G c c B c S c c G c B c B c c B S c c S S c S c S c G S c S c S G c S c S c S c S c S c B c S c S G S c k S S c c c c c c c c c c c c c c c c c c c c z c c z c c l c c c c z c c c c c c z c c c c c x c c c c c c x c c c c c c c S k c c x S c c c c c c x S A c c x c c c c c c c x x c c c k A S x k c x k x c c x c c c x l x c x c c x c z x c c x c x x x x c x c c l c c c x c c x c c c l c x c x z x z x z x c l c x c x x c h h v O.+.+.%.&.&.&.2.2.4.2.3.2.2.5.5.w.5.w.5.0.w.5.w.3.3.2.3.2.2.2.2.:.:.:.3.3.w.w.w.e.w.e.e.e.e.e.e.9.e.e.e.q.e.e.e.e.e.w.w.3.>.#.>.$.<.5.w.w.e.e.e.e.e.e.e.e.e.e.e.e.w.q.e.w.e.w.w.w.=.$.&.2.&.=.&.=.2.$.&.&.2.$.2.$.#.2.2.:.&.:.2.#.2.2.2.2.2.2.2.2.&.#.&.#.&.&.&.&.&.4.&.#.2.>.2.3.w.w.0.w.w.w.w.w.w.w.w.w.w.w.3.3.3.2.2.>.#.<.3.5.w.w.w.w.w.e.e.w.e.e.e.e.e.e.e.e.w.e.e.e.e.e.w.w.w.5.5.>.| >.2.2.&.&.&.&.&.*.*.*.&.&.&.&.2.2.&.2.2.&.&.&.&.&.2.&.=.=.%.` h l x 8 8 8 8 8 8 8 x 8 x 8 8 8 8 A q 8 8 x x 8 8 8 8 q 8 x 8 x 8 x 8 8 8 x 6 8 8 8 8 l 8 l 8 8 8 8 x 8 8 x 6 8 8 8 8 8 8 8 x 6 8 8 6 6 8 8 6 x 8 6 8 x x 6 6 8 8 x 6 8 6 8 x 8 8 8 8 x 8 8 6 x 8 6 8 8 8 8 8 8 8 8 6 8 8 8 8 8 8 8 8 6 8 8 6 8 x 8 6 8 x 6 8 8 8 x 6 8 8 x 6 8 8 8 6 x 8 8 8 8 x 6 8 8 l 8 8 8 8 x 6 8 6 8 8 6 8 8 8 8 8 8 8 8 x 8 8 6 8 8 x 8 l 8 8 8 8 x x 8 8 8 8 x x 6 6 8 6 8 6 6 6 8 6 8 6 8 6 8 8 6 8 6 6 8 6 8 8 6 8 6 8 6 8 6 6 8 6 8 6 8 6 8 6 8 6 8 6 8 6 8 7 8 8 8 8 8 8 8 6 8 8 8 6 7 8 8 8 8 5 8 8 8 7 8 8 7 8 8 8 8 8 8 8 6 8 6 8 8 8 8 8 8 7 7 7 8 7 8 8 q 7 8 7 q 7 7 8 7 7 8 7 7 8 7 7 8 8 8 7 7 q 7 8 7 8 q 7 8 7 8 0 8 7 8 q 7 8 7 8 7 7 8 7 7 q 7 0 8 7 8 7 7 8 7 7 8 7 8 8 7 7 q 7 8 8 7 7 8 7 7 7 0 8 8 7 8 7 7 7 8 7 8 ",
"+.%.%.%.%.%.o.o.o.%.o.%.o.%.%.o.%.%.%.%.%.%.%.%.o.%.%.@.%.@.o.%.%.o.%.o.%.o.%.o.o.o.%.o.o.o.o.o.o.o.o.%.o.%.%.o.%.o.%.o.%.%.o.%.o.+.o.o.o.o.o.O.o.o.o.o.+.O.o. .o.o.o.o.o.o.o.o.o.o.o.o.o.o.o.o.o.o.o.o.X.` o.X.X.o.' o.o.X.o.o.' o.o.X.o.o.o.X.X.o.X.o.o.o.o.' o.X.o.O.X.o.o.X.X.o.o.O.o.X.O.o.X.X.O.O.O.X.O. .X.X.o.O.o.X.X.X.X.X.X.X.X.o.X.X.X.o.X.o.X.X.X.X.X.X.o.X.X.X.X.X.X.X.o.` X.X.X.' O.X.X.X.X.O.X.X.X.X.X.X.X.X.X.X.O.X.X.X.X.X.X.O.X.X.X.X.X.H X.X.X.X.X.X.` X.X.X.X.X.X.X.X.X.X.X.X.H X.X.H X.X.X.X.H X.X.X.X.X.X.X.X.X.X.X.H X.X.X.` X.V H ` X.X.H X.H X.X.H X.K H X.K X.X.H X.H X.H H X.H X.X.H H X.H X.X.H H X.H H H H V X.H H H H H H X.H H H H H H H H H X.H H H H X.H H H H H H V H H H H H X.H H H H H H H H H H H H G H G H H G H H H G D H D G H H H H H H G G H H G H G G V G H B H G G G G G V V G H B B H H B B H G G G H G G G H G G J H G G G G H B G G G B B H G B G B V G G B G G G B G G G G B B G G G G G H B G B B V B B B G B B B B B B B c G B B B B B B B B G B G B G G c B B B B G B B B B G c B B B B G B B B B B B B B B B B B B G B B G B B B B B B B B G S S G G G G c B B B c c B c B B S G G S B B c c c c B B c B B B c B B B B c B B c c B B c c B c B B c c B G c c B c c c c G c c S G c c S c S c S S c S c S S c S S S c S B S c S S G S S c S S c S c S c c c c c c c c B c c M c c c c B c c c c c c c c c c c c c c c x c c c z c c c c c c c c c c c c k x c c c c x c x c c c x S c c c k x c x c c c c k k c c c c c c S x c c c c c c x c c x c A c c A z c x c c x c x c c c c x c c x x c c x c c c z c c c c x c c x x c c x x c l c x c x z l c x c x c x c x c x c x x k v b ( O.+.*.%.&.2.:.&.:.2.2.2.@.#.#.@.2.2.2.2.2.2.2.:.3.2.2.2.2.2.2.2.&.2.&.2.2.2.3.5.w.w.e.e.e.e.e.e.e.e.e.9.e.e.e.e.e.w.w.3.2.3.2.@.#.=.$.2.4.5.w.w.e.e.e.e.e.e.e.e.e.e.e.w.w.w.w.3.>.{ #.&.$.&.&.$.&.&.&.&.&.&.&.&.&.&.&.&.&.2.&.&.2.&.&.&.&.2.&.&.&.&.&.*.=.&.*.&.*.&.&.&.&.@.| &.2.2.2.2.2.3.3.5.5.3.2.3.5.5.3.3.2.2.2.2.&.<.2.2.2.3.5.5.w.w.w.w.w.w.w.w.e.w.w.w.w.e.e.w.w.w.w.w.0.w.3.2.2.&.>.2.2.&.&.&.&.&.*.&.&.*.&.&.&.&.&.&.| &.2.| :.&.&.:.&.&.&.=.*.X.v j j 7 8 q x 8 x 8 x 8 8 8 A 8 8 8 8 x 8 q 8 8 A 8 x 8 q 8 8 x q 8 8 8 8 8 8 6 6 x 8 8 8 8 8 8 6 8 6 8 6 8 8 8 6 8 x 6 8 8 6 8 6 x 8 x 8 8 8 6 6 x 8 8 6 8 x 8 8 8 8 6 8 8 6 8 6 x 6 8 x 8 8 8 6 x 8 8 8 6 8 6 x 6 8 8 8 6 8 l 8 8 8 8 8 6 x 8 6 8 8 6 8 8 l 8 8 8 8 6 8 8 8 6 6 x 8 8 8 6 x 8 6 8 8 6 8 8 6 x 6 8 8 8 8 6 8 x 8 6 8 6 6 6 x 8 6 6 8 x 8 8 6 6 8 8 8 6 8 6 8 8 8 l 8 8 8 8 8 6 8 6 6 6 8 6 8 6 8 6 8 6 6 8 6 8 6 6 8 6 6 8 6 8 6 8 6 8 8 6 8 6 8 6 8 6 6 6 8 6 8 6 8 6 8 8 6 7 8 5 8 8 8 8 7 8 8 8 6 8 8 8 8 8 8 5 8 8 8 6 8 8 8 8 7 8 6 8 6 8 7 8 8 7 8 8 7 8 7 8 q 7 7 7 8 7 8 7 8 7 7 q 8 7 8 8 7 8 8 7 0 7 8 7 7 8 7 8 7 7 8 7 q 7 8 7 8 7 7 8 7 7 7 8 q 7 8 7 7 8 8 7 8 7 7 q 7 7 8 7 8 0 7 7 8 7 8 0 7 8 q 7 7 8 8 7 8 7 7 7 8 7 8 7 8 0 ",
"%.%.@.+.o.%.@.o.%.%.o.o.%.o.%.o.%.o.o.%.o.%.%.o.%.%.o.%.o.' o...o.o.+.%.o.o.o.%.%.o.%.o.o.o.%.o.%.o.%.o.o.o.o.o.o.o.o.%.o.o.+.o.o.+.o.o.+.o.o.+.o.o.+.O.o.o.o.O.O.o.o.o.o. .+.o.o.o.X.o.o.X.o.` ' o.o.X.o.o.o.o.o.X.o.X.o.X.o.X.X.o.o.' o.' o.o.o.o.' X.` o.o.o.o.X.o.o.o.X.X.o.X.o.o.X.o.X.o.o.o.X.O.X.X.X.X.X.X.X.X.X.X.o.X.o.X.o.X.X.X.X.X.X.o.X.X.X.o.X.X.X.X.X.X.X.X.X.X.X.o.` X.` X.X.X.X.X.X.X.X.X.X.X.X.X.X.X.X.X.X.X.X.X.X.X.X.X.X.O.X.X.X.X.O.X.X.X.` ` X.X.X.V X.X.X.H X.X.X.X.X.X.H H X.X.H X.X.H X.X.H X.H X.H H X.X.H X.X.` X.V V V X.X.X.X.` X.V X.X.H H X.H H X.X.H H X.H H X.X.X.H H X.H H H H H X.H H H H H X.H H X.H H H H H H H X.H H H H X.H X.H H H H H H X.V H H H V H H H H H H H H H H H H H X.H H V H H G G H G G H H G H H D G H H H H H G G G F H H V G G V G G H V G V H B H H G V V G G H B H H B B H H B H G H V G H G H G H G H H G G G G G G B B G G G B G G G G G G G G B H G G B G G B F G G G G B G G G B G B B V G B V B B B G B B G B G B B G B B B G B B B B B G B B G B G B G B B B G B B G B B G B G B B G B B B G B B B B G B B B B G B G B B B B B B c G G S B c J c B c B c c B B B c G c c c G c G c G c c c B c c c B B c c B c B c G c c c B B c B c c B B c c B c B c B B c c B G c S S c S G S S c c S S c G c S S c S c S c S c S c S S c S c G c c c c c c S c c c c c c c c c c c c c c c c c c c c z c c c c c c z c c c c c c z c c c c c c k c S c c S c S x x c S x c c c c c x c x x S S x c c x c c x c c c c c c c x k S c c c k c c x S x c c A x S c x x c x l c c c l x c x c c x l c c x c x l c c x x c c x c x x c c l c x x c c l c x c x c x c x c x c l c l x z M v ` +.*.%.*.*.&.| :.&.:.&.&.&.&.&.&.&.&.&.&.| 2.:.| :.| 2.2.&.2.&.&.&.4.&.2.2.2.&.:.2.5.w.w.w.e.e.e.e.e.e.e.e.e.e.e.w.w.w.2.2.2.>.#.$.&.&.&.#.&.2.5.5.w.w.w.w.w.w.w.w.w.w.w.5.5.3.3.>.>.{ #.&.&.&.&.&.&.&.&.&.&.&.&.&.&.&.&.&.&.&.&.&.&.&.&.&.&.&.&.&.&.&.=.=.&.*.&.*.&.&.*.&.&.&.&.@.&.&.>.#.#.&.2.2.&.#.2.>.2.2.2.&.&.>.&.&.&.&.&.2.&.2.#.>.3.4.5.5.5.w.w.w.w.w.w.w.w.w.w.5.w.3.3.3.3.3.| :.:.&.2.&.&.&.&.&.&.&.*.*.*.*.&.&.&.&.&.&.2.&.2.&.2.| &.&.&.&.2.&.=.+.B g 8 x x q 8 q 8 8 8 x x 8 8 8 8 q 8 8 8 x x 8 8 8 8 x 8 8 x 8 A 4 x 8 6 8 8 8 8 8 x 8 8 6 8 x x 6 8 8 8 8 8 x x 6 8 6 8 8 8 8 8 8 6 x 6 8 8 8 8 8 x 6 8 x 6 6 6 8 8 8 6 8 6 8 8 8 8 8 6 6 8 6 8 8 l 8 x 8 8 x x 6 x 6 8 x 6 x x 6 8 6 8 x 8 8 8 8 8 x 6 6 8 8 6 8 8 x 6 8 8 8 8 8 x 8 6 x 8 6 8 8 8 x 8 6 8 8 8 8 8 x 8 x 6 x x 8 8 x 8 x 8 6 8 8 8 8 6 x 8 8 8 8 6 x 8 6 x 8 8 8 8 8 8 6 8 6 6 8 6 8 6 8 6 8 6 8 8 6 8 6 8 6 8 6 6 8 8 6 6 6 6 6 8 6 6 8 6 8 6 6 6 8 8 6 6 8 6 8 6 8 8 8 8 8 8 8 5 8 8 8 7 8 7 8 7 8 5 8 8 7 8 6 8 8 8 8 5 8 8 7 7 8 8 8 8 8 8 8 8 8 7 8 7 8 q 7 7 8 8 7 7 7 8 7 0 7 8 7 7 q 8 0 7 8 0 8 7 8 8 8 8 7 8 0 8 7 7 7 8 8 7 8 0 8 7 8 7 q 8 7 8 7 8 8 8 7 7 8 q 7 8 7 7 8 7 q 7 8 q 7 7 8 7 8 7 7 7 8 q 7 7 8 8 7 q 7 7 q q 7 7 8 ",
"o.%.o.%.o.%.%.o.%.o.%.%.o.@.o.%.o.%.%.o.%.o...%.%.o.%.%.o.%.%.' %.o.o.o.%.o.+.o.o.o.o.+.o.%.+.o.o.o.o.o.o.%.o.%.%.o.o.o.%.o.o.o.o.o.+.o.O.o.o.+.+.o.o.o.o.o.o.o.o.o.o.+.o.O.o.o.X.o.o.o.o.o.o.o.o.X.o.o.X.' ` o.o.' o.o.o.o.' o.o.o.X.o.X.o.X.o.o.X.o.o.X.o.X.o.X.o.o.X.X.o.O.o.o.X.o.o.X.o.o.X.o.O.o.X.O.o.o.X.o.X.o.X.X.X.X.X.X.X.o.X.X.o.X.o.X.X.X.o.X.X.o.X.X.' X.X.X.X.' X.X.X.X.X.o.` X.X.X.X.O.X.X.X.X.X.O.X.X.X.O.X.X.X.X.o.X.X.X.X.X.X.X.X.X.X.X.X.X.X.X.X.X.H X.X.X.X.X.X.` X.X.X.X.` X.X.X.X.H X.X.X.X.X.X.X.X.X.X.X.X.X.H X.H X.X.X.H X.V X.X.H X.H H K H X.H X.H H H H X.H X.H H H K X.H H X.H X.X.X.H V X.X.H H H H H H H H H H X.H H H H H H H H H H H H X.H H H H H H H H X.H H H X.H H H X.H H H H H H V H V H G H H G H H G F H G G H H G H H H G H H H G H G G H G H G V G G H G H B H B H G G H H B H H B H H B H H B H B H G G H J G G H J G H G G H G G B G G B H G H B G H B G G G G G B D H G B G G G G H B D H B G H B B V G B B B B V B B G B B B B B B B G B B B G B G B B B G B B B B B B B B G B B B B G B B B B B B B G B B B G B B G B B G B B B B M B B B B B B G G c B B k B G B B B B B B c c G c G S S B c c B c B G B c B c c B M c B c B c B c c B G c c G c c G c c B B c B c B c B S c G c S S c S c S c c S G c c S c S c c G c S c G c G c S c c S c S S S c S G c c c c c B c c c c c c B c c c c c c c z c c c c c z z c c c c z c c z c c c z c c c x S c x c S x c k c S c k S c c c x c c c c c c k S c c c c c S c c x c x c k S c c c S x S c c c x k A x k c x x c c x c c c x c c c x c l c c c c x c x c c c c c c l c x c c c x c c c l c l x c x c l c l c l c l c x c x c c k M ( o.=.=.*.=.=.2.&.:.:.2.&.&.&.&.&.&.&.&.2.&.&.&.&.&.&.&.2.&.&.&.2.&.&.&.&.&.&.2.&.2.2.2.2.3.w.w.w.w.w.e.e.e.w.w.w.0.0.2.:.>.2.&.&.&.&.&.&.&.&.#.&.>.2.2.2.5.5.3.5.5.5.5.3.3.3.>.2.>.2.2.2.&.&.&.&.&.&.&.&.&.&.&.&.&.&.&.&.&.&.&.&.&.&.&.&.&.&.&.&.&.&.&.&.&.*.*.&.&.*.*.*.*.*.*.&.&.&.&.&.&.&.&.&.2.&.2.&.&.&.&.2.&.2.4.&.&.&.&.&.4.$.=.#.| #.@.2.2.2.4.2.<.<.3.3.3.3.2.3.3.>.>.3.#.:.:.| 2.&.2.&.&.4.&.&.&.&.&.*.&.&.&.&.&.&.&.&.&.2.&.&.&.&.2.&.&.:.&.2.2.$.=.%.V h j 8 8 8 8 8 8 x 8 8 8 8 A 8 x 8 x 8 q 8 q 8 8 x 8 x x 8 8 q 8 8 8 8 x 6 8 6 8 6 6 8 x 8 8 6 8 8 8 l 8 6 8 6 8 8 8 x 8 6 x 8 8 6 8 8 8 6 x 8 8 8 6 8 8 8 8 8 8 8 6 x x 8 8 6 6 8 x 6 8 8 8 8 6 x 8 8 6 8 8 6 6 8 8 8 6 8 8 8 6 8 8 x 8 6 6 x 8 6 8 8 8 x 8 8 8 8 8 6 x 8 6 8 8 6 6 8 8 6 6 x 8 8 6 8 8 x 6 8 8 6 8 6 8 8 8 6 6 8 8 6 8 6 6 x 8 8 8 6 8 6 6 x 8 8 8 8 8 8 6 8 8 l 8 8 6 8 6 8 8 6 8 6 8 6 8 6 8 6 6 6 6 8 6 8 6 8 8 6 6 8 x 6 8 8 6 8 8 6 8 6 x 6 8 6 6 8 8 6 8 6 8 6 5 8 8 8 7 6 8 8 8 6 8 8 8 8 8 8 8 8 8 8 8 8 7 8 8 7 8 8 8 8 8 8 6 8 8 8 8 8 7 8 7 7 8 7 7 7 8 7 7 8 7 q 7 8 8 8 7 8 7 7 7 8 7 7 8 7 8 7 7 0 8 7 7 8 7 7 7 q 7 7 8 7 8 7 8 7 8 7 0 8 7 8 7 0 8 7 8 7 7 8 7 8 q 7 7 7 8 7 7 8 7 8 8 7 7 q 8 7 7 8 7 q 7 8 7 8 8 7 7 7 8 7 ",
"%.%.%.o.o.o.%.%.o.@.%.o.%.%.o.%.%.o.%.%.%.%.o.%.o...%.o.@.o.o.%.o.o.o.+.o.%.o.%.o.o.o.o.%.o.%.o.o.%.o.o.o.o.%.o.o.%.o.o.o.o.%.%.+.+.O.o.O.o.o.o.o.+.O.o.O.o.o.o.o.o.o. .o.o.o.o.o.o.o.X.o.' X.X.o.o.' X.X.o.o.o.o.` o.` X.o.X.o.' o.X.X.X.' X.o.o.o.o.X.X.o.o.o.X.o.o.O.o.o.X.o.X.o.o.O.o.X.o.O.X.X.O.X.O.X.X.O.X.X.X.X.X.X.X.o.X.o.X.o.X.X.X.X.o.X.o.X.X.X.X.X.X.X.o.X.X.X.X.X.X.X.` o.o.X.X.X.X.X.X.X.X.X.X.X.X.X.O.X.X.X.X.X.O.X.X.X.X.X.X.X.X.X.X.X.O.X.X.V X.X.X.X.X.X.X.X.X.X.H X.X.X.` X.` X.X.H X.X.X.X.X.X.X.X.X.X.X.X.H X.X.V X.X.X.H X.X.H X.X.V X.` H H X.K H H X.K H X.H K H X.X.H H X.X.H X.H K H H H H X.H H H X.X.V H H X.V H H X.V H H H X.H H H H H H H H H H H H H H H H X.H H H H H H H H V H H H H H H H H H G F H H H G H G D H H G H H J H G H J H G H H G H G B G V G G G B H V G G H G H B H H B B H B B H B B H H B H J H G G G G G G G H G G H G G G D G B G G B F G B G G B G B G G B G G G G D B B G H B G G G G D V B B B V B B B B G B G B B G B B B B B B B G B B G B B G B B B B G B G G B B G B G B G B B B B B G B B B B B B G B B B G B B B B k B B M G B B c G c G c S G c c G c G c G c G B S B c B B c B c B c c B c B c B c B B B c B B c B G c c c B c B c B B c B c c c c B c c G c c c S S c c c S c B S c S c S c G S c G S c S S S S c c S S c c G S S S c c c c c c c c c c c c c c c c c c c c c c c c c c c c c c c c c c c z c c c c c c z c z c c k c x c c c c x c c x c k x c c x S c c x c c c A k c c c x k S c S c c c c x c c x c c c c x S c x S k A c x c c c c c x c x c c x c c c x x c c c x c c x x c c x c z c l c x x c l c x c c x c x c x c x c x c x c x c x x B V +.=.*.=.$.&.=.&.2.:.2.&.&.&.&.*.&.&.&.&.&.&.2.&.&.&.&.&.2.2.&.2.&.&.&.&.&.&.&.&.&.2.&.&.| 2.:.2.3.3.3.3.,.,.3.:.3.3.3.2.&.2.&.2.&.&.2.&.&.&.&.&.&.&.2.2.>.>.=.2.>.2.2.2.2.2.2.2.2.&.&.2.&.&.&.&.&.2.| 2.&.&.&.&.&.&.&.&.&.&.&.&.&.&.&.&.&.&.&.&.&.&.&.&.&.&.&.&.=.&.*.&.&.&.&.*.&.=.=.=.&.&.&.&.&.&.&.&.&.&.&.&.&.&.&.&.&.&.*.&.&.&.&.*.&.&.&.&.2.2.&.&.:.$.>.$.>.#.2.2.#.| #.| 2.&.2.2.2.&.2.&.&.&.&.&.&.&.&.&.&.&.&.&.&.&.&.&.&.&.&.&.&.&.&.&.2.2.| &.2.2.@.&.*.H k 8 x 8 q q 8 x x 8 x 8 x 8 x 8 x x 8 x 8 x 8 8 8 x 8 8 A 8 A 8 8 8 8 8 8 6 x 8 6 6 x 6 8 8 6 8 8 8 8 x 6 6 8 8 8 8 6 6 x x 6 8 6 8 8 8 8 8 l 8 8 8 8 x 6 8 6 x 8 8 8 8 8 8 x 8 8 6 x 8 6 8 8 8 x 6 8 8 6 8 8 8 8 8 l x 6 8 8 8 8 8 8 8 8 x 6 8 8 6 8 x 6 8 8 x 8 8 8 8 6 8 6 8 6 6 x 8 8 l 8 8 8 8 8 6 x 6 8 x 8 6 8 x 6 8 8 8 8 6 8 8 6 x 6 8 8 8 8 8 x 6 8 6 8 8 8 8 6 8 6 6 8 6 8 8 6 8 6 8 6 8 6 6 8 6 8 6 8 6 x 8 6 8 6 6 8 6 8 6 8 6 8 6 8 6 8 6 8 6 8 8 6 8 6 8 6 8 6 6 8 6 8 8 8 8 5 6 8 8 8 8 8 8 5 8 7 8 8 8 7 8 8 7 8 8 7 8 8 7 8 8 8 7 8 8 8 8 8 6 8 7 8 8 0 7 8 7 q 0 8 7 8 7 8 7 8 8 7 q 7 7 8 0 8 7 q 7 8 7 7 7 8 0 8 7 8 7 q q 7 8 7 7 7 8 7 8 7 q 8 8 7 8 8 7 8 0 8 7 q 7 7 7 8 8 8 8 7 0 8 7 7 8 7 8 7 7 8 0 8 7 8 7 8 7 7 7 7 8 7 8 7 8 7 ",
"%.o.o.%.@.o.o.%.%.o.%.%.%.o.o.%.o.%.@.o.o.o.%.%.%.%.%.%.o.o.%.o.o.%.%.o.o.o.o.o.%.%.o.%.o.o.o.o.+.o.o.%.%.+.o.o.o.o.%.+.o.%.o.o.o.o.o.o.o.o.+.o.o.o.o.o.o.o.o.o.o.o.O.o.o.o.o.o.o.o.o.o.o.X.o.o.X.o.o.o.o.o.` o.o.o.o.o.o.' o.o.o.X.o.o.o.o.o.o.' X.o.o.o.' o.` o.o.X.o.o.X.X.o.o.X.X.o.o.o.X.o.O.o.O.o.o.X.X. .X.o.X.o.o.X.X.X.X.X.X.X.X.o.X.o.X.X.O.X.o.X.o.X.X.X.` X.o.` X.X.X.o.X.X.` X.X.` X.X.X.X.X.O.O.X.X.X.X.X.X.X.X.X.X.X.X.O.X.X.X.X.X.X.X.X.X.` X.X.X.` X.X.X.X.X.X.X.X.X.X.X.X.H X.H X.X.X.H X.H X.X.X.H X.H X.X.H X.X.X.X.H V X.` ` H H ` X.V H X.X.X.H H X.H H X.X.H H X.H H H X.X.H K H X.H X.H K X.H V X.H H X.H H H H H H H H H H H H H H H H H X.H H H H X.H H H H X.H H H H H H V X.H H H X.X.H H H H V H V G H G H G G H H H K H G H G G H H F H H G H H G V G G H G G H V G H G G V G G V H H B B H H H H H H H H B B H H H G G G G H H G G G G G G G G G B G G G G G B G G F G G G G G G H B B G B G H G B D B G G B B H B B V V G B B B B B B B G G c B G B B G B G c G B B B B B B B G B B B B c G B B B B B B G B G B G c B G G B G B B B B G B B G B B G B B B B B c c S G c c G c B G c B S c S G c c B c B c c B c B c c B c B c B c M B c c B c M B c c B c B c G c B c c G c B G G c c B B c c B S G c S S G c S S c S c S c S c c S c S S c c S c S S c c S S c S c c S c S S c c c c c c B B c c c c c c M B c c z z c c c c c c c c c c z c c c c c c c c c c c S x S c c A k c c c c S c S c c c c k c c c c x c c c c c S k x c c x k x c c S c c c c x k A S k x S x c c x c x l c x x c c c x x c c x c x x c x c c x x c c x x c c x c x x c c x c x c x x z l c x z l c l c l c l c x k j n X.*.&.#.$.$.$.#.2.:.:.2.&.&.&.=.&.&.&.&.&.&.&.&.&.2.&.2.&.&.&.2.&.&.&.&.&.&.&.&.| &.2.&.2.| &.&.2.2.2.>.:.:.:.>.;.2.2.2.2.&.&.2.&.&.&.&.| &.&.&.&.&.2.&.&.$.#.#.#.=.&.#.$.>.&.2.&.&.&.&.&.&.&.&.&.&.&.&.&.&.&.&.&.&.&.&.&.&.&.&.&.&.&.&.&.&.&.&.&.&.&.&.&.&.&.&.&.&.&.&.&.*.&.*.&.*.*.&.&.=.&.&.&.=.&.&.&.&.&.&.&.&.&.*.&.&.&.&.&.&.&.&.&.&.2.&.&.&.&.&.&.&.2.$.2.$.2.&.2.$.2.&.&.| &.2.&.&.&.&.&.&.&.&.=.&.&.&.*.&.&.&.&.&.&.&.*.&.&.&.&.&.&.&.&.&.&.2.&.&.2.>.=.%.V c x 8 8 8 8 8 8 8 8 8 8 A 8 q q 8 8 q 8 8 8 q x 8 8 q 8 8 8 8 8 8 x 8 6 x 8 8 x 8 8 8 8 8 6 x x 8 8 8 8 8 x 6 x 8 8 8 8 6 8 8 8 8 8 6 6 x 8 8 8 8 8 6 6 8 8 x 6 8 x 6 l 8 8 8 8 6 8 8 8 x 8 6 6 8 8 8 8 x 6 8 8 8 8 8 8 8 6 8 6 6 x 8 6 8 8 8 8 8 x 6 6 8 8 6 6 8 6 x 6 x 8 x x 8 8 8 8 8 8 8 6 8 x 6 8 8 8 6 6 8 6 x 8 8 8 8 8 6 x 8 8 8 8 8 8 8 x 6 8 8 8 6 8 8 x 6 6 8 6 8 8 6 8 6 6 8 6 8 6 8 6 8 8 6 8 6 8 6 8 6 6 8 6 8 8 6 8 6 8 6 8 6 8 6 8 6 8 6 8 6 6 8 6 8 6 8 6 8 8 6 8 6 8 8 8 8 8 8 7 8 5 8 8 8 6 8 8 8 8 8 8 6 8 8 8 8 8 6 8 8 8 8 8 8 8 7 7 8 7 8 7 8 8 8 8 7 7 7 8 7 8 0 8 7 q 7 7 8 8 7 8 7 8 7 7 8 q 7 8 q 8 7 8 7 7 q 8 7 7 8 7 7 7 q 7 8 7 7 7 7 7 8 7 0 8 7 8 7 8 7 7 8 8 7 7 0 7 8 7 8 8 7 7 q 7 7 q 7 8 7 8 7 8 7 q 7 8 8 7 q 7 8 7 q ",
"%.%.%.o.%.o.o.%.o.%.o.%.%.o.%.o.o.%.%.o.%.o.%.o.%.o.o.%.o.%.o.%.%.o.o.o.o.%.o.o.o.o.o.o.+.o.%.o.%.o.%.o.o.o.o.%.o.o.o.o.o.o.o.o.O.o.o.+.o.+.o.o.+.o.o.+.O.o.o.O.O.o.O.o.o.O.X.o.o.o.o.o.o.o.o.X.X.o.X.o.` o.o.o.X.o.X.o.` o.` o.o.o.o.o.o.X.o.` o.X.' X.X.o.' o.X.o.o.X.X.o.o.O.o.o.o.X.X.o.X.o.X.O.X.o.O.X.X.o.o.X.X.X.X.X.X.o.X.o.X.X.o.X.X.X.X.X.o.X.X.X.X.o.X.' X.X.X.X.X.' ` X.X.o.X.X.X.o.X.X.X.X.X.X.X.X.X.X.X.X.X.X.X.X.X.X.X.X.X.O.X.X.X.X.X.X.X.X.X.X.X.H X.H X.X.` H ` X.X.H X.X.X.X.H X.X.H X.X.X.X.H X.` H H X.X.X.H X.X.H X.` H X.X.V X.X.X.X.H X.H H H X.X.H H X.X.H H X.X.H H H H H H X.H H X.X.X.X.H X.H X.H H H H X.H H H X.H H H X.H H H H H H H H H H H V H X.H H H H H H H X.H H H X.H H H H H V H V H H V G H J H H G H G G H H G G F H G G H H G G H G H H G G H H G H G G H H G B H H B B H B H H B B H H B B H H B G B G H H G G G H J G H G G G G G B H B G G G G G G G B B G G G V G G G H G H G B H G G H G H G G G B V B B B V B B B G B B B B G B G B B B B B B B B B G B G B G B B B B B B G B G B G B B B B B G G B B B B B G c G B G B G B B B B B B c B k B B G J k G G c S S c c G B G c G G G c B c c B c G c B S c c c c c B c c B c B c B c G c c B c c B c S c c c c B c c B S B B c B c c S S c c G S S c S S c S c S S S c S c c c G c S c S G G c S S S G c c c c c S c B c c c c c c c B c c c c c c c z c c z c c c c c c z c c z c c c c z c z c c c x c x c c c c A c c c c c c c x c c x x S x c c c c c c c c c c c x c S x c c c c c c c c x c x k c x S x x S c c c c c z c x c x c c x l c c c c x l c c x c c c x c c x c c c c l c l c l c c x c x c x c x c x c l c x c x j G +.=.&.=.$.$.#.$.2.2.:.&.&.&.&.2.&.&.2.&.2.&.&.&.&.&.&.&.&.2.>.&.2.2.&.&.&.2.&.2.&.&.| 2.2.| &.&.&.&.>.>.>.>.3.>.>.2.&.&.&.&.&.| 2.&.2.&.2.&.:.&.2.&.&.&.&.&.@.=.=.$.#.&.&.&.$.&.&.&.&.&.&.&.&.&.2.&.&.2.&.&.&.&.&.&.&.&.&.&.&.&.&.&.&.&.&.&.&.&.&.&.&.&.&.2.&.2.&.&.| 2.&.&.&.*.&.&.*.&.&.*.&.=.&.&.&.&.&.&.&.&.&.&.&.&.=.&.&.&.&.&.2.&.&.&.| 2.&.| | &.&.&.&.=.&.=.&.=.&.&.&.&.&.&.&.&.&.&.&.&.&.&.&.&.=.&.&.&.&.&.&.&.&.&.&.&.&.&.&.&.&.&.&.&.2.&.2.&.2.2.2.$.=.%.F k x 8 q 8 q 8 x 8 x x 8 8 q 8 8 x x 8 8 q x 8 8 q x 8 8 x 8 8 8 8 4 8 8 8 x 6 6 8 8 8 8 6 8 8 6 6 8 8 6 6 8 8 6 8 8 6 8 8 l 8 x 8 8 x 8 6 x 8 8 8 6 x 8 8 8 8 6 x 6 8 8 8 x 8 x 6 8 8 6 8 x 6 6 8 8 6 8 8 6 8 6 8 8 8 8 8 8 8 8 x 8 8 8 8 8 6 x 6 8 6 8 8 8 x 6 x 8 6 8 8 l 8 6 8 8 8 8 6 8 8 x 6 8 6 8 8 8 x 6 x 8 8 8 6 8 8 8 8 6 8 8 6 8 8 8 l 8 6 6 8 8 8 x 6 8 8 8 6 8 6 6 8 6 8 6 6 6 8 6 8 8 6 8 6 6 8 6 8 6 8 x 6 8 6 6 8 6 8 6 8 6 8 6 8 6 8 6 8 6 8 8 6 8 6 8 6 8 6 6 8 8 6 8 8 8 8 8 7 7 6 8 8 8 8 8 8 8 5 8 8 8 8 6 8 8 6 8 8 8 7 8 7 8 7 8 8 7 8 8 8 7 7 7 7 8 7 8 7 q 7 8 8 7 8 7 7 8 8 7 8 0 8 7 7 q 7 7 7 8 7 7 q 7 8 8 7 7 q 7 8 8 8 7 8 7 q 7 8 7 7 0 8 8 7 7 q 7 8 7 8 8 7 7 q 7 8 8 8 8 7 7 q 8 7 8 7 7 8 8 7 7 q 7 8 7 8 0 8 7 7 7 8 7 7 ",
"o.%.o.%.o.o.@.o.%.o.%.o.%.o.@.%.%.o.%.o.@.%.+.@.o.%.%.o.%.' %.o.o.o.%.o.o.%.o.%.o.+.o.%.o.%.o.o.o.o.o.o.%.o.o.o.%.o.%.o.o.%.o.%.o.+.o.o.o.+.o.O.+.o.o.+.o.o.o. .o.o. .o.o.o.o.o.o.+.X.o.X.o.' ' o.o.X.o.o.o.X.` o.o.o.o.o.o.X.o.o.X.' X.o.o.o.o.X.o.o.o.o.o.o.o.X.o.o.X.o.o.X.o.X.o.O.o.o.X.o.o.X.o.X.O.o. .O.X.X.X.X.o.X.o.X.X.X.X.o.o.X.X.X.o.X.o.X.X.o.X.X.X.X.X.X.` o.X.X.X.X.X.X.` X.X.X.X.X.O.X.X.X.X.X.X.X.X.o.X.X.X.O.X.X.X.X.X.X.X.X.X.O.X.X.X.X.X.X. .X.X.X.X.X.X.X.X.X.X.X.X.X.X.X.X.X.X.X.X.X.H X.H X.X.X.X.X.X.X.H X.X.X.X.X.H X.V X.X.X.V V X.X.X.H X.X.H H H X.H H X.H K H X.X.K H X.X.H H X.H H H H H H H H H X.H H H H H H H H H H H H H H X.V H H H H X.H H H H H H H V X.H H H H H H H H H H H V H H H H H V H H H G F H H D H H G H H H G H H G H G H H D H G V G G G V G G V G G V H H B H H B H H B H H B B H H B H H H V J G G G G G H G G G G G H G G B G G B G G B G G G G G G H B D G B G G B B G G D G G B G B G G G B G V B B B B M B B G B G B B B B B B G B G B G B G B B B B B B B G G B B B B B B B G B G B B B B B B G B G B G B B B B c G G B B B B B B B B B B c B c c G J M S G c S c G S c S G c B c c c c B c S S c G c B c B M c B c B B c c G c c G c c B c B G c B c B c c B c c B c B S c S c S c S c S c S G c S c S B S c S S S c S c S S c c S S c S c S c c S k S c c c c c c c c c c c c c c c c z c c c c c c z z c c c c c c c z c c c c c c x c c c c c x c c k c c c x c c c c c c S k c S c c c c c x c S x c c c c c S x c c A k c c c S c c A A k x S k x x c x x c x l c x c z x c c x c x c c c l c c x l c c x x c c x l c c x c x c l l c l c x c l c l c x c l c l c k H +.*.$.<.=.@.#.&.&.2.&.&.&.&.&.&.&.&.&.&.&.&.&.2.&.&.2.&.&.&.&.2.&.&.&.&.&.&.&.&.&.2.&.&.2.&.&.&.&.&.&.$.&.$.&.#.$.&.&.&.&.&.&.&.&.&.2.2.2.&.&.&.:.&.4.&.&.&.=.#.&.$.&.&.&.&.| &.&.4.&.&.&.&.&.&.&.&.&.&.2.&.2.2.&.&.&.&.&.&.&.&.4.&.2.&.&.&.&.2.&.&.&.&.&.&.2.2.2.2.&.&.&.&.&.&.&.&.&.&.&.&.&.&.&.&.&.*.&.&.@.*.&.&.&.&.&.&.&.&.2.&.&.&.&.&.&.&.&.&.&.&.&.&.&.#.#.=.=.#.=.*.&.&.*.&.&.&.&.&.&.&.&.&.&.&.&.&.*.&.&.&.&.&.&.&.&.*.&.&.*.&.*.&.&.&.&.&.&.&.&.2.$.=.*.+.n g 8 8 8 q 8 8 4 8 x 8 8 x 8 x 8 8 8 8 x 8 x 8 x 8 8 q 8 8 4 8 x 8 8 8 8 8 6 8 8 8 6 8 6 x 8 8 8 8 x 6 8 x 8 8 8 6 8 x 8 8 8 8 6 8 8 6 8 8 6 8 x 6 8 8 8 8 8 6 8 8 8 8 8 8 6 6 8 8 8 6 x 8 8 8 x 8 8 8 6 x x 8 8 6 x 8 6 x 6 8 8 6 l 8 8 8 6 x 8 8 6 x 8 8 6 8 8 8 8 8 8 8 8 8 8 8 6 8 8 8 6 x 8 8 8 x 6 8 8 8 8 6 8 8 6 x 8 8 8 l x 8 8 8 6 x 8 8 8 x 8 8 6 x 8 8 8 8 6 6 6 6 6 6 6 6 6 6 8 6 8 6 8 x 6 8 6 6 8 6 8 6 6 8 6 8 6 6 x 6 8 6 8 6 8 6 8 6 8 6 8 6 6 8 6 8 6 8 6 8 8 6 6 8 8 7 6 8 8 8 8 8 8 8 8 8 5 8 8 8 7 6 8 7 8 8 8 8 7 8 6 8 8 8 8 8 8 6 8 8 8 8 7 8 8 7 7 q 7 7 7 7 7 7 8 0 7 8 7 0 8 7 8 7 8 7 7 8 7 8 7 8 7 7 8 7 7 8 7 7 8 7 0 8 7 7 8 7 q 7 8 8 7 8 7 8 7 7 8 7 7 q 7 8 7 7 7 8 7 0 7 8 7 8 7 8 8 0 7 q 7 8 7 7 8 0 8 7 7 8 8 7 q 7 8 7 ",
"%...o.@.o.%.o.%.%.%.o.%.%.o.%.o.' %.o.%.%.%.%.%.o.%.o.%.o.%.' o.%.o.o.o.+.o.o.o.+.o.o.%.o.o.%.o.%.o.o.o.%.o.%.o.o.o.%.+.%.o.o.+.o.o.+.o.o.o.o.o.+.o.o.o.o.o.o.o.o. .+.o.o.O.o.o.o.o.o.' ' o.' o.o. .o. .O.O.o.` o.o.X.o.' o.' o.o.o.X.o.o.X.o.O.X.o.o.o.o.' ' ' o.o.X.o.O.X.o.o.X.O.X.o.O.o.O.X.o.X.O.O.X.X.o.X.X.X.X.o.X.o.X.o.X.o.X.X.o.X.X.X.X.X.X.X.X.X.X.` X.X.X.X.X.X.X.O.X.X.X.X.X.X.O.X.X.X.X.X.X.X.X.X.X.X.X.X.X.X.X.X.X.X.X.X.X.X.X.X.X.X.X.X.X.X.X.X.X.X.X.X.X.X.X.X.H X.X.H X.X.X.X.H X.X.H H X.X.X.X.V V X.X.X.X.H H X.V H X.X.X.V X.X.X.V H X.` X.H H H X.H H H X.X.H X.X.H K H X.H H H X.H K X.H H X.H H H H H H X.H H H X.H H H V X.H H V X.H H X.H H H H H H H X.V H H X.H H H H X.H H H H H H H H X.H V H H H H G H H G H G G H G G H H D H H H F H H G H B F H B H H G G H V G G G V G G H B G G V G G V V G G B G H H B H G G F G D H G G D G F G G G G S J J S J B G S J J B D G G B G B B G B H G G G B B B H G G G H G B B V B B B V B V B B G B B B B B B G G B B B B B B B G B G B B B B B B G B G B G B B B B G B G B B G B G B B B B G B B G B B S M B B B B B B G k B c c B S G c B G c c B B c c B c G c G c c c B B c c B c G c c B G c B G c c B c S c c B c G c B c G B c G G c B G c c B c S B c S c S c G S c S S c S c S S c G c S c S c G c S S c S S G c S S S S c S k c S c c c c c B c c z c c c c c c c c c c z c z c c c c c c c c c z c c c c c c z c c c x c c c x S c c c c x c c c x c c c c c c x c c c c x c c c x S c c c c c x c x c c x c c k c x c c x x c x c c x x c x x c l c c c x c c l c x x c c x c c c x c c x c c x l c l c l c c l c x c x c x c x x c l c l c x c h H %.*.&.2.2.#.=.=.&.&.&.&.&.2.&.&.&.&.&.&.&.&.&.&.&.&.&.&.&.&.&.&.&.&.2.&.&.&.&.&.&.&.&.&.&.&.&.&.*.&.&.#.#.*.=.=.&.&.&.*.*.&.&.&.&.&.&.2.&.4.&.&.&.&.=.&.&.&.&.&.&.&.&.&.&.&.&.&.&.&.&.&.&.&.&.| &.&.| &.2.&.2.&.&.:.&.&.2.&.&.&.&.2.&.2.&.&.&.:.| 2.&.&.2.| &.&.&.&.2.| &.&.&.&.&.&.&.&.&.&.&.&.&.&.&.&.&.&.&.&.&.&.&.&.2.&.&.&.&.*.&.&.&.&.&.&.&.*.&.&.&.&.=.=.*.#.=.=.=.&.#.&.*.&.&.*.*.%.=.#.&.&.=.=.&.&.&.=.&.&.*.&.&.&.&.=.&.=.#.$.*.&.=.#.*.@.=.=.=.*.%.+.+.O.k j l j 8 8 8 A 8 q x 8 8 q 8 8 x 8 x 8 8 8 8 x x 8 8 8 6 8 8 6 x 8 8 8 8 x 6 8 8 x x 6 8 6 8 8 8 8 8 6 6 8 8 8 x 8 8 6 8 8 x 8 6 x 8 8 8 8 l 8 6 x 6 8 8 8 8 8 8 x 6 8 6 x x 6 8 8 x 6 6 8 8 8 8 8 8 8 8 8 8 6 6 x 6 8 8 8 6 8 8 x 6 8 8 6 8 x 6 8 6 x x 6 8 8 6 x x 6 8 8 x 6 8 8 8 6 x 6 6 8 6 8 x 6 8 8 8 x 6 8 8 8 6 6 8 8 8 8 x 6 8 6 8 x 6 x 8 8 8 x 6 8 6 8 6 6 8 8 6 8 6 8 6 8 6 8 6 8 6 8 6 8 8 6 8 6 8 6 6 8 6 6 6 8 6 6 6 8 6 8 6 8 6 8 8 6 8 8 7 8 8 8 8 8 8 8 8 8 7 8 8 5 8 7 7 q 7 7 8 8 7 8 7 0 7 q 7 8 7 7 7 8 7 q 7 7 8 0 8 7 8 7 7 8 7 8 q 7 7 8 7 q q 7 8 7 0 8 7 7 q 7 7 8 7 8 7 8 8 7 q 7 7 8 0 8 8 7 8 7 7 8 7 8 0 8 8 8 7 8 7 8 7 7 8 7 8 7 8 7 0 8 7 8 7 7 8 7 8 7 8 7 8 7 7 8 7 8 7 8 7 8 7 7 8 7 0 8 7 8 7 8 8 7 q 8 7 8 8 8 7 8 7 8 ",
"o.%.%.%.%.o.o.%.o.%.%.o.+.@.%.o.%...o.%.o.%.o.%.%.o.' %.%.o.o.%.o.o.%.o.o.%.%.o.o.%.o.o.%.o.o.o.o.o.o.%.o.o.o.o.o.%.o.o.o.o.o.%.o.+.o.o.+.O.o.+.o.o.+.O.o.o. .O.o.o.+. .o.o.o.o.o.o.o.o.X.o.' o.o.X.O.o.O.X.o.X.o.X.o.o.o.o.o.o.' o.o.X.X.X.X.X. .o.O.o.o.' %.%.o.X.X.o.o.o.o.X.X.o.O.o.X.X.O.o.O.X.X.o.X.o.X.X.o.X.X.X.X.o.X.X.X.X.o.X.X.X.X.o.X.o.o.X.o.X.X.X.X.O.X.X.X.X.X.X.X.X.X.X.X.X.X.X.X.O.X.X.X.X.X.X.X.X.X.X.X.X.X.O.X.X.O.X.X.O.X.X.O.X.X.X.X.X.X.X.X.X.X.X.X.V X.X.X.X.X.` H X.X.H X.X.X.X.X.X.X.H X.X.X.X.X.X.X.X.X.X.X.` H X.H X.` H X.X.X.V H X.H X.X.K H X.X.H H H H H H X.H X.X.X.K H X.X.H H H H X.V X.H ` V H H H H V H H H H H H H H H H H V H H H H X.H H H H H H H H H H H H H H X.H V X.H H H H H H V H H H H G H H H H H H H G G H G H J H G H G H G H B H H B H G B H G H G H H G V H H G G H H G G H H G V G G G G V B G G G J G J H G G G G G G G G B B J B B B B n G G G G G G V B V B G B B G B B B G B G G B G D B V B B B B B V B B B B G B G B B B B B B G G B B G B B B B G B G B B B B B B B G B B B B B B B B B B B G B B G B B B G G B B B M B B B B B B B B B B B B c G S S B B c B B B B G c B c c B c c c B B c c c G c c c c c c B B c c B G c c B B c c B c c c c c c c c c B c B B c S c S S S c c S c G S c S B c S S S c S S S c S c c S c c c S c c k c c S B c c c c c M c c c c c c c c c c c c z c c c c c c c c z c c c c c c c z c c c c c c x c c c c c S k x S c c c c c S c c x c x S c c c c c c c c S x k c c x c c c c c k c x c k c x x c x c c c c c x c c c c c c c c c x x c x c c x c c x c c x x c c x x c c x c c x c x c x c x x c l c x z l c c x c x c x x c k V +.=.&.2.2.2.=.&.*.*.&.&.&.:.2.&.&.&.&.&.2.&.&.&.&.&.2.&.&.&.&.&.&.&.&.&.&.&.&.&.&.&.&.&.&.&.&.%.=.=.=.*.&.=.&.=.&.*.*.&.&.&.&.&.&.&.&.=.&.&.&.&.2.&.&.&.&.&.2.2.&.&.&.4.&.2.4.&.2.&.&.2.2.&.2.2.2.2.2.2.2.2.&.2.2.&.2.&.&.2.4.&.2.&.&.&.2.&.&.&.&.&.2.&.2.2.&.&.2.&.2.&.&.&.&.&.&.&.&.&.&.*.&.&.&.&.&.&.&.&.&.&.&.| &.&.&.&.&.&.&.&.&.&.&.&.&.&.&.&.&.&.&.*.$.*.#.*.$.*.&.*.*.*.&.*.*.&.&.&.&.=.&.&.<.=.&.=.&.&.&.&.&.&.&.&.#.*.*.&.*.=.*.=.&.=.=.&.=.=.=.*.+.+.K D k k x x x 8 8 8 8 8 9 8 x 8 x 8 8 q 8 8 8 x 8 8 8 8 x 8 x 8 8 8 6 8 6 x 8 8 8 6 8 6 8 8 8 x 6 8 x 8 6 x 8 6 x 8 6 8 6 x 8 8 6 6 8 8 8 8 8 8 8 8 8 8 8 8 l 8 x 8 8 6 8 8 8 6 8 8 8 6 8 8 8 6 x 6 6 8 6 8 x 6 x 8 8 8 8 8 x 6 8 8 6 8 8 8 6 x 8 8 8 8 8 6 8 8 8 8 8 6 8 8 8 6 8 8 6 x 8 x 8 8 x 8 8 8 8 8 6 x 8 6 8 8 6 x 8 x 8 8 8 8 6 8 6 8 6 8 8 8 x 8 8 x 8 6 8 6 6 6 8 6 8 6 8 6 8 6 x 6 8 6 8 6 8 6 6 8 6 8 6 8 6 8 6 8 8 8 x 6 x 6 6 8 8 6 8 6 6 6 8 8 6 8 7 8 8 5 8 8 6 8 8 8 8 8 8 7 8 7 7 8 0 7 8 7 8 8 7 8 8 7 0 8 7 q 8 7 7 8 7 8 7 8 0 8 8 7 8 7 7 8 7 7 8 7 7 8 7 7 8 7 8 8 7 7 8 7 7 7 8 0 7 8 7 7 8 7 8 7 7 q 7 8 q 7 7 7 8 7 7 7 q 7 8 7 q 7 7 8 8 0 7 8 7 8 8 7 q 7 7 8 0 8 7 8 7 q 8 7 0 8 7 7 8 7 7 q 7 8 8 7 8 7 q 7 7 8 7 7 8 7 0 7 8 7 8 7 ",
"%.%.o.o...%.%.o.%.o.o.%.%.o.%.%.o.%.o.%.%.%.%.%.o.%.' o.' o.%.' %.o.%.o.o.o.o.o.o.%.o.%.o.+.o.o.%.+.%.o.o.o.%.o.o.o.o.%.%.o.%.o.o.o.+.o.o.O.o.+.o.+.o.+.+.o.o.o.o.+.o.o. .O.O.o.o.o.o.o.` o.o.o.o.o.o.o.o.X.o.o.X.X.` o.o.X.o.o.o.o.' o.o.X.o.o.X.o.o.X.o.' o.o.X.o.o.X.o.X.X.o.O.O.X.X.X.O.X.o.X.o.O.o.X.X.X.X.X.o.X.o.X.X.X.X.X.X.X.X.o.X.o.X.X.X.X.X.X.` X.` X.X.X.X.O.X.X.X.X.X.X.X.X.X.X.X.X.X.X.X.O.X.X.X.X.X.X.O.o.X.X.X.X.X.X.X.X.X.X.X.O.X.X.X.X.X.X.X.X.H X.X.X.X.X.X.H X.X.H X.H X.X.X.H X.H X.X.X.V V V X.H K X.X.X.X.V ` H X.X.X.V H ` V X.X.X.V X.H H X.H H H H H H X.X.K X.X.H H H X.H X.H H H X.X.H H X.H H H H H H X.H H H H H H H H H H H H H H H X.H H H H H H H X.H H H X.V H H H H H H H H H H H H H V H H H G G H K D G H D G H H G H H J G H G H H H D G H B B H G V V G V H G G G G G G G V B H G B H G H G V H H V V B H H G H G G G G H V V H G G G G B B V V V V V V G S G G G G G B B H B H G G G J D G G G G G B H B B V B B B B B B B G B B B B G B G B B B B B B B B B B G B B B B G B G B G B B B G B G B B G B B G B B B G B B B B B G B B B B G c B B B B B B c B B c c G S B c G c B c B B c c c G B B c B c B c c B B c c B c G G c B c c B B B c B c c c c c c c B B c G B c B G c c c c B S c G c c G S c S c S S c S c G c S c S c S c S S c G S S c c S c c S c c c c c c c c c c c c c c c c c z c c c c c c c c c z c c c z c z c c c c c z c z c c c S x c c c c x c S k c c c S k x c S k S S k c c c k S c c c k c c c c c c c k S k x k x c x k c c c x x c x l c z x x c l c c x x c x c c x x c c c c c x c l c l c x c x c x c x c l c x c x c z x c x c x c x x z l c l c x z h H +.=.&.#.>.4.#.$.*.&.&.2.2.2.&.&.&.&.2.&.&.&.&.&.&.&.| &.&.&.&.&.:.&.&.&.&.&.&.&.&.&.&.&.&.&.&.&.=.#.$.&.=.#.=.&.&.&.&.&.&.&.&.&.&.&.2.&.&.&.&.&.&.&.&.&.2.&.&.$.#.&.&.&.&.&.&.&.&.&.&.&.&.&.&.&.&.&.| &.&.&.&.&.| &.| &.| &.&.4.&.2.4.2.2.2.&.2.&.:.&.&.&.2.&.&.&.&.&.&.&.&.&.&.*.&.&.&.=.&.&.2.&.&.2.2.&.2.&.2.2.&.&.2.2.&.2.&.&.4.&.&.2.&.&.2.&.&.2.&.&.&.&.&.&.&.&.&.&.&.&.&.&.&.&.&.&.&.&.&.&.&.&.&.&.&.&.&.&.&.&.&.&.&.&.&.&.*.*.&.&.&.*.@.&.@.*.&.=.*.+.O.D k j j x 8 8 8 x 8 q 8 8 8 8 8 x 8 x x 8 x 8 8 x 8 8 x 8 8 6 6 8 8 6 x 8 8 8 8 8 8 8 6 x 8 8 8 6 8 6 8 8 8 8 8 6 8 8 8 8 8 x 6 8 8 6 8 8 l x 6 8 8 8 8 x 6 6 x 6 8 8 8 8 8 8 8 l 8 8 8 8 8 8 x 6 x x 8 8 6 x 6 6 8 8 8 6 8 x 8 x 6 6 8 8 6 8 8 x 6 8 8 8 8 8 6 8 8 8 x 6 8 8 8 8 8 8 6 6 x 8 x 6 8 8 8 6 8 6 8 x 8 8 8 6 8 8 8 8 l x 6 8 8 8 6 8 6 8 8 6 8 8 8 8 8 6 8 6 6 8 6 6 8 6 8 6 8 6 6 6 8 6 8 6 8 8 6 8 6 8 6 8 6 x 8 6 l 8 6 6 6 8 6 8 6 6 8 8 8 8 8 8 7 6 8 8 8 6 8 8 8 8 8 8 8 7 8 8 7 8 7 7 8 q 7 7 8 8 7 7 8 8 7 8 7 7 8 8 7 8 7 7 8 8 7 8 q 7 q 8 7 8 0 8 7 7 8 7 q 8 7 q 7 8 7 7 q q 7 7 8 7 8 7 8 7 8 7 8 7 8 7 7 7 7 q 7 8 7 0 8 7 7 8 7 7 8 q 7 8 7 8 7 8 8 0 7 7 8 q 7 8 7 7 q 7 8 7 8 8 7 8 0 7 q 8 7 7 8 8 8 0 7 7 7 7 7 7 8 0 8 7 8 0 8 8 7 ",
"%.o.%.%.%.o.%.%.%...%.%.o.%.%.o.%.o.o.@.o.%.o.+.%.o.o.%.%.%.%.o.o.o.o.o.o.%.%.o.o.o.o.o.o.%.o.%.o.o.o.o.o.%.o.+.o.%.o.o.o.o.o.o.+.o.O.o.o.+.o.o.o.O.o.o.o.O.o.o. . .o.o.o.o.o.o.o.o.o.o.o.o.' o.' ' o.o.' o.o.X.X.X.X.o.' o.o.' ' o.o.' o.o.o.o.o.o.X.o.` o.o.X.o.O.o.o.X.o.o.o.X.o.o.O.O.o.X.O.O.o.X.X.X.o.X.o.X.X.X.X.X.o.X.o.o.X.o.X.X.X.X.X.X.o.X.o.X.o.X.X.X.X.X.X.X.X.X.X.X.X.O.X.X.X.X.O.X.X.X.X.X.X.O.X.O.X.X.X.X.X.X.X.X.X.X.X.O.X.X.O.X.X.X.X.X.X.X.X.` X.X.X.X.V X.X.X.X.X.X.X.X.X.X.X.X.X.X.H X.X.X.X.X.X.X.X.X.X.X.X.X.H X.V X.V X.X.X.H X.V X.X.X.X.H H X.X.X.K X.X.H H H H H X.H H H H X.H X.X.H H H H H X.H X.H H H H H H H X.H H H X.H H H X.H H H H H H H H X.H H H H H H H H H V X.H H H H H H X.H H H H V V G H G F H G H H H H H G F H H H H G H H G H G H H H B H G H G H G G G V H V G H H B H H G H V G V H V B V H V H H B G G G G G G G H G D B B V G N B V V V V V V B G G G G G G V B V G D G G S G H B B H G G B G V B B B B V V B B G B B G B B B G c B G G B G B B G B G c G G B B B B B B B G B B B B B B G B B B B G B B B B B B G B G G B B B B B B B k B B B B B B B S c c G G c B c B B B B c B c c c B c B S c B c c G B c c c B c c c G c c c B c G B c G B c B S c B c c G c B c G c B c c S c S S S c S c S c c S c S c S c S c G c S c c G c S c S S B c S c c c S S c B c c c c c c c c c c c c c c c c c c c z c c c c z c c c c c c z c c c c c c z k S c c x c c c x c c c c x c c c x c c x c c c x S x c c S x c S x c c x S c x c c c c c c x x c x c c x c c x c x c c c x x c x c c c l c c x c l x c x z c c x c c c l c z c c l c x c l c l x c l c x c l c c x c x c x z c k n +.*.&.#.&.2.=.&.&.*.&.&.&.:.:.2.2.2.2.2.:.&.:.2.&.:.2.2.2.2.2.&.&.&.&.2.2.| 2.&.2.&.&.2.2.&.#.&.#.=.&.&.$.=.&.&.&.&.&.&.&.&.&.&.&.&.2.&.&.&.2.&.2.&.2.&.4.&.&.&.4.2.4.&.2.&.2.2.&.2.&.2.2.&.2.&.2.&.2.&.2.&.&.2.&.&.2.&.2.&.&.&.&.&.&.&.&.&.&.| &.&.&.&.&.&.&.=.&.=.&.&.*.&.*.%.&.&.*.*.*.=.&.&.| &.&.&.&.&.| &.&.&.&.&.| &.&.&.&.&.&.&.&.| | &.&.&.&.&.&.&.&.&.&.&.&.*.| &.&.&.&.&.&.&.&.&.*.&.=.&.&.&.&.&.&.=.&.&.&.&.&.&.*.*.*.&.&.&.*.*.&.=.*.=.=.=.=.%.K D k j k x x j 8 8 8 q 8 8 4 x x q 8 8 8 8 q 8 x x 8 8 8 8 x x 8 8 x 6 8 8 8 6 l 8 8 8 8 8 6 8 6 x x 8 6 8 8 8 6 x x 8 6 8 8 8 6 8 8 6 x 8 8 8 8 8 8 6 x 6 8 8 8 8 8 6 6 x 8 8 8 8 8 8 8 6 x 6 8 8 8 6 6 8 8 x 6 8 8 8 6 x 8 8 6 6 8 8 x 8 8 8 8 8 6 8 8 l 8 8 6 x 8 8 8 8 8 6 8 6 x 6 8 8 8 8 8 6 8 8 8 8 6 x 8 8 6 8 x 6 8 8 x 8 8 8 6 8 8 6 8 x 8 8 8 6 8 6 8 8 6 6 8 6 8 6 6 8 6 6 8 6 8 6 6 8 8 6 8 6 8 6 6 8 6 8 6 8 6 8 6 6 8 6 6 8 6 8 6 8 6 8 8 6 8 8 5 8 8 8 8 8 7 8 7 8 8 7 8 8 5 8 q 7 7 8 7 q 8 7 7 8 7 7 7 q 7 7 8 7 7 8 8 7 7 q 7 7 q 7 7 8 7 7 7 7 7 7 8 8 7 8 8 7 8 7 8 7 7 7 8 7 7 8 7 8 8 7 8 0 8 8 0 7 8 7 8 7 7 q 8 8 7 8 7 8 8 7 7 8 7 q 8 7 8 7 7 8 7 8 7 7 8 8 q 7 8 7 7 7 8 7 8 7 0 8 7 7 8 8 7 8 7 8 8 0 7 7 8 8 7 8 q 7 8 7 8 7 8 7 8 7 7 8 ",
"o.@.%.o.%.o.%.%.o.%.%.o.%.o.%.o.o.%.%.o.@.o.%.@.%.%.' o.o.o.o.} %.o.o.o.%.o.%.o.o.%.o.o.o.%.o.o.o.o.o.o.%.o.%.o.o.o.%.o.o.%.o.%.+.o.+.o.o.o.o.+.o.o.o.o.o.o.o.o.+.o. .+.o.o.o.o.o.o.o.o.o.o.o.' } ' } ' o.o.o.O.o.o.o.o.o.....o.' o.' o.' o.' ' o.o.o.o.o.O.O.X.X.o.o.O.o.X.O.X.O.o.o.X.o.X.o.X.O.X.O.O.X.X.X.X.X.o.X.X.o.X.X.X.X.X.X.o.X.X.X.o.X.X.X.X.o.X.X.X.X.X.X.X.X.X.O.X.X.X.X.X.X.X.X.X.X.X.X.X.X.X.X.X.X.X.X.X.X.X.X.X.X.X.X.X.X.X.X.X.X.X.X.X.` X.X.X.X.X.X.X.X.X.X.X.X.X.X.X.X.X.X.X.X.` X.H X.X.X.X.X.X.X.X.X.X.X.X.X.X.V X.H X.V X.H X.H X.` H ` H K X.X.H H H X.H X.H H X.H H H X.X.H H X.H X.H H X.H X.V H H H H H V H H H H H H H H H H H H H H X.H H H X.H H H H H H H X.H H H H X.H H H H H H H H H H V H H H H H H H G H H G G H H H G H H G H J F H H H H H B H G G H G H B G G V G G G H G H G H B H G H B V V V V H V H V B H G G H G G H B V D G G H H B V B V V V V V V G G G D B B G G G G B B B G G B G G B G B G B G B B B B B V B V G B B B B G B B B B B B B G B B B B G B B B B B B G G B B B B G B G B G G B B G B G B G B B G B B G B G c G B B B B B B B B B B c c B B c G S c c c G c B B c c G c B c c B c c B c B c c B c c B c B c G c c B B c c B c c G c c c B c c B S c c c B c B c G c S c S S c S c S S S c S S S c S c S G c c S S S S S c S c S c S c c c S k c c c c c c c c c c c c c c M c c c c c c c c c c z c c c c c c c c z c c c z c c x c c c x c c c c x c c c x c S c S c x c c c c x c S k c c x c c c k S c c k c c c x c c x k c c c c x c c c c z x l c x x x c c x c c x c c x c c c x c c x c x x c c x c x c c x x c x c c x z c c x c x z x c l x c x c x c l c k n m +.=.&.$.#.&.=.=.=.&.&.&.>.2.&.2.2.2.2.2.&.2.2.2.2.2.2.2.2.&.&.2.&.2.&.&.2.&.&.&.2.&.&.&.&.=.=.=.&.&.&.&.&.&.&.@.&.&.&.&.&.&.&.&.&.&.*.&.&.&.&.&.&.&.&.&.&.&.&.=.&.&.&.&.&.&.&.&.&.&.&.&.&.&.&.=.=.&.&.&.&.&.&.&.&.&.&.&.=.&.&.&.*.&.*.&.*.&.&.&.&.&.&.&.&.*.*.=.*.*.*.*.*.%.*.*.*.*.*.*.*.=.&.&.=.=.=.=.=.=.=.&.=.&.=.&.=.&.=.=.&.&.=.=.&.&.&.=.=.=.=.=.=.*.=.=.*.*.&.*.*.*.=.*.&.&.%.*.&.%.%.*.%.%.%.%.%.*.*.%.*.*.*.*.*.%.+.%.+.+.+.+.+.+.%.*.+.+.o.` X.n k g j k x 8 8 8 x q 8 x x 8 q 8 x 8 8 8 8 8 A 8 8 8 8 6 8 8 8 8 8 x 8 8 x 6 8 8 8 8 6 6 8 8 6 8 8 8 x 8 8 8 6 8 8 x 6 8 8 8 8 8 x 6 8 6 8 x 8 6 6 8 8 8 6 x 8 8 8 8 8 8 x x 6 8 8 8 l 8 8 6 8 x 6 8 8 8 8 8 6 8 8 8 8 6 x x 6 8 8 6 8 8 x x 6 8 8 6 x 8 6 8 6 8 8 8 6 x 8 8 6 8 x x 6 8 8 8 6 x 8 8 6 8 8 8 8 8 8 l 8 8 6 8 8 6 8 8 8 8 8 8 x l 8 8 6 6 6 8 6 6 8 6 8 8 6 8 6 8 6 8 6 8 6 8 6 8 6 8 6 6 8 6 8 8 6 8 6 8 6 6 8 8 8 6 8 8 8 6 8 8 6 8 6 8 8 7 8 8 8 8 8 8 5 7 8 8 8 8 8 8 8 8 8 8 7 8 8 8 7 7 q 8 7 7 8 7 8 7 8 8 7 7 8 7 7 8 7 8 7 q 8 7 8 8 0 8 7 q 7 7 8 7 7 7 7 8 7 7 q 7 8 7 8 8 7 8 7 q 8 8 8 7 8 7 8 7 8 7 7 8 7 0 7 7 8 0 8 8 7 8 0 8 7 0 8 7 q 7 8 8 0 8 7 q 7 7 7 8 7 q 7 8 8 7 8 7 8 8 7 8 7 q 7 8 0 7 8 q 7 8 7 8 7 7 7 8 7 8 7 0 7 7 7 q 7 ",
"%.o.%.%.o.%.%.o.%.o.o.%.%.o.@.%.%...o.%.o.%.o.%.o.o.%.%.%.%.o.o.o.o.+.%.o.o.o.o.+.o.%.o.o.o.%.o.%.o.%.o.o.o.%.o.o.%.o.+.+.o.o.o.o.o.o.o.o.+.O.o.O.+.o.+.+.O. .O.o.O.o.o.o.o.o.+.o.o.o.' ' o.o.o.%.' ' %.' ' X.o.O.o...o.o...' @.| @.@.@.[ | } } ' ' ' o.O.X.O.X.X.o.X.o.X.o.o.o.X.X.O.O.X.O.O.o.o.X.o.X.X.o.X.o.X.X.X.o.X.X.X.o.o.X.O.X.o.X.X.X.o.X.o.X.X.X.X.` X.X.O.X.X.X.X.X.o.X.X.X.X.X.X.X.X.o.O.X.X.X.X.X.X.X.X.X.O.X.X.X.O.X.X.X.X.X.X.X.X.X.X.X.X.X.H X.H X.X.X.X.X.X.V H X.H X.H X.H X.X.H X.X.H X.X.H X.V X.X.X.H X.H H X.` H X.X.X.V H ` X.V X.X.X.H H H H X.H X.X.H H X.X.H X.X.H H H X.K H X.K H X.H H H H X.H X.H H X.H H X.H H H X.H H H X.H H H H H H H H H H H H X.H H H H H H H H H H X.H H H H H H X.V H V H H G G H H G G H H G H H H G G H G H H H D H B B V G V G B H B H H H G G V G G V G G B H B H B H V H V V V G H G H G G V G G G G B J G G G D B G G V G G B V B V G G B B D H B G G G H G D G G G B G G H H G G G V B V B B B B B B B G B B B G B G B G B B B G B B B B B G B G B B B B B B G B G B B B B c G B B B B B B G G c B B B B G G B B B B B B B B B B M B B B c G c c G G S c G c B B B c B c c G c c B c c c G S c B G c B c c B c c B c c G c B c B c G c c B B c B B c B S c c B c B c S c c S c c S c S G c B c S c S c c S S c B c c S G c S S S c S c c c c c c S c c c c c c B c c c c c c z c z z c c c c c c c x c c z z c c c c c c c c z c c x S k c c c k S c x c c c x k x c c x c c c c c c x c c c c x c x c c x S x c S c c c c c x x k c c x x c x x c c c c c c x c c x c l c c l x c x c c x c c c c x c c x c x x c c l c l x c c x x c l c x c x c z x c l z x c x k h m o.*.=.*.$.*.*.*.*.&.&.&.&.&.&.&.&.&.&.&.&.&.&.&.&.&.&.&.&.&.=.&.&.&.&.&.&.&.=.&.&.&.&.&.&.=.=.=.=.&.=.=.=.=.=.=.=.&.*.&.&.&.&.=.=.&.&.=.=.&.&.*.&.*.&.%.&.*.*.*.*.*.*.*.*.*.*.*.&.&.*.*.=.&.*.=.=.&.*.*.=.*.=.*.&.&.*.*.*.=.*.=.*.*.=.=.*.*.=.*.*.&.*.*.%.%.%.%.*.%.*.%.%.*.%.*.%.*.+.*.+.*.%.%.*.*.*.*.%.+.*.%.%.%.%.%.%.+.+.+.+.+.+.+.+.+.+.o.o.+.o.+.o.o.X.X.o.o.X.X.o.` ` ` ` ` ` ` V ` V ` V V V H X.H ` V V V V V N N V B B B N B V M M B n V M h t g g g x x 8 8 8 8 8 8 8 8 8 x 8 8 8 q x q x 8 8 8 8 x 8 8 8 8 8 8 8 6 6 8 6 8 8 6 x 6 x x 8 8 x 8 6 8 6 8 6 6 x 8 6 8 8 8 6 8 l 8 8 6 8 8 8 6 8 8 x 8 8 8 8 6 8 6 8 6 8 8 6 6 8 x 8 8 8 x 6 8 8 8 6 8 8 8 6 x 8 8 8 8 6 8 6 8 8 8 8 8 6 8 6 8 8 8 6 8 8 8 x 8 8 8 6 6 x 6 8 8 x 8 6 6 8 8 8 8 6 6 8 8 x l 8 x 8 8 8 8 8 8 x 8 8 8 6 6 x 6 x 6 8 8 8 8 x 8 6 6 8 8 6 8 6 6 8 6 8 6 8 6 8 6 8 6 8 6 8 6 8 8 6 8 6 6 8 6 8 6 6 8 6 6 l 8 6 6 6 8 6 6 8 6 8 8 8 8 8 8 8 8 8 8 8 6 8 8 7 8 6 6 7 7 8 7 8 7 0 7 7 8 7 8 7 7 q 8 7 8 0 7 q 7 7 q 7 7 8 7 8 7 7 7 7 8 8 7 8 8 7 8 7 7 q q 7 7 8 7 8 8 7 8 0 8 7 7 8 7 7 7 7 q 7 7 8 8 0 8 q 7 8 8 8 8 7 7 8 7 8 7 8 7 7 8 7 7 8 7 7 7 8 7 8 7 7 7 8 7 q 7 8 7 7 7 7 8 8 7 q 7 8 8 7 7 8 8 7 7 8 7 8 8 0 8 7 7 q 7 8 8 8 8 7 7 8 ",
"o.%.o.%.%.o.o.%.o.%.%.o.o.%.%.o.%.%.o.%.%.%.o.o.%.' %.o.o.o.%.o.%.o.%.o.+.o.%.o.o.o.o.o.+.o.o.o.o.o.o.%.o.+.o.o.o.o.o.%.o.%.o.o.O.o.O.o.+.o.o.o.o.o.+.o.o.o.o.o.o.o.o.o.O.o.o.o.o.o.o.o.o.o.o.' } } } ' o.o.o. .' o.) ' [ @.>.&.&.<.4.4.2.2.2.$.&.} ' '  .O.K X.X.o. .o.o.o.o.X.O.o.X.o.X.o.X.X.o.O.X.O.o.X.X.X.X.X.X.X.o.X.o.X.X.X.X.X.X.o.X.o.X.X.X.o.X.X.X.X.X.X.O.X.X.X.X.X.X.X.X.X.X.X.X.X.X.X.X.X.X.X.X.X.X.X.X.X.X.X.X.X.X.X.X.X.X.X.X.X.X.X.X.X.X.X.X.X.X.X.X.X.X.X.X.X.X.X.X.X.X.X.H X.X.X.X.H X.X.H X.H X.X.H X.X.X.X.H X.V X.` H H X.X.X.X.X.V H X.X.X.H H H H H H X.H H X.H H X.K X.H X.X.H X.H H X.X.H X.H H H X.H H H H H H H V X.H H H X.H H V X.H H X.H H H X.H H H H H H H X.V H H H H H H H X.X.H H H H H H H G J F G G D H H D H H J F H H H G H G H H H B F G G V H H H B H B H G H B H G H G V V G H V B H G F V G G G H G B H G G G G B H D J D J J B G D G G G G B G G J B G G G G G H G G B B G G B G G H D G B B G D V V B B B B B V B G B G B B B B B c G B G B B B B B G B B B B B G B B B B B B B c B G B B B G B G B G B B B B G B G B B G B B B B B B B B B B B B B c B B S G G c c G G S B B c B c c c B S c G S c G c c B c B c G B c G c S B c B c c B B c c G c B G c c c B c B c c B c B c c G c c G S c G c S c S S c S c S c S S c c S G c S c c S G c S S c S k S c c c c c c c c c c M c B c c c c c c z z c l c c x c c c c c c c c c c x c c c c c z c S c c c c c c c k S c c c c c c c k A c x k S c c x c c c S S k c c c c c x c x x c x x c k c c x c l c c c c c c x x c z x c x x c c x c c c c x c x c c x x c x c z x c c c c x c x c c l c x z x c l z x c l x c x c x c z c c k n N o.+.%.%.%.*.*.%.*.*.&.=.*.=.&.=.&.*.&.=.*.&.&.*.&.*.*.*.=.*.*.*.*.*.*.*.*.=.*.*.=.*.*.=.$.%.%.*.*.%.*.%.%.%.*.*.%.*.*.*.%.%.*.%.%.%.%.%.%.%.*.*.*.*.%.*.*.*.*.*.*.*.%.*.*.*.*.*.%.*.*.*.+.%.%.+.*.+.%.+.%.+.+.%.+.+.%.*.o.+.o.o.o.O.o.o.O.o.` o.o.X.X.X.X.X.X.H X.X.H X.H V V V F H V V D n D B J n D B B n B n n B B n n n n h n k h h h n h n h h k n h k h h k h h h k z z k k z k l k j k l k h z k g j k j j g j j g g g g g g g g 2 g g j l x x j j j j x j 8 8 8 q 8 x 8 8 x 4 8 q x 8 8 x 8 8 8 8 x 8 8 x 8 8 6 6 x 8 8 8 8 8 8 8 8 6 x 6 8 6 8 8 8 8 8 8 x 6 x 8 8 8 8 8 x 6 x 8 8 8 x x 6 6 8 8 8 6 x 6 8 8 8 x 8 8 6 8 x 6 8 6 8 8 8 x 8 x 6 8 8 8 8 8 x 8 8 x 8 6 x 8 8 l 8 8 8 8 x 8 8 x 8 x 6 8 8 6 8 x 6 8 x 6 x 8 6 6 8 8 8 x 8 8 8 8 x 6 8 6 8 6 x 6 8 6 8 8 8 6 8 x 6 8 8 8 8 8 8 8 8 8 6 8 6 8 6 8 6 8 6 6 8 8 6 8 6 8 6 8 6 8 6 8 6 x 6 8 6 6 8 6 8 8 6 8 6 8 6 6 8 8 6 6 8 6 8 6 8 8 6 8 7 7 8 8 8 8 8 8 5 8 5 8 8 6 8 7 8 8 7 8 8 8 7 8 7 8 0 7 8 7 7 8 7 0 8 7 8 7 8 7 8 8 7 8 0 7 7 7 8 8 7 7 7 8 7 7 8 7 q 8 7 7 8 q 7 8 7 8 7 8 7 7 8 7 7 7 8 q 7 7 7 q 7 7 8 7 8 7 7 7 8 0 8 8 7 8 0 8 7 7 8 7 7 q 7 8 0 8 7 7 q 7 8 0 8 7 8 7 7 7 8 q 7 7 0 7 8 7 7 7 q 7 7 7 q 7 7 7 8 8 7 7 q 8 7 8 7 8 7 7 8 8 7 ",
"%.o.%.o.%.%...%.@.%.o.%.%.o.%.o.o.%.%.o.%.o.%.%.o.%.' o.%.%.%.' o.o.o.o.o.%.o.o.%.o.%.o.%.o.%.o.%.+.o.%.o.o.%.o.%.o.o.o.o.o.%.o.+.o.+.o.o.o.+.o.+.o.o.O.o.o.o.o.o.o.o.O.o.o.O. .' o.o.o.` ' o.o.o.' o.o.' o.o.o.) ..@.@.2.5.w.w.w.5.5.w.w.w.5.w.5.2.@.' o.o.O.o.O.o.o.X.o.X.X.o.O.X.O.o.X.X.O.o.X.O.o.o.X.X.o.X.o.X.o.X.X.X.X.X.X.o.X.o.X.X.X.X.o.X.X.X.o.` o.X.X.X.X.X.X.X.X.X.X.X.X.O.O.X.X.X.X.X.X.X.O.X.X.X.X.X.X.O.X.X.X.X.X.O.X.X.X.X.X.X.X.X.X.X.X.H ` X.X.X.H ` X.X.X.X.X.H X.V X.X.X.X.X.H X.X.X.X.X.X.X.X.X.X.H X.X.H X.` X.H X.X.X.` X.V V X.X.X.` H H X.X.H X.X.K H X.H K X.H H H X.X.H H X.H X.H H V V H H X.H H H H H H X.H H H H H H H H H H H H H H V H H H V H H H H X.H H H H H V X.H H H H H V H H H H V H V H H H H H H H G H H G H G G H G H G H H H G H G G H G G B H H B G V V G H B H G H G G H G G H B G H G G G G G G G G H B G H V G B J K D D n D F D G G S G S S S G G G G B G G B G G G G G G G B G B G G G G G G B B V B B V B V B B B B G B G B B B B B G B G B B B G B G B B G B G B G B G B G B B G B B B B B B B G B G B B B c B B G G G M B B B B k B c B M B B B c c G c S G c G c c B B M c B B c B B c B B c B B c B c B c c B c B c c B B S c G c B c c B c c B c B c c c G B c B c G c S S S c S S c S c G c c S c S G G S c S S c S S c S c S c S c c c c c S B c c c c c c B c c c c c c c c c c c c c c c c c z c c c z c c c c z c c c z c c c c c c c c c x c S x S x c c c x c c c c c c S c x c c S x c c x c c c S x c c c c c k c c k c x x c c x c c x x c x x c c x c c c l c x c c x c x x c c x z l c c x c x c c x c l x c x z x x c l c x c x c x c x c c l c l c x x c x j k h n H +.+.*.+.+.*.+.*.*.%.*.*.%.%.*.%.*.%.*.*.%.%.*.*.*.*.+.%.+.*.%.+.%.%.+.+.*.*.%.+.+.*.+.+.+.+.+.+.+.+.+.o.o.O.+.+.+.+.+.+.O.+.O.o.+.O.X.X.X.X.X.X.X.X.X.F X.X.H X.X.X.V V V V H V H V m B m B n N n V n V n n N n n n n n n n n v v h v h v v h h v v h h h h h k h h h h h h k h h h j j k j g j k j j j j j k j j j C j j j j j j j j j j j j j j j j x j j j x j x x x j x x j j j j x j x x x x x x j x j j 8 j j 4 8 8 8 8 x 8 6 j 8 x 8 4 8 8 8 x x 8 8 8 8 8 x 8 8 8 q 8 8 8 x 8 8 x A 8 8 x 8 8 8 8 8 6 8 6 x 8 6 6 x 8 8 8 l 8 6 8 8 8 8 8 8 8 6 x 6 8 6 8 8 8 6 x 6 6 8 8 8 6 8 8 6 8 8 8 6 x 8 8 6 x 8 6 6 6 8 8 x 6 8 8 8 8 6 8 8 6 6 8 8 6 x 8 6 8 6 6 x 6 8 8 8 8 8 8 8 l 8 8 8 8 6 6 8 8 8 8 6 x 8 8 8 6 8 8 8 8 8 8 8 6 8 6 8 l 8 8 8 8 8 8 8 8 8 8 6 x 6 8 6 x 8 8 8 x 6 8 6 6 8 x 6 6 8 6 8 6 8 6 8 6 6 6 6 6 8 6 8 6 8 6 8 6 8 6 8 8 6 6 8 6 6 8 6 l 8 6 8 6 8 8 6 6 x 8 l 8 6 8 6 6 8 8 8 8 8 8 8 5 8 8 8 8 8 8 8 8 7 8 8 8 8 6 8 0 8 7 8 7 8 7 8 q 7 7 8 8 7 8 7 q 7 q 7 7 8 7 8 q 7 8 7 7 q 8 7 7 7 q 7 7 8 7 q 7 7 8 7 7 8 0 8 7 7 q 7 q 7 8 7 7 8 7 8 7 8 7 7 0 7 q 7 8 7 8 7 7 8 7 8 7 8 q 7 8 7 7 8 7 8 7 8 8 7 8 7 8 7 8 7 8 7 q 7 7 8 8 7 8 7 q 7 8 7 7 8 7 7 8 7 q 7 7 8 8 7 7 8 8 0 7 7 8 7 q 7 ",
"%.o.%.%.o.%.%.o.@.o.%.%.%.o.%.%.o.%.%...%.%.@.%.%.o.%.o.%.o.%.o.o.%.o.%.o.o.o.%.o.o.o.o.o.o.o.o.o.%.o.o.%.o.o.o.o.o.+.o.o.+.o.o.o.o.o.+.+.O.o.o.o.+.o.+.o.+.o. .o.o.o.X.o.X.o.o.o.o.o.o.o.o.o.' o.' ` o.o.o.) ) ..#.4.5.w.w.w.e.w.8.w.w.e.w.e.w.w.w.5.&.%... .+.o.O.o.X.o. .o.o.o.X.X.X.o.O.X.X.O.o.X.o.X.X.X.X.o.X.X.X.X.X.X.X.X.o.X.o.X.o.X.o.X.X.o.X.X.X.X.o.X.X.O.X.X.X.X.X.X.X.X.X.X.o.X.X.X.X.X.X.X.X.X.X.X.X.X.X.X.X.X.X.X.X.X.X.X.O.X.X.X.X.X.X.X.X.X.X.` X.X.H X.X.X.X.H X.X.H H X.X.X.X.X.H X.X.V X.H X.H V X.X.X.X.X.X.X.V V X.H X.V X.H H ` X.X.X.V H X.H H X.H H X.H H X.H H X.H H H H H X.H H H H V H H H H H H X.H H H H H H H H V H H H H X.H H H X.H H V X.H H X.V H H H H H H H X.H H H H H H H H H H H H H H H G G H G H H H G H H G H H G H G H H H H H H G G H G H B H H B G V G G G G V G G H V G H B H H G H B B S G J G G G G H H H V X.H F m d m m F H m F D K J k S J G G G G B D B B D G G G H B G G B G B H G G B G B V B B B V B B B B B B B B B B G B B B B B B G G B B B B B G c B B B B B B B B B B B G B G B G B G B B B B B B G G B B B B B G B B B B B B B B c B B B c B B c c S G c B c B c c c B c c c G S c B c B c B c c c B G c S c B c c B c B c c B c c c G B c G c G S c B c B c c G c S c S c S c S S c G c S c S c c S c S c G c S S S c G c S c S c G c c S S c c c c B c c c c c c c c c c c c c c c z c c c z c c c c z c c c z c c c z c c c c x c c c c c c x c c c x c c c c c A c c S k c c c c x c c c c x c c c S c c c c c l c x c c c c z c x c x c c x c c x c c x c c c x l c x x c c c l c c x c c c c x x c c c c x c l c x z x z x c x c l x c x c x c x c x z x x k x x k k B n V O.K X.X.X.X.O. .X.X.X.X.X.X.X.X.` X.` V X.X.` V F V V B V D V B V B m n V n n B B n D B B n V B v h v k v k M z v k v t h k n k k k v k h h h k h h h h k k k z h h h k M h k k k k z k k k k k k k j z k k k k k k x k k k j k z z k x k z l k x z l k l z x k z l k l l k x x x 4 4 x 4 x x x x A x x x x C x A A q A 8 A x q 8 4 8 C 8 C A 8 4 8 8 C q 4 9 8 9 8 q 4 8 q 8 C 8 8 q 8 A q x 8 x 8 4 q 8 q 8 8 8 q 7 q 8 q 7 7 q 8 0 8 7 q 7 8 8 8 q 8 8 8 8 8 q x q 8 x 8 x 8 q 8 x x 8 q 8 q 8 6 6 x 8 6 8 8 8 x 6 8 6 8 8 8 8 8 x 6 6 8 8 6 8 8 x 6 8 8 6 x 8 6 8 8 8 8 8 8 x 6 6 8 8 x 6 8 8 x 6 8 8 6 8 x 6 x 8 8 8 8 6 x 8 x x 6 8 8 8 x 8 6 8 8 8 8 8 8 8 8 x 8 6 x 8 8 6 x 8 8 8 6 x 8 6 8 8 x 6 6 8 x x 6 8 8 8 l 6 8 x 6 8 8 8 6 x 8 8 8 8 6 8 x 6 8 x 8 8 8 6 8 6 6 8 6 6 x 8 6 x 8 8 6 6 8 6 8 6 8 8 6 8 6 8 6 8 6 8 6 8 6 8 6 6 8 6 8 6 6 8 6 8 6 8 6 6 8 6 8 6 8 6 6 8 6 6 8 8 7 8 8 7 8 8 8 7 7 7 8 7 8 7 q 8 7 7 8 8 7 8 7 7 q 7 8 7 7 q 7 q 7 7 7 8 7 q 7 7 8 7 7 8 7 7 8 7 q 7 7 8 7 7 8 7 8 8 7 7 7 8 7 8 7 8 7 q 8 7 8 8 7 8 7 8 7 q 8 7 8 7 8 7 0 8 8 7 q 8 8 7 7 8 7 7 8 7 7 8 0 q 7 8 8 8 8 8 7 8 7 8 7 7 7 7 8 7 8 7 q 8 7 8 7 7 8 7 8 q 7 8 7 8 0 7 8 8 7 q 7 7 q 7 7 8 7 7 8 7 8 7 q 7 7 7 8 ",
"o.%.@.o.%.o.o.%.o.%.%.o...%.%.o.%.%.o.%.o.o.o.o.%.o.o.o.' %.} o.+.o.o.o.%.o.o.+.o.%.o.%.o.%.o.%.o.o.%.o.o.o.o.%.o.%.o.%.%.o.%.o.o.+.o.O.o.o.o.o.O.o.o.o.o.O.o.o.X.o.o.o.o.o.o.X.' o.o.' ' o.o.o.o.X.o.o.' ( o.#.4.4.w.w.w.e.q.e.w.e.e.9.9.e.e.e.e.w.w.4.&.@.o... .o. . .X.o.X.X.o.X.O.o.X.o.X.o.X.O.X.X.X.X.o.X.X.X.o.X.o.X.o.X.X.X.X.X.X.X.X.X.o.X.X.X.X.X.X.` X.X.X.X.X.X.X.X.X.X.O.X.X.X.X.X.X.O.O.X.X.X.X.X.X.X.X.X.X.O.O.X.X.X.X.X.X.X.X.X.X.H X.X.X.H H X.X.X.X.X.X.H X.X.X.X.X.X.X.X.X.H H X.X.X.X.X.X.X.X.X.X.X.X.H H X.H ` X.X.` X.H X.` X.X.X.V V X.X.X.H H X.H K X.H H X.X.K H X.H X.H X.H X.H X. .H X.V H X.V X.H X.V X.H H H X.H H X.H H H H H H H H H H H H H H H H H H H X.H H H H H H H X.H H V H H H H V H V V G H H G H G H J H G G H H G J H H G H J H H V D G G V B H B H H H G G H H G G H H B H G H B B H G D D J J G G S J G H H H m m ( ( ( ( ) ) ..) ( ( m d n D J J S G G G G B B B B V G G G B D G G B H B G G G H G B B B B B B B B B G B G B G B G B B B G G B B B B B B G B G B B B G B B G B G B G B B B B B B B B B B B G B G B B B G B G B B B B B B B B B B B c B c B B c c G G c c G B B B c B c c B B c S B B c B c B c G c B c c B B B c c B c B c G c c B B c c c c c B c B B c c c B c c S c G c S G S c c S c S S c c S S c S S S c c S c S S c c S S c c c c S c c S c c c c c c c c c c B c c c c c c c c c c c z c c c z c c c c c c z c c c c c c z c c A k c x c c c c k S c A x c c k c c c x c c c x c c c c c S x c c x k c c x k c c c x x k x x c c x c x x c c l x c c x x c l c c c c c c x c x x c x c x c x c c c x c c c x c x c x c x c l c x c z x c l c l z x c x c x A x x x k k k c k z z c M v v k n h k k h h h h k z h h k h z k k k k k k k k z k k k k k k k k k k k k k k k k k c c c c k c k c x k x c k x k c k x k k c k c x j k x j x j x x x c x x x x x x j j x j x x j x x x j x x x x x x j x j j x x j x x x j x x x x x x x x x x x x x x x x x x x 4 x 8 8 q x q 8 x 8 8 x 8 q 8 8 8 x 8 A 8 q A 8 8 q 8 8 8 q 8 A 4 q 4 q 8 q q 9 4 q 8 q q 8 q q A 8 8 8 8 8 8 q 8 8 8 8 x 8 x 8 q 7 7 8 8 8 8 q 7 q 7 q 8 8 8 q 8 x 8 8 x q 8 8 8 8 8 x 8 8 4 x 8 x 8 8 x 8 x 8 x 8 8 8 8 x 6 8 8 8 8 6 8 6 x 6 8 6 8 8 8 6 8 x 8 l 8 6 8 8 8 6 8 6 x 6 8 8 6 8 8 8 x 8 8 6 8 8 8 6 8 8 6 x 8 8 8 6 8 8 8 6 8 8 8 6 8 8 6 8 8 6 8 6 x 6 8 8 6 8 8 8 6 6 8 8 8 6 8 8 8 6 8 8 6 8 6 x 8 8 8 8 8 6 8 6 8 8 8 8 x 8 6 8 8 6 8 8 6 8 x 6 x 8 6 8 8 8 6 8 6 x x 8 8 8 8 8 8 8 8 8 8 8 6 8 8 6 8 6 8 6 6 8 6 8 6 8 6 6 6 8 6 8 6 6 8 6 8 6 6 8 6 6 6 8 6 8 8 6 8 6 8 6 6 8 6 8 8 6 8 6 8 8 6 8 8 8 q 7 8 0 8 7 8 7 7 8 8 7 0 8 7 8 8 7 8 8 8 7 7 8 7 8 8 q 7 8 7 8 7 7 8 7 0 8 7 q 8 7 7 8 7 q 8 7 0 8 0 8 8 7 7 q 8 7 7 8 7 7 q 7 7 8 7 q 7 8 7 7 7 7 7 q 8 7 8 7 8 7 8 7 0 8 7 8 q 7 8 7 8 8 7 7 7 7 7 0 7 8 7 8 0 8 7 8 8 0 8 7 7 7 7 8 7 q 8 7 7 q 7 8 7 7 8 7 8 7 7 8 8 7 8 7 7 8 7 q 8 7 7 q 8 7 0 8 7 q ",
"%.%.o.%.%.%.@.o.%.o.o.%.o.%.%.o.%.o.o.%.%.o.o.%.' %.o.%.%.o.o.%.o.%.o.o.o.o.o.o.%.o.+.o.%.o.o.o.+.o.o.o.%.o.%.o.%.o.o.o.o.o.o.%.+.o.o.o.o.+.o.o.o.O.o.+.o.o.o.O.o.o.o.o.o.o.o.o.o.o.' o.) o.o. . .X.o.o.) [ #.4.5.w.w.e.e.q.e.e.e.9.9.9.e.9.q.e.e.e.w.w.4.<.@.@.o. . .O.o.X.O.o.O.O.X.X.o.X.o.X.X.o.X.o.X.X.X.X.X.X.X.o.X.X.X.o.o.X.X.X.X.o.X.X.X.o.X.o.X.` X.X.X.X.X.O.X.X.X.O.X.X.X.X.X.X.X.X.X.X.X.X.X.X.X.O.X.O.X.X.X.X.X.X.X.X.O.X.X.X.X.X.` X.X.X.X.X.X.X.X.` X.X.` X.X.X.H ` X.H X.X.X.H X.X.H X.X.X.X.X.X.X.X.X.X.X.X.X.H X.X.H H V X.X.H X.X.H X.X.H X.X.H K X.H X.X.H H H H H X.H H X.H X.H H H X.H H H H H H H H H H H H H H H H H H H H H X.H H H H H H H H H H H H H H X.H H H H X.H H H H H H H X.H X.H H H H H H H H G H H G H F H G H H H G F H H H H H G H G G V G B H H B H B V G V G G V V G B G G V B H G G G D G J G S G G G G F m m ( ) } 2.2.5.5.5.5.5.4.@.%./ m V H F M D G G G B B G G G B B G B H G B B G D G G B G G B V V B V B B V G B B B G B B B G B G B B G B G G B G B B B B B G B B G B B B G G B B G B G B B B B G B B B B G B B B B B B B c B B B B k B B B B c B B c G G c c G G c c B B c B c B c c G B c B c c B G c c G c G B c c B c G c c B c c B S B c G G c B c G B c B c G G c c B S c S c S c S c B S S S c S c S S c S c G c S c S c S S S S S G S c S c c c k S c c c M c B c c c c c c c z c c z c c c c c z c c c z c c c c c c c c c c c c c c c c c k S c c c c S x c k c x c c x c c x c c c c k c c c k x k c c c A c x k c x x k c k c c l c c x c c x c c c c c x c c c c c c x c x x c x c c x c z x c c c c x x c x c c l z x c x c x l c c x x c x c x c x c l c x c A x x x x x k k c c c z c c k k c z k c c c k c c c c c c z k c x k c x k c c k x k c x k x k x x k k x c x c x x c k x c c x x x x x x x x x x x x x x x x x x x x x x x x x A x j x 8 x x x 8 4 x 8 8 A 8 C 8 x x x 8 x x x q 4 8 A 4 8 8 8 8 8 q 8 8 8 A 8 x q x 8 x 8 8 x x 8 8 x x x x x x x 8 8 x x 8 8 x 8 8 x 8 8 x 8 x 8 8 8 8 8 8 8 8 x 8 8 8 x A x 8 8 8 x q q 8 8 x 8 A x 8 x x 8 8 8 x 8 x x 8 x x 8 8 8 6 8 8 x 8 8 8 8 8 8 8 8 x 8 8 8 8 8 x 8 8 A 8 A 8 8 q q x 8 q 8 8 x 8 x 8 8 8 8 x 8 8 q 8 6 8 8 8 8 8 6 8 6 8 8 8 8 x 8 l 8 8 8 8 8 x 6 x 8 8 x 8 6 8 8 8 8 x 8 6 l 8 8 6 8 6 8 8 8 8 8 8 6 8 8 8 8 8 x 6 8 8 x 6 x 6 8 8 8 8 x 8 8 8 8 6 8 x 8 6 l 8 8 6 6 x 8 8 6 8 6 x 6 8 8 x x 6 8 8 8 8 6 8 8 6 8 8 8 8 8 8 8 x 6 8 8 8 8 x 8 x 8 8 x 6 6 8 8 8 8 6 8 x 8 8 8 6 8 8 8 l 8 6 8 x x 6 8 6 6 8 6 8 6 8 8 6 6 8 x 8 6 8 8 6 8 6 8 6 6 8 8 6 8 6 6 x 6 8 6 8 6 8 6 8 6 8 8 6 8 6 8 8 6 8 8 8 8 8 7 7 7 8 7 8 8 7 7 7 q 7 7 7 8 7 8 7 7 8 7 0 7 7 7 q 7 7 7 8 7 7 7 8 7 q 8 7 8 7 8 7 7 q 0 8 7 8 q 7 8 7 8 7 8 q 8 7 7 q 7 7 7 8 7 7 8 0 7 8 7 7 7 7 q 7 8 7 7 q 7 7 q 7 8 7 8 8 q 7 7 8 q 7 7 7 7 8 7 7 8 7 8 7 8 7 7 7 q 7 7 8 7 7 8 7 8 7 8 7 7 7 8 7 7 8 8 8 7 8 8 8 7 8 7 8 7 8 8 7 8 7 7 q 8 7 8 7 8 7 8 7 ",
"o.o.%.o.o.%.o.%.@.%.o.%.%.o.%.%.o.%.%.o.%.%.%.%.%.o.%.' ' %.o.o.o.o.%.o.o.%.o.%.o.o.o.%.o.o.%.o.%.o.%.o.o.+.o.o.o.o.o.%.%.o.o.o.o.o.+.o.o.+.o.o.o.+.o.o.+.o.o. .o.o.o.o.X.o.o.o.o.o.o.o.o.o.o.o.o.o.....o.@.4.5.w.w.e.e.e.e.q.e.9.9.9.e.9.9.9.e.e.e.e.w.w.5.>.@...o.o.o.o.o.o.X.X.o.X.o.X.o.X.O.O.o.X.X.o.X.o.X.X.o.X.X.o.X.X.X.X.X.o.X.X.X.o.X.X.X.X.X.X.o.X.X.X.X.X.X.X.o.X.X.X.X.X.X.X.O.X.X.X.X.X.X.X.X.X.X.X.X.X.X.X.X.X.X.X.X.X.X.O.X.X.X.X.X.X.X.X.` X.X.H X.X.X.X.X.X.X.X.X.X.X.H X.X.` H X.X.X.X.H X.H H X.H X.X.X.H X.X.H ` X.X.X.X.V X.H V X.X.V X.V H H X.H X.H H X.X.X.H X.H K X.H X.K H X.X.H H V H X.H X.X.H X.V H H H X.H H V X.H H H H H H X.H H H X.H H H X.H H H H H H H H V H V X.H H H H H H V V H H V V H H G F H G H G H G H H D H H G H G H G H F G G H G H H H B H H B G G H G G H G H H H G G H G H H G J G J G J J G H m m m R %.&.5.w.w.w.w.e.w.w.w.5.5.4.[ ( ( m N V G G G J G G G G G G G G G G G B G H B G G G G B B B B B B M B B B B G B B B B B B B B B B B B B B B B B G B G B B B B G B B G B B B B B B G B B G B B G B B B G B G B B B B B k B n B B B B B B B B c G c G S S G c G B c c B c B c B c B c B c G c c c B c c c c c c B c B c c B c G c c B c c B c c c B c c B c B c B c c G S S c S c S c S c c S c G c S S c S c G S S c S c G c c c c c c c c k S S c S c c c c c c c c c c c c B c c c c c c c c c c c c c c c c c c z c c c z c z c c c c x c c S x c c x c c c c c c c c x c c c S x c c c A c x c c S c x c c c c c c c c c c c x k x c c x c l c c x x l c x c c l x c x x c c c l c c c x c x c c x c l x c c c x c x c x c l c l c c x c z c l c l c l c x c x c x A A q A j x x x c l z z x k c x c x x x c x x x x x c x x x c x x k x x x C x x x A k x x S A S A x A A A x x A x x x x x x x x x x x x x x 8 x x 8 x x x x 8 x x q A x x A A 8 x 8 x 8 x 8 x 8 8 q 8 x 8 q 8 4 4 q 8 x q x q 8 q q 8 q 8 q q 8 8 8 x q 8 8 8 8 x 8 q 8 8 x 8 q 8 x 8 x 8 8 8 x x x x x x x x l x x x 8 x 8 x x l x x 8 x x x x x x x x x 8 x 8 x 9 x 4 x x x 8 x 8 x 8 x 8 x x x x x x x x x x x l x x x x x 6 x 8 x x x 6 x 8 x 8 x x x 6 x x 8 8 8 8 8 8 8 8 x 8 x 8 8 8 8 x x 8 q 8 8 x 8 x 8 8 6 8 6 x x 8 8 8 6 x 8 8 8 8 8 6 6 x 8 8 8 8 8 8 6 8 8 6 x 8 8 8 6 x 8 8 8 x 8 x 6 8 8 8 8 l x 8 8 6 8 8 6 8 x 8 8 6 8 8 8 6 8 6 6 8 8 6 x 8 8 8 6 x 8 8 8 x 8 6 6 x 8 8 8 8 8 8 6 8 8 8 8 l 8 8 x 6 8 x 6 8 6 x 8 6 8 8 8 6 8 8 6 8 8 6 6 x 6 8 8 8 6 x 8 8 6 6 8 6 8 6 x 8 8 8 8 8 6 6 6 8 6 8 8 6 8 6 8 6 6 6 8 6 6 6 8 6 6 8 6 8 6 8 8 6 6 8 6 8 8 6 8 6 8 6 8 6 8 6 8 6 6 8 6 8 7 8 8 8 6 8 8 7 8 7 8 0 8 7 7 q 7 8 7 7 7 8 7 8 7 q 7 7 8 7 8 q 8 7 8 7 8 7 q 7 8 7 8 7 0 8 7 8 7 8 7 7 8 7 8 7 7 8 7 8 7 8 7 7 7 7 8 7 q 7 8 7 7 8 7 8 8 7 q 7 q 8 7 8 7 8 7 7 7 8 7 8 7 7 8 7 7 7 8 7 7 8 7 8 8 7 q 8 8 7 8 0 7 8 8 8 7 8 8 7 8 q 7 8 0 8 7 7 q 7 7 8 8 7 0 8 7 7 0 7 8 0 8 7 7 q 7 8 7 8 7 7 7 8 7 8 8 7 7 8 ",
"%.o.o.%.%.o.o.%.o.+.o.o.%.%.o.%.%.@.o.%.o.%.%.o.o.o.%.o.%.o.%.' o.%.o.%.o.o.+.o.%.+.%.o.o.o.%.+.o.o.%.o.o.+.%.o.o.o.%.o.o.%.o.o.o.O.o.+.o.o.+.O.o.o.o.O.o.o.o.o.o.o.o.o.o.o.o.o.o.o.) o.o.o.( o.+...( @.=.5.w.w.w.e.e.e.e.9.e.e.e.9.9.9.e.9.e.9.9.e.q.w.e.w.3.#...o.o. .o.O.o.o.o.O.o.X.O.X.o.X.X.o.O.O.X.X.X.X.X.X.X.X.X.X.o.o.o.X.o.X.o.X.X.X.X.o.X.o.X.X.o.X.X.X.X.X.O.X.X.X.X.O.X.X.X.X.X.X.X.X.X.X.X.X.O.X.X.O.X.X.X.X.X.X.X.X.X.O.X.X.X.X.X.X.X.X.H ` X.X.X.X.X.X.X.X.H X.X.X.X.H X.X.X.X.X.` H X.X.X.H X.H X.H X.H X.H X.` H X.X.H X.X.H ` X.V X.V X.X.X.X.H H H X.H H H H X.X.H H X.X.H X.K H X.H X.H H H H X.H X.H X.H X.H H H H H H H V H H H H X.H H H H H H H H H H H X.H H H H H H H X.H H H H H H H H H H V H H H K G H H G H G G G H K H G H H G H H G D G V F G G H V G H B H H H G G H B H H B H B H H B H B G G G G G J G G H n m ( ) =.5.5.w.e.e.w.q.e.q.q.e.w.w.w.5.&.) ( ( V B G B G G G S S G G G G B B H B F G G G G G H B B B V B B B B G B G B B G B G G B c G B B B G B B B B B G G c G B G B G B B c B B B G B B B G G c B B B G B B B B B B B M B B B B B B B M B B c B c B c c G c c G c c B M c B c B c B c G B c c B c B c G B c B c S B B c B c c c G c B c G c B c G B B S c B c c B c c G c c c G S S c S c G S S S c G S S c S c S S c S c S c S S S c S c S c c k c c S c c c c c c B c c c c c c c c c c c c c c z c c z c z c c c c c c c c c c c c c c c c c c c c c x c c c c c x c c c c c c x c c x c x S x c c c c x k c c c c c k x x c x c c k c c c x x c x c c c c x x c c x x c x c c l x x c x c x c c c x c c x c z c x c c x c x c x c x c x x c x c l c x c l c l c x c z x 8 A q x A 8 C x x l x x l x x j x x x x x x c x l x x x x x x x x A x x x x x x x x x x c x x x x A x A x A A x x x x x x 8 x x x 8 x x x x 8 A x 8 x x x x 8 x A x A A x x x x x 8 x x x x 8 x A A 8 A 8 A 9 x q x q x 8 C x A x q x 8 8 8 A 8 x q x 8 A 8 q x 8 q 8 q q 8 8 8 8 x q 8 8 q x 8 x x x x x x x x x x x x x l l x x x x x x x x x x 8 x x x x x x j x j x x x j x x x x x x x x x l x x x x x x x x x x x x l x x x x l x l 8 l 8 x x x l x l x 8 8 q 8 8 x 8 q 8 8 8 q 8 8 8 8 x 8 x 8 4 8 8 8 x 8 6 8 8 8 x 6 8 x 6 6 8 6 8 8 8 8 x x 6 8 8 8 6 8 8 6 x 8 6 8 8 x 6 8 8 8 8 6 8 x 8 6 8 x 6 8 8 8 8 8 x 8 8 6 x 6 6 8 x 8 8 8 x 8 8 6 x 8 6 8 8 l 8 8 8 8 6 x 8 8 x 6 8 8 8 x 8 x 8 6 8 6 8 8 8 8 8 l 8 8 6 8 6 8 8 8 8 x 8 6 8 x 8 6 8 6 8 8 6 8 8 8 6 8 x x 6 6 8 6 8 8 x x 8 8 8 8 x 8 6 8 6 6 8 6 8 6 8 6 8 6 8 6 8 6 8 6 8 8 6 8 6 6 8 6 8 8 6 8 6 8 6 6 8 6 8 8 6 8 6 6 8 8 6 7 8 8 6 8 7 7 8 7 8 7 q 7 8 0 8 7 8 0 8 7 8 7 8 7 7 8 8 0 8 7 7 8 7 8 8 7 7 0 8 7 8 0 8 8 7 8 7 8 7 0 8 7 8 7 8 7 8 7 7 8 7 0 8 8 7 8 7 8 7 7 7 8 7 7 8 q 7 8 7 8 0 7 8 7 7 q 7 7 8 8 0 7 8 q 7 q 7 7 8 0 8 7 8 7 8 7 8 8 7 0 7 7 8 7 7 8 0 7 q 8 7 7 q 7 7 7 8 7 8 8 7 8 7 7 7 8 7 7 8 7 8 7 8 8 7 8 7 7 7 8 0 8 7 q 7 8 0 q 7 8 7 ",
"%.%.%.%.o.%.%.o.%.%.@.%.%.o.%...%.o.%.o.%.o.o.%.%.%.' %.o.%.%.o.o.o.o.o.%.%.o.o.o.o.o.o.o.%.o.o.%.o.o.o.%.o.o.o.o.%.o.o.o.o.%.o.o.o.o.o.+.o.o.o.o.+.o.o.o.o.o.O.X.o.X.o.o.X.o.X.o.o.o.o.o.o.o...o.) R =.4.w.e.w.e.e.e.q.e.e.e.9.e.e.e.e.e.e.9.e.e.e.e.e.e.w.w.5...o...O. .o.X.o.X.X.O.o.X.o.o.O.X.O. .X.X.o.X.o.X.o.X.o.X.o.X.X.X.X.X.X.X.X.o.X.X.X.X.X.X.` X.X.X.X.X.X.X.X.X.X.X.X.X.X.X.X.O.X.O.X.X.X.X.X.X.X.X.X.X.X.X.X.X.O.X.X.X.X.X.X.X.X.` X.X.H X.X.X.X.X.X.X.X.X.X.X.X.X.H X.X.X.X.X.H X.X.X.X.X.X.X.X.X.X.X.X.X.X.X.X.X.H X.V X.H ` X.H X.V X.X.X.V X.X.H X.H X.H X.H H H H X.H H H H H H X.H H H H H H H H H V H H H H H H H H X.H H X.H H H H H H H X.V H H X.H H H H H H H X.H H H H H H H X.H H H V V V V H H V H D H H G H H H H H H D G H G D H G H G H H G G G H B H G B H H B V G G H G V B H B H B H H B H H H G G G G G D F m  .@.4.5.w.w.e.w.e.e.e.e.e.e.e.e.e.w.w.5.=.} ( V B G G G G G G S G G B G G B V B G B G H B G G B V B B B B B V B B B B B B B B B B G B G B B B G B G B B B B G B B B B B B B G B G B G G B B B B G G B B B G B B B B B B B B B B S B B B B c B B B B B S G B S B S G S B c B c B c B c c c c B G c B c c c c G c B B c c c c G G B c c c B B c c B c c c c B c c B c G c B B c S c c G S c S c S c c S S c c G c S c c S c c S G c c c c c c c S S S c c c k S c c c c c c c c c c c z c c z c z c c c c c c c c c c z l c z c x c z c c c c k x c x c c c c c c c c S c c S x c c c S k S S c c k S c c c k S c x c x c x c c k c x c x c x c x c c c x c x c c c c x x c c c c c x c c c z c x c z x c c x l c c x x c l x c l c l c l c l c l x c l c x c l c x c x z x x x x x 8 A 9 x A x x c c c c x x C x x c x S c x x c x S x x c c x c x x x S x x x c A x x x x x x x x C x x x x C x x x x x x x x x x x x x x x x x x x x x x A x x A x x A A x k x x x A x x x x A 8 x C A 4 x x 8 A x x 8 A A x x 8 8 x x 4 8 x 8 x 8 8 8 x x 8 8 q A 8 8 x q A A 8 8 x x 4 8 x x x x x x x 8 x x 8 x x x x x x x x x x 8 x x x x x x x x x x x 8 x x x x j x x x x x x x x x x x x x x x 8 x l x x 8 l l x 8 x 6 x x x l x x x 8 l 8 x x 8 x x x 8 8 8 8 8 x 8 A x 8 8 x 8 8 8 8 8 8 8 8 8 8 8 6 x 8 8 8 8 8 6 8 8 x 8 8 8 8 8 8 6 6 8 8 8 8 8 x 6 8 8 8 x 8 6 6 8 8 8 8 6 x 8 6 8 8 6 6 8 6 x 6 x 8 6 x 8 8 8 8 8 8 6 6 x 8 6 8 8 8 6 6 x 8 8 8 8 8 8 8 8 6 8 8 8 6 8 6 8 6 8 6 8 6 x x 8 8 8 8 8 8 8 8 x 8 8 8 8 x 6 6 8 8 6 6 8 6 x x 8 8 8 8 8 8 6 8 6 8 8 8 8 8 6 8 6 8 8 6 8 6 6 6 8 6 8 8 6 8 6 8 6 8 6 8 6 8 6 8 6 8 6 6 8 6 8 8 6 8 6 6 8 6 8 6 8 8 6 8 6 6 8 6 8 8 6 6 8 8 8 8 8 8 8 8 8 8 7 7 7 8 7 8 7 8 7 8 7 8 7 q 7 8 q 7 7 7 8 q 7 7 8 7 0 8 8 8 7 8 7 7 8 7 8 7 8 7 8 7 8 8 7 8 7 q 7 7 8 0 8 8 7 7 8 0 8 7 8 8 7 7 q 8 7 7 8 7 7 8 8 8 7 7 q 7 8 8 7 8 8 7 7 8 7 7 8 8 7 8 7 8 7 7 q q 7 7 8 8 8 8 7 8 7 7 8 8 7 7 8 8 7 7 8 7 8 q 7 7 8 0 8 q 7 7 8 8 0 8 7 8 7 7 q q 7 8 8 7 8 7 7 7 8 7 8 7 8 7 7 ",
"o.%.%.o.@.o.%.%.o.%.%.o.o.o.%.%.%.o.o.%.%.%.%.%.o.} %.o.o.%.o.%.+.%.o.o.o.o.o.%.o.o.%.o.o.o.o.%.o.%.o.%.o.%.o.o.o.+.o.o.o.o.+.o.+.+.o.O.o.o.+.+.+.+.O.o.o.O.o.o.o.X.o.o.o.o.X.o.) o.' o...o.o...' } #.4.w.w.e.e.e.e.9.e.e.9.9.w.e.e.e.e.e.e.e.e.e.e.e.w.e.w.e.w.%.+.O. .o. .X.o.O.X.X.X.o.X.X.X.X.o.X.X.X.o.X.X.o.X.X.X.X.X.` o.X.X.o.X.X.X.X.X.X.o.o.X.X.X.` X.X.X.X.X.X.X.X.X.O.X.X.X.X.X.O.X.X.X.X.X.X.X.X.X.X.X.X.X.X.X.X.X.X.X.X.X.X.X.X.X.X.X.X.X.X.X.X.X.X.X.X.X.H X.X.X.X.X.X.H H X.H X.X.X.H X.X.H X.X.X.X.X.X.X.H V X.V X.X.X.` H V X.` X.X.X.X.V X.V H H X.X.H K X.H X.X.H H X.H H X.H X.X.H H X. .V H X.X.H H H X.V H H X.V H H H H H H H X.H H V H H H H X.H H V X.H H V H H H H X.H H H H H H H H H V H V H V H H H G G H H G G H H G G H H G H H V H G V B B G V V G G V B H H B G G G G G V G G H H B B H G V B H G G G G G H F  ...=.5.w.w.9.9.8.e.e.9.e.9.9.9.9.w.w.w.w.5.&.' V V B B B G G G G G G G G G B B B G B G G G G G B B B B V B V B B B G B B B B B B B B B B G B G B B B G B G B B B B G B G B G B B B B c B G B G B B B B B B B B B B B B B B B B B M B B B B B B B c B c S G S B B B B c c B c M c G c c B c c c c c B c B G c c B c c c c G c c c c c B B c c G c c c B B c G c B c c B B c B c c S S c c S c S c G S c c S c c S B c G S c G c c S S c k S c c c c c S S c S c B c c c c c c c z c c c c z c c c c c c c z c c c c c c z c c c c c c c c c c c S S x c x S x c c S k x c x k c c c k A c x c c c c c c c c S x c c c x c x c l x k k c x c x c c c x l c z x x x c c c c c c x x c x c c x x c x c c l x c c c x c x c c l c l c x c x c x z x c c l c l c l c x c x c x c l c x x A C A 9 j x x x x x x x x C x x x x x x x x c x x x x x c x x x x j x x x x c x c x x x c x S A x x C x x x x x x x x x x x x x x x x x k x x x x x k x x x x j j x x x x x x x x x x x c x x x j x x x j x x j x C A x x A x x C x x x x 8 x x x j x 8 x x 8 q 8 8 A 8 x 8 x 8 x A x x x C 8 A x 4 8 x x x x 8 x x 8 x 8 x x 8 A 8 8 x 8 A 8 x 8 x x 4 8 C 8 C x 9 A 8 4 8 A 8 q 4 8 x 8 8 8 8 x q 8 A 8 8 8 8 q 8 8 8 x 8 8 8 8 q 8 8 8 q 8 8 8 q 8 4 8 8 8 8 A 8 x 8 x 8 8 x 8 x 8 8 x 8 8 8 8 8 x 8 8 8 x 8 x 6 8 8 8 8 8 l 8 8 x 8 6 6 8 x 6 8 x 6 8 6 6 8 8 8 8 8 x 6 8 8 8 6 8 x 8 8 8 8 8 x 6 x 8 8 6 8 x 8 6 8 8 6 8 6 8 8 8 8 x 8 l 8 8 8 8 8 x 6 8 8 8 6 8 x 8 8 8 8 8 x x 6 8 8 6 x 8 8 8 6 8 8 x 6 8 8 8 6 8 x 8 l 8 6 8 8 8 x 6 x 8 8 6 8 8 8 x 6 8 x 8 8 l 8 8 6 8 x 8 6 x 8 8 6 6 8 8 6 6 6 6 8 6 8 x 6 6 8 6 8 6 8 6 8 6 8 6 6 8 6 6 8 6 8 8 6 8 6 8 6 8 6 6 6 8 6 8 8 6 6 8 8 8 8 7 8 8 8 7 7 8 7 8 7 q 8 7 8 7 0 7 8 q 7 7 7 8 7 7 q 7 8 7 8 7 8 7 8 8 7 7 8 7 0 8 7 0 7 8 7 0 7 8 8 0 7 7 7 8 7 8 8 7 7 8 7 0 8 8 7 8 0 8 8 7 8 7 0 8 7 8 0 8 7 7 q 8 7 8 7 8 0 7 7 8 8 7 q 7 7 7 8 7 8 7 7 8 7 7 7 8 0 8 7 7 q 7 q 8 7 7 8 q 7 7 8 8 7 q 7 7 8 8 7 8 7 7 8 q 7 7 8 7 8 0 8 7 7 7 8 7 0 8 7 7 8 7 q 7 7 7 8 7 q ",
"%...o.%.+.%.o.%.%.o.o.%.%.%.o.%.%.%.o.%.o.%.o.o.%.o.' %.o.o.%.' o.o.%.o.%.o.o.o.%.%.o.o.%.o.o.o.o.o.o.o.o.o.o.%.%.o.o.%.%.o.o.%.o.o.o.+.o.O.o.o.o.o.o.o.o.o.o.o.o.o.o.o.o.o.o.o.o. .o.o.o...o.o.) @.4.w.w.w.e.q.e.q.q.9.9.e.9.8.w.e.e.e.e.e.e.e.e.e.e.e.e.e.e.w.$.%.......' o.o.o.o.o.O.X.o.X.O.o.X.O.X.o.X.` o.' o.' o.o.' o.o.o.o.X.o.o.o.X.X.O.X.X.X.X.X.o.X.O.X.X.X.X.X.X.X.X.X.X.X.X.X.X.X.X.X.X.O.X.X.X.X.X.X.X.O.X.X.X.X.o.X.X.X.X.X.X.O.X.H X.X.X.X.X.X.X.X.` H X.X.` X.X.H X.X.X.X.X.X.X.H X.X.X.X.H X.V X.H X.X.X.X.X.X.X.V V X.X.X.X.H H X.V X.V X.X.H X.K H X.H H X.H K X.H K X.X.H X.H H X.H H H H X.H V H H X.H V H H H H H H H X.H H H H H H X.H H H H H H H H H H H X.H H H H H H H X.H H H H H V V B H H V H V F H G H H D H H G H H H G H G H J H G G D V H G G H G G H B H H G H G H H G G H H B H H V G H G G G H G H H m  ...4.w.w.e.9.e.9.e.w.8.e.9.e.e.9.e.e.w.w.w.5.5.=.( B B F D D G J J n D G F B F G B F G G G B G G B V M V B B B B B G B B B B B B B G G B B B B B G B B B B B B G B G B B B B B B B G B G B B B B G B G B G B G B B B B B B B B k B B B B B B B B B B B B c c G c c B c B B c B c G c c G c B B c c B c G c c B c c B c B B c B G c B c G c B c c G c B c B c c B c c G c c B c B S c c S S B S c S c c S S c S S c S S c S S c S S S c c S c k c S c B c c c c S c c c c c c c c c c c c c c c c c c l c c c c z c c c c c c c c z c c c z c c c c k c c S k c c c x c c c c S c x c c c c c c x c c c x c c c c c c c c c k k x c c x c k c c c c x c c x c c c c x l c z x x c x c c x c c c x c x c c c x x c x c c c x c x c x z x c l c x c c x c x c x c x z x c l c x c x x x C x C 4 x x x c c x x A x A x c c c x c c c l x c x x c x c c x c c c x k c x x x k k x c x x k c x c x k S x k x c x k x c k x x x k x x x x x k x x x x x x x c j x x x x k x x x k x x x x x k x x x c x x x k x c x k x x x j x j x x j x x x x x x x x x 4 A C 8 x 8 C 8 4 x x 8 x x 8 x 4 x 8 A 4 8 4 8 x 8 x 8 x 8 8 8 9 8 x 8 4 8 9 x q 8 4 8 q x 8 8 4 8 q 4 4 x q 4 8 x A 8 8 x q x 8 8 q 8 8 8 x x 8 8 8 8 8 8 8 8 8 9 8 8 8 9 8 8 8 C 8 8 8 8 q 9 9 x 8 4 8 8 x 4 8 x 8 x x 8 8 4 x 8 8 4 8 8 8 6 6 8 8 l 8 8 8 8 8 8 8 6 8 8 x 6 8 8 8 6 8 8 x 8 8 8 8 l 8 8 8 8 6 x 8 8 6 6 x 8 6 8 8 8 6 8 8 8 8 6 8 8 6 8 8 8 x 6 8 6 8 6 8 8 8 8 6 x 8 6 8 8 6 x 8 8 6 6 x 6 8 8 6 8 8 8 l 8 6 8 8 8 6 x 8 6 8 8 6 x 8 8 6 8 8 8 x 8 6 8 8 8 6 8 8 8 6 x 8 6 8 8 8 8 8 8 8 x 8 8 8 8 8 6 6 6 6 8 6 6 8 8 8 8 6 8 6 6 6 8 6 8 6 8 6 8 6 8 6 8 8 6 8 8 6 8 6 6 8 6 8 6 8 6 8 8 8 6 8 6 8 8 8 8 8 6 8 8 8 6 7 7 8 7 8 7 8 7 7 8 7 8 8 8 7 7 8 7 8 7 8 7 7 8 7 8 7 8 0 8 7 7 q 7 7 8 8 7 8 8 8 7 8 8 8 7 7 8 8 7 q 7 8 0 8 7 8 8 7 7 8 7 8 7 8 0 8 7 7 8 8 7 8 7 8 7 7 8 7 7 8 7 8 7 8 7 8 0 7 8 7 7 8 8 0 8 7 q 7 7 8 7 8 7 8 7 8 7 7 7 8 7 q 7 7 7 7 8 7 7 q 7 7 8 7 q 7 7 7 q 7 8 7 8 7 8 0 8 7 8 7 8 7 7 8 7 8 q 7 8 7 8 7 8 7 8 7 ",
"%.o.o.%.%.%.o.@.@.o.o.%.%.o.%.%.o.%.o.%.o.%.o.%.o.%.%.' %.%.o.} %.o.o.o.o.o.%.o.o.o.o.%.o.o.+.o.%.o.%.o.+.o.o.o.o.+.O.o.o.o.o.o.o.+.+.o.o.o.o.o.O.o.o.o.o.o.o.O.o.' o.o.o.O.o.o.X.o.X.' o.+.o.} ! 5.0.w.e.e.e.e.e.e.q.e.e.e.e.e.e.e.e.e.e.e.e.e.e.e.e.e.e.e.e.w.<.#.@.~ @.^ [ R ' ..o.o.O.O.K K  .O.O.O. .) ) ) } [ { @.#.&.$.@.@.} ' ..%.o. .H K H X.X.X.X. .X.X.X.X.X.X.X.X.X.X.O.X.X.X.X.X.X.X.X.X.X.X.X.X.X.X.X.O.X.X.X.X.X.X.X.X.X.X.X.O.X.X.X.X.X.X.X.X.H X.X.X.X.X.H X.X.X.X.X.X.H X.X.H X.X.X.H H X.X.H X.X.X.X.H X.X.H X.V X.X.H X.H X.` X.V X.X.X.V H X.H H X.X.H H X.H X.X.H H X.X.H H H X.H X.H H V H H X.V H H H V H H H H X.H H H X.H H H H H H H H X.H H H H H H H X.H H H H H H H H H H H X.H H H H H H V H H H G H H H G H H G H G H H J H H G J H G J H H G G H H B H H B G G G G G G H B H G V G H V V B V V G J B D D f f @.5.w.w.e.e.q.e.e.e.e.e.e.e.e.e.e.e.e.e.w.e.w.w.w...F d D K D D D m f m m f D D D K H G k k G G B B B V V B V V n B B B B B B N B B B B k G G B B B G B B G B B B G B G B G B B B B G B G B B B B B B B B G B G B B B B B B B B B B c B B B B B B B B c c B c c S G S B c B c B B B M c B c B B c c G B c c G c B G B c B c c B c S B c B c G c c c B c c B c B c S S B c c S c S G c c S c S G c c S c S G c S S S c S c S c S c c G c B c c c c c c c c c c B c c c c c B c c B c z c c c c z c c z z c c c z c c c c c c c c x c c c x c c c c A k c c k x c c c c c x c c c c c c c c c c c x S c c c x c c x c x c x c x x c c x c c c c x l x c c x c c c x c x c c x c c l c c x c c x c c x c c x c c x c x c x c x c c x c x c l c x c x c l c x c x z x c x c x c l c l x x x x C x x x x c x x x A x x S x x x A x x k A x c x x x c x x x x x x x k x x x x x c x x S A x k x c x k x x x x x x l x x x x x x x x x x x x x x c x x x x x x x x x x x x x x x x x x x c x x x x x x A c x x x x x x x x 4 x 8 A x x 8 x x x 8 x x x x 8 x 8 A x 8 x 8 x 8 x x 8 A 8 x 8 x 8 A 8 8 x 8 x 8 x x 8 A 8 x 8 x 8 q x x 8 x x q x 8 x 8 x q x q x 8 8 8 A x 8 x 8 q x 8 x A 8 x 8 8 8 x 8 8 x 8 8 8 x 8 8 8 A 8 A 8 A 8 A 8 x 8 x 8 x 8 x 8 8 x 8 8 8 8 x q x 8 x 8 8 8 q x 8 8 x 8 8 x l 8 8 8 x 6 8 8 8 6 8 8 6 x 8 6 8 8 8 8 6 6 8 8 8 8 6 6 8 8 8 8 x 6 8 8 8 x 6 8 8 8 8 l 8 8 8 x x 6 8 8 x 6 8 6 8 6 8 8 8 x 6 8 8 8 x 6 6 8 8 x x 6 8 8 8 8 6 8 8 8 8 8 x 6 8 8 8 8 8 8 8 6 x 8 8 8 8 x 6 8 8 x x 6 8 6 8 8 8 6 8 8 6 8 6 8 x 6 8 8 8 8 8 8 x 6 8 8 6 8 6 8 6 8 6 8 6 8 6 8 8 6 6 8 6 8 8 6 8 6 6 8 8 8 8 6 7 8 6 7 8 8 7 8 8 8 8 8 8 8 8 7 7 8 8 7 8 8 8 0 8 7 8 7 7 q 8 7 8 0 8 7 7 8 7 7 7 8 7 8 7 8 7 8 7 8 7 7 8 7 0 8 7 8 7 8 7 7 8 7 q 7 q 7 7 8 7 q 7 q 7 7 7 q 7 8 8 7 7 8 7 8 8 7 0 7 8 7 7 8 8 7 8 7 7 8 7 8 q 7 7 8 7 q 7 8 0 8 7 8 7 8 7 q 7 7 7 8 7 8 8 7 8 7 8 7 7 8 8 7 7 8 7 7 8 7 q 8 7 8 7 8 7 7 8 7 7 8 7 7 q 7 0 8 7 8 7 8 7 8 7 0 8 8 8 7 7 8 7 q 7 7 7 8 8 7 8 7 7 q 7 8 0 8 7 7 8 7 ",
"o.%.%.+.o.o.%.o.o.%.%.%.%.%.o.o.@.o.%.o.@.o.%.o.%.' o.%.o.o.o.o.o.o.o.%.o.%.o.o.o.%.o.o.%.o.%.o.o.o.o.o.%.o.%.o.o.o.o.o.+.+.o.+.o.o.o.o.o.O.+.+. .o.o.o.o.o.o.o.o.o.o.o.o.O.o.X.X.o.o. .' o.o.} ~ 1.w.w.e.e.e.e.e.e.e.e.e.e.e.e.e.e.e.e.e.e.e.e.e.e.q.e.e.e.e.e.5.1.4.3.<.5.2.$.[ %.)  . .O.O.O.O. . .( o.%.@.@.4.5.5.w.w.w.w.w.4.#.@.@.' )  .o.X.K K X.X.X. .o.o.X.X.X.O.X.X.X.X.X.X.X.X.X.X.X.X.X.X.O.X.O.X.X.O.X.X.X.X.X.X.X.X.O.X.X.O.X.X.X.X.` X.X.X.X.` X.X.X.X.H X.X.X.` H X.H X.X.X.X.X.H X.X.X.X.X.X.X.H X.X.H X.X.X.X.X.V X.V V X.X.V H X.H X.V X.X.X.H H X.H H X.H H X.H H X.H H H X.H X.X.H H H H X.H X.H H H ` V X.V X.H H H H H H V H H H H X.H H H V H H X.H H H H H H H X.H H H X.H H V H H H H V H V H V H V H H G F J H G G H G F G H H H G H H G G G G G G H B H H B B H H G G G G G G H B G H V V V V H V H G G B D F F T $.w.w.e.e.e.e.e.e.e.e.e.e.e.e.e.e.e.e.e.e.e.e.e.w.5...f f F F F  .+.o.@.%.+...F d D n G D G S B B B N B V V B D B J B B B B V B V B B J B G c B B B B B B B B B G B B B B B B B G B B B B B G B G G B G B B B B B B B B B B G B B B B B B B k B B c B B B c G G c c G c G B B c B c c B c B c M B c c c G c c B c c c G c G c c B B c c G B c c B B c G c c B c B S c S S S c S c c S S c S c S S S c S B c S c c c S S G c S c S c c c S c c c c c c c c c B c c c c c c c c c c c c c z x c c c c c c c c c c c S x c x c c c c c c S k c c x c c c c c S c c c k c c c x c c x c c c x x S c c c c c c S c S k c c c c c c c c x c c x x c c c c c x c x x c c c c x x c c x c z x x c c l x c c x x c c l x c c c z x l c l c l c x c l c l c x c x z l c x c x c l c x c x c x S x x x x k A x x S x x k c x x x x k c x x x x x x x x A x x k x S x c x A x c x c x x x x x c x x x x x x x l x c x x c x x x x x x x A x x x x x x x x x A x x x A x x x x x x x A x x A x x x x x x x x x l x x x x l x x x 8 x 8 x 8 8 x 8 x 8 x x 8 8 x 8 x x 8 8 x x x 8 x x 8 x 8 A 8 8 x x 8 x x x x 8 x x 8 x 8 A 8 x 8 x x x 8 x 8 8 x x 8 x A 8 x x 8 x x x 4 x 8 A 8 x x x 8 x 8 6 x 8 x x 8 8 x 8 x 8 x 6 x x 8 8 8 8 8 8 8 8 8 8 q 8 8 8 q 8 8 8 8 8 A A 8 8 8 8 8 q 8 8 x 8 8 x 8 8 8 8 6 8 8 8 8 8 8 6 x 6 x x 8 8 8 6 x 8 8 x 8 8 x 8 6 x 6 8 x 8 8 8 8 6 8 6 x 8 8 8 6 6 x 8 8 8 8 8 6 8 6 8 8 8 6 6 x 8 x 6 x 6 8 8 8 8 l 8 8 8 8 8 6 6 8 8 8 8 6 x 6 8 8 8 8 6 8 x 8 8 8 x 8 8 8 6 8 6 x 8 8 8 6 8 6 8 8 8 8 8 6 6 x 8 8 x 8 8 8 8 8 l 8 6 6 x 8 6 8 8 6 6 6 8 6 8 6 8 6 8 6 8 6 6 8 8 6 8 6 6 8 6 8 8 6 8 8 8 8 8 8 8 8 8 8 8 8 8 8 6 8 5 8 8 8 8 8 8 8 7 7 8 8 7 8 7 8 8 7 7 8 7 8 7 8 0 7 8 q 8 7 8 0 0 8 7 7 8 7 7 q 8 7 8 7 8 7 q 7 8 8 7 8 8 7 7 8 8 7 7 7 8 7 7 8 7 7 8 7 7 q 7 7 q 7 7 8 8 8 7 7 8 0 8 7 7 8 q 7 7 7 7 8 8 7 7 7 8 7 8 7 8 7 7 q 8 7 7 8 8 0 8 7 7 8 0 8 7 q 7 7 7 8 7 8 q 8 7 q 7 7 q 7 8 7 q 7 7 8 8 0 8 7 7 8 8 7 8 7 0 7 8 8 7 8 7 7 7 q 8 7 8 7 8 8 q 7 7 q 7 7 8 7 8 7 8 7 q 7 7 8 ",
"%.%.o.@.%.o.o.%.%.o.%.o...%.o.%.o.%.%.o.%.%.%.%.o.o.%.o.%.' %.o.%.o.%.o.o.o.+.o.%.o.+.o.o.o.o.%.o.+.o.%.o.o.o.%.+.o.o.+.O.o.o.o.+.O.O.o.o.+.o.o.+.o.o.o.O.o.o.o.o.%.o.o.o.o.o.O.o.o.o.o.o.o.' ) #.6.w.w.e.e.e.e.e.e.e.e.e.9.e.e.e.e.e.e.e.e.e.e.e.e.e.e.e.e.e.w.w.w.w.w.w.w.w.5.4.&.@.o. .o.o.+. . .( ..%.&.5.5.w.w.w.e.w.w.w.w.w.5.4.&.[ } o.o.X.X.X.X.X.X.o. .X.X.X.X.X.O.X.X.X.X.X.X.X.X.X.X.X.X.X.X.X.X.X.X.X.X.X.X.X.X.X.X.X.X.X.X.X.X.X.X.X.X.X.X.X.X.X.X.X.X.X.X.X.X.X.X.X.X.H X.X.X.X.X.H X.X.X.H X.X.V X.X.V X.H X.X.H X.X.V X.X.X.X.X.` X.X.` H X.X.V X.H X.H H X.X.H H H H H X.H K H H H K H X.H X.H H V H H V X.H X.H H H H H H X.H H H X.H H H H H H H H H H H H X.H H H H V H H X.H H H X.H H H H V H H H H V H H G G H H H H H H G H H G G H H G G H G G H D H H H B G G H H B B G J G H B V V H V V H V V H V G G J G D F F @.4.5.w.e.e.e.e.e.e.e.e.e.e.e.e.e.e.e.e.e.e.e.e.e.w.w.$.Y Y ^ @.*.4.4.5.5.5.4.=.%...( f m H J B c G B V B B B B B D n B B B B V B B N B n B B B B B B G B B G B G B B B G B G B G B B G B B B G B B B B B G B B G B B G B M B k B M B B M B B B B B B B c B G c G G S G G S B c c B B c B B c B B c B c c c B c G c S c c c c B G c c c B c c B B c G c B c S B c c S G c S G S S c S c c S c S S c c G c S S S c S c S c S c G c S S c G c c c c c c M c c c c c c c c c M c c c c z c c z c c c c c c z c c c c c k c c c x c c c c c c c S x c c c c c x c c c x A c c c k S c c c c k S c k c c x S c c c c c c c x c c x c c x c l x c c x x z z x x c c x c l x c l c x c x c c c c x c c c c z c x c z c c c c x c x x x c x c x c x c x c x c l c x c x c x z x c l c x c x x x k A c x c x x x x x x x x x c x c x x c x c x x c x x k x x x A x c x x x x x x k A x x x x x x c x x x c x x x l x x x l x x A x x x x x x x x x x x x x x x x A x x x x x x x x x x x A x x x x x x x x x x x x x x x x x x 8 x x 8 x x x 8 x x 8 8 x x 8 A 8 x x x x 8 x 8 x 8 x 8 8 x x A 8 x x 8 x 8 x 8 x 8 x 8 8 x x 8 8 x 8 x 8 8 A x 8 8 A 8 x x 8 x x 8 x x x x 8 8 x x 8 x 8 8 x x 8 8 x 8 8 x 8 x 8 x 8 8 8 8 x 8 8 x 8 8 8 x 8 8 8 A 8 8 8 8 x x 8 8 8 8 8 8 x x x 8 x 8 x 8 x 8 8 x 8 8 x 6 8 8 8 6 8 8 8 6 x 6 8 8 6 8 8 l 8 6 8 8 8 6 8 6 8 8 8 x 6 l 8 8 8 8 8 6 8 8 6 8 8 8 8 6 8 6 x 6 8 8 8 8 8 8 8 l 8 8 8 8 8 8 6 8 8 8 8 6 8 8 x 6 8 x 6 8 x x 8 l 8 x 6 8 8 6 8 6 8 6 8 8 8 6 x 8 6 6 8 8 8 8 6 x 8 8 8 8 x 8 8 x 6 8 8 6 8 8 6 8 8 8 x 8 6 8 8 8 x 8 6 6 8 6 8 6 8 6 8 6 8 8 6 8 6 6 6 8 6 6 8 6 8 8 6 8 6 6 8 6 8 8 6 6 6 8 6 6 x 8 8 8 8 8 8 8 8 7 8 8 7 8 0 0 8 7 8 0 8 8 7 8 7 8 8 8 7 7 q 7 8 8 7 8 0 7 q 8 7 7 8 8 8 0 7 7 7 8 0 7 8 7 q 7 7 7 q 8 7 7 8 0 8 8 7 8 7 8 7 7 8 7 8 0 8 8 7 7 q 8 7 7 8 q 7 7 8 8 8 7 7 7 7 8 7 8 7 8 7 7 7 8 7 8 7 8 7 7 8 7 8 8 7 7 7 8 7 7 8 q 7 8 0 7 8 7 7 q 7 7 7 q 7 8 7 q 8 7 8 7 8 8 7 7 8 0 8 8 8 7 0 7 7 8 7 7 7 7 q 7 7 q 7 7 8 7 7 8 0 7 8 7 7 7 8 8 7 8 0 ",
"%.o.%.o.%.%.%.%.o.%.o.%.%.o.%.%.@.%.o.%.o.%.o.o.%.o.' %.o.%.o.%.+.o.o.o.o.%.o.%.o.o.o.%.%.o.o.o.%.o.o.o.%.o.o.o.+.o.o.+.o.o.O.o.o.o.o.+.o.o.+.o.o.o.o.O. .o.+. .' ' o.o.o.O...o.o. .X.o.' ' o.} 3.w.e.e.w.e.q.e.e.e.e.9.e.e.e.9.e.e.e.e.e.e.e.e.e.e.e.e.e.e.e.e.w.8.w.w.w.w.w.w.5.5.4.#.@.......R ^ $.$.4.5.w.w.w.w.w.w.w.e.e.w.w.w.w.5.5.$.o.( o.O.O.X.O.O.o.)  .O.X.X.X.X.X.X.X.X.X.O.X.O.X.X.o.X.X.X.X.X.X.X.X.X.X.X.X.X.X.O.X.X.X.X.X.X.X.X.X.V X.X.H X.X.` X.V ` X.X.X.X.X.X.X.X.X.X.H H ` X.X.X.H X.X.X.X.X.X.X.X.X.X.X.X.V X.X.X.X.V V X.H H X.H ` X.H X.X.K H H X.K H X.H X.X.K H X.X.H X.X.H X.H H V H H X.H X.H H V V H H H X.H H H H H H H H H H H X.H H X.H H H H V H V X.H H H H H H H H H H H X.H H H V V H H H V H H G H G D H G H G H H F G G H H H H D V H H H V V H V H B H H H V H V V H G V V G V B H G B G S G G D F +.=.w.w.e.e.e.e.e.e.e.e.e.e.e.e.e.e.e.e.e.e.e.e.e.e.e.e.3.#.$.<.4.5.w.w.w.e.w.w.8.5.5.*. .m m V V G G B B G c G B J Z D B B B B B V B G J J n B B B B B B G G B B B B B G B B B B B B B B G B B B B G G B B B G B B B B G k B B B B B B B B B B B B B c B B B c G S c c c G c c M B c c B c M c B c B c G B c c G c B B B c B B c c B B c c B B c B S c B c c B c B c c c S c c S c S S S B S S c c S c S S c S c S c G c S c S c S c c c c c c c B c c c c c c c c c c c c c B c c c c c c c c z c c c c c c c c c z S x c c S k x S x c S x k S x c x c c c S x c c c c S x c c c S c c x c c x c c c k x c c c c x c x c x c x x c c c x c c x c c x c c l c c c x c l c c x c c x l x c c x c x x x c c x x x c x c c x z c c l c l c x z x z x c x c x c l c l c x c x c x z l c x c x x x x x x c x c x x x S x x x x x x x x x x S x x x x c x x x x x c x S x S x x x x c k x c x x x x c x x x c x c x x c x x x x x x x x A x A x x A x x x x x x x x x A x A x x x x x x x x x A x x x x x x x x x x x x x 8 x 8 x A 8 x 8 x 8 x x A 8 8 x 8 x x 8 8 8 A 8 A 8 x 8 x x 8 x 8 x x 8 x 8 A 8 A 8 x 8 x x 8 x A x 8 x 8 x x 8 8 x x 8 x 8 8 x 8 8 x 4 8 A 8 x x 8 8 x 8 x x 8 8 x 8 6 8 x 8 x 8 x 8 x x 8 x 8 8 x 8 q 8 x 8 q 8 A 8 8 8 A q 8 8 q 8 x x q 8 8 8 q 8 8 8 8 q 8 x 8 8 8 8 6 8 8 8 6 x 8 8 6 8 8 8 6 8 8 6 x 8 8 6 8 8 8 6 x x 8 x 8 6 8 8 8 8 6 8 8 x 6 8 x 8 6 6 x 8 8 8 8 8 8 6 6 x 8 8 8 8 8 6 8 x 6 6 x 8 8 6 x 8 8 6 8 8 8 6 8 8 8 6 8 8 8 6 8 8 6 8 8 x 6 8 6 x 6 8 8 8 8 x 6 8 8 8 8 6 8 x 6 6 8 x 6 8 8 8 6 x 8 6 x 8 8 8 6 6 x 8 8 8 8 6 8 8 6 8 6 8 6 8 6 8 6 6 8 6 8 x 6 6 8 8 6 8 6 l 8 6 8 8 6 8 6 6 8 6 8 6 8 6 6 8 8 8 7 8 8 8 8 8 7 7 7 8 8 8 7 7 7 7 8 7 8 0 8 8 7 7 8 7 7 8 7 7 7 8 8 7 8 7 8 8 0 7 7 8 8 7 8 7 8 7 7 8 7 7 8 8 7 7 8 8 7 8 7 7 8 8 0 8 7 q 7 7 7 7 8 7 8 8 7 7 7 q 7 7 7 8 7 0 8 7 8 8 q 7 8 7 q 7 7 q 7 7 8 7 8 8 0 8 7 8 0 0 8 8 7 q 7 q 7 8 7 7 7 8 7 8 7 7 8 7 8 7 8 7 7 7 7 8 7 8 7 q 7 8 7 8 7 8 7 7 8 8 q 7 8 8 7 8 7 7 8 7 8 7 7 8 7 7 8 7 8 7 q 8 7 7 8 7 8 ",
"o.%.o.%.o.%.%.o.%.%.o.%.o.%.%...+.%...%.%.o.o.%.%.' %.o.o.} o.%.%.o.o.o.o.o.o.o.o.%.o.o.o.%.o.o.o.o.o.o.+.%.o.%.O.o.o.+.o.o.+.+.o.o.+.o.o.o.+.o.o.O.o.o.o.o.o.O.o.%.o.o...o.o.o. .o...o.o.o.o.[ 5.w.w.w.e.e.q.e.e.e.e.e.e.e.e.e.e.e.e.e.e.e.e.e.e.e.e.e.e.e.e.e.e.w.e.w.w.w.e.w.w.w.w.5.<.@.[ R ^ $.<.5.w.w.w.e.e.e.e.e.e.e.e.e.e.w.w.w.w.5.&.) o.( X.X.X.o.' o.X.X.X.X.X.X.X.X.X.X.X.X.X.O.X.X.X.X.X.X.X.O.X.X.X.X.X.X.X.X.o.X.X.X.O.X.X.O.X.X.X.X.X.X.` H X.X.X.X.X.X.X.X.X.H V X.H X.X.X.H X.X.X.X.X.H X.X.X.H X.X.X.X.X.X.V V X.X.V X.H H X.X.X.X.X.V X.V X.H H X.H H X.H K K X.H H H H X.X.H X.X.H H H X.H H X.V X.V H H ` H H H H H H H H X.V H H X.H H H X.H H H H H H H H X.H H H H H H H H H H H X.V H H H V H H V H V H D H H H H G H G H G G G H H V H V V F V G H H H V G D F G G H V V H V H V D V G G H B H G G K G S D n m %.4.w.w.e.q.e.e.e.e.e.e.e.e.e.e.e.e.e.e.e.e.e.e.e.e.q.e.q.w.w.w.w.w.w.e.e.q.q.q.w.w.w.5.=.%.T f F G B B B c B k S J S G J B B B G B G G n n B B V D B G B B c B B B B G B B B B G G B B B B G B B G B B G B B G B B B c B B B B k B B B G B B M G B B B c B c c G c S G c S B c B c B B B c B c B c M c B c G c B c c c B c G c c B c B S c B c c B c S B c B B c c B S c c S S c c S c G c S c G c c S c S S S c S G S c c S S c G S c B c B c c c c c c B c c c M c c c c B c c c c c c c c c z c c c c c z z c c c c c c c c c c k c c c c c c c c c c c c k S c c c c c c x c c x c x c c c c c c c c S k c c c k c c x c c l x c x c c c x c c x c c x c c x c c c c x c x c c c c x x c c x x c c l x c c c x c c x c x l c c x c x c x c l c l c x c x c x c x c x c l c x z x k A c x x x c x k x x S c x k A x x x x x x x x x k x x x c S x c x c x x x x x x k A x x x A x x x x x x x x x x x l x c l x x x x A x x x x x x A x x x x x x A x x x x x x x x x x x A x x x A x x x x x x x x x x x x x x x 8 A 8 x 8 8 x 8 x 8 x 8 8 x 8 x x x 8 x x 8 x x A 8 x x x x 8 x 8 x 8 x x 8 x x A 8 x x x x 8 x x 8 8 x x x 8 A x 8 x x A 8 x x A 8 8 x x 8 8 x A 8 8 x x x 8 x 8 x 8 x 8 8 x 6 8 x 8 x 8 x x 6 q 8 8 x 8 x 8 8 8 8 q x q 8 x x 8 x 8 x 8 q A 8 8 x 8 x x 8 x 8 8 x 8 x 8 8 x 8 6 x x 6 8 8 8 8 8 6 8 8 8 x 6 8 8 8 8 8 8 l 8 8 6 8 8 8 8 8 6 x 8 8 x 6 8 x 6 8 6 8 8 6 x 8 8 6 8 x x 6 8 6 8 8 6 8 x 8 8 x 6 8 6 8 8 8 x 8 8 6 8 6 8 8 8 8 x 6 6 8 8 x 6 8 6 x 8 8 8 8 8 x 6 8 8 8 6 6 8 6 8 6 8 6 6 8 6 8 6 x 6 8 x 8 6 x 8 8 6 8 6 8 8 6 8 6 8 6 8 6 6 8 6 8 6 8 8 6 8 6 8 6 6 8 6 8 6 8 6 8 8 6 8 6 8 6 8 6 8 6 6 8 6 8 6 8 8 8 8 8 7 8 8 7 0 8 7 8 0 8 8 7 8 8 7 7 7 8 7 7 7 7 q 7 7 8 0 7 8 7 8 7 q 7 8 0 7 8 q 7 8 7 7 8 8 7 8 q 7 8 7 8 7 8 7 8 7 7 7 8 q 8 7 8 8 7 8 7 8 7 7 8 8 7 q 8 8 7 8 7 q 7 7 q q 7 7 8 7 q 7 7 8 7 7 8 7 8 q 7 7 8 7 8 7 q 7 8 8 7 8 7 8 7 8 7 7 q 7 7 8 7 7 8 8 7 q 7 8 7 7 q 7 8 7 7 7 0 8 8 q 7 8 8 7 8 7 8 7 8 7 8 7 q 8 7 8 7 8 7 7 0 8 8 8 7 8 7 7 8 7 8 7 q 7 q ",
"@.o.o.%.%.%.o.%.%.o.o.%.%.o.o.%.%.o.%.o.o.%.%.%.o.%.o.o.%.o.o.o.o.o.o.%.%.o.%.o.o.o.%.o.o.o.%.+.o.%.o.%.o.o.o.o.o.o.o.o.o.o.o.o.+.o.O.o.o.+.o.O.o.o.o.o.o.o.o.o.o.o.o.o...o.+. .o. .o.o.o...+.#.w.e.e.e.e.e.e.e.e.e.e.e.e.e.e.e.e.e.e.e.e.e.e.e.e.e.e.e.e.e.e.e.e.e.e.e.e.e.q.w.e.w.w.w.5.3.#.-.5.5.w.0.w.w.w.e.e.e.e.e.e.9.e.e.q.e.e.e.w.w.5.@.' ) ` o.`  .o.o.X.X.X.O.X.X.X.X.X.X.X.X.X.X.X.o.X.X.X.X.X.X.X.O.X.X.X.O.X.X.X.X.X.X.X.X.X.X.X.X.X.X.X.X.X.X.X.X.X.X.X.X.X.X.X.X.X.X.X.X.X.H X.X.H X.X.X.X.X.H X.X.X.X.X.X.V X.X.X.X.H X.X.` X.H X.V H ` H X.X.X.H X.X.H H X.X.H X.H H X.X.H H H H H H X.H X.H H H H H H X.V H H H X.H H H X.H H H H H H H H H H H H H H H X.H H H H H H X.H H H X.H H V H H H H V H H H H H H H H H G G H G G H F H H H F H G H H H F V V F H H V H G H B H G B V G H V H H V H H G B F D H G G J J K m ( =.w.w.e.e.e.e.e.e.e.w.e.e.e.e.e.e.e.e.e.e.e.e.e.e.e.e.q.e.e.e.e.w.e.e.q.q.q.q.q.e.e.w.w.w.<.%.( F V n V B B B B J S D n B B B B B c G J B J n B B B B B B B G B G B G B B G B B B B B G B B B G c B B B B G B B B B G B B M B G G B B B G k M k G B c B c B B G c G G c G G c B c B M M c c B B B B c B c c c B c c B c c B c c B c c c c B c c B c G c B B c c c G c c S S c c G S c S c S c S c S S c S G c c S S c c S S c c S c S c c c c c c c B c c c c c c c c c c c c c c c c c c c c c c z c z c c c c c z c S x x c c S x c c c c c S x c x c c c x c x x S x c x c c c k S c S c x S x x c c c x c x S c A x c c c x c c c x c x c c x c x c x x c x c c x x c c x c x x c c c z c x c c c x c c x x c x c c x x c c c x c l c l c x c x c l c x z x z l c l c x c x c x c x x x A x c x x A x x x x x x x c x k A A k x c x A c x x x x x x x x x c x c x x x x x c x c x x x k x x x k x x x x c x x x x x x x x x x x x x x x x x x x x x x x x x A x x x x x x x x x x x x x x x x x x x x x l x l x x x 8 x x x x x x x 8 8 A x 8 A x 8 8 x x 8 x A 8 8 x 8 x 8 8 x 8 x 8 x x 8 x x 8 8 x 8 x 8 8 x 8 8 x x 8 x 8 x 8 8 x x 8 8 x 8 8 8 x A 8 8 x x 8 8 x x 8 8 A x 8 8 x x 8 x x 8 x x 8 8 x x 8 8 x x 8 q 8 q 8 8 x x 8 8 8 8 x 8 8 q 8 8 x x 8 8 8 8 8 q 8 8 q x 8 8 x 8 8 8 8 6 8 8 6 8 8 6 8 8 8 8 x 8 6 6 8 8 8 x 6 6 8 8 8 8 8 6 8 6 x 6 x 8 8 8 8 6 8 8 6 8 8 8 6 8 x 6 6 8 x 8 6 8 8 8 8 8 6 8 8 6 8 8 8 6 8 8 6 x 6 6 6 8 x 8 x 8 6 6 8 8 8 x 8 6 8 8 8 8 8 8 6 x 6 6 8 8 8 6 x 8 x x 8 8 x 8 x 8 8 8 8 8 6 8 8 6 8 8 8 6 8 8 6 8 6 6 8 6 8 6 8 6 8 6 6 8 6 8 6 6 8 6 8 6 8 6 6 8 6 8 6 8 6 6 8 6 8 6 8 6 8 6 8 8 6 8 6 8 6 5 8 5 8 8 8 8 8 8 7 8 7 7 8 7 8 0 8 7 8 q 7 7 8 7 8 7 8 7 8 8 8 7 q 7 8 8 7 7 8 8 7 7 8 7 8 8 0 7 q 7 7 8 0 8 7 7 7 8 7 7 q 7 8 7 7 q 7 0 8 7 8 7 q 8 7 7 8 7 7 7 q 7 8 8 7 7 8 7 7 8 7 8 7 7 8 7 8 q 7 8 7 7 8 q 7 7 8 8 7 8 7 7 8 7 8 0 8 7 8 8 7 7 8 7 8 q 7 7 q 8 7 8 q 8 8 q 7 8 q 7 8 7 7 7 8 7 7 7 7 8 7 q 7 8 7 7 7 7 8 0 8 7 8 8 7 8 7 7 8 7 q 8 7 8 0 8 7 7 8 ",
"o.%.%.o.%...o.%.%.o.@.o.%.%.%.+.o.o.%.%.%.%.%...%.o.o.%.%.o.%.o.o.%.%.o.o.o.+.%.o.o.o.+.o.o.o.o.%.o.o.o.o.%.+.+.o.+.+.o.+.O.o.o.o.+.o.o.O.o.o.o.o.o. .O.o.o.o. .o.o. .O.o.o.O.o.o. .o.o.o.o.o.*.w.w.e.e.e.e.e.e.e.e.e.e.e.e.e.e.e.e.e.e.e.e.e.e.e.e.e.e.e.e.e.e.e.e.e.e.e.e.e.e.e.w.e.e.w.w.w.0.e.8.w.e.w.e.9.e.q.9.9.e.9.e.e.q.e.e.e.9.e.w.w.4.} ' ' o.o.X.O. .o.X.X.X.X.X.O.X.X.X.X.X.X.X.X.X.X.X.X.X.X.X.X.X.X.X.X.X.X.X.X.O.X.X.X.O.X.X.X.X.X.X.X.X.X.X.X.H X.X.V X.X.X.X.X.X.H X.H X.X.X.X.X.V X.H H X.X.X.X.X.X.H X.H V X.X.V X.H V X.X.` X.X.V X.X.X.H H H K H X.H H H H X.H X.H H X.X.K X.X.H H H H H V H X.H H H ` V X.H H H V H H H H H H X.H H H X.H H H X.V H H H H H H H H V H H X.H H H X.H H H H V H H H V H V H G H G H H H H G J H H G G H G H V H V H H H H H G G G G G H G H G V B H G G G H G G H G G G V J G G G V  .4.w.w.e.q.e.e.e.e.e.w.e.e.e.e.e.e.e.e.e.e.e.e.e.e.e.e.e.e.e.e.w.e.e.e.e.9.e.e.e.e.w.8.w.w.5.4.@.( f n m V B n B n B D D B B B B S G G B B n J B G G B B B B B G B B B G B G B B B B B c G B G B G B B B B B B G B G B B B B B B B B B c B B B B B B B B B c B S c G c G G c c c c B c c B B c B c c B c c B c S B B c B c B c B B c B B c G c B c c B B c c B G c c B S S c S S S c G G c S c S S G c S S c S G c c S S S c G S S S c c c c c c c c c c c c B c c c c B c c c c c c c c c c z c z c c c c c c z c c c c c c c x c x S c c c x c x S c c c c k c c x c S x c c c c c c c x k c c k A c c x x c c c c c c c c x c c c x c c l c c x c c c c c c x c c x x c c l c z c c x c c x c c x l c c c c x c c x x c x c x c c l c x z x c x c l c x c x c x c x c x c x c l c x x x x x x x A x x x x x x c x c x x x c x c x x x x x x x x x x x A c x x x x x x x c x x x x c x j x x x x x x x z x x x x l x x x x x x A x x x x x x x x A x x x x A x x x x x x A x x x x x x x A x x x x x x x x x x x x x 8 x x 8 8 x 8 x 8 x A 8 x 8 x 8 x 8 A 8 x 8 8 x 8 x 8 x x 8 x x x 8 A 8 x x 8 A 8 x 8 x x 8 A x A 8 8 x x 8 8 x A 8 8 x x 8 8 x x x 4 x x x 4 x x 8 8 x A 8 8 x x 6 8 x 8 x x 8 8 8 x 8 8 8 x 8 q 8 8 x 8 x q 8 8 8 8 x 8 8 8 x 8 8 x 8 8 8 q 8 8 A x 8 x 8 8 q 8 8 8 x 6 x 8 6 8 x 6 8 x 8 8 l 6 8 x 6 6 8 8 6 x 8 x 6 8 8 6 8 8 8 8 6 8 8 8 8 x 6 8 8 8 6 8 x 8 x 6 x 8 8 8 8 8 6 x 8 8 8 8 x x 6 6 8 8 8 8 x 8 x 8 l 8 8 8 8 6 8 6 8 8 8 8 8 8 8 x 8 x 6 6 8 6 x 8 8 8 8 8 6 8 8 6 x 6 8 8 8 8 8 x 6 8 8 8 8 x 6 6 8 8 8 x 6 6 8 6 8 8 6 x 6 8 6 8 6 6 x 6 8 6 6 8 6 8 6 8 6 8 6 6 8 6 8 6 8 8 6 x 6 8 6 8 6 8 6 8 8 l 6 6 8 8 5 8 8 8 8 8 8 8 7 7 q 8 7 8 0 7 8 8 7 7 8 q 7 7 8 7 8 8 7 7 8 7 8 7 7 7 q 7 7 7 q 8 7 7 8 8 7 7 7 7 8 7 8 7 8 q 7 8 q 8 7 7 8 q 7 7 7 8 7 8 0 8 7 7 q 8 7 8 7 7 8 7 7 7 7 q 7 8 7 7 q 8 7 8 7 q 7 7 8 7 8 8 7 7 7 8 7 7 7 q 7 8 7 0 8 8 7 7 q 7 8 8 7 8 7 7 8 8 8 8 q 7 8 8 8 7 7 8 7 8 7 8 7 7 7 7 7 q 7 7 8 7 7 8 7 8 7 8 7 8 7 8 0 7 8 8 7 7 q 7 8 8 7 8 7 7 7 q 7 ",
"%.o.%.%.o.%.%.o.%.%.o.%.o.%.o.@.%.%.o.%.%.o.o.%.} o.} o.o.%.' %.o.+.o.o.o.%.o.o.%.o.%.o.%.o.%.o.o.o.o.%.o.o.o.o.o.o.o.O.o.o.+.+.o.o.o.+.o.o.+.O.o.o.+.o.O.o.o.O.o.o.o.o.o.o.o.o.o.o. .o.' ` ' &.w.w.8.w.e.e.e.e.e.e.e.e.e.e.e.e.e.e.e.e.e.e.e.e.e.e.e.e.e.e.e.e.e.q.e.q.e.q.e.e.e.e.e.w.e.w.w.w.9.w.e.e.e.9.e.e.e.e.e.q.e.e.e.e.q.e.e.9.9.e.w.5.{ ' o.` o.X.F  . .X.X.X.X.X.X.X.X.O.X.X.X.X.X.X.O.X.X.X.X.X.X.X.O.X.X.X.X.X.X.X.X.X.X.X.X.X.X.X.X.V X.X.X.X.X.X.X.X.X.X.H ` X.X.X.X.X.X.X.H X.X.X.X.X.X.X.X.H X.X.X.X.X.X.` X.H X.H ` X.V X.H X.V X.X.H ` H X.` X.X.H H X.H X.X.K H X.H H X.H H H K X.H H X.H X.H V X.H H H H V H H H X.H H V X.H H H H H H V H H H H H H H H X.H H X.H H H H H H H H H H H X.H H H V H V H H H G H H H G D K H H H G H H G H H H H B F V D H G G H G G H G H H H D H G H G G G G H G G G G H G J k J  ...5.w.w.e.e.q.e.e.e.e.e.e.e.e.e.e.e.e.e.e.e.e.e.e.e.e.e.e.e.9.e.9.w.e.e.e.e.q.9.9.e.e.e.e.e.w.5.@.T f o.m m ` m ` V m N V B V B G S S c G k B J S S G S G G B G B B B G B B c G G B B G G B B B B B G B G B G B B B B B B B B B B c B B B B B B B B B B c B B B c G c G c c c G B B c B B B c M c B B c B G c B c B c c c B c G c S B c c B c B c c G c c c G c B c c G c G S c c S S c S S c S c S c S c c S c c S S c c S S c B c c S c G c B c c c c c c c c c c c c c c c c c z z c z c c c c c c c c c c c c x c c k S x c c c c c k A c c k c c c c S x S c c c c c S k c c c x c c c S c c c c c c S c c c c x c x c c c c x x c x c c x l c c x x x c l z c x c c x c c x c x x c x x c c x c c c x x c c l c c c c z x l c x c x c x c x z x c l c l c x c l c l c x z x c l c c x c x x k x c x c c x x x x x c x x x x x x c c x c x k A x c x k x x A k x c x c x x c x x x x x x x x k x x x x x x x x c x x A x x x x x x x x x A x x x x x x x x x x x A x x x x x x A x x x x x x x x x x x x x x x x x 8 x 8 x x 8 A 8 x x 8 x 8 x 8 x 8 x 8 x 8 x x 8 x 8 x x 8 A 8 A 8 x 8 x 8 8 x 8 x 8 x x 8 A 8 x x x A 8 x x 8 x 8 x x 8 x x x x x 8 x 8 x 8 A 8 x x x x 8 x 8 x 8 x 8 8 x 6 8 8 x 8 8 x x 6 8 x 8 x 8 8 8 8 x x 8 x q 8 8 x q 8 x 8 8 q 8 x 8 x 8 8 8 q 8 8 x 8 8 x 8 8 8 6 6 x 8 8 8 6 6 8 8 8 x 8 8 8 x 8 8 8 6 8 8 8 6 x 8 8 x 6 8 8 6 8 x 6 6 8 8 6 x 8 8 6 8 8 8 6 8 8 8 8 8 8 6 8 x 6 6 8 8 8 8 6 x 8 8 6 8 8 8 8 8 8 8 6 6 x x 8 8 6 x 6 6 8 6 8 8 8 8 6 8 6 6 x 8 8 6 x 8 6 8 8 8 8 6 8 x 6 8 8 8 l 8 8 8 8 8 6 x 8 8 8 8 6 8 6 6 6 6 8 6 8 6 8 8 6 8 6 8 6 6 8 6 8 6 8 6 x 8 6 8 6 8 6 6 6 6 8 6 8 6 8 6 8 6 6 8 8 8 6 8 8 8 8 8 7 8 8 7 8 7 7 7 8 7 8 8 7 7 q 7 8 7 8 7 7 q 7 7 q 7 7 8 7 q 7 8 7 7 8 7 7 7 7 q 7 7 8 8 7 8 0 8 7 7 q 7 8 7 7 7 8 8 0 7 8 7 8 7 8 7 8 7 8 7 7 7 8 0 8 8 7 q 7 8 7 7 8 8 7 7 8 7 8 0 8 7 7 8 7 8 0 7 7 8 7 7 q 7 8 7 8 7 8 7 8 7 8 7 7 8 7 7 q 7 7 8 7 8 0 8 7 8 0 8 0 7 8 7 8 7 8 0 8 8 7 q 8 7 8 7 8 7 8 7 q 7 8 0 8 7 8 7 8 7 q 7 8 7 7 8 7 7 8 7 8 8 7 7 8 ",
"@.o.@.o.%.o.%.%.%.%.o.%.%.o.%.o.%.%.o.%.%.o...%.o.%.%.o.o.%.o.%.o.%.o.%.o.+.o.%.+.o.o.o.o.%.o.%.+.o.%.o.+.o.o.o.o.o.+.+.o.o.o.o.+.O.o.+.o.o.o.+.o.o. .o.+.o.o.o.o.O.o.O.o.o.` o.o.o.o.' o.' o.&.w.e.e.w.e.e.e.e.e.e.e.e.e.e.e.e.e.e.e.e.e.e.e.e.e.e.e.e.e.e.e.e.e.e.e.e.e.e.e.e.e.e.e.e.e.w.e.w.w.e.e.9.e.9.e.e.e.e.e.e.q.e.e.q.9.e.9.e.e.e.w.w.4.@.) X.O.X. .o.X.X.X.X.X.X.X.X.X.X.X.X.O.X.X.X.X.X.X.X.X.X.X.O.X.X.X.X.X.X.X.X.X.X.O.X.X.X.` X.X.V X.X.X.X.X.V X.X.X.X.X.X.X.X.X.X.X.X.X.X.X.H X.X.X.X.X.H X.H X.X.X.X.H H X.X.H X.` X.V X.V X.H ` X.V X.V H X.H X.X.H H X.H H X.H H X.H H H X.X.H H H H H H X.H X.H H V H V X.H H H H X.H H H H H H H H H H H H H H H X.H H H H H H H H X.H H H X.H H H H X.H H H V H H H V V H H G H H H G H H H H G H G H H H H H D G G B G B B G H H H V V G D G H G J G G G G G B B H V G B J H b *.5.w.e.q.e.e.q.e.e.e.e.e.e.e.e.e.e.e.e.e.e.e.e.e.e.e.e.q.e.e.w.e.w.e.e.e.e.q.e.e.e.e.w.e.e.w.w.5.@.p T ( ( ' o.%.) / s V N B B J S G S G S D G B S G S S B B B G B B B B G B G B G B G B B G B B B B B G B B G G G B B c G B S c B B S B c B B c B B k B B c c B c S c c B c B c B B c c B c B B c M c B c S B c B c G c c B c B c c B c B c B c S B c c c B c G c c c c S c S c S c S c S S c S G c S S S c S c G c S S G c S S S c G c S G c c c c c c c c B c c c c c c c B c c z c c c c c c c c z c z c c c c z c x S c x c c c c c c c k c c A k x c c c c c c c c c c S c c A c c c c c c c c c c c x S c k A c x c x x c x x c c x x c c x c c c x x c c x c c c x c c c x c c c c c x c x l c x c c c x l c x c x z x c l c l c x c x c l c x c x c x c x c x c x c x c l z x x A x x x x x A x x x c x c x x x c x c x x x A c x c x x S x c x c x A x x x x S x x k A x x x k x x x j x x x x x c x l x x x A x x x x x x x x x x x x A x x x x x x x x x x x A x x x x x x x A x x x x x x x x 6 l x x 8 x x x 8 A x 8 x A 8 x 8 x 8 A 8 8 A x 8 x A 8 x x 8 8 x 8 8 x x 8 A x 8 x A 8 x x 8 8 x 8 8 x x 8 8 x 8 x 8 x 8 8 x 8 A 8 x 8 x 8 8 x x 8 8 x x 8 8 x 8 x 8 8 x 8 8 x 8 x 8 8 8 x 8 x x 8 8 x x 8 x 8 x 8 8 q 8 x 8 x 8 x 8 8 8 8 8 8 q 8 q 8 8 x x 8 x 8 8 A 8 8 8 8 8 8 8 8 8 8 6 8 x 8 6 x 8 8 6 8 8 8 8 6 8 8 x 6 8 8 6 x x 6 x 6 8 8 8 8 8 8 8 8 8 8 l 8 8 8 x 6 8 8 8 x l 8 x 8 6 8 8 8 x 8 8 x 6 8 8 8 8 8 8 x 6 8 8 8 8 8 8 8 6 x 8 8 6 x 6 8 6 x 8 8 8 x 8 8 l 8 6 8 8 8 8 8 x 6 8 8 8 6 6 8 8 x 6 8 8 x 6 8 8 6 8 8 x 6 6 8 8 6 8 6 8 6 8 6 8 8 6 8 6 8 6 8 6 8 6 8 6 8 6 8 6 8 6 6 8 6 8 8 8 8 6 8 8 6 8 6 8 6 8 6 8 8 8 8 8 6 7 8 8 7 q 7 8 8 7 q 8 7 7 q 7 q 7 7 8 7 8 7 q 8 7 8 8 8 7 7 q 7 8 7 7 8 8 7 7 8 7 8 0 8 7 q 7 7 8 7 8 7 8 7 8 7 8 7 7 q 7 8 q 7 8 7 7 q 7 7 q 7 8 7 7 7 7 8 8 0 7 8 q 7 7 q 8 7 8 7 7 8 8 7 7 8 7 q 7 q 7 8 8 7 7 8 q 8 7 8 8 7 7 8 7 8 7 8 7 8 7 7 7 8 5 8 7 6 7 7 5 5 7 8 5 5 8 8 5 5 6 7 7 7 5 8 8 5 5 8 8 5 7 5 7 7 7 7 5 7 5 7 6 7 5 8 5 6 7 5 7 7 7 5 7 7 ",
"%.o.o.%.o.%.%.o.o.%.%.o.o.@.%.o...o.%.%.' o.%.o.%.o.' %.%.' %.o.o.o.o.o.%.o.o.o.o.%.o.%.o.o.+.o.o.%.o.o.o.%.o.%.o.o.o.o.o.O.o.O.o.o.o.O.o.+.o.O.o.O.O.o.o.o.o.O.X.X.O.o.o.+.o.o.o.+.' ' %.' %.4.w.e.e.e.e.e.e.e.e.e.e.e.e.e.e.e.e.e.e.e.e.e.e.e.e.e.e.e.e.e.e.e.e.e.e.e.e.e.9.e.e.9.9.e.9.e.e.9.e.e.e.e.e.e.e.e.q.e.e.q.e.e.e.e.e.9.9.9.9.e.e.w.5.*... .o.X.O.X.X.X.X.O.X.X.X.X.O.X.X.X.X.X.X.X.X.X.X.X.X.X.X.X.X.X.X.X.X.X.X.O.X.X.X.X.O.X.X.X.X.X.X.X.X.X.X.X.H ` H X.X.` H X.H X.H X.X.H X.X.H X.H X.X.X.X.X.X.X.X.H X.X.X.X.X.H H X.V X.X.X.X.X.H X.X.X.X.V H H H X.X.H H X.H X.X.H K X.H X.H X.H X.X.X.H H H H X.H X.V H V V X.H H H H H H H V X.H H H X.H H X.H H H H H H H X.H H H H H H H H H H H H V H V H V H H V H H G H H G G H H G J F G H G H F J F G G G G G G H H H V V V N m N V n D H H H G G G G G H B H H H G D  .( &.w.e.e.e.q.9.e.e.e.e.w.e.e.e.e.e.e.e.e.e.e.e.e.e.e.e.e.e.e.e.e.e.e.e.e.e.e.e.e.e.e.e.e.e.e.w.w.w.3.@.=.4.5.5.5.5.4.4.&.( N N M B G S c c S B B G G S G G G B B B B B G B B B B B B B B B G B B B G G B G B B G G G B B G G c G G B S G B G S G G S S G c B B B c G G c B c B c M c B B M c B c c B B B c B B c c c B c B G c c c B c c B c c G B c c B G c c B B c B c S c G c G c S c S c c S S c S c c S S c S c S c c c S c c c S c c c c c c c c c c c c c c c c c c c c c c c c z c c z c z c c c c c z c c c c c c c c c c c c c c S x c x c c c c c S x x c k c c c x k S x k c c x c S c c x c x c c c c c c c c c c z c c c l x c c l c c l x c c c x x c c l x c c l x c x c x x c c x c c c x c x c c c c c x c x c x c x c l c l c x c x z x c l c x z l c l c l c x c x c x k x c x c x k x c x x x x S x x x x x k x x c x x x x x x x x x x k x x c x c x x x x x x A k x x x x k x x x x x x x x x x x x x x x x A x x x A x x x x x x x x x A x x x x x x x x x A x x x x x x x A x x x l x x l x x l 8 x x 8 8 x x 8 x 8 8 x x 8 x x 8 x x 8 8 x x 8 x x 8 A x 8 8 x 8 x x 8 8 x x 8 x x 8 A x 8 8 x x 8 8 x x x x x 8 x x x 8 x 8 A A 8 x x x 8 x C x 8 x x 8 x 8 x 6 x x 8 6 x x 8 x 8 6 x x 8 8 x x 8 8 q x 8 8 8 8 A 8 q x 8 x q A 8 x 8 8 x 8 8 8 8 8 8 8 8 8 8 6 8 x 6 x 6 8 8 8 8 6 8 8 6 8 8 8 8 8 6 6 x 8 8 8 8 8 8 8 6 8 8 6 8 8 6 8 8 l 8 x 8 8 8 8 8 6 x 8 8 8 6 8 6 8 8 6 8 8 6 8 8 6 6 8 6 8 8 6 8 x 6 6 8 8 8 8 6 x 6 8 8 8 6 6 x 8 8 8 8 8 6 l 8 8 8 8 8 8 8 8 6 x 6 8 6 8 8 8 l 8 x 8 8 8 6 x 8 6 8 8 8 6 x 8 8 6 8 8 6 6 8 6 8 6 8 6 8 6 6 8 6 8 6 8 6 8 6 8 6 8 l 8 6 8 6 6 8 6 8 8 8 8 6 6 6 6 6 6 8 6 8 6 8 8 8 5 8 8 8 8 8 8 8 7 8 7 7 8 7 7 8 7 7 8 7 7 8 0 8 7 8 7 7 8 7 0 7 8 8 7 7 7 q 7 7 7 8 8 0 8 7 8 7 8 7 7 8 7 q 7 8 0 8 7 7 7 8 7 7 8 7 7 7 7 8 8 7 8 7 7 8 q 7 8 8 7 7 8 8 8 7 7 8 8 7 7 8 7 q 8 7 8 0 8 7 7 7 8 7 8 0 7 8 8 7 7 7 8 7 7 8 8 7 8 7 7 8 8 7 7 8 8 7 7 7 5 7 6 5 8 8 7 7 8 7 5 7 5 8 7 5 6 7 7 5 5 5 5 7 5 7 6 8 5 6 7 8 8 5 8 5 5 7 5 8 7 7 5 8 6 7 8 7 6 7 ",
"%.%.o.%.%...o.%.%.o.o.%.%.o.%.%.%.o.%.o.%.o.' %.o.' %.o.%.o.' %.o.%.o.o.o.%.o.%.%.o.o.o.o.%.o.o.o.o.o.o.%.o.o.o.+.O.o.o.+.+.o.o.o.o.o.o.o.+.o.o.o.o.o.o.o.o. .o.X.X.X.o.o.+.o.' ' ' } } } ' | 4.w.9.9.e.e.e.e.e.e.e.e.e.e.e.e.e.e.e.e.e.e.e.e.e.e.e.e.e.e.e.e.e.w.e.e.9.e.w.9.e.9.e.e.e.e.w.9.e.e.e.e.e.e.e.e.e.e.e.e.e.e.e.e.e.e.9.e.9.9.e.9.w.5.#.o.( X.X.X.X.X.O.X.X.X.X.X.X.X.X.X.X.X.X.X.X.O.X.X.X.X.X.X.X.X.X.X.O.X.X.X.X.X.X.O.X.X.X.X.X.X.X.X.X.X.X.X.X.X.X.X.X.` X.X.X.X.X.X.X.X.X.X.H X.X.H X.X.X.X.X.X.X.X.X.V X.H X.X.` V X.X.X.H H X.V V X.V X.X.X.X.H H K X.H H X.H H X.H H X.H H X.H H V H H X.H H H H H H V X.V H H H H H H X.H H H H H H H H H H H H H H H X.H H H H H H H X.H H H H H H H H H V H H H H H V H H G F J H G G H H H H H G H H G G G G G G G G G V V V ` ` ( '  . . .F m V V G V V G B G H H H G B D V ( 4.w.e.q.e.9.9.e.e.e.e.e.e.e.e.e.e.e.e.e.e.e.e.e.e.e.e.e.q.q.e.q.e.e.e.e.e.e.e.q.e.e.e.e.9.e.e.8.w.w.5.0.w.w.w.w.w.w.w.w.&.%.` v M G G c G B B B H G B c G B G B G B G B B G B B B G B B B B B B B B B B G B G B B G B B c G G S c G G S c B k c B S G S B B c B G S c G c c c B B c M c B c B M B M c B c c c B B c G B c B c G G c c B c c B c c B B c c B c c c c B G S c S S S c G S c S G c G c S c G c c S S c S S S c c S S c c S c G c c c B c c c c c c c c c B c c c c c c c z c z c c c c c c c z c c x c c c k S c c c c c x x c x S c c c c c x k c c x A c c x S x c x c c c c S x c c A c k c x c c c c x c x l c x x c c c c c c x c x c x c z c x c c x x c c x c c x l c x z x c c c x c c x x c x x c c l c x c x c x c x z x c l c x z x c x c x c x c x c l c x c x x c x x c x x x x x x A x A x x x c k x A x c x x x c x x x x x x x x x k x x x c x c x c x c x x x k x x x x x x l x x c x x c x x x x x x x x x x x x x x x x A x x x x A x x x x x x x x x x x x x x x x x x x x x x x x l x x 8 8 x 8 x 8 x 8 x x 8 x x x 8 x 8 x 8 x 8 8 x 8 x x 8 8 A x 8 x 8 x 8 x 8 8 x 8 x x 8 8 x x 8 8 x A 8 A 8 x 8 x 8 8 x 8 x 8 x 8 x x 8 8 A x 8 8 x x 8 8 x 8 x x 8 x 8 x 8 x x 8 x x 8 8 x x 8 8 x 8 8 8 8 x 8 8 8 q 8 8 8 8 8 8 8 8 x x 8 8 q 8 A 8 8 8 4 x 8 x 6 8 6 6 8 8 8 x 6 6 8 8 8 x 6 8 8 6 x 8 8 x 6 8 6 8 8 8 x 6 8 8 8 8 x 8 x 8 8 6 6 8 8 6 x 8 6 8 8 8 8 8 x 6 8 8 8 8 x 6 x 8 8 8 8 8 x x 6 8 6 8 8 8 6 6 x 8 6 6 8 8 8 8 8 x 6 8 8 8 8 8 8 x 8 6 8 8 8 8 x 8 l 8 8 8 8 8 8 6 x 8 6 6 8 8 8 x 8 8 6 8 8 x 6 8 6 6 6 8 6 x 6 8 6 8 6 8 6 6 8 6 8 6 8 6 8 6 8 6 8 6 8 6 8 8 6 8 6 8 8 8 8 8 8 8 8 8 8 8 6 8 8 8 7 8 8 8 8 8 8 6 8 7 7 7 8 7 7 8 7 8 7 q 8 7 7 8 7 7 7 7 8 0 8 7 8 7 8 7 8 8 7 7 8 q 8 7 8 8 7 7 8 8 7 0 7 7 8 7 7 8 7 7 q q 7 7 8 7 8 7 8 8 7 7 7 7 8 8 7 7 8 7 0 8 0 7 7 7 0 8 7 7 7 8 7 8 7 7 q 7 8 8 7 8 7 q 8 7 8 8 7 7 8 7 8 7 7 8 7 8 7 7 7 8 7 8 7 8 5 8 7 6 7 6 7 7 5 5 7 7 7 7 5 8 5 7 7 5 8 7 5 6 5 8 8 8 5 6 7 7 7 5 7 7 7 7 7 8 5 8 5 5 7 8 7 7 7 7 5 5 7 7 8 ",
"o.%.%.o.%.%.o.%.%.o.@.o.o.%.%.o.%.%.%.o.o.@.%.o.o.%.o.%.' %.o.o.o.o.%.%.o.o.o.o.o.o.o.%.o.o.%.o.o.%.o.%.o.o.o.%.o.o.+.+.o.o.o.+.o.+.+.o.o.o.o.+.o.o.o.+.o.O.+.o.o.o.o.o.o.' } ' [ | | @.| { &.4.w.e.e.e.e.e.e.e.e.e.e.e.e.e.e.e.e.e.e.e.e.e.e.e.e.e.e.e.e.e.e.e.e.e.e.e.9.e.e.e.e.w.e.9.9.e.e.e.e.e.e.e.e.e.e.e.e.e.q.e.q.e.e.e.e.e.e.e.9.9.e.w.w.4.o...X. .O.O.X.X.X.X.O.X.X.X.X.O.X.X.X.X.X.X.X.X.X.O.X.X.X.X.X.X.X.X.X.X.X.X.X.X.X.X.X.X.X.X.X.X.X.X.V X.X.X.X.X.X.X.X.X.X.X.H X.X.H X.V X.X.X.X.X.X.X.V H X.K X.H X.X.X.V X.H X.X.X.X.V X.` X.X.X.X.V X.V X.H X.X.H H H X.K X.K H X.X.H H X.X.H H V H X.H H X.H X.V H X.V H H H H H H H H H X.H H H X.H H V H H V X.H H V H H H V X.H H V H H V X.H H X.H H H H V H V H H H G H H H G F H G G G H G H G H H G G G J J G G V N N ` o.%.=.4.4.=.=.%.o.( ` V B V V H H H H G H H B m ( 4.w.w.e.e.q.e.e.e.e.e.e.e.e.e.e.e.e.e.e.e.e.e.e.e.e.e.e.e.e.e.e.e.q.e.e.e.e.q.e.q.e.e.q.e.e.e.0.w.e.w.w.w.e.w.e.w.q.w.w.5.5.*.( n B H G H V V V V B B B B B B B B B B B G c G B B B G B B G B G G B G B B B B B G G B c B S k B B S k B J B B B B G c B c B B B c G G c c B c B c B c B c B c B c c B c G c B c c B c c S c B c B c B S G c c B G c B c B c B B c G c c c S c S c S c S S c c S c S c S c S S c c S c G c S S S c G S S c c c c c c c c c M c c c c c c c c c c c c c c c c z c c c x c c c c c c c c z x c c c k A c c c c c c c c c c c c S c c c c c c c c c c c c c x c k c c x k c S c c c c c c c c x c c c c x c c x x c x c c c c x x c c c x c c c l c c x c c c c c x c x x c z x c c x c c x x c l c l c x z x c x c x c x c x c l c x c l c l c x c l c l c x x x c x x x x x c x k x k x x x x A x x x x x A k x x A k c x c x S x A x x c x x x x x x x x x x x x x x x k c x x x x x l x x x A x x x x A x x x A x A x x x x x x x x x x x x x A x x x x x x x A x x A x x 8 l x 8 x x x 8 x x 8 x 8 A 8 x x 8 A 8 x 8 x 8 A 8 x 8 x x 8 x 8 x x x 8 x x 8 A 8 x 8 x x 8 x 8 x x x A 8 x x x 8 x 8 x 8 x 8 x x 8 x 8 A x 8 x 4 x 8 x 8 x A 8 8 x x 8 x 8 8 x 8 6 8 x 6 8 8 8 8 x 8 8 8 x q 8 8 x 8 x 8 q 8 x 8 x q x 8 x 8 x 8 A 8 8 x 8 8 8 8 4 q 8 8 8 8 8 8 x 8 8 8 l 8 8 8 6 x 8 8 6 x 6 8 8 x 8 6 8 6 x 8 8 8 8 8 6 8 8 8 6 8 6 6 x 8 8 x 6 8 8 8 8 6 x 6 8 8 6 8 8 6 8 8 8 8 6 6 x 8 6 8 6 8 8 8 x 8 8 6 x 8 8 8 x 8 6 x 8 8 8 6 8 8 l 8 8 8 8 6 6 8 8 6 x 8 8 8 8 8 6 6 x 8 8 8 8 8 x 8 8 6 8 6 8 6 x 8 8 6 8 8 x 8 6 6 8 6 8 6 8 6 8 6 8 8 6 8 6 8 6 8 6 8 6 8 6 8 6 8 6 6 8 6 8 8 7 8 8 8 7 8 8 8 8 7 8 8 8 8 8 8 8 5 8 8 8 7 8 8 7 q 7 7 8 0 8 7 8 7 7 q 8 7 8 q 7 8 7 8 7 8 7 8 0 8 7 q 7 q 7 7 7 8 7 7 q 7 7 7 8 8 8 8 7 q 7 7 8 8 7 8 7 8 7 8 0 8 7 7 q 7 8 q 7 7 8 8 7 7 8 8 8 8 7 8 8 7 8 7 8 0 8 7 8 7 7 7 8 7 q 7 8 7 7 7 7 8 0 7 7 7 7 8 7 7 8 7 8 7 8 7 8 7 8 7 8 7 8 7 5 7 7 5 8 8 5 8 7 8 7 5 7 7 6 7 7 6 8 7 7 5 7 8 7 7 5 8 5 8 5 7 8 7 8 5 5 8 7 8 5 5 5 7 6 5 8 7 6 7 7 ",
"o.@.%.o.o.%.%.o.%.o.%.%.%.o.%.o.o.%.%.o.%.o.%.o.%.o.o.%.%.o.o.} o.%.o.o.o.o.o.o.%.o.%.o.o.o.o.o.o.%.o.%.o.+.o.o.+.o.o.o.o.O.+.o.+.o.o.o.+.o.o.o.o.o.o. .o.o.o.o.o.O.o.' ' ' &.&.4.5.5.w.w.5.w.w.e.9.e.9.e.e.e.e.e.e.e.e.e.e.e.e.e.e.e.e.e.e.e.e.e.e.e.e.e.e.e.e.e.e.e.e.e.e.e.e.e.e.e.e.e.e.e.e.e.e.e.e.e.e.e.e.e.e.e.e.e.e.e.e.e.e.e.9.e.9.9.w.w.4.} ' ` X.X.X.X.X.X.X.X.X.X.X.X.X.X.X.X.X.O.X.X.X.X.X.X.X.X.X.X.X.X.X.X.X.X.X.X.X.X.X.X.H X.X.X.` H X.H X.X.X.X.X.H X.X.X.X.X.X.X.V X.H X.H X.H X.H X.X.X.H X.H X.H ` X.X.V X.V X.H H X.H H ` H H X.H ` H X.X.X.K H X.X.X.H H H X.H H H H X.K H H H H X.V H H H H H H ` V X.V H H H X.H H H H H H H H H H H X.H H H H H H H H H H H H H H H H H H H H H H H H H V V H H V H V H H G H G H H H H D J F H H K D J G G G G G V V N o.%.4.5.w.w.w.w.w.5.4.=.%. .N V V H H H G G G H B ( R 5.w.w.q.e.9.9.9.e.e.e.e.e.e.e.e.e.e.e.e.e.e.e.e.e.e.e.e.e.e.q.e.q.e.e.e.e.e.e.q.e.e.e.e.e.e.e.e.e.e.e.e.e.e.e.e.e.e.e.e.w.w.5.%.( m H H b m m m m m V G B B B B B B G B B B B B B B G B B G B B B G B B B B B B G G B B c J B B G B S G c G c B c B B k B B c c S G c B B c B c M B c B B c B B B B c B c c B c B c c B B c c B c c B c c B G c c c B c c B c c G c B c G S c S S c S c S S c S S S c S S G c S S c G c S S B c G c S c c c c c c c c c c c c c c c c c c M c c c c z c c z c c c c c c z c c c c c c c S c c x c S S k c x S k x S c x S x k c c x S c c c x S c c c x k c x S c x c c c c S x x k S x x c c x l c c x z x c c x c c x x c c x x x c c c c x c x z c c l c c x c c x c c x c c c c c x c x c x c x c x z x c l c l c l x c x c z x c l c x l x x x c x x x A x x c x S c x c x x x x c x x x x x c x c x c x x x x x x x x x x x c x x c x x x c x x k x j x x x x x x x x x x x x x x x x x x x x x x x x A x x x A x x x x x x x x x x x x x x x x A x x x A x x A x l x 8 l 6 x l x A 8 x 8 x x x x 8 x 8 x 8 A 8 x x x x x 8 x 8 A x 8 8 x x 8 x 8 x x x x 8 x 8 A x 8 8 x x 8 x 8 8 x 8 A 8 x 8 x A 8 x 8 x 8 x 8 x 8 x 8 8 x 8 8 x 8 x 8 8 8 x 8 8 x 8 x 8 x x 6 x 6 x 8 8 x 8 8 8 x 8 x A x 8 8 8 q 8 8 8 8 q 8 8 8 8 8 x 8 q 8 8 8 x 8 8 8 8 8 6 8 8 6 8 8 x 8 8 l 8 8 8 8 x 8 6 x 6 8 6 6 8 x 8 8 8 8 x 8 8 6 x 6 8 8 x 6 8 6 8 8 x 8 8 x 6 8 8 6 8 8 x 6 8 8 x 8 8 8 6 8 6 8 x 6 8 8 8 8 8 6 x 6 6 8 8 8 6 8 8 x x 6 8 6 8 8 8 8 6 x 6 8 8 8 x 6 6 8 6 8 8 8 8 x x 6 8 8 8 6 6 8 8 x 6 8 8 8 8 6 6 8 6 8 6 8 8 6 8 6 6 6 8 6 8 6 8 6 8 6 8 6 6 6 8 6 6 8 6 8 8 6 8 6 8 6 8 6 8 7 8 7 8 7 7 q 7 7 7 8 8 7 8 7 8 8 8 8 5 8 8 8 7 7 q 7 8 7 7 q 8 7 8 0 7 8 7 7 8 7 8 7 8 7 0 7 8 8 7 8 7 7 8 7 7 8 7 7 8 q 7 8 0 8 8 7 0 8 7 7 8 q 7 8 8 7 8 7 7 8 8 0 7 8 0 8 7 8 7 7 7 7 8 7 7 7 8 7 8 7 8 7 7 8 7 8 q 8 7 8 7 8 7 7 8 0 8 7 8 8 0 8 5 7 8 4 7 5 7 7 7 7 7 7 7 7 5 7 7 7 5 8 8 6 7 7 5 8 5 5 7 6 8 5 7 7 5 8 5 7 6 5 5 7 7 5 5 5 7 7 8 5 7 7 5 8 7 6 7 5 8 5 7 6 7 8 8 5 6 7 7 5 7 6 ",
"%.o.%.%.%.o.o.%.%.o.o.%.%.o.@.%.%.o.o.%.' %...%.' %.o.o.o.%.%.o.o.o.o.+.+.%.o.%.o.o.o.o.%.o.%.o.o.o.o.+.%.o.o.%.o.o.O.o.+.o.o.o.o.o.+.o.O.o.o.+.o.O.o.O.o.o.o.o.o...' %.&.=.4.5.5.w.w.w.w.e.w.q.e.e.q.e.e.e.e.e.e.e.e.e.e.e.e.e.e.e.e.e.e.e.e.e.e.e.e.e.e.e.e.e.e.e.e.e.e.e.e.e.e.e.e.e.e.e.e.e.e.e.e.e.e.e.e.e.e.e.e.e.e.e.e.e.e.e.e.e.e.9.e.e.w.4.| ' ' o.X.X.X.X.X.X.X.X.X.X.X.X.X.X.O.X.X.X.X.X.O.X.O.X.X.X.X.X.X.X.X.O.X.X.X.H X.X.X.X. .X.X.X.X.X.X.` X.X.` X.X.X.H X.X.X.X.X.X.X.X.X.X.X.X.X.X.X.X.V X.X.X.X.X.X.V X.V X.X.X.X.` ` X.X.X.X.` ` X.X.H X.V H X.H H H H H X.H X.X.H X.X.H H H X.F H H H H X.H X.H X.H H H H H H H H H H X.H H H X.H H H H H H X.H H H X.H H H X.H H H X.H H H H H X.H H H X.H H H H H H H H H G H H G H G H H H H G H G G H G S J G G H V ` ' @.4.5.w.w.e.e.w.w.w.w.5.4.&.( ` V V F G D K D G V ( ( 4.w.w.9.9.e.9.e.e.e.e.e.e.e.e.e.e.e.e.e.e.e.e.e.e.e.e.e.e.e.e.e.e.e.e.q.e.e.e.e.e.e.q.e.e.e.e.e.e.e.e.e.e.q.q.e.e.e.9.w.q.e.w.4...f s m ( ( '  .( m m B B B B G G B B B B G B G B G B B B c G B B B G B B B B B B B B B G c B k c B B c G M J S G S S G B c B B c c G S c B c B c B B c c M c c c B M c G c c G c G c c c B B c G c c B G c c c c B c G B c S B c B c c c S S c S c c S c c S c S c G c c S S c S S c S c S c S c S c S c c c c c c c c B c c c c c c c c c c c c c c c c c c c c c z c c c c z z c c c x c c c c x c x c c c c c c c c c c S x c c k c c c c k x c c c S c c c c c c c x c c c c c c S c x x c c x c c x c c x z c x c c x c c c z c x x c c x c c x x c x c c l c c x z c x x z x x c l c x z l c l c x c x c x c x c x c l c x c x c x c c c c c x c c x x c x x x x x x x x c x x x c x S x x x x x x x c x A k c x x c A x x x c x x x x c x x x x k x x x x k x x x x x z x x c x x A x x x x x x x x x x x x x x x x A x x x x x x A x x x x x x x x x x x x x x x x x x x x x x x x 8 A x 8 8 x x 8 x 8 8 x A 8 x 8 8 x A 8 x x 8 A A 8 8 x x 8 x 8 8 x A 8 x x 8 A A 8 8 x x 8 A 8 x 8 8 x x 8 8 x 8 A x x 8 x 4 x 8 A C 8 x x x x 8 x 8 x 8 x x 8 x 8 x 8 8 x 8 x 8 x x 8 x 8 q 8 8 q 8 8 x q x 8 x 8 x x 8 x q x 8 x 8 8 8 x 8 4 8 8 x 8 x 8 x 8 8 8 8 8 6 6 8 8 8 8 8 8 6 8 8 8 8 8 8 8 8 6 8 6 8 l 6 8 8 x 6 8 x 8 8 8 8 8 8 8 6 6 6 8 8 8 8 6 x 6 6 8 8 6 6 8 l 8 x 8 8 8 8 8 l 8 x 8 8 8 8 8 x 6 8 8 8 8 8 6 8 8 8 8 8 6 6 x 8 8 8 8 6 x 8 8 x 8 8 8 8 8 8 6 6 8 8 8 8 6 6 x 8 8 8 6 6 x 6 8 8 6 8 6 8 6 6 8 6 8 6 8 6 8 6 8 6 8 6 8 6 8 6 8 6 8 8 6 8 6 6 8 6 8 6 8 8 8 8 7 7 8 7 7 8 7 7 8 8 7 7 8 7 q 8 8 5 8 8 8 7 6 8 7 7 8 7 8 7 7 7 8 7 8 8 7 7 q 7 7 7 q 7 8 8 8 7 7 8 0 q 7 7 8 q 7 8 q 7 7 7 7 7 8 7 8 8 7 8 8 7 7 8 7 7 7 7 q 8 7 8 7 8 7 8 7 8 7 q 7 8 q 7 8 7 8 7 q 7 7 0 8 7 7 q 7 7 7 0 7 q 7 8 7 7 8 7 8 7 7 7 7 7 8 5 7 6 8 5 6 7 8 7 8 6 7 8 5 6 6 7 5 5 7 8 5 7 7 7 8 7 7 5 7 6 7 7 5 8 5 7 7 8 7 6 8 5 8 7 6 5 7 6 7 7 5 7 7 8 5 7 7 5 8 7 5 5 7 7 7 5 8 7 7 ",
"o.%.%.o.o.%.%.%...%.%.o.o.%.%.o.o.%.%.@.o.o.o.} %.o.o.} %.' o.o.o.%.o.o.%.o.o.o.o.o.%.o.o.o.o.%.o.%.o.o.o.%.o.%.o.+.O.+.o.o.o.+.o.+.o.o.+.o.o.+.o.o.O.o.o.o.o.o...%.} @.&.5.w.w.w.w.w.q.e.e.q.9.e.9.e.9.9.e.e.e.e.e.e.e.e.e.e.e.e.e.e.e.e.e.e.e.e.e.e.e.e.e.e.e.e.e.e.e.e.e.e.e.e.e.e.e.e.e.e.e.e.e.e.e.e.e.9.e.e.e.e.e.e.e.e.e.e.e.e.e.e.9.e.e.w.5.| ' ' o.X.` X.X.O.X.O.X.X.O.X.X.O.X.X.X.X.X.X.X.X.X.X.X.X.X.X.X.X.O.X.X.X.X. .X.X.X.X.X.X.V H X.X.X.X.X.X.X.X.X.X.X.X.X.X.X.X.H X.X.X.X.X.X.X.H H X.X.X.X.X.X.X.X.H V X.X.H X.V X.H H X.X.H V X.H X.V X.X.X.H X.H X.H X.X.H H H H H H H H X.X.H V H X.H H ` X.V H H H V ` H H X.H H H H H H H H V H H X.H H H H H V H H H H H H H V H H H H X.H H H X.H H H V H V V H H V V G G H G H H G G G G H H H G H G J J n D F H  .) *.4.5.w.w.9.9.9.9.q.e.e.w.w.&.%.( ` F F D J D J H m ( ) 4.w.w.8.e.8.e.e.e.e.e.e.e.e.e.e.e.e.e.e.e.e.e.e.e.e.e.e.e.e.e.e.e.e.e.e.e.e.e.w.e.e.e.e.e.q.e.e.e.e.e.q.e.e.e.9.e.9.e.8.9.e.w.w.$...( o.*.=.4.=.%.o.( m B B B B B B G B G B B B B B B B G B B G B B B B B B B B B B B k c G B c B S S G S B c G c G G S B B c B G c c G c B c B B c c M B B c B B c c B c B G c c G G c B c c B c B G c c c c B B c c B G c B c c B c G S c c S c G S c G c c G S c c S S c S G c S S c c G S S c c c c c c c c c c B c c c c c c c c B c c c c c c c c c c c c c z c c c c c c z c z c k c c c c c c c c x x S k S c c c c c c x c x S x c S x c c c c c c c x x S k x c c k S c c c c c c x c c x c x l c x c c x x c c l c x c x x c c l c x x c x c c l x c x c c x x c x c c c c c c x c x c x c l z x c l z x c l z c c l z x c l c l c c l c c x k x x x x c k x x x x A x S x c x x A k x c x x x x x x x x x x c x x k A x x x k A c x x x x x x x x z x x x j c x x x x x x x x x x x x A x x x x x x x A x x x x x x A x x A x x x x A x x x x x x x x x x x l x x l x l 8 x 8 x 8 8 8 A 8 8 x 8 x x x 8 x x 8 8 A 8 8 8 x 8 x x 8 x x x 8 x 8 8 A 8 8 8 x 8 x 8 x x x x 8 A x 8 x x x 8 x A x x 8 8 8 A 8 8 x x x x x x x 8 8 x 8 x 8 x 8 x x 6 x 8 8 x x 8 8 x 8 x x 8 x 8 8 x x 8 x q 8 8 x 8 x 8 8 q 8 8 8 x q x 8 x 8 8 8 8 8 8 8 8 8 4 8 6 8 8 x 6 8 8 8 8 8 x l 8 8 8 8 8 x 6 8 6 8 8 6 x 6 x 8 6 8 6 6 x 6 8 6 8 8 8 6 x 8 8 8 8 8 x 8 x 8 6 8 8 8 x 6 x 8 8 8 8 8 6 8 6 8 8 6 8 8 8 6 x 6 8 l 8 8 6 8 6 x 8 8 8 8 x 8 8 x 8 8 8 6 8 8 x 6 8 x 8 6 6 8 x 6 8 x 6 8 x 8 8 8 8 8 8 8 8 8 6 8 6 6 8 6 8 8 6 8 6 8 6 8 6 8 6 8 6 8 6 8 6 8 6 8 6 6 8 6 8 6 8 8 6 8 6 6 8 8 8 7 8 q 7 8 7 q 7 7 8 7 7 7 8 8 5 7 8 8 8 8 8 7 8 7 8 q 7 7 8 8 7 8 7 7 q 8 7 7 q 8 7 8 7 8 7 7 8 7 8 7 8 q 7 7 7 8 7 7 8 8 7 8 7 7 8 7 8 0 8 7 7 7 7 8 8 7 8 7 0 7 8 7 8 7 8 q 7 8 7 7 8 7 7 7 q 7 8 7 8 7 7 8 7 8 7 7 8 8 8 8 7 8 0 8 7 7 7 3 8 8 7 7 7 7 8 7 7 5 7 5 8 7 7 8 5 6 7 7 7 7 7 8 5 5 7 7 6 7 7 5 8 6 7 5 7 6 7 7 7 8 5 5 7 5 7 7 6 5 8 6 7 7 5 6 7 5 7 8 7 6 7 7 5 5 8 7 6 7 6 7 7 5 8 ",
"%.o.%.o.%.+.@.o.%.%.o.%.%.o.%.o.%.%.+.o.%.o.%.o.o.%.o.%.o.%.o.%.o.%.o.%.o.o.o.%.o.%.+.o.%.+.o.o.o.o.%.o.o.o.o.o.o.o.o.o.o.+.o.o.o.O.o.o.o.o.+.O.o.o. .o.o.O.o.o.@.[ [ $.5.w.w.w.e.e.e.9.e.9.e.e.e.e.9.e.e.e.e.e.e.e.e.e.e.e.e.e.e.e.e.e.e.e.e.e.e.e.e.e.e.e.e.e.e.e.e.e.e.e.e.e.e.e.e.e.e.e.e.e.e.e.9.e.e.e.e.e.e.e.e.9.e.e.e.e.e.e.e.e.e.q.e.w.w.4.| ' ` o.X.X.X.X.X.X.X.X.X.X.X.X.X.X.X.X.X.X.X.X.X.X.X.X.X.X.X.O.X.X.X.X.o.X.X.X.X.X.X.X.X.` X.X.X.X.X.X.X.H X.X.X.X.X.H ` X.X.X.H X.X.H H X.X.` X.X.X.X.H X.H X.V X.X.H ` X.X.V X.` X.H V X.X.X.V X.X.X.V X.H H H X.H H X.K X.K X.X.H X.X.H H H ` H H H H H H H V X.H X.V H H H H V X.H H H X.H H H H H H H H H H X.H H H X.H H H X.H H H X.H H H H V H H H H H H H V H H H H F G H K D H H H H G H G H H G n S D V H H ( ..4.5.w.w.9.9.e.9.q.e.q.q.w.w.5.4.) ( m m f m m m F ( R Y 5.w.e.e.e.9.e.9.e.e.e.e.e.e.e.e.e.e.e.e.e.e.e.e.e.e.e.e.e.w.e.e.e.e.e.e.e.w.e.e.e.w.e.e.e.q.q.e.e.q.e.e.q.e.e.e.9.e.e.e.9.9.e.w.5.$.=.5.5.5.5.5.4.*...m B B G B G B B B B B B G B G B G B B B B G B G B B B B B B G B B G c G G B S G k G c G c G G c B c B B B c G B c B c B c c B B c B c B M c B c B B c c c B c c B c c G c B c c B c B G c c c G c c B c c G c B c c S G c S c S S c S S S c S c S c S c c S c S c S c S c B c c B z c c c c c c c c c c c c B c c c c c z z c c c c c c z c c c z c c c c c c c c S x c c c x c c c c c c x c c c x c c c c c c c c c c S k c c A k c c c c c S c c c c x c c c x l c c x c c c x c c x c x c c x c c c l c c x c c x c c x c c c x c c x c x c c x c c c l x c x l c x z x c x c x c x c x c x c c x x x c c x c x c l l c x x c x x x c x x A x x c k x x x x x c x x x x x A k x x S x x c x c x x x x c x c x x x x x x c c x x x x x x x k x l x x x c x x x x x A x x x x x x A x x x x x x x A x x x x x x x x x A x x x x x A x x x A x x x x 8 x x x l x x 8 x x x 8 x x 8 A 8 x 8 x x 8 x x 8 x x x 8 x 8 x x 8 x 8 A 8 x x 8 x x x 8 x 8 x x 8 8 x x 8 8 x 8 x 8 x x 8 x 8 x x x 8 x x 4 8 x 8 8 x 8 x x 8 x 8 x 8 x 8 8 x 8 8 x 6 8 8 x 6 x 8 8 x 8 x 8 8 8 8 8 8 x 8 8 q 8 8 x 8 8 x q 8 8 8 q 8 x x 4 8 8 8 4 8 8 8 8 6 x 8 6 8 8 6 x 6 8 6 8 8 8 6 x 6 8 8 8 x 6 8 8 8 8 8 8 8 8 8 8 8 6 8 8 6 x 8 8 6 6 x 8 6 8 6 8 8 6 x 8 8 8 6 8 8 8 8 8 6 x 8 6 x 8 8 8 6 x 6 8 8 8 8 8 8 8 x 8 8 6 8 x 6 6 8 8 6 6 8 x 6 8 8 8 6 8 8 6 8 8 x 6 8 8 8 6 8 8 8 8 8 l 8 x 6 8 6 6 8 6 8 8 6 8 6 6 8 6 8 6 8 6 8 6 8 6 6 6 x 6 8 6 8 6 8 8 6 8 6 8 6 6 8 6 8 6 8 8 0 8 7 7 8 7 8 7 7 8 7 8 7 8 7 8 8 8 8 6 7 8 8 8 8 0 7 8 7 8 7 7 q 7 7 8 7 8 7 8 7 7 8 8 0 7 7 q 7 8 7 8 7 7 8 7 8 7 8 7 8 0 8 7 7 q 7 8 7 8 7 8 8 7 q 0 8 7 7 8 8 8 7 8 0 8 7 7 8 7 7 q 7 8 8 7 7 8 7 q 7 8 8 7 q 7 q 7 7 8 7 7 8 7 8 7 8 8 8 7 5 7 7 7 8 7 7 8 5 8 5 7 7 5 8 5 7 7 5 8 5 6 7 5 7 7 6 5 8 5 6 7 5 7 5 8 7 6 7 6 7 5 7 7 6 7 6 7 7 7 5 7 7 6 8 5 7 8 5 5 5 8 5 7 6 7 5 7 7 5 8 5 6 7 5 ",
"%.%.o.%.o.%.%.%...%.@.o.o.o.%.o.%.o.%.o.o.o...%.o.%.o.%.%.o.o.%.o.o.o.%.o.o.o.o.o.%.o.%.o.o.o.%.o.%.o.o.%.o.o.o.+.o.+.o.O.+.o.o...+.o.o.+.%.%.o.o.o.O.X.O.o.o.o.[ { >.w.w.w.w.e.e.e.e.e.9.e.e.9.e.9.e.e.e.e.e.e.e.e.e.e.e.e.e.e.e.e.e.e.e.e.e.e.e.e.e.e.e.e.e.e.e.e.e.e.e.e.e.e.e.e.e.e.e.e.e.e.e.e.e.e.9.e.e.e.9.e.e.e.e.9.9.e.q.e.q.e.e.e.e.w.w.#.) ( o.X.H X.F F X.O.X.H X.X.X.X.X.X.X.X.X.X.X.X.X.X.X.X.X.X.X.X.o.` X.` X.X.X.X.X.X.X.X.X.X.X.X.X.` X.H X.X.X.X.X.H X.H X.X.X.X.H X.H X.H X.X.X.X.X.X.H X.X.V X.X.X.V V X.X.` H X.X.X.H X.V H H X.H X.H H X.H H H X.H H X.K X.H X.X.H X.X.H H H H H H H H H H X.H H H H H X.H H H H H H X.H H H H H H H H X.X.H H H X.H H H X.H H H V X.H H H H H V V H V H H V V H H V H H H F G H H H G H H G G H V H H G G J B V  .( ) 4.w.w.w.e.e.9.9.9.e.q.e.e.e.w.w.w.#.W L ! @.=.=.4.5.4.1.5.8.w.w.e.9.e.e.w.w.e.e.e.e.e.e.e.e.e.e.w.e.e.e.e.e.e.e.9.e.e.e.9.e.9.e.e.9.e.e.e.e.e.e.e.e.e.e.e.e.e.e.e.e.e.e.e.e.9.e.e.q.9.w.e.8.5.8.w.e.w.e.w.5.5.=.T F G B B B B D B B B G G c G G S B G B G B B B B G B G B B B B B B c B B S G S G B c B c B c c G c c G c G c G G c c B c c B c c B c B c c B G c c B c G B c B c c B c c G c c G G c c B c S c c B c B c B B c B S c S S c G S S c S c G S c S c G S S c S S c G c S S c S c c c c c c c c c c c c c c c B c c c c c c c c c c z z c z c c c z c c z c c c z l c c c c x x k S x c c c c x c c c x c c c x c c c c c c c A c c x c c c c x c c c x c c c x c c c x c c x c c x c c l c c x c c c x c z x c x c c x c c c l c c x c l c c x c c c x x c l l c x c x c x c l c x z z x c l c x c x x x c x c x x x x x x x c x c x x x x x x x c x x x x x c x x A x x x x k x c x x x x x x x c x x x x A A x x x x x x c x x x x x x x x x A x x x A x x x x x A x x x x x x x x x x x x x x x x A x x x x x x x x x A x x x x x x x A x x x 8 x x x x l x x x x x 8 x 8 A 8 x 8 x 8 8 x x x 8 A 8 x x 8 x 8 x 8 x 8 x x x 8 8 x x x 8 x 8 x 8 x 8 x A 8 A 8 x 8 8 C A 8 A 8 8 x 8 x 8 8 A 8 8 x x 8 A 8 8 x x 8 x 8 x 8 x 8 8 x 8 8 q 8 8 x 8 x 8 x 8 8 8 8 x 8 x 8 x 8 8 q 8 x 8 x 8 x 8 8 8 8 8 8 x 8 8 8 x 8 8 x l 8 8 8 x 6 8 8 8 6 8 6 8 8 8 8 8 8 8 8 x 8 8 6 8 x 6 6 8 x x 6 8 8 x 6 6 8 8 6 x 6 6 8 8 6 8 8 8 8 8 8 8 6 6 8 8 x 6 8 8 8 8 x 6 8 8 8 x 8 8 8 8 8 6 8 8 6 8 8 8 6 x 8 8 6 6 8 x 8 6 x 8 8 8 8 6 x 8 6 8 8 6 x 8 8 8 8 x 8 8 6 8 6 8 8 6 x 6 8 8 6 8 6 8 6 6 8 6 8 6 8 6 8 8 6 6 8 6 8 6 8 6 8 8 6 8 6 6 8 6 8 6 8 6 8 6 8 6 8 6 8 8 6 8 8 7 7 7 8 7 q 7 7 7 q 7 7 8 7 8 7 q 7 7 8 7 8 7 q 7 7 0 8 7 8 7 7 8 7 8 8 0 8 8 7 q 8 7 8 7 8 7 7 8 7 8 7 8 7 7 8 7 8 7 q 7 7 7 7 8 7 7 q 0 8 8 7 8 7 7 7 8 7 7 8 q 7 8 q 8 7 8 8 0 8 8 0 q 7 8 0 8 7 8 7 8 8 7 8 5 8 5 7 7 5 5 8 5 5 5 7 8 5 7 5 8 5 5 7 7 7 5 8 7 7 5 7 6 7 8 5 5 7 8 5 5 8 5 7 7 5 5 8 5 5 5 8 7 6 7 8 5 7 7 8 5 5 5 7 8 6 7 7 6 7 5 7 7 6 5 8 5 7 7 5 5 7 7 7 6 7 6 7 7 5 7 6 7 8 5 5 ",
"o.%.@.o.%.o.o.%.%.o.%.o.%.%.%.%.o.%.o.@.' %.o.%.%.' o.o.o.} %.o.%.o.o.o.o.%.o.%.o.o.+.o.%.o.+.o.o.o.o.%.o.o.%.o.+.o.o.o.o.o.+.o.+.O.+.o.%.o.o.' o.o.O.o.O.o.o.%.[ :.3.w.w.e.e.9.9.9.9.e.9.e.e.e.e.e.e.9.e.9.e.e.e.e.e.e.e.e.e.e.e.e.e.e.e.e.e.e.e.e.e.e.e.e.q.e.e.e.e.e.e.e.e.e.e.e.e.e.e.e.e.e.e.9.e.9.e.9.e.9.e.9.e.9.e.e.e.e.e.e.e.e.e.e.w.w.5.=.) o.o.O. .H O.O.F F H ` O.O.X.X.X.X.X.` o.X.X.O.X.X.X.X.X.O.X.` X.X.X.o.o.X.O.X.X.X.X.X.H X.X.X.H X.X.X.X.X.X.H X.X.X.X.X.X.X.X.X.X.X.X.` X.X.H X.H X.X.X.X.X.V H ` X.X.X.V X.H X.V ` X.X.V X.H H X.H X.X.H H X.H X.H X.X.H K H H H H H H X.H X.V X.X.H X.V H H X.H X.V H H H H H X.H H H H H H H X.H V H H H H H H V H H H H H H H H H H H H H H H V H H H H H H H H H F G G J H H D G H H G H H H B V V G G G D F ( ) $.5.w.e.9.e.9.e.e.e.e.e.e.e.e.w.w.w.w.>.;.,.w.w.w.w.w.w.w.e.e.w.e.e.e.e.e.e.e.e.e.w.e.e.e.9.e.e.e.e.w.e.e.e.e.e.e.e.e.e.e.e.e.e.e.e.e.e.e.9.e.9.e.e.e.e.e.e.e.e.e.e.e.e.9.e.e.e.e.9.9.9.e.9.8.w.e.9.9.9.e.e.w.w.<...D G G B B G B B B G S B G S S G B B B B G B B G B B B B B B B B B B M B B k B S B c B B c B G c S G c G c G S c c B c G G c c B c c c G c c c B B c c c c B c G B c B c c B c c c B B c c B G c c B c B c c G c c S c S S c c S S c S c c S c S S c c S S c S c G c c S S c S S c c c c M c c c c c c c c c c c c c c c c c c c c c c c c c c c c c c c c c c c c c c c c c c c c c c S c c x c S k c c c c c c x c x c k c c c c c c c c c S x c c x c x c x c c x c x c x x z c x c x x c x c c x x c x c c x x z x c c x c c c x c x x c x c l c x c c x c l z x c l c x c x x c x c l c l c x x x x x x x c x S x c x x x x c x S x A k x x x c x S x x x k c x x x A x x x c x k A x c x x x k c x k x x c x c x A x x x x A x x x x x x x x x x x x x x x x x x x A x x x A x x x 8 A x x x x x x x x A x x x x x x x A x x x x x x x x l l x 8 x 6 x l x x A 8 x 8 x 8 x 8 x x 8 8 8 x 8 x x 8 A x A 8 x 8 A 8 8 8 x x 8 8 8 x 8 x 8 A 8 x x 8 x x x 8 x x 8 8 x 8 8 C 8 q 8 A A 8 x q 8 8 x 8 x x 8 8 x 8 x 8 x 8 x x 8 x 8 x 8 q 8 8 8 q 8 8 x 8 x 8 q x 8 8 q x 8 8 8 8 x q 8 8 x x 8 x 8 x 8 x 8 8 8 8 6 8 8 8 8 8 8 6 x 8 x 8 8 8 6 8 l 8 8 6 8 6 8 6 x 8 8 8 8 8 6 8 6 8 8 6 8 x 8 8 8 8 8 8 6 8 x 8 6 8 6 x 6 8 8 x 6 8 8 8 6 6 x 8 6 8 8 6 8 6 8 8 6 x 6 x 8 8 x 8 6 x 8 6 8 8 x 8 8 6 8 8 8 6 8 8 8 8 8 6 x 8 8 8 8 8 8 6 8 6 8 8 x 8 8 8 8 8 8 8 6 6 8 6 8 6 8 6 6 8 6 8 6 8 l 6 8 8 6 8 6 8 6 6 6 6 8 6 x 8 6 8 6 8 6 8 6 8 6 8 6 6 6 6 8 6 8 8 8 8 7 8 7 7 8 7 8 8 7 7 q 7 7 7 8 8 7 7 q 8 7 7 8 8 7 8 7 7 q 7 q 7 7 7 8 7 8 7 7 q 7 8 7 q 7 7 8 7 7 7 q 8 7 7 q 8 7 7 8 q 7 7 8 8 7 7 8 7 8 8 0 8 7 7 q 8 7 8 7 7 7 7 8 7 q 8 7 8 8 7 8 7 8 8 7 7 7 5 7 7 5 7 7 7 6 5 8 7 6 7 8 5 8 5 7 8 5 8 7 8 5 6 7 7 5 6 7 8 5 5 7 7 5 8 5 8 5 7 7 7 6 5 8 5 8 7 8 7 5 5 8 7 5 7 6 5 8 5 8 5 8 5 7 8 5 7 7 8 5 7 7 7 7 7 6 5 8 8 5 6 7 7 5 7 5 5 8 7 7 5 8 5 8 ",
"%.o.o.%.%.%.%.%.%.o.%.%.o.o.o.%.o.%.o.%...o.%.o.} o.%.' o.o.' %.o.%.o.%.%.o.+.o.o.%.o.o.o.%.o.o.%.o.o.o.%.o.o.%.o.o.o.+.o.o.o.O.+.o.+.o.o.%.o.o.o.O.o.o.o.o.o.%.{ 3.w.e.e.w.e.e.e.e.e.e.e.e.e.e.e.e.e.e.e.e.e.e.e.e.e.e.e.e.e.e.e.e.e.e.e.e.e.e.e.e.e.e.e.e.e.e.e.e.e.e.e.e.e.e.e.e.e.e.e.e.e.e.e.e.e.e.e.e.e.e.e.e.e.e.e.e.e.e.e.e.e.e.e.e.w.w.3.#.] @.o.) ` ( (  . . .o.o. .K X.H X.X.X.X.X.X.O.X.X.X.X.X.X.X.X.X.o.X.o.X.` X.X.X.X.X.X.X.` X.X.X.X.X.` X.X.H X.X.X.X.X.X.H X.X.H X.X.X.X.X.X.X.X.X.X.X.H H X.X.` H X.V X.H X.V X.X.X.H X.` X.X.H K X.K H X.H K X.H H H H H X.H X.X.H X.X.H H X.H H H V H H X.H H H H H X.H X.X.H H H H V H H H H H H H X.H H H H X.H H H X.H H H H H H H H H H H V H V H H V V H V H V H V H H G H J H H H H H H H D H V H G c G D V f ..4.w.w.e.9.e.e.e.e.q.e.e.q.e.e.e.e.w.w.w.w.w.w.w.w.w.w.9.w.e.e.e.9.e.e.e.e.e.9.e.e.e.9.e.e.e.e.e.e.e.e.e.e.e.9.e.9.e.e.e.e.e.e.e.e.e.e.e.e.e.e.e.e.e.e.e.e.e.e.e.e.e.e.e.e.e.e.e.e.e.e.e.e.w.w.8.e.8.7.q.q.e.w.w.=...m B B B B V B B B B G G G B B G B G B B B G B B B G G c k B B B B B B B J c c G B B B c G c G S B S S G S c c S B c c c c B G c c G G c G c c c c c B c c c S c c c B G c B B c B c c B B c c B G B c S c c c c S c c S c c S c S c S c S B S c c S S c G c c S c S S c B c c k c c c c c c c c B c c c c c c c c M c c c c c c x c z c c c c c c c c c c c z c c k c c S c c c c S c x c c S k x S c c c S k c c c S k c c c c c S c S c c k S x c x c c c x c c x c c c c c x x c c x c c l c c x c c l c c x c c x x c l x c x c c c c z x x c x c x l c l c x c l c l c x c c x c l c x z x x x c x c x A k x k A x A x S x x x x A x x x x x x x x c x c x x c x S x x c x x x x c x x x x x x x x x x x c x x x k j x k x x x x x x x x x x x x x x A x x x x A x x x x A x x x A x A x x x x x A x x x x x x x x x x x x x x x x x x l x l x x x l x x 8 8 x x 8 x x 8 x A 8 x x x 8 x x 8 x x 8 8 x x 8 x 8 8 x A 8 x x x 8 8 A x 8 x x 8 x x 8 8 x 8 x 8 q 8 q A 8 x q x 8 x 8 8 A q x x x x x 8 x x 8 8 x 8 8 x 8 8 x A 8 x q x 8 x x 8 x q 8 8 q 8 x 8 x 8 8 8 8 x 8 q 8 8 x q 8 8 q x 8 8 8 x 8 x 8 8 x 6 8 8 8 6 8 8 6 6 x 8 8 8 x x 8 x 6 6 8 8 8 8 8 8 8 8 6 8 8 8 8 8 8 8 x 6 6 8 6 8 8 8 x 6 x x 8 8 x x 6 x 6 8 8 x 8 8 6 8 8 8 6 8 x x 6 8 8 8 6 6 8 6 8 6 8 8 8 6 8 8 6 8 6 x 6 6 8 8 8 x 6 l 8 8 6 8 8 x 6 6 8 8 l x 6 6 8 8 6 x 6 l 8 8 6 6 8 8 6 8 6 8 6 8 6 6 8 6 8 6 8 6 8 6 8 6 8 6 8 8 6 8 6 8 6 6 6 6 8 6 8 6 8 6 8 8 6 8 6 8 6 6 8 8 7 8 7 8 7 8 7 8 7 0 7 8 8 7 8 7 8 0 8 8 7 7 q 8 7 7 8 7 q 8 7 7 7 8 0 7 8 7 7 q 7 7 7 7 8 7 8 q 8 7 q 8 7 7 7 8 7 7 8 8 7 7 8 8 7 7 8 8 7 7 8 8 7 7 q 8 7 7 q 7 8 8 7 7 8 7 7 8 7 7 7 8 7 7 8 7 8 7 6 7 7 5 8 7 6 5 8 7 5 8 7 5 8 7 6 6 7 5 7 5 5 7 7 7 5 6 7 8 5 6 7 8 6 7 8 8 5 5 7 7 6 7 7 7 7 5 7 7 5 7 6 7 5 5 8 7 5 7 5 7 7 5 7 8 5 5 7 8 5 7 5 6 7 8 6 5 8 7 6 6 7 8 5 8 6 7 8 7 7 5 8 7 5 5 8 ",
"o.%.%.o.o.%...o.o.%.%.o.%.@.%.o.%.%...o.o.%...%.o.%.o.%.%.o.%.o.o.o.o.o.o.o.%.o.o.o.%.o.o.o.o.%.o.o.o.%.o.+.o.o.o.o.o.o.+.+.o.o.O.+.O.o.o.o.%.%.o.o.o.o.o.o.' } :.5.w.w.w.e.e.9.9.e.9.9.e.e.e.e.e.e.9.e.e.e.e.e.e.e.e.e.e.e.e.e.e.e.9.e.e.e.e.e.e.e.e.e.e.e.e.e.q.e.e.e.e.e.e.e.e.e.e.e.e.e.e.e.e.e.e.e.e.e.e.e.e.e.e.e.e.e.e.e.e.e.e.e.e.w.w.w.-.~ { { @.} | @.) ) .. .o. .O. .X.O.O.X.X.X.X.X.X.X.X.X.X.X.O.X.X.X.X.X.X.X.X.X.X.X.X.X.X.X.X.X.X.X.X.X.X.X.X.X.X.V X.H X.H X.X.X.X.V X.H X.H X.H X.H X.X.X.X.X.H X.X.H X.X.H ` X.X.V V X.H H X.H H X.H X.H H X.X.H H X.X.X.H H H X.H H H H X.K V H H X.X.H H H X.V X.H H H H V H H H H H X.H H X.H H H H H H H H H H H H H H H H H X.H H H X.H H X.H H B H H V H H H H V H H G G H G G H G J H H G G H H V V G G J K m s @.5.5.w.e.e.e.e.e.q.e.q.e.9.e.e.e.e.w.q.w.w.e.e.e.w.e.e.e.9.e.9.e.e.e.e.e.9.e.e.e.e.e.e.9.e.e.e.e.e.e.e.e.e.e.e.e.e.9.e.9.e.e.e.9.e.e.9.e.e.e.e.9.e.e.e.e.e.e.e.e.e.e.e.e.e.e.9.e.e.e.e.e.e.w.w.8.8.e.e.e.e.e.w.5.=. .V B F B B D B B B G G S S S G S B B G B B B B B B B B G B B B B B B B B B G c G c B B B c G c G S c G c G c G G c B G c G c B c B c c B c B G c B G c B B c B B G c c c B c c G c c G c c B B c c c B c B G c B G c S c S S c G B S c S c S c S S c c G c S c S S c S S S c c c c B c c c c c c c c c c c c M c c c c c c c z c c c c c c c c z z c c c c c c c c x c c x c c c c x c k c c x S c c c c c x S x c c x S c c x c c x k x c c c x c c c c x c c x x c c l x x c c c c x c x c c x x c c x c c x c c x c c x c c x c c x l x c c c l c x z c x c x c x c x c x c l l c x c x c x c x k x x x x x x x x x x x k x x c x x k x c x c x A k x x x x x x x x x x c x x c x x x x c A c c x c x c x x x x S x x x x x x x x x A x x x A x x A x x x x x x x x x x x x x x x x x x x x x x x x x x A x x A x x x A x x x x x A x 8 x x x 8 x x l x x x l x 8 x 8 x 8 A 8 8 x 8 A 8 x 8 x 8 x 8 x x 8 x 8 x x x x 8 x 8 A 8 A x x 8 x 8 x x 8 x 8 x 8 x 8 8 x x 8 A 8 8 A 8 A q 4 x 8 8 x 8 8 x 8 x x 8 x x 8 x 8 8 x 8 8 8 8 8 8 8 8 8 q q 8 8 x x 8 8 q q 8 8 x x x 8 q 8 x 8 8 8 x x 8 8 8 x 8 8 8 8 6 8 6 8 8 8 6 x 8 8 8 8 8 x 6 8 6 6 8 6 8 x 8 8 6 8 8 l 8 8 x 6 8 6 x 8 6 8 8 8 8 8 8 6 x 8 8 8 6 6 8 8 6 6 8 8 8 8 8 6 8 8 x 8 6 x 8 8 6 8 8 8 l 6 x x 8 8 8 8 8 8 l x 8 8 8 8 8 8 8 8 6 x 8 8 8 8 8 8 6 x 8 6 8 x 8 8 8 8 8 8 6 x 8 8 8 8 8 8 6 8 6 6 8 6 8 6 6 6 8 8 6 8 6 8 6 8 6 8 6 8 6 8 6 6 8 6 8 6 8 6 8 8 6 8 6 8 6 8 6 6 8 6 8 6 8 6 8 8 7 7 8 7 8 8 0 7 8 8 8 7 7 q 7 8 7 8 7 7 8 7 7 7 q 8 7 8 7 7 8 8 7 8 7 8 7 q 7 7 8 7 8 8 0 8 7 7 7 8 7 7 8 7 q 7 8 7 8 7 q 8 7 7 q 7 7 7 7 q 7 7 8 8 7 7 8 7 7 7 q 7 8 q 7 8 7 0 8 7 8 7 q 7 7 7 7 7 7 5 6 7 5 7 6 7 5 8 5 5 7 7 5 7 7 7 5 8 7 5 8 7 6 8 7 6 7 5 7 7 5 5 7 7 5 5 7 6 7 5 8 5 6 6 7 8 5 7 8 5 7 7 6 7 5 5 8 8 5 7 6 8 5 5 7 7 6 5 5 8 8 7 5 5 7 7 5 7 7 7 7 5 5 5 7 7 5 5 6 7 5 7 6 7 5 ",
"%.%.%.%.o.%.o.%.+.@.%.o.%.o.%.%.%.o.} %.' %.%...o.%.o.%.o.%.o.%.%.+.%.o.o.o.o.o.+.%.o.%.o.+.o.o.+.o.%.o.o.+.%.o.o.+.+.o.o.o.o.+.O.O.o.o.o.%.o.o.o.o.o.%...%.} | 3.w.e.w.e.e.e.9.9.e.e.e.e.e.e.e.9.e.e.e.e.e.e.e.e.e.e.e.e.e.e.e.e.e.e.w.w.e.e.e.e.e.e.e.e.e.e.e.e.e.e.e.e.e.e.e.e.e.e.e.e.e.e.e.e.e.e.e.e.e.e.e.e.e.e.e.e.e.e.e.e.e.e.e.w.e.w.8.,.,.1.w.w.5.5.5.5.$.@.R ^  . .O. .X.X.O.X.X.o.` X.` ` X.X.X.X.X.X.X.X.X.X.X.X.X.O.X.X.X.X.X.X.X.X.X.X.X.X.X.X.X.X.X.X.X.` X.X.H H X.X.H X.X.X.X.X.X.X.X.` H H X.V X.` X.X.` H X.H X.` X.V X.X.X.H X.X.H X.H H H H X.X.H H K X.H X.K H X.X.H H X.H H X.H H H H H H H H V X.H X.H H H H V H H X.H V H H X.H H H X.H V H H X.H H H H V H H H H H H H H V H G H H H V V H H H V H H H H G H G H H G G G H J V H B G J D H m T =.5.w.w.e.e.e.e.q.e.e.9.e.9.e.e.e.e.e.9.w.e.e.e.e.e.e.9.e.e.9.e.e.e.9.e.9.e.e.q.e.e.9.9.e.e.e.e.e.e.e.e.e.e.e.e.e.9.e.e.e.e.e.e.e.e.e.e.e.e.e.e.e.e.e.e.e.e.e.e.e.q.w.e.e.e.e.e.e.e.e.e.e.w.w.e.w.e.w.e.e.e.w.5.4.$. .V B D B B B V D B G B B G G S G B G B G G B G B B G B B B B B B B B c B k c G c B c B B G c c G B c G c G c G c c B G c c c B c c B c c c c B c c G c c B c B c c B c c c c B c B c B B c B c B c B G c c G c c S c G S S c G S S c c S S c c S c S S c S S c S c S S c S c S c c c c c c c B c c c c c c c c c c c B c z c c c c c c c z c c c c c c z c c z c c c x c c c x c k S c c c c c c x c c x c A c c c x S c c c x S k S c c c c c c c x c c x c c l c c x c c c l c c x c c c x c c c c c l c x x c c x c c c c c x c x c c c x c c c x x c x l l c l c l c x z x c c x c x z x c l x c x A x c x x S x c x x x x c x x c x x x x x c x x x x c A x x x k x c x S x x x k x x x x x x x x x c x x x x x x x x x x x x x x x x x A x x x x x x x A x x x x x x x x x x x x x x x x x x A x x x x x x x A x x x x x x x x x x x x x x x x l x 8 x x x x 8 A 8 x 8 x x x x 8 x 8 x x 8 A 8 x 8 A 8 x x 8 A 8 x x 8 x 8 x x 8 x 8 A 8 8 x 8 A 8 x 8 x A A A 8 x A 8 8 8 8 x 8 9 q x 8 9 8 x x 8 8 x x 8 8 x 6 x x 6 8 x q x 8 8 8 x 8 x 8 x 8 x 8 8 x 8 8 x 8 x 8 x 8 8 8 8 8 q q 8 8 8 8 8 8 6 8 8 8 x 6 8 8 6 6 8 8 8 8 x 6 6 8 6 8 8 8 8 6 8 8 8 6 x 8 8 l 8 8 6 8 6 8 8 8 8 x 8 6 8 8 x l 8 8 8 8 8 8 6 8 8 8 8 8 l 8 8 x 6 6 x 8 6 6 8 8 6 8 8 8 8 8 8 x 6 6 8 8 6 8 8 x 6 8 6 8 8 8 x 6 8 8 8 x 6 8 6 8 6 8 x 6 8 6 8 8 6 6 8 8 x 6 8 8 x 8 6 8 x 6 8 6 8 8 6 8 6 8 6 8 6 6 8 6 8 6 8 6 8 6 8 6 8 8 6 8 6 8 6 8 6 8 6 8 6 8 6 8 6 8 6 6 8 6 8 8 8 8 7 8 7 7 8 8 7 7 q 7 7 7 8 7 8 7 q 8 7 0 8 7 8 7 8 q 7 7 7 8 0 7 8 7 8 8 7 8 7 7 8 q 7 8 7 8 7 7 8 8 7 7 8 7 8 7 7 8 0 7 q 8 7 8 7 8 7 7 8 7 8 8 7 7 8 q 8 7 8 7 8 7 7 7 8 7 8 8 7 7 8 7 7 7 8 5 7 7 5 8 6 7 7 8 5 7 7 7 7 5 8 6 7 6 7 7 6 7 6 5 7 7 5 5 7 7 5 7 6 7 8 6 7 8 5 7 8 7 6 7 7 5 7 7 7 5 8 6 6 7 5 8 5 7 7 5 8 7 6 7 6 8 5 7 7 5 8 8 5 7 5 7 7 5 8 6 7 6 7 7 6 7 8 7 5 7 7 8 6 7 7 8 5 7 7 ",
"%.o.o.%.%.o.%.%.o.o.%.%.o.%.%.o.%.o.o...o.o.o.%.%.o.o.} %.o.%.o.o.o.o.o.o.%.o.%.o.o.o.o.o.o.%.o.o.%.o.o.o.%.o.o.o.o.o.o.o.O.o.o.O.O.+.o.%.' } ' } } %.%.[ [ [ ] 0.w.w.w.9.e.e.9.e.9.9.e.e.e.e.e.e.e.e.9.e.e.e.e.e.e.e.e.e.e.e.e.e.e.e.8.9.e.e.9.e.e.e.e.e.e.e.e.e.e.e.e.e.e.e.e.e.e.e.e.e.e.e.e.e.e.e.e.e.e.e.e.e.e.e.e.e.e.e.e.e.w.e.w.e.e.e.e.e.w.e.w.e.w.w.w.w.w.3.#.@.@... . .X.X.X.X.' ` o.o.X.o.X.X.X.X.X.X.X.X.K X.X.X.X.X.X.X.X.X.X.H X.X.V X.V X.X.X.X.H X.H X.H X.X.X.X.X.X.X.X.H X.H X.X.X.H X.X.X.X.X.X.H H H X.X.H X.H H X.X.X.V V X.H H H X.H X.H X.H H K X.H H X.H H X.H H X.H H H X.H H V X.X.H H X.H X.V H H H H H H X.H H H H H H H H H H H H H X.H H H H H H H X.H H X.H H H H H V H V V V H H H H V H V H G H J F G H G G F H F H H H V V F B V F m ..=.5.w.e.e.e.e.e.e.q.e.e.e.e.e.e.e.9.e.e.e.e.e.e.9.e.e.e.e.e.e.9.e.e.e.e.e.e.e.e.9.e.e.e.9.e.9.e.e.e.e.e.e.e.e.e.e.e.e.e.e.e.e.e.e.e.e.e.e.e.e.e.e.e.w.w.w.w.e.e.w.e.e.w.e.e.e.e.e.e.e.e.e.w.w.w.5.w.w.w.w.3.3.<.=...m n B B B B B B B B B B G c G G S B B B B B B B B B B G B B B M B B B B B B B S G B c B c c S G c c G c S S G c G B c c B c B c G B c c B B G c B c c B c c B c c G c B B G c c B c B c c G c B c B c c B B c c B c S S c c S c c c S S c c G G c S S c B S c S c S c c G S c c S c c c c B c c c c c c c c c c B c c c c c c c z z c x c c c z c z c c c c c c c c x S k c c c S c x c c x c x c S k c c c k c c c c x c c x c c c x c c x c x c c c c x c x c c x x c c x c c x x c z x c c x l c l c x c c c x c c l x c x x c x c c x c c l x l c c l c c c x c x c x c x c x x z l c x c x c x x k x x x c x x x x x c x x x x c x x S x c x x x c x x x k x c x A x x x x x x x A x k x c x c x x c x x c x x c x c k x x x x x x x x x x x x x A x x x x x x x x x x A x x x A x x x x A x x x x x A x x x x x x x x x x x x x x x l l x 8 l x x x x x l x 8 x 8 x 8 x x 8 x 8 8 x A 8 8 x 8 x x x 8 x x 8 x 8 8 x x 8 8 x x 8 x 8 x 8 x x 8 x x x 8 x x 8 8 8 8 q 8 x A 8 A 8 8 x 8 A x 8 x 8 8 x x 8 8 x x 8 x 8 8 x x 8 8 8 8 x 8 8 q 8 8 8 q 8 A 8 8 8 8 q 8 8 q 8 A 8 x q x 8 x 8 x x 8 8 8 8 6 x 8 8 x 8 8 x x 6 8 8 8 8 8 8 8 x 8 6 8 8 8 6 6 x 8 8 8 8 8 8 8 x 8 8 8 8 x 6 6 8 8 6 8 6 8 8 8 8 8 8 8 x 6 8 8 8 8 8 8 8 6 8 8 8 8 8 8 8 6 x x 8 8 8 8 8 6 8 8 6 8 x 8 8 6 8 8 6 x 6 8 6 8 8 8 8 6 8 8 x 8 8 6 8 8 8 8 8 6 x x 6 8 8 8 8 8 6 6 x 8 8 8 6 8 6 6 8 6 x 6 8 6 8 8 6 8 6 8 6 8 6 8 6 8 6 6 8 6 8 6 8 6 8 6 8 6 8 6 8 6 8 6 8 8 6 8 6 6 8 0 8 7 7 8 0 7 8 8 7 7 8 8 7 8 0 7 7 7 8 7 8 8 7 8 7 7 8 7 8 8 8 8 0 8 7 7 q 7 7 8 7 7 7 7 8 7 q 7 8 0 8 q 7 7 7 8 7 7 8 8 7 7 8 q 7 7 8 8 0 8 7 7 q 7 7 7 7 8 7 8 7 q 7 7 7 8 7 7 8 8 7 7 q q 7 8 7 6 8 5 7 8 5 5 7 6 7 5 6 7 5 5 7 7 5 7 7 5 8 8 7 6 8 7 6 5 8 5 8 7 5 7 7 5 7 5 5 5 8 8 5 8 5 5 6 7 5 7 7 8 7 5 7 6 7 7 5 7 7 7 7 5 7 6 7 7 5 5 7 8 5 5 6 7 5 5 7 7 5 7 7 5 8 6 8 5 6 5 7 7 6 5 7 6 7 ",
"o.o.+.o.@.%.%.o.%.%.%.o.o.%.%.o.o.%.%...@.o.%.o.o.%.o.o.' o.%.o.o.o.%.o.%.o.o.+.o.%.o.o.%.o.o.%.o.o.o.o.o.o.o.o.+.O.O.o.+.o.+.O.o.o.+.o.} } &.&.#.&.4.&.2.4.3.3.0.9.e.e.e.e.9.e.9.e.e.9.e.e.e.w.e.e.e.e.e.e.e.e.e.e.e.e.e.e.e.e.e.e.e.e.e.e.e.e.e.e.e.e.e.e.e.e.e.e.e.e.e.e.e.e.e.e.e.e.e.e.e.e.e.e.e.e.e.e.e.e.e.e.e.e.e.e.e.e.e.e.e.w.e.9.e.9.9.e.e.e.e.e.e.q.e.w.w.w.5.=.@.T o. . .O.o.o.' ` '  .o.X.o.X. .o.O.X.X.O.X.X.X.X.X.X.X.H X.X.X.X.X.X.X.X.X.H X.X.X.X.H X.H X.X.H H X.X.H X.H X.X.H X.H X.X.X.X.X.X.H V X.X.X.` H X.` V X.H X.X.X.H K X.X.H K X.X.H H H X.X.H H X.H X.X.H K X.X.H H H H V H H H H X.H H H H V X.H X.H H H H H H H H X.H H H X.V H H H H H H H X.H H H H H H H V X.H H H H H H H H H V H V H H H H G H J H H H H H G H H G H V V V m m H ( *.&.5.w.w.e.e.e.e.e.e.e.e.e.e.e.w.9.e.e.e.e.e.9.9.e.q.9.e.e.e.e.e.e.9.e.e.e.e.e.e.e.e.e.e.e.e.e.e.e.e.w.e.e.e.e.e.9.9.e.e.e.e.e.e.e.e.e.e.e.e.e.e.e.w.w.6.0.w.w.w.w.w.e.e.w.e.w.w.w.w.w.w.5.3.3.<.3.<.,.3.>.2.2.*.%. .f F B B B D B B B B G B B B B B B B G B B B B G B B B B B B B B B B B B B B B B B B B B c G c S B G G c G c G c c c G c c B c c B S B B c c B c c B c S B G B c G c c B c c B G c c S c c c c B c c G B c c B B c S c c G S S c S S S c S S S c S c G S S S c c G c S S c c c c k c c B c c c c c M c c c c c c c c c c c c c c c c c c z c z c c c c c c l c c c c c c c x c c k c x x c c c S k S c c c c c x c c c x c c c c S c x x c c c S k c x c c c x x c c l c x x c c x x c c l x c c c x x c c x c c c x c x c c c c z x c c x x c x c c x z c x c x c x c x c x c l c c x c x c x c x x x x x x x x x x x c x A k x c x x x x x x x c c x k x x x x x x x c x c x x k x S x x A x x c x k A x S x k x k x x x x x x k x A x x x x x x A x x x x x x x A x x A x x x x x x x x x x x x x x x x x x x A x x x x x x A x x x x x x 8 l x x 6 x l l l x x x x x x x 8 8 x x 8 x 8 8 x x 8 x x 8 x x 8 8 A 8 x x 8 8 x x 8 x 8 x 8 8 x x 8 8 A 8 x x 8 8 x 8 A x 8 9 8 8 8 8 A q x x 8 8 A 8 8 x 8 8 8 x 8 8 8 x 8 x 6 8 x 8 x 8 8 x 8 x 8 x 8 x x 8 8 8 8 8 x A 8 x q 8 8 x 8 x q 8 8 8 q 8 8 8 x 8 6 x 8 6 8 6 8 x 8 l 8 8 6 8 8 6 8 6 8 6 8 8 x 8 8 x 8 x 6 8 8 8 6 8 x 8 l 8 6 8 8 8 x 8 x 6 8 x 6 8 6 8 8 6 8 8 8 8 8 l 8 8 8 8 8 x 6 8 6 8 8 6 6 8 8 8 8 8 8 8 x 6 x 8 8 8 8 8 x 6 6 8 8 8 x l 8 8 8 8 6 8 x 6 8 8 8 8 6 8 8 8 8 x 8 8 6 6 8 8 8 x 6 6 8 6 8 8 6 8 6 8 6 8 6 6 8 6 8 6 x 6 6 6 8 6 8 8 6 8 6 8 6 8 6 8 6 8 5 8 8 6 7 8 8 8 5 8 8 6 8 8 8 7 q 7 7 7 8 7 8 8 7 7 q 7 8 8 7 0 7 8 8 0 7 7 0 8 7 8 0 7 7 7 8 7 8 7 8 7 8 7 8 7 8 7 8 7 7 8 7 7 7 7 7 q 7 7 q 8 7 7 8 q 7 7 8 7 7 8 8 7 8 8 7 7 8 7 8 0 8 8 7 0 8 8 7 8 7 8 8 7 q 8 8 7 8 5 7 7 7 5 7 5 7 6 7 5 7 8 5 7 7 8 6 7 8 5 7 6 5 5 7 7 5 5 8 7 6 7 5 7 6 7 5 7 6 8 7 6 5 5 7 7 7 8 5 7 7 8 5 5 7 6 7 5 7 6 7 8 5 5 8 6 7 5 7 6 7 6 7 5 7 8 5 7 7 8 6 7 8 5 7 6 5 7 7 5 7 7 6 7 5 6 7 5 7 ",
"%.@.%.%.o.o.o.%.%.o.%.o.%.%...%.%.%.o.%.o.o.o...%.' o.%.%.o.o.} o.%.o.o.o.o.o.%.o.o.%.o.%.o.o.%.o.%.o.%.o.%.o.%.o.o.+.o.o.o.o.o.o.o.o.&.@.@.4.5.5.5.5.w.w.w.w.w.w.e.e.e.9.9.e.9.e.9.e.e.e.e.e.e.e.w.e.e.e.e.e.e.e.e.e.e.e.e.e.e.e.9.e.e.9.e.e.e.e.9.e.e.e.e.q.e.e.9.e.e.e.e.e.e.e.e.e.e.e.e.e.e.e.e.e.e.e.e.e.e.e.e.e.e.e.e.e.e.e.e.e.e.e.e.e.e.e.e.q.e.e.e.e.e.q.e.e.w.w.5.=.@.( ' ( ' ' ' o.' o.` ' X.' X.X.X.X.X.X.X.X.K X.K O.X.X.X.X.` ` X.X.X.X.X.X.` X.X.H X.X.X.X.X.X.X.X.X.X.X.X.X.X.H X.X.X.X.H X.X.H ` X.X.X.V V X.X.H X.X.X.H ` H ` H X.H H X.H H H H X.X.H H X.H H X.H H H X.H H X.H X.H X.H X.X.V H H H X.H X.H H H H H H V X.H H H H H H H H H H H H H X.H H V H H H H X.H H H H X.H H V V H V V H H H H H V H H H G G H G H G G F G H H V B H V V o.o.o.=.&.4.w.w.w.w.w.w.e.w.w.w.w.w.w.w.0.w.w.e.w.e.e.e.e.e.e.e.w.e.w.e.e.w.e.e.e.e.e.e.e.e.e.e.e.e.w.e.e.w.e.w.e.w.w.e.w.e.w.e.w.e.w.w.e.w.e.e.w.e.w.w.w.0.0.:.;.>.3.5.w.5.5.w.w.w.5.w.w.0.0.2.>.2.#.$.2.&.#.#.&.#.&.%.o.o.n D G B G B B B D B B B G B G B B B B G G c G B B G B G B c B B B B B G G k S G c B c B B S G B S S c G c G c G S c c G c c G c c c B c c G c B c c B B c c c B c c B c B S c B c B c B G c B c B c c c c B c B S S c S c S c S c c S G c c S S c S c c S c S c S G c S S S c B c c c c c c c c c c c B c c c c c c c c c c c c x c c c c c c c c c c z c c c c z c c x c S c x c c S c c c c x S x c c c c x c c c c S k c c x k c S c c c c x S c c x c x c c x c c l c c c x c c x c c c x x c c c x c c x l c c x c c x x c x c l c c c x c c x c c x c l c l z x z x c l c x x c l c l c z x c x c x c x c x k x x x x x x x x c x A k x x x x x A x c x S x c x x x x x x A x x c x c x x x x x x x x x x A x x x k x x x x x x x x A x x x x x x x A x x x x x x x x x A x x x x x A x x x x x x A x x x x x x A x x x x x x x x x x x x x x x x x x x 8 x 8 8 x 8 x 8 A 8 x x 8 A x x 8 x 8 8 A 8 8 x x 8 x x 8 x A 8 x x x x 8 A x x 8 x x 8 x 8 x 8 A 8 A 8 8 C x 8 A x q 8 x 8 8 A 8 8 x 8 8 x x 8 8 x 6 x 8 x 8 x 8 8 8 A 8 x 8 q 8 q 8 q 8 8 8 x q x q 8 8 8 8 8 8 x 8 8 8 8 x 8 8 x x 8 8 8 8 8 6 8 8 8 8 8 6 8 8 8 6 x 8 8 6 x x 8 x 6 8 8 8 6 6 8 6 8 8 6 x 8 8 6 8 8 8 x 8 6 8 8 8 6 8 8 6 8 8 x 6 x x 8 6 6 x 8 8 8 8 6 x 6 8 8 6 x 8 8 8 8 x 6 6 6 x 8 8 8 8 8 6 8 6 x 8 8 8 x x 6 8 6 8 8 8 6 x 8 8 6 x 8 8 6 6 x 8 8 8 8 6 6 8 x 8 8 8 8 6 8 8 6 8 6 6 8 6 8 6 8 6 8 8 6 8 6 8 6 6 8 8 6 8 6 6 8 6 8 6 8 6 8 8 8 8 8 8 8 8 8 8 8 8 8 8 8 8 7 8 7 8 7 8 8 8 0 7 q 7 8 7 7 8 7 7 8 8 8 7 7 8 8 8 8 7 8 7 8 7 8 8 7 8 0 8 7 q 7 8 0 8 7 q 7 7 8 0 8 8 7 q 8 7 8 7 8 7 q 7 7 7 7 8 7 7 q 7 7 8 0 q 7 8 0 8 7 8 7 7 8 7 7 8 7 7 8 7 7 7 7 7 7 7 7 5 5 5 6 5 6 5 5 7 5 8 7 6 7 6 7 5 7 7 5 8 5 7 7 7 6 7 6 7 5 7 7 7 6 7 7 5 8 7 5 5 7 7 7 7 6 6 7 6 7 6 7 5 7 7 6 7 5 8 7 6 7 5 7 7 5 7 5 8 7 6 7 7 5 8 7 6 7 6 7 5 7 7 5 8 5 7 7 8 5 8 5 7 7 5 8 7 5 8 7 ",
"o.%.%.o.%.o.o.%.%.o.%.o.%.%.o.@.%.o.@.%.o.o.o.%.%.o.o.%.} o.o.%.o.o.o.o.o.o.o.o.%.+.o.%.o.o.%.o.+.o.o.o.+.o.o.o.o.o.+.o.o.o.o.o.+...@.@.4.5.w.w.w.w.e.w.w.w.e.e.e.e.e.9.e.9.e.e.e.e.e.e.e.e.e.e.e.e.e.e.e.e.e.e.e.e.e.e.e.e.e.e.e.e.e.e.e.e.e.q.e.e.q.e.9.q.e.9.e.e.e.9.e.e.e.e.e.e.e.e.e.e.e.e.e.e.e.e.e.e.e.e.e.e.e.e.e.e.9.e.e.e.e.e.e.q.e.e.e.9.e.w.e.e.e.e.e.q.q.w.w.w.5.4.) ) ' +.&.&.&.&.*.%.%.+...o.X.O.X.X.X.X.X.X.K X.X.X.X.X.X.` X.X.X.X.X.X.X.X.V X.X.X.V X.X.X.X.X.X.X.X.X.X.H X.` X.H X.X.X.X.X.X.H X.X.` H V X.X.X.V X.X.X.V H X.X.H H X.X.H K X.X.X.H H X.H X.X.K H X.H H X.K H X.H X.H X.H X.H X.V H H X.H X.H H H H H H H X.H H H H X.H H H X.H H H H H H H H H H H H H X.H H V H H H V V H H H H V H V H H G H J H J H G H G H G H H F B V X.+.*.%.&.&.&.:.#.2.3.5.5.w.w.5.w.w.5.5.1.>.3.>.<.w.w.w.e.w.e.e.w.w.w.w.w.w.w.w.0.w.w.w.w.e.e.w.w.w.e.e.w.w.w.e.w.0.,.0.w.w.w.e.e.w.w.3.,.3.3.w.w.w.w.w.3.3.3.:.>.>.>.#.>.>.>.3.>.2.3.2.3.3.2.3.$.| &.&.&.=.*.&.*.&.=.=.*. .f m F G G B B B B n B B G B B B B B G B B B B B G G B c G B G B B B B M B B B k G S B c c B B c S G c c G S G c G c B B c B c S B c c B c B c c B c B c c B S c G c B B c c B c B c G c c G c c B c S B c S B G c c B S S c S S c G S c S c S G c S S c S c S c c S c c G S S S S c c c M c c c c c c c c c c c c c c c z c c c c z c c c c c z c c c z c c c z c c c k x c c k S c c c c x S c x c c c c x c c x S c c A c c S k c c c c c c S x c c x c c x c x c c x x c x c c x c c x c c l c x x c x x c c x x c c x x c c x c c x c c x c c c x x c x c x z x c x c l c x z x c l c l c x c l x x c x c x x x x A x x c x k A x x x x x x S x c x c x c x x x x x S x x c x x A x c x x k A x c c x c x x c x c A c x x x x x x x x A x x x x x x x x x x x x A x x x A x x x x x x x x x x x x A x x x x A x x x x x x x A x x j 8 x x l x x l l x l x l x l x A 8 x 8 x 8 x x 8 x 8 x x 8 x 8 x 8 x 8 x x 8 x 8 x 8 8 x 8 x 8 8 x 8 x 8 x 8 x x 8 A 8 x x x x 8 x 8 x 8 8 x 8 x x 8 x x 8 8 x 8 x x 6 8 x 8 8 x 8 x 8 x 8 8 x 8 q x 8 x 8 x 8 8 8 8 x x q x 8 x 8 x 8 x 8 q 8 8 q x 8 8 8 8 8 8 6 8 6 8 8 6 x 8 x x 6 8 8 8 l 6 8 8 6 8 8 8 8 6 8 8 8 x 6 8 6 8 6 8 8 8 8 8 8 8 x 6 8 8 8 6 8 8 8 6 x 8 6 8 6 8 6 8 8 8 8 8 8 8 6 8 x 6 8 8 8 8 8 6 x 8 6 6 8 8 x x 6 8 8 8 x 8 8 8 8 6 8 8 8 6 8 8 6 8 x 6 8 8 x 6 8 8 8 6 x 8 8 8 6 x 8 8 8 8 8 8 l 8 8 8 8 6 8 6 8 6 8 6 8 8 6 8 6 8 6 6 8 8 6 8 6 8 6 8 6 6 8 6 8 6 8 6 8 8 8 8 8 8 8 8 8 8 8 8 7 7 8 8 7 7 7 q 7 8 7 8 8 0 7 7 8 8 7 q 7 7 7 8 7 q 7 8 7 7 8 q 7 7 8 7 q 0 8 8 7 8 7 7 8 7 8 7 7 7 7 q 7 8 7 8 7 7 8 7 8 7 8 7 7 q 7 7 8 5 7 7 6 7 6 7 5 7 8 7 8 7 8 7 7 7 6 7 8 5 7 5 7 5 7 7 5 7 6 5 8 6 6 7 7 8 5 7 7 6 5 8 5 6 7 5 5 7 7 5 5 5 7 7 5 7 5 7 6 7 8 5 7 7 5 8 6 7 7 5 8 5 5 5 8 6 7 5 7 7 8 5 7 8 5 7 7 5 7 6 7 8 5 7 7 6 5 8 5 6 7 7 5 7 7 5 8 6 7 7 5 7 5 7 7 8 5 7 7 5 7 7 6 7 5 7 7 7 5 8 6 ",
"@.%.o.%.o.%.%.o.o.%.%.o.o.%.%.o.' %.o.o.o.@.} o.o.} o.o.o.o.%.' o.%.o.%.%.o.%.o.o.o.o.o.+.o.o.o.o.o.%.o.o.o.%.%.o.+.o.o.+.O.o.+.@.$.$.>.5.5.w.w.w.e.e.w.e.e.e.e.e.e.9.e.9.e.e.9.e.9.9.e.9.w.e.e.e.e.w.w.e.e.e.w.e.e.e.e.e.e.e.e.e.e.e.e.e.q.e.e.q.e.e.e.e.e.e.e.e.e.e.e.e.e.e.e.e.e.e.e.e.e.e.w.e.e.e.9.9.e.e.9.9.e.9.e.e.9.e.e.e.e.e.q.e.e.e.9.e.e.e.e.e.w.w.w.e.e.e.e.e.w.5.4.&.=.&.&.*.&.&.&.*.*.*.%.%.o.o. .o. .X.X.K X.X.K H X.X.X.X.H H X.H X.X.X.X.X.X.X.X.X.X.X.H X.H X.X.H X.H X.X.X.X.X.` X.H H X.H X.X.H H X.X.X.X.V X.H X.V H X.X.H H H X.K H X.H H H K H X.H H H H X.H X.H H X.X.H H H H H V H H H H H H X.V H X.H H H H X.H H H H H H H H H H H H H X.H H H X.H H X.H H H H V H H V H V H H H V H V H H H V H H H H H G H F H H H G H H G V H V V o.| &.&.&.&.&.:.>.>.<.3.<.2.2.4.2.2.2.2.| >.<.2.3.5.5.w.w.e.w.e.w.w.w.5.w.1.,.<.0.5.w.w.w.w.w.w.e.w.w.e.w.w.w.5.,.:.,.3.w.5.w.w.w.w.3.3.>.>.3.3.3.3.3.2.3.:.:.>.2.$.&.$.&.&.&.$.&.2.$.&.#.#.@.&.&.*.%.%.*.%.*.%.o.%.+.X.H D D D J D n B J B B B B B G B G B B B G B G B B B B B G B B B M B B B B B k B B B G S B B c B G c c G G c B c c c B c c G c B B c c B c c c G B c B S B B c c c c B c c G G c c G B c c B B c c G B c c B B c c B B c c S S c c S S c S c S B c S c c c S S c G S c S c c c S G c S c c c c c c c c c c c B c c c c z c c c c c c c c z c z c c c c c c c z c c c c c S c c c c x c c c x c c c c c c k S S c c c x c c k c c c x c c c x c c k S c c c x x c c x x c c c c c x z c x x c c l c c c c l c c c c c c l z c c c l c c x c x l c c x c x c x z x c x c l c x c x c x c x c x c x c l c c x x x x x S x c c x x x x x x x A k c x x x x x x x x x x c x A x x k x x x x k x x c x x x x x x x x x x x x x x x c x k A x c x x x x x x A x x x A x x x x x x x x x A x x x A x x x x x x A x x x x x x x x x A x x x x x x x x x x 8 x x x x x x x 8 x x x 8 x x 8 8 x A 8 x x x 8 8 A A 8 8 x 8 x 8 A x 8 x 8 A x 8 x 8 x x 8 x x A 8 8 x 8 x 8 x x 8 8 x x 8 A 8 x x 8 x 8 x x 8 8 A A 8 x 8 8 x x 8 x x 8 x 8 8 6 x x 8 x 8 8 8 8 q 8 8 8 x q 8 8 8 8 8 8 8 x q 8 8 x 8 x 8 8 8 x 8 8 4 8 x 8 8 8 8 8 6 8 6 8 6 8 8 8 8 8 6 8 x 8 6 8 8 8 6 x 8 6 8 8 x 8 x 6 8 8 8 l 8 8 8 8 6 8 8 x 6 8 6 8 8 8 x 8 8 8 8 8 6 8 l 8 8 6 x 8 8 6 8 6 x 8 6 8 8 8 x 8 8 8 6 8 8 8 6 8 6 8 8 x 6 x 8 8 8 8 8 6 x 8 8 6 8 8 8 8 6 6 x 8 8 x 8 8 8 6 8 6 x 6 x 8 8 8 8 8 6 8 6 8 6 8 6 8 6 6 8 6 8 6 8 8 6 6 8 6 8 6 8 6 8 8 6 8 l 8 6 8 6 8 8 7 8 8 7 7 8 7 8 8 8 8 8 8 8 7 8 7 8 7 q 7 7 8 8 8 7 7 7 7 8 8 q 7 8 7 8 7 7 8 7 7 8 8 7 7 7 7 8 7 8 q 7 7 8 q 7 8 q 8 8 7 8 7 8 7 8 8 7 8 0 8 7 7 q 7 8 8 7 8 8 7 7 7 7 8 7 8 7 8 7 8 7 7 8 5 8 7 5 7 6 8 5 8 7 6 8 7 7 7 5 7 7 7 6 5 7 6 7 7 7 6 7 7 7 7 8 6 5 8 8 8 7 6 8 5 8 5 8 7 5 5 8 7 6 5 7 8 5 5 8 8 8 7 5 7 5 8 7 7 5 7 6 5 7 6 7 8 5 5 7 5 5 7 6 7 7 8 7 7 5 5 8 6 7 7 5 7 7 5 8 6 8 5 6 5 7 6 5 5 8 7 5 5 8 7 6 7 6 5 7 ",
"o.%.o.%.%.@.%.%.%.@.o.%.%.o.o.%.o.o.o.%.o.@.o.o.o.%.' %.%.o.o.%.%.o.o.%.o.o.o.%.o.o.o.%.o.%.o.o.%.o.o.%.%.o.o.o.o.O.o.+.+.o.o.o...^ #.5.w.w.e.e.9.9.e.9.9.9.e.e.e.e.e.e.9.e.e.e.w.e.e.e.e.e.e.e.w.w.w.e.w.e.e.e.e.e.e.e.e.e.e.e.e.e.q.e.e.e.e.e.e.e.e.e.e.e.e.e.e.8.e.e.e.e.e.e.e.q.e.e.e.e.w.e.e.e.e.e.e.e.e.e.9.e.e.e.e.e.e.e.e.e.e.e.e.e.e.e.e.e.e.w.w.w.1.3.w.q.q.w.w.w.5.4.4.&.&.&.&.&.&.&.&.*.*.*.*.%.o.) X.X.X.X.X.K K X.X.X.X.` X.X.X.X.X.X.X.X.X.X.X.X.X.H H X.X.X.X.X.X.X.X.X.X.H H X.X.H X.X.X.X.X.H ` X.V V V X.X.H X.` X.X.X.X.X.` H X.X.H H X.H X.H X.X.H H X.X.K X.H H X.H H H H H H X.V H H X.V X.H X.H H H H H X.H H H H V H H H X.H H H X.H H H H H V H H H H H H H X.H H H H H H H H H V H H V H H H H H H G D G G H H G G H H G H H V V H X.%.&.&.&.&.&.2.2.2.#.&.#.$.@.#.@.&.&.&.&.#.&.2.2.#.>.2.2.2.3.5.3.2.3.4.<.2.2.>.#.>.>.4.5.5.5.5.w.w.w.w.w.w.5.2.3.>.#.>.>.3.3.4.5.3.>.3.#.3.>.2.#.#.2.2.$.#.| &.&.&.&.=.&.&.=.&.&.=.&.=.=.&.&.=.$.*.%.+.+.o.o.o.o.` V F D n D B D B B B S n B J V B B B B B B B B B B B G B B B B B B B B B B B B B B G B G S B B B c B B c G G c S c c G B c B c c B c c c c B c c G G c c c B c c B c B B c G c c G c c B c c B B c c B B c c G B c c B B c c B S c c G S c c G c G c S S S c S S c S S c S S c c S c S S c S S c c c c c B B c c c c c c z c c c x c z z c c c c z c c c c c c c z c c c c c c c c c x c x x c c c c S c c c k c x c x c c x c c c x c c x c c x c c x c x c c c c c c c z c c c x l c x c c x x c c x c x x c c c c x x c c c x c c x c x x c c c c c c x c c l c l c x c x c x z l c l c l c l c x z x c x c x c x x x k x x x c x c x x c x x x x x x x x A x S x x c x x k x x x A c x c x x x x x x x x c x A A x x c x x x x x x c x x x x x x x x x x x x x x x x x x x x A x x x x x x x x x x x x x x x x x x x x x x x x x A x x x x x x x x x x x 8 8 x x 6 x x 8 x x x 8 A x 8 8 x A 8 x x x x 8 x x A 8 x A 8 8 x x x A 8 x x 8 x 8 x x 8 8 A x 8 8 x x 8 8 8 A 8 x 8 x x 8 x A 8 A 8 x x x 8 x x 8 x x 8 6 x x 6 8 x 6 x x 8 8 x 8 8 x 8 x x 8 x x 8 8 8 8 8 8 A 8 q 8 8 x 8 x 8 8 8 x 8 8 8 8 8 8 8 x 6 l 8 8 8 6 8 x 8 6 8 8 8 8 x 6 x x 8 8 l 8 x 8 8 8 8 8 8 8 8 8 x x 6 8 6 8 8 8 x x 6 8 6 x 6 8 8 8 8 x 6 8 8 8 x x 8 x 6 8 8 x 8 8 8 8 6 x 6 8 8 8 8 x 6 8 6 x 8 8 8 8 8 8 l 8 6 6 8 6 6 8 6 8 8 8 8 8 x 6 8 8 8 8 8 x 8 6 6 8 8 6 x 8 8 8 6 x 8 8 8 8 x 6 x 6 8 6 8 6 8 8 6 8 6 8 8 6 8 8 6 8 6 8 6 8 6 6 8 6 8 6 8 6 8 8 7 7 8 8 8 7 8 8 8 8 8 8 8 8 8 8 7 7 8 7 7 7 q 8 7 7 q 7 8 8 7 7 8 7 7 7 8 7 q 7 8 7 7 7 7 8 7 8 7 7 8 7 7 8 7 7 7 8 7 7 q 7 7 8 7 0 8 q 7 8 7 7 q 8 7 8 7 7 8 7 8 8 7 8 7 7 8 7 7 8 7 7 7 8 7 5 7 7 6 7 5 7 7 5 7 7 5 5 8 8 5 7 6 7 5 6 7 5 7 6 7 7 7 7 6 5 7 7 5 5 7 5 7 7 5 7 7 6 5 7 6 5 8 5 7 7 6 5 5 5 7 5 7 7 7 7 5 7 6 7 6 7 5 6 7 7 5 5 7 8 5 7 8 7 6 5 8 5 5 5 8 7 5 7 5 6 7 7 6 7 7 7 7 7 7 7 8 5 8 5 7 8 8 7 6 7 5 5 7 7 6 ",
"%.o.%.o.%.o.o.%.%.o.%.o.o.%.%.o.%...%.o.%.o.o.%.%.o.%.o.%.o.%.o.o.+.o.o.%.o.o.+.o.%.o.o.o.%.o.%.%.o.o.%.o.o.o.%.+.o.o.o.o.o.+.o.@.#.4.w.w.e.e.9.e.9.9.e.9.e.9.e.8.e.e.w.e.w.e.e.e.e.e.e.e.e.e.e.e.e.e.e.w.e.e.e.e.e.e.e.e.e.9.e.e.e.w.e.e.e.e.e.e.e.e.e.e.e.e.e.8.e.e.8.e.e.e.e.e.e.e.e.w.e.e.e.e.e.e.e.e.e.e.e.w.e.e.e.e.e.e.e.q.e.q.e.q.e.e.e.e.w.w.5.5.3.2.>.,.,.1.3.3.4.4.2.2.2.&.&.&.&.2.&.&.&.&.*.=.=.%.o.o.` X.X.X.X.K X.X.X.H X.X.X.X.X.X.X.H ` X.X.X.X.X.X.X.X.X.V X.H H X.V X.X.X.X.X.X.X.X.H X.X.X.X.H X.X.X.X.X.V X.H X.V H ` H H X.X.H H X.H H H X.H H X.H H X.H H H X.H H X.H X.X.V X.H H H X.H H H H V H X.V X.H H H H H H X.H H H H H H H V H H H H H X.H H V X.H H H H H H X.H H V H V H H H V H H V H H V V H H H H J G H H G D H G G H V B V %.&.&.&.&.2.&.#.2.&.#.@.#.=.=.=.&.&.&.&.&.&.&.&.&.&.&.2.2.#.:.{ #.#.$.#.$.2.=.<.#.$.$.2.4.4.2.4.2.3.3.5.2.2.2.#.2.2.#.>.2.2.>.<.&.@.#.$.&.&.&.&.&.&.&.&.&.&.&.&.&.*.*.*.=.=.*.*.*.%.*.%.%.+.%.+.O.O.X.X.` V N N N V B B B D B J B B D B B B B M G B G B B B B B G B B B G B G B B B B G G k B B B B B B c G c S B B B c G S c G c G S G c B c B B c G c B G c B B c c c G c c B B c B c c G c B B c c B c B c c c B S c c B c c c B c c c c G c c S S c c S S c c S S c S c S c c G c S S c G S c S S c c S c c c c c c c c c c c c c c c c c z c c c c c c c z c c c c c z c c c c c c c c z c S x c c c S c c c c x k x c c A c c c c c c k S c x c c c S x c S c S k c c c x x x c x x c x x c c x c c x c c c c x c x c c c c x l c c x x c c x x c z c x c x c x l x c z x c x c x c l c l c x c x c x c x c x c x x c z x x x c x x A x c x x x x x S x x x c x c x c x k x x A k x x x x x c x x x x x x x c x A S x x x x c k x x x A k c x c x x x x c x x A x A x x x A x x x x A 8 A x x x x x x x A x x x A A x x x x x A x x x x A x x x x x A x x x 8 x x x l l x l x x x l x l x 8 x x 8 8 x x 8 8 x 8 8 8 x x 8 x 8 x 8 8 x 8 x 8 x 8 x x 8 A 8 A 8 8 x x 8 x x x 8 x A x x 8 x 8 x 8 x x 8 x x 8 x 8 8 8 x x 8 8 6 8 x 8 8 8 x x 8 x 8 8 8 x 6 x q 8 8 8 8 q 8 x q x q 8 x 8 8 x 8 x 8 q 8 8 8 x 8 x q A 8 8 4 x 6 8 8 8 8 8 6 8 8 6 8 8 6 x 8 8 8 8 6 6 8 8 8 8 6 l 8 8 8 8 6 x 8 8 6 6 8 8 x 6 8 8 6 8 6 8 x 8 8 8 6 x 6 8 8 x 6 6 8 6 8 6 8 8 8 6 6 x 6 8 8 8 8 8 6 x 6 8 8 8 8 6 8 8 6 x 6 8 8 8 x 8 8 8 x 6 x 8 8 6 8 8 6 x 6 8 8 8 6 6 8 8 8 x 6 8 8 8 6 8 8 6 8 x 6 6 8 8 6 6 6 8 6 8 6 6 8 6 8 6 6 8 6 8 6 8 l 8 6 6 8 8 6 8 6 8 6 8 6 8 8 8 8 8 8 8 8 8 8 8 7 8 8 8 8 7 7 q 7 8 7 8 7 7 8 7 7 q 7 7 8 7 7 q 7 8 7 8 7 0 8 8 7 8 q 7 8 7 7 q 7 8 7 7 q 7 8 7 8 7 7 8 7 7 8 7 8 7 8 7 7 8 7 7 8 7 7 q 7 8 7 7 8 7 8 8 7 7 8 7 8 8 8 7 8 7 6 7 7 5 8 6 7 7 6 7 6 7 5 7 5 7 7 5 8 7 5 8 7 7 5 8 5 7 5 8 6 5 8 8 5 5 8 7 6 6 7 7 7 5 7 7 5 8 5 7 7 7 8 8 5 5 8 6 7 5 8 5 8 7 7 5 8 7 5 8 7 8 7 6 7 5 8 5 7 5 7 5 8 7 7 6 8 8 8 5 7 5 8 5 6 8 5 5 8 5 5 5 8 8 5 5 5 7 7 5 8 8 5 7 7 ",
"o.o.%.o.%.o.%.o.%.o.o.%.%.%.@.o.' %.o.o.o.%.o.%.' %.o.%.%.o.%.o.o.o.o.+.o.%.o.o.%.o.o.o.%.o.o.o.o.%.o.o.o.o.%.o.o.O.o.+.o.o.o.o.[ 3.5.w.e.e.e.9.9.9.e.9.e.e.9.e.e.0.e.w.e.e.e.w.w.e.w.e.e.e.e.w.w.w.e.e.w.e.w.e.e.e.9.e.e.e.e.e.e.w.w.w.e.w.e.w.w.w.e.w.e.e.w.e.w.9.8.e.9.e.e.e.e.e.e.q.e.e.e.w.w.e.w.e.e.e.w.e.0.8.w.8.e.e.e.w.e.e.e.w.w.e.w.w.w.w.5.5.2.2.&.#.#.#.#.$.$.$.2.&.&.2.&.&.&.&.=.=.&.&.@.&.=.*.%.o.` o.X.X.X.X.X.K X.X.X.X.V X.X.X.` X.X.H ` X.H X.X.H H X.X.X.X.X.X.X.X.X.X.H H X.X.X.X.X.H X.X.X.X.X.X.V X.X.V X.H X.X.` X.V X.X.H H X.K H X.H H X.H H H X.K H X.K X.X.K H X.X.H H H H H H X.H H H H H H H X.V H H H H V H H X.H H H H H H H H H H H H H H H H H V H H H H X.H H H H H H H H V H H H V V H H H G H J H H F H G H V G H H B H V X.o.&.&.*.&.&.&.@.&.&.&.&.&.*.=.&.&.&.&.*.=.=.=.*.*.&.&.=.2.&.4.&.&.&.&.=.=.=.=.#.&.#.=.&.&.2.$.2.2.3.&.>.&.&.&.&.4.&.&.&.&.@.#.&.4.#.&.@.@.&.&.&.%.&.&.*.&.=.*.&.*.*.*.&.*.%.%.+.+.o.o.O. .H V H V B V n V V V V V B B S G G S c k B J n G G B J B B B N B B B B G B B B B B B B B B B M B B B B B c B B k G B B B c c B c B S c G G c G c B c c c c B c c G c c B c c B c B c B c c B c c G c c c c G c c B c B B c G c c B c B G c c B c c c B S c S B c S c S S c S S S c S G G c S c c S S c S c c S c c c B c c B c c c c c c c M c c c c c c z c c c c c c c c c c z c z c c c c c c z c c c x c c S x c c S k c c c c c c x c c c x S x c c c c x c c x c c c c x c c c c c x x c c x x c x c c l c c c x x c c z x c c x x x c x x c x x l c c x x x c x c x c c c l x c l c l c x z x c x c x c l c l c x c x c l c l c x x x x x k A x k x S x x x x k x x c x x x x x x A x x c x x x c x x x x c c x c x x x c x x x x x x x x S x x x x k x x x x k x A x x x A x x x x x x x x x x x x x A x x x x x x x x x x x x x A x x x x x x x x A x x x x A x j 8 x x x x 6 x l x 8 6 x x x A 8 8 x x x 8 x 8 A 8 x x 8 x x x 8 8 A x x 8 x 8 x 8 x x 8 x 8 8 x x 8 8 x x 8 x 8 x 8 8 A 8 x 8 x x 8 x 8 A 8 A 8 x x x 8 x x x 8 x 8 6 x 8 8 8 x 8 6 x 6 x 8 x 8 8 8 q 8 8 x 8 x 8 q 8 x 8 x 8 8 8 8 x 8 8 A 8 q 8 q 8 8 8 8 6 8 8 x 8 6 8 x 8 6 6 x 8 8 8 8 x 6 8 8 8 8 8 6 8 6 x 6 8 8 8 8 6 8 8 8 8 8 8 8 x 6 6 8 8 6 8 8 6 6 8 8 8 8 l 8 8 6 8 8 8 6 8 x 8 x 6 8 8 6 8 6 6 6 8 8 8 8 l 8 8 8 6 x 8 8 8 8 x 6 8 8 8 8 x 8 l 8 8 8 x 8 8 8 8 6 8 6 6 8 6 x 8 8 x 8 8 x 6 8 8 6 8 6 8 6 8 6 8 6 8 6 6 8 6 6 8 l 8 6 8 6 8 6 6 8 6 8 8 6 8 6 8 6 6 8 6 8 6 8 8 8 7 8 7 7 0 8 7 7 7 8 8 7 0 7 8 7 8 7 8 0 8 7 q 7 q 7 7 8 q 7 q 7 8 7 0 8 8 8 7 7 8 7 7 q 7 7 8 7 q 8 8 7 7 8 8 0 8 7 7 8 7 8 0 8 7 8 7 q 7 q 7 8 8 7 7 8 7 8 7 7 8 7 8 7 8 8 7 5 7 7 7 8 5 7 6 7 5 7 8 5 6 7 7 7 5 8 7 7 6 8 5 8 8 5 7 7 7 6 7 5 7 5 8 5 7 7 7 7 7 5 7 7 5 7 7 7 5 8 8 8 5 5 6 7 7 5 7 6 8 5 5 7 7 6 5 7 6 5 6 7 8 5 5 8 7 6 5 7 7 5 8 5 5 7 8 5 5 8 5 7 7 5 5 5 5 8 5 7 5 7 5 7 7 5 8 5 5 7 5 8 7 6 6 5 8 5 5 8 5 7 ",
"%.%.%.%.%.o.o.@.%.%.%.o.%.o.%.o.%.o.o.@.o.' %.o.%.o.o.' o.%.' %.o.%.%.o.o.o.%.o.+.o.o.%.o.o.o.%.o.o.%.o.o.%.o.o.o.+.o.o.o.+.o.+.@.4.w.w.w.e.e.e.e.e.e.e.e.e.e.e.w.w.w.w.w.w.e.w.w.e.e.e.e.e.e.e.e.e.e.w.e.e.e.e.e.e.e.e.e.9.e.e.w.5.3.w.w.w.w.w.w.e.e.w.w.w.e.w.w.w.9.8.e.e.e.e.e.q.e.e.e.w.0.6.w.w.w.w.w.w.w.w.,.3.3.0.w.w.w.w.w.w.e.w.e.w.e.w.w.w.3.2.2.2.&.&.#.@.&.$.&.&.&.&.4.&.&.&.&.=.#.#.&.&.@.&.&.*.*.*.o. .X.X.X.K K X.H X.X.X.X.X.X.X.X.X.X.X.X.X.X.X.X.X.X.X.H X.X.H H X.X.H X.X.X.X.H X.X.H X.X.X.H V V X.X.V X.V X.` X.H X.X.X.H V H X.X.H H X.X.H X.K X.H H X.X.H H H H H X.H K H H X.V X.H V H X.X.V X.H H H X.H H H H X.H H H H H H V X.H H X.H X.H H H H X.H H X.H H H H H H H V H V V V H V H V H H H H V H H F H G J G H H G G H H G V V V V o.%.*.*.*.&.&.&.&.&.%.&.&.&.=.*.&.&.&.&.&.=.=.=.&.&.&.&.&.&.2.&.&.&.&.&.&.&.*.&.&.&.&.&.&.&.2.2.2.&.2.&.&.&.&.&.&.*.&.&.&.*.=.=.&.*.*.*.*.*.=.*.*.*.%.*.%.%.%.%.%.+.o.o.o.` X.` H ` V V V H V n D n V V V M V V B B G G G S G k J B S B k B B B B B B B V B B V c G G B B G B G B B B S B B B k B B B B B S k B B B B B c B G c c S G c B c S B B G c c B c c B c G G c G c B c G c c B B c c B c G c B B c B S B c c B B c B c B c c G c G c G c S c S S c S c c S G c c S S c S S c S S c c G G c c c c c c c c c c c c c c c B c c c c c c c c c z c c c c c z c c c c c c c z c c x c c z c c c c c k S c c x S x c c c S x S k c c c k S c c c c S k S S c x c c c c c c c c c c x x c c c c x x c c x c l l c x c x c l c c c c c c c c c c c x c c c c c c x x c x c c c c x c x c x c x c l c x c x c x c l c l c x c x k A x c x x x x x x x x c x x A x c x x c x c x k x x c x x x S x x c x x x x x x x x c x x c x x c x k x x x x x x x x x x x x x x x x x x x x x x x x x x x x x x x x x x x x A x x x x x A x x x x x x x x x x x x x x x x x x x x x x l x x x x x x x x l x 8 x x 8 8 A x 8 x x x 8 x x 8 8 8 x x 8 x 8 x 8 x x x 8 x A 8 x x x 8 A x 8 8 x x 8 8 x x 8 x x A 8 x x 8 x 8 x 8 x x 8 8 x 8 8 8 x 6 x x 8 x 8 x 8 x x 8 x x 8 8 8 q x 8 x 8 8 8 8 x 8 8 A 8 q 8 x x 8 8 q 8 8 x 8 x 8 8 x 8 8 8 8 8 6 6 x 8 8 x 8 8 8 x 6 8 6 8 6 8 8 8 6 x 8 8 8 8 8 8 6 x 6 8 6 6 x x 6 8 6 8 8 x 8 x 8 8 8 8 x 8 8 8 8 8 8 6 x 8 8 8 8 8 6 8 6 8 8 8 x 8 8 8 x 8 8 8 8 8 8 x 8 8 6 8 l 8 8 8 8 8 6 8 8 6 6 8 8 8 6 6 8 6 x 6 x 8 x x 8 8 8 8 8 6 6 8 6 8 8 6 8 6 8 6 8 6 6 6 8 6 8 8 6 6 8 6 8 6 8 6 8 6 8 8 6 8 6 6 8 6 8 6 6 8 6 8 6 6 8 8 0 8 7 8 8 8 7 7 8 8 7 7 8 8 8 7 q 7 8 7 8 7 8 8 7 7 8 8 7 7 7 7 8 q 7 8 7 7 7 q 8 7 8 8 7 7 8 7 8 7 7 0 7 8 7 7 8 7 8 8 7 0 8 7 8 8 7 7 7 8 7 7 7 8 0 8 7 7 q 5 8 8 5 7 5 5 7 8 7 6 6 7 7 5 8 7 7 8 5 5 7 7 5 6 7 7 5 5 8 7 5 7 5 5 5 7 6 7 5 5 8 7 6 8 7 5 8 7 6 5 8 6 7 8 5 5 6 7 5 5 7 5 8 7 7 5 8 7 7 5 7 8 5 5 7 8 5 7 7 5 7 7 5 7 5 7 6 7 6 7 6 6 7 8 5 7 7 7 7 7 6 7 6 5 8 7 6 5 8 8 5 7 6 5 8 7 5 8 5 7 5 7 7 7 7 6 7 7 7 7 6 ",
"%.o.o.%.o.%.%...o.%.@.+.o.%.%.o...%.%.' %...' %.%.o.%.o.%.' ' %.o.o.o.o.o.o.o.o.%.o.%.o.%.o.%.o.o.+.o.o.o.+.+.o.o.+.o.o.o.o.o...@.4.w.w.e.e.e.9.e.e.e.e.e.e.e.q.w.w.0.1.0.6.w.w.e.e.w.e.e.e.e.e.e.w.w.w.w.w.e.e.e.e.e.e.e.e.9.e.w.1.>.<.1.5.5.w.w.5.w.w.w.w.w.0.9.w.e.e.9.e.e.e.e.e.e.q.w.0.,.,.w.5.5.w.w.w.w.5.3.;.>.3.3.5.5.w.w.w.w.w.w.5.w.5.3.2.2.&.2.&.&.=.*.*.*.*.*.=.&.&.&.&.#.=.&.$.@.#.&.&.2.&.&.&.*.%.'  .o.X.O.H X.X.X.X.X.X.X.X.X.X.X.` X.X.X.X.H X.X.X.X.X.X.H X.X.X.X.H X.X.X.X.X.X.X.X.X.X.X.X.H X.H V X.X.X.X.X.X.H V X.V X.X.X.H H H H X.K H H H H X.H H X.H H X.H H X.H H X.X.X.H H H H X.H H H H H X.H H H H X.H H H H H H H X.H H H V H H H H H X.V H H H H H H H X.H H H H H H H H V H H H H H V H V H H G H G G H F H H G D H G H V H V H ` +.%.%.%.*.*.&.&.&.&.&.&.&.&.&.&.&.&.&.&.&.&.=.=.&.&.&.&.*.&.&.&.&.&.&.&.*.&.*.*.&.*.&.&.&.4.&.2.&.&.&.&.&.*.&.*.&.%.*.*.*.&.=.*.*.*.*.*.*.*.*.*.%.%.%.o.+.o.' ' ` ` V N N m M m n n B n F J H G G H B V N B B B B B G G G G B k B B J G J B B B B B B B B B B B B B B G B B B M B B B B B B B B M B B S c G B c c B c G S c G S c c S G c B c c B c G G c c G c c G c c c B c c B G c G c c G B G c c c c B c c G c c c c B B c G c c B G c c G S c S S c G S S S c S G c c S c S c S c S S c S c S c c c c c c c c c c M c c c c c c c c c z c z c c z c c c c c c c c c c c c c c c c z c c c c c k c x c x c c c c c c c k x S c c c c c c c c k S c x c x c c c c c S c x x c c z c c c x c x c c x x c c c c x x c c x c c x l c z x x c c x x c c l x c c c c c c c c x l c x z l c l c x c x z l c x c x z x c x c x c x x x x x c x x A x c x c x x x x x x x x x k A c x x x c x c x c x k x x x x A k x c x c x k x x x x A x c x x x x x x k x x x x x A x x x x x x x A x x A x x x x x x x A x x x x x A A x x x x x x x x A x x x x x x x A x x 8 x x x l x x x x 8 l x x x 8 x x 8 8 x A 8 8 x x 8 8 x 8 x 8 x x x 8 x x 8 x 8 A 8 x x 8 x 8 x 8 x x 8 8 x A 8 8 x x 8 x 8 x 8 8 x A 8 x x x x x 8 8 x x x 8 x 8 x 8 x 8 x x 6 8 8 x 8 x 8 8 x 8 A 8 q x 8 8 q x 8 8 8 8 8 q 8 q 8 8 q x x 8 x 8 8 q 8 8 8 8 8 8 6 6 8 8 8 x 6 6 8 8 8 x 8 x 6 8 8 8 8 8 6 6 8 8 6 8 8 6 x 8 6 8 6 8 8 6 8 8 8 8 6 8 8 6 8 8 6 8 8 6 x 6 8 8 8 8 8 l 8 8 6 8 8 8 8 8 8 8 6 8 8 8 8 8 l 6 8 8 8 6 8 8 8 x 8 x 6 6 8 8 8 6 x 8 8 8 8 6 x 6 x 8 8 8 8 l 8 6 8 8 8 6 x 8 8 8 8 8 8 8 6 8 6 8 6 x 6 8 6 8 6 8 6 8 6 8 6 8 6 8 6 6 6 6 8 6 8 8 6 8 6 8 6 6 8 6 8 6 8 8 7 7 8 7 8 8 7 q 7 7 8 8 7 8 7 7 8 7 7 8 7 8 7 7 q 7 7 7 8 7 8 q 7 7 8 7 8 q 7 7 8 8 0 8 7 8 7 8 7 8 7 8 8 7 q 8 8 8 7 7 8 8 7 8 8 0 7 8 7 q 8 q 7 7 8 7 7 8 7 5 8 5 7 7 8 6 7 5 7 7 7 7 6 5 8 8 5 7 5 7 8 5 8 7 5 6 7 5 5 8 5 6 5 8 8 5 7 8 8 7 7 5 7 5 5 7 5 7 7 7 6 8 5 6 7 8 5 7 7 8 5 7 7 7 6 7 7 5 8 6 7 7 5 8 5 7 7 8 5 8 6 7 8 7 5 8 7 7 7 5 7 7 8 5 5 6 8 5 6 7 7 5 7 7 5 8 7 5 7 7 7 7 7 7 6 5 8 7 5 6 7 8 5 6 7 7 7 7 6 5 7 ",
"o.%.%...%.%.o.%.%.o.%.o.%.%.o.%.%.o.o.%.o.%.%.o.o.%.' %.o.o.%.o.%.o.%.o.%.o.%.o.o.o.o.o.o.+.o.o.%.o.%.o.o.o.+.o.o.o.+.o.o.+.+.+.@.4.w.w.w.e.e.e.e.e.e.e.w.e.e.w.e.w.1.>.>.,.1.w.w.w.w.w.w.w.w.w.w.0.6.,.1.0.w.e.w.w.w.e.e.e.e.w.5.3.~ #.>.>.>.4.3.3.1.1.1.,.<.3.w.e.e.w.e.e.e.e.e.e.e.w.w.0.:.{ ;.:.3.2.4.2.2.3.2.>.{ ;.| :.2.3.3.,.3.1.1.3.3.>.>.| 2.:.2.&.&.$.*.*.$.*.*.&.&.&.2.$.=.=.&.=.=.&.$.2.&.4.&.&.*.*.` o.X.X.X.X.X.K X.V X.X.X.X.X.X.H X.X.X.X.X.X.X.H X.X.V X.X.X.X.X.X.X.X.V X.X.H H X.X.H H X.X.X.` X.X.X.V H X.V V X.X.X.V X.H X.X.X.H X.H H X.X.X.H H X.X.H H X.H X.X.H H X.H H V H H X.H H X.V X.H H H X.V X.H H H H H V X.H H H H H H X.H H H H H H H H H H X.H H H H H H H H H V V H H H H V V H H H V H V H H G G H G H J H G H H G H V V V m ( X. .o.+.%.%.&.%.%.*.&.*.&.=.&.=.=.=.=.=.*.*.=.*.&.*.*.&.&.*.&.&.*.&.*.*.*.%.&.&.*.*.&.*.&.&.&.&.=.=.&.&.*.*.*.*.%.*.%.%.%.%.%.+.+.+.+.O.o.` ` ( ` N ( N m N N N m N m B V V B n V B B B B c B B B V V V V M V B B B c c G G G J n B M J B V B B B V B B V B B G B G B B B B B B B k B B M B B B B B B B c J B B B B c G G c B G c G c B c c G c c B c c B c B c c B c B c B S c B c c c B c c c c B G c c B B c c B S B c c B c c B c c c B S c S c c S c S c c S c c S S c S c G c S c S S S c c c k S c c B c c c c c c c c c c c c c c z c c c c c c c z c c c z c z x c c c z c c c c c x c c A c c c c c c c x c c x S c c c x c c c c x c c x c c c c c c k A c x k S c x x c c x l c l c c x c c x c c x c c x c c x c c x c c x c c x c c x c c c x l c x x c x x c c x c x c x c x c l c x c x z x c x c x z x c l c x x S x x c x c x x x x x x c A k x x S x x x x x x c x x x x x x A x S x x k x A x x x x A x c x c x x x c x k j x x x x j x x x x x x x A x x x x x x x x x x A x x x x x x x x x x x x x x x x A x x x x x A x x x x x x x x x x x x 8 l x x l x x x x x x x x x x 8 x 8 x 8 x x 8 A 8 A 8 x 8 x 8 x x 8 A 8 x 8 8 x 8 x 8 8 x x 8 x 8 x x A 8 x x 8 x 8 x 8 x 8 x 8 8 x 8 8 x x 8 A 8 x x 8 8 x 8 8 x 8 x 8 x 8 x 8 6 x 8 8 8 x 8 x 8 x 8 8 q 8 x 8 x 8 x 8 x x 8 8 8 q 8 8 x 8 x x 8 8 4 8 x 8 8 8 8 6 8 8 8 6 8 6 8 8 8 6 x 8 8 6 x x 8 8 8 6 x 8 8 8 x 8 x 8 6 8 8 x 6 8 x 6 8 8 8 6 x x 8 8 6 x 6 8 6 x 8 8 8 8 8 x 8 x 8 8 8 8 x x 8 8 8 8 8 x 8 8 8 8 6 8 8 6 6 8 8 8 6 x 8 8 6 6 x 8 8 8 8 8 8 8 6 8 8 8 8 8 8 6 8 8 6 6 x 8 8 8 l 6 8 6 8 6 8 6 8 6 8 6 8 6 8 6 8 6 8 6 8 6 8 8 6 8 6 8 6 6 8 6 8 6 8 8 6 8 6 8 8 8 7 8 7 8 0 7 8 7 7 8 7 7 8 0 8 8 7 q 7 7 8 0 8 8 7 7 8 8 0 8 7 7 7 8 7 7 8 7 7 8 7 7 8 7 8 0 8 7 8 0 8 7 7 7 8 7 0 7 8 8 7 7 8 7 7 8 8 7 8 7 7 7 8 8 7 q 7 7 8 5 5 5 5 5 5 5 5 7 6 5 8 5 7 7 5 5 5 8 8 5 5 7 7 6 8 5 7 8 7 5 7 7 7 5 7 8 5 5 5 6 7 8 5 5 8 8 5 5 6 7 7 5 7 7 7 6 7 6 7 5 7 7 6 5 8 5 6 7 5 7 5 8 5 8 7 6 7 5 7 5 7 7 5 6 7 5 7 6 7 8 5 7 5 7 8 7 5 7 7 6 7 8 5 8 5 5 7 8 5 6 7 5 6 7 7 7 7 6 8 5 7 5 7 7 5 8 5 7 5 8 6 ",
"%.%.%.o.%.%.o.@.%.o.%.%.o.%.o.%.o.@.o.%.o.o.%...o.%.o.%.o.%.o.%.o.%.o.%.o.%.%.o.%.o.%.o.%.o.%.o.o.%.o.o.%.o.o.o.o.o.%.o.o.o.o.%.%.=.5.5.8.w.w.e.w.e.e.e.w.q.w.w.3.2.2.2.2.>.>.>.3.3.5.5.5.5.5.5.3.<.>.-.<.<.5.5.w.w.w.w.w.e.w.w.>.$.2.#.&.2.>.&.2.>.2.:.| 3.2.>.w.w.w.w.w.w.e.e.e.w.w.w.;.#.>.4.2.#.&.>.&.#.2.>.&.>.2.&.>.&.>.&.$.>.2.2.2.2.2.>.&.&.&.&.&.&.2.&.&.=.=.&.&.&.&.&.2.&.2.&.&.&.*.&.&.$.@.&.*.*.*.*.o.' X.X.X.X.H K X.X.X.X.X.X.X.X.X.X.X.X.X.X.X.X.X.X.X.X.H X.H X.H X.X.H X.X.X.X.X.H X.X.X.X.` X.H X.V X.X.X.V X.V X.X.` H X.V X.H H H X.H X.H H H X.H K X.H K H H H H X.H X.V X.H H H H H H H X.H H H H H X.H H H H H H H H X.H H H H H H H H H H X.H H H X.H H H H H H H X.H H H H V V H H H V H V H H V H H H H G H G H H G H H G G G H H G V V V H V V V V ` X.O.o.o.o.o.+.%.*.*.&.%.*.%.*.*.*.*.*.=.*.*.*.*.=.*.*.*.=.*.*.*.%.*.*.*.*.*.*.%.%.*.*.%.%.+.+.+.o.o.o.o.o. . . .m V V V V V V V B V V V V V B V B B V V M B B B B B B B B B B B B B B B B B B B B G B G B G B G B B B B B B B G B B B B B G B B B G G B B B B B B B B M G B B B B B B B k B G c B B B c c G c S S c B c c B c B B c c c B c c c c B c S B c B c B c c B c G c c B c c G c c c G c c B c B c c G c S S c c S S c S c S G G c S c S c S c S c S S c S c S S c S c c c c c c c c c c c M c c c B c c c c z c c c c c c z c c z c c c z c c c x c z z c x c c c c z c c c c k S x c c c x S c x c c c c x c c x S c c c c c x c c c S k c c k c c x x c x z z c c c c c x c c x x c x c c l c c c x x c z x c x c c c x x c x l c x c x c c l c x c x c x c x c x c x c x c l c l c x c x c x z x c x x x x c x S x c x x x x x x c x x x x c A x c x x x x x S c x x c x c x x x x x c x A x x x x x x x A A x x x x x x A x x x x x x x x x A x x x x x x x x x A x x x x x x x x x x x x x x A x x x x x x x x A x 8 x x x x l x 8 x 8 x 8 8 x 8 x 8 A 8 x x x x 8 x 8 A 8 x 8 x x 8 8 x x 8 x x 8 A 8 8 x 8 x 8 x A 8 x x x 8 A x 8 x 8 x 8 A 8 x x x x 8 A 8 x x 8 q A 8 8 x 8 A 8 x x x 8 x 8 x 8 8 x 8 8 x 6 x 8 x x 8 x x 8 8 8 8 8 x 8 x 8 8 x 8 x 8 8 8 8 8 x x 8 8 8 q 8 8 8 6 x 8 6 8 8 6 6 8 8 8 8 x 6 8 8 8 8 l 8 8 8 8 8 x 8 8 8 8 6 x 8 8 8 x 6 8 8 8 8 6 x 8 6 8 8 8 8 6 x 8 6 8 8 8 8 8 8 8 6 8 x 8 x 8 8 8 j 8 j 8 8 8 8 8 8 4 8 8 8 8 8 8 4 8 8 8 6 8 8 8 8 x 8 8 6 8 x 6 6 8 x x 6 8 8 6 x x 6 8 8 x 6 8 8 8 6 8 x 6 8 6 8 8 8 6 8 8 6 8 6 6 8 8 6 8 6 8 6 8 6 8 6 6 8 6 8 6 8 6 x 8 6 8 6 8 6 6 8 8 8 8 7 8 8 7 8 7 8 7 7 8 0 8 7 q 7 7 8 8 7 7 8 7 8 7 8 7 8 8 0 7 8 7 8 7 8 8 7 7 q 7 8 7 7 8 7 8 7 8 0 8 7 8 7 8 8 7 8 7 8 7 8 7 8 7 7 8 7 8 7 7 8 7 8 8 7 7 8 7 8 8 8 7 8 8 5 8 5 7 7 6 7 5 7 6 6 7 7 7 7 5 8 5 8 5 5 5 8 8 5 7 7 5 8 6 7 7 6 6 7 7 7 5 8 7 5 5 8 5 7 7 5 8 6 7 7 8 5 7 7 7 6 7 6 7 8 5 7 7 5 7 7 6 7 6 7 7 5 7 6 7 6 7 7 5 8 8 5 7 5 7 7 7 7 5 7 8 5 7 5 7 5 5 8 7 7 5 8 7 7 5 5 8 5 7 5 8 6 7 7 8 5 7 7 5 8 5 8 5 7 7 5 5 5 8 7 ",
"%.o.%.o.o.%.o.+.o.@.o.%.o.%.%.o.o.o.o.@.o.} %.o.o.%.%.' o.o.%.' o.o.+.o.o.o.o.+.o.o.o.o.o.o.o.o.o.o.%.o.o.o.o.%.o.%.o.o.%.o.o.o.@.@.=.4.5.5.w.w.e.w.w.w.w.w.0.3.2.2.$.4.2.2.&.&.| @.#.$.&.&.#.$.#.$.#.>.$.3.<.3.5.5.w.w.w.w.w.2.2.&.$.&.2.$.>.&.$.2.2.&.2.#.2.2.2.5.w.w.w.w.w.w.w.w.5.4.#.#.#.&.&.&.2.&.2.&.&.&.&.&.&.&.&.&.&.&.&.$.&.&.$.&.$.&.&.$.#.&.$.&.4.&.2.&.$.2.&.4.&.&.&.&.&.=.&.&.&.&.&.&.=.&.*.*.%.+.` o.X.X.X.X.X.X.X.X.X.H ` X.X.H X.X.` H X.X.` X.X.V X.X.X.X.X.X.X.X.X.X.X.H X.H X.X.X.X.X.H H X.V X.X.X.V X.V X.X.X.H X.X.H X.X.H X.X.H X.K H X.H H X.X.H H X.X.X.X.K H H H H H H X.X.H X.V H H X.H X.V H H X.H X.H H X.H H H H H H X.H H H X.H H H H H H H H H X.H H V H H H H H V H H H V H V H H H V H H V H G H H H G H H G H H V G G H H G H V V V V H V H V N V V V ` X.` ` o.X.' o.o.o.o.o.+.o.o.o.+.%.+.o.+.%.o.+.o.o.o.o.o.o.o.o.O.o.X.X.O.X. .X. .`  .F H m V F V m B V B G G D G G G B B B B G B B B B B B B B G G B B B B B G B G B B B B G B B B B B B B B B B B B B B G B G B B B G B G B B B G B B B B B B G G B B B B B k B c B B k B B G B S B c c B B G c G G c S c B B c B c c B B c c B c G c G B c c B c c c G B c B c c B c B c c G B c c B B c B c B c c S c S S S c G S c S c c c S c S c G S S c S c G S c S c c G c S c c c B c c c c c c c c c c c c c c c c c c z c c c c c c c c x c c c c c c c c c c c c c c c c c c S x S x c c x c c c c c c c k S S c c c x c c x c c S k c c c c x c x c c c c c c c x c x c x x c c x c c x c x c c x l c c c x c c l c c x x c c c c c c c c x x c z x c l z x c l c l z x c l c l c x c x c x z x c x c l k x x c x x x x x x x S k x x x c x x c x x x x A k c x x x x x x x x x x x S x x x x k x c x c x A x x x C x x x x x x x x A x x A x x x x x x x A x x x x x x x x x A A x x x x x A x x x x x x x A x x x x x l x x x x x x x x 8 x x x x 8 x x 8 8 x x 8 8 x x 8 x 8 x x x 8 8 A A 8 8 x x 8 x 8 x x x x 8 x x 8 x 8 8 x x 8 8 A x x 8 x 8 x x 8 8 x x 8 8 x 8 A x 8 8 A 8 A 8 x x 8 x 8 8 x 6 x x 6 8 x 8 x 6 x 8 8 x 6 8 x 8 x 8 A 8 q x 8 8 x q 8 8 x x 8 q 8 8 q x x 8 x x 8 8 6 8 x 8 6 8 x 8 8 8 8 6 8 x 8 8 8 8 8 6 x 8 8 6 6 x 8 8 8 6 8 6 x 8 8 8 6 6 8 8 8 6 x 8 8 x 8 8 6 8 x 8 8 8 8 8 8 x 8 8 6 8 x x 6 8 6 8 6 8 l 6 8 j 8 8 8 8 8 8 8 8 8 8 8 8 x 8 6 6 8 6 8 6 x 8 8 8 8 8 6 8 6 8 8 8 6 8 8 8 6 8 8 6 x 8 x 8 8 8 6 x 8 8 6 8 6 6 6 6 8 8 6 6 6 6 8 6 8 6 8 6 8 8 6 8 6 8 6 6 6 6 8 6 8 6 8 8 6 8 6 8 8 8 5 7 7 q 7 7 8 8 8 7 7 7 8 q 7 7 8 7 7 q 7 8 8 0 7 8 7 8 7 8 0 8 7 7 8 8 7 7 8 q 7 7 8 7 7 7 8 7 8 7 8 7 7 8 7 7 8 8 7 7 7 8 7 7 8 7 8 7 7 8 7 7 6 7 5 8 5 7 5 7 5 6 7 5 7 6 7 5 7 8 5 7 7 8 5 6 7 7 5 7 7 7 8 7 5 5 7 6 7 7 5 7 5 7 7 7 5 5 6 7 5 8 8 5 7 8 7 6 8 5 7 8 5 5 7 7 6 5 7 5 8 7 5 7 6 6 7 8 5 5 7 7 5 5 8 7 7 5 8 7 6 5 7 5 7 6 8 5 6 6 5 8 6 5 5 8 8 7 8 5 7 5 6 7 5 6 5 8 8 5 5 8 8 5 7 8 5 5 7 6 7 7 5 7 7 7 6 5 8 8 7 5 7 ",
"o...%.%.%.%.%.%.%.o.o.%.%.o.%.%.%.@.o.o.%.o.o.%.} o.o.%.} o.%.%.o.%.o.o.o.%.o.o.o.o.%.o.o.o.o.%.%.o.o.o.%.o.%.+.+.o.o.o.+.o.%.o...@.=.&.&.4.2.2.3.3.5.3.3.2.2.>.2.&.&.&.&.2.&.&.&.&.&.&.&.2.&.&.$.$.2.=.<.2.<.2.2.2.3.5.5.5.2.:.2.&.&.&.&.&.&.&.&.&.&.&.&.&.2.2.#.>.3.3.1.5.5.w.3.3.>.>.2.=.&.#.=.&.&.&.&.&.&.&.&.&.&.&.&.&.&.&.&.=.2.&.&.=.&.&.&.*.@.&.&.&.&.&.&.&.@.&.&.&.&.&.&.&.=.&.&.&.*.&.&.=.=.*.*.*.o.o.' X.X.` X.X.X.X.` X.X.X.` X.X.X.X.X.X.X.X.X.H X.H X.X.H X.X.X.X.X.X.X.X.H X.X.` X.X.V X.X.X.X.X.X.X.X.H ` X.X.X.` H V X.` X.V V H H H K X.H H X.X.H H H X.H X.H H X.H X.H X.H H H H H H H X.H X.V H X.H H H H H V H H H H V H H H H H H H H H H H H H H H H H H H H H X.H H H H H H V H H H H H H H H V H V H H G H G H H G H H G H G H G H H G V G G V H H V B V V V V V V V V V ` ` _ ` ` m ` _ ` ` ` ` ` ` _ ` ` ` ` ` ` ` N ` N V ` V ` V m ( V m V V m V m m V V m V m V F B D G G G G H B V V B G B B B B B G G B G B B B B B G B B B B G V G B B B B B G B B B B B G B B B B B B B G B G B B B G B B B B B B B G B B B B B c B B G B B B B B B B S G S B B B c B S c G c G c c G c M B B M c B M B c c G B c c B B B c G B c c S c B B c G c c B c B c B c B c S G c c B c G G c c S S c S c c S S S c S c S c S c S c S c S S S c S S S c c c c c c c c c c c c c c c B c c c c c z c c z c c c c c c c c c c z c z c c c c z c z c c c c c c k c c x c c c c k c c c c c x c c c c x c x c k A x S c c x c x S c c c c c c x c c c c x c x c l c c c z c x x c c x c x c x x c x c c x c c x x c x x c x c c c x c l c x c x c x c x c l c x c x c x c l c l c x c x c A x c x x c k A c x A k A c x c x k A x x k x c x x x x x x x A x k x x k A x c x c x x c x x A x x S x x j x x x x x x x x x x x x x x x x x x x x x x A x x x x A x x x x x A x x x x x x x x A x x x A x x x x x x x x l x l 8 8 x 8 8 x A 8 8 x x 8 8 A x 8 8 x x 8 A 8 x x x x 8 x x x 8 A 8 x x 8 8 A 8 x A 8 8 x x 8 8 A A 8 8 x 8 x x 8 8 8 A 8 8 x x 8 8 8 8 8 x x 8 8 x x 8 x 8 x x 8 x 8 8 x 6 x 8 x 8 8 8 x 8 8 x 6 8 8 8 8 x 8 8 q q 8 8 8 q 8 8 q 8 x x 8 8 q 8 8 6 8 8 8 6 8 6 8 8 8 6 x l 8 8 8 6 6 8 8 8 6 8 6 x 6 8 8 6 6 8 8 6 x 8 6 6 8 8 8 x 6 8 6 8 8 x 6 6 8 8 8 6 8 l 8 8 8 8 8 8 8 8 8 8 8 8 8 8 8 8 x j l 6 x l 6 8 8 8 8 8 8 8 x 6 6 8 8 x 6 6 8 8 8 8 8 8 8 8 6 8 8 8 8 8 8 8 x 6 8 8 8 8 8 8 6 6 x 6 8 8 8 6 8 8 8 6 8 6 x 6 8 6 8 x 6 8 6 8 6 8 6 6 8 6 8 6 8 6 8 6 x 6 6 6 8 8 6 8 8 7 8 8 8 8 8 8 7 8 7 q 7 7 7 7 8 7 7 7 7 8 0 8 7 8 7 7 8 7 8 7 8 7 8 7 8 8 7 8 0 7 8 q 7 7 8 q 8 7 q 8 8 8 7 8 7 7 8 7 7 8 7 7 7 8 7 5 8 7 8 8 7 7 8 7 7 7 7 5 8 8 5 5 7 5 8 7 8 5 7 5 7 8 5 7 7 8 5 5 7 7 5 6 5 8 6 7 7 8 5 6 7 5 7 6 6 7 8 5 8 5 8 8 5 7 7 5 5 8 5 5 7 7 5 8 5 5 7 7 6 5 5 7 7 6 5 7 6 7 5 6 7 5 7 8 6 7 8 7 7 5 8 7 5 5 8 8 5 6 7 7 7 7 7 7 7 7 7 7 8 7 5 6 7 8 5 8 5 7 7 7 7 5 7 7 7 7 5 8 5 5 7 6 7 7 5 6 5 8 6 7 7 7 6 8 5 7 5 ",
"%.%.%.o.o.o.%.o.%.o.%.%.o.@.o.%.o.o.o.%.o.o.%...o.o.%.' o.%.o.o.o.o.%.o.o.o.%.o.o.%.o.+.o.%.o.+.o.o.%.o.o.o.o.o.o.%.o.%.%.o.%.o.o.%.o.@.*.=.$.#.{ | | >.2.2.&.&.&.&.&.&.&.&.&.&.&.&.&.&.=.&.&.&.&.&.4.&.&.&.&.$.>.&.2.2.2.>.2.>.&.&.&.=.&.&.&.&.&.&.&.&.&.&.&.| &.#.#.#.2.2.3.3.3.#.@.>.2.&.=.&.&.&.&.&.&.&.&.=.&.&.&.&.&.=.&.=.&.&.=.&.&.&.=.@.&.&.&.&.*.=.&.*.&.&.&.&.&.=.=.*.*.&.*.*.*.%.&.&.*.*.+.%.%.' o.( X.o.X.X.O.X.X.X.X.X.X.X.X.X.X.X.X.X.V X.X.X.X.X.X.X.X.X.H X.V X.X.H H X.X.X.X.X.X.H X.X.X.H X.X.X.V V X.H H X.V X.H X.X.H X.X.X.X.X.H X.H H X.H H X.X.H X.H H H H H H X.H V X.H X.H X.V H H H V X.H H H X.V X.H H H H H H X.H H X.H H H X.V H H H V X.H H V X.H H H H H H H X.H V H H H V H V H H V H H H V H V H H H D H F J G H G G B H G H G H V V V V V H V H H V V H V ` V V ` V V V V ` V V V V V V ` V V V ` V V V ` V V V V V V V V V V V H H V H V H V V V D G G G G G V G G B B G G G B B B V V V B B B G c B c G G B B G B B G B B B G B B G B B B B B G G B B B G B G B G B B B B B G B B B G B G B G B G c G B G B B B B B B B B B B B B B B S G c c B B B c G c G c c B c B c B M B B c B c B c c c c G c c c B c c B c B c G c c B c c G c c B c G c B c B c B c S c c S S c c S S S S c S c G c S B S c S c G c S c B c S c G c c c M c c c B c B c c c c c c c c B c c c c z c c c c c z c z c z c c c c c c c c c c c c c c c c c x S c c c c c c x S x S k x c c c x c c k S c c c c c c c x c c c c c c c c c x c c x c z c z c c x c x x c l c c x c c c x x c c x c x c c z x c c c c c x c c l x c x c x z x c l c l c x c x c x z x z x c x c x c l c l x x x x x x x x x x x x x x x x x x x x A x x x x c x c x c x k x A c x x x x x x x x c x x x x C A x x x x x x x A x x x x x x x x x x x x A x x x A x x x x x x x x x x x x x x x x x A x x x x x x x x x x x l x x x x x x x x x 8 x x 8 x x x 8 x A x 8 8 x x x 8 x 8 x 8 8 8 x x 8 8 8 x 8 x x 8 A x 8 x 8 8 x 8 x x 8 x 8 8 x x 8 x 8 x A x x 8 x A x 8 x A 8 A C 8 q A 8 8 8 A 8 x 8 x x 8 x x 8 x 8 x 8 x 8 x 6 x 8 8 x x 8 x 8 8 8 x 8 8 x 8 x 8 x x 8 8 8 8 8 x 8 8 A 8 6 8 8 6 x x 8 x 8 8 6 8 8 8 6 8 8 x 6 8 x 8 8 8 6 8 6 8 8 x 6 8 8 8 8 8 6 x 8 8 8 8 6 x 8 8 6 8 6 8 8 6 x 8 8 8 8 8 8 8 8 l 8 x 8 8 8 8 x 8 6 6 8 l 8 8 8 8 x 6 6 x 8 8 8 6 x l 8 8 8 x 8 8 8 8 8 l 8 8 x 6 8 6 x 8 8 8 8 8 6 8 8 l 8 8 8 8 8 8 8 6 x 8 6 x 8 8 6 8 6 8 6 8 6 6 8 6 8 6 8 6 8 8 6 8 6 8 6 8 6 8 6 6 8 8 6 6 8 8 8 8 8 8 5 8 8 7 8 7 8 7 8 7 8 q 7 8 8 8 7 7 8 7 q 7 q 7 7 7 q 7 7 8 0 8 7 7 q 8 8 7 7 7 8 7 7 7 7 8 7 7 0 7 8 7 7 8 7 7 8 7 8 8 8 7 8 8 7 8 7 7 8 8 7 8 5 6 7 7 5 7 5 8 5 5 8 7 5 7 6 8 7 6 7 6 7 5 7 7 6 5 8 7 7 5 7 6 5 8 5 7 5 8 7 7 7 7 5 7 5 7 7 6 7 6 7 5 8 5 7 7 6 7 6 5 7 7 6 7 5 8 8 8 5 7 7 7 7 5 8 7 5 8 7 5 7 7 5 5 6 7 5 7 6 7 5 7 7 7 5 8 5 6 7 7 6 5 8 5 5 7 6 8 5 5 5 8 7 6 7 8 5 8 5 7 6 7 6 5 7 7 6 7 7 6 8 7 7 5 7 5 6 7 7 5 5 8 8 ",
"o.%.%.o.%.@.o.%.@.+.%.o.o.%.%.o.%.o.@.o.@.%.' %.%.o.o.%.%.o.%.' o.o.o.%.%.o.o.o.o.o.o.o.%.o.o.o.+.o.%.o.o.+.%.o.o.o.o.o.o.%.o.o.o.O.o.o.*.*.=.&.&.&.&.&.&.&.&.=.=.=.*.=.=.&.=.&.&.&.*.&.*.&.&.&.&.&.&.&.&.&.&.&.&.&.&.@.@.&.&.&.&.*.&.&.&.=.&.*.&.&.*.&.&.&.*.&.&.&.=.$.$.2.2.$.2.2.#.&.&.=.&.=.&.*.&.*.&.&.&.&.&.*.&.*.&.&.=.=.*.&.&.*.&.&.*.&.&.*.*.&.*.=.*.*.$.*.%.*.*.*.&.*.*.&.%.%.%.%.%.o...o.' ..) o.( ` X.o.` X.X.X.X.X.X.X.X.H H X.X.X.X.X.X.X.X.X.X.X.X.X.X.H X.X.X.X.X.H X.X.X.H X.H H X.H X.X.X.X.H X.X.X.H X.X.X.H X.X.V V X.V V X.H H H X.H X.X.H H K X.H X.H H X.X.X.H X.X.H H V H X.V X.H H H X.X.V H H X.H X.H H H H H H H X.H H H H H H H V X.H H H H H H H H H H H H H X.V H H V H V H H H H V H H H V H H H G H H G H H G H H B V B B H H B H G G H H G G H V H V V H V V B V V H H V V V H V H V V V H H H V V V V V V V B V H V V V H H G G V G B G G G G G G G G G G G G G G G B G G G G B V V B B V B B G B B B B B B B G B B B G B B B B B G B B G B G B B B B B B B B B B B B B B B B G B B B B B B B B B B B B G B B B B B B B B B B B B B M k G S B B B B c c G c c B c B M B c B c B B M B B B c c B c G B c c c G c B c B c B c G c G c c c c B c c c B c B c B c S c S c c S c c B c S S S c S S c S G S c S S S S G c S S c S c c c c c c c c c c c c c c c c c c c c c c z c c c c c c c z c c c c c z c c c z z c c c c c c z x c c c c x c c k c c c S c x c c x S c A k c c c c c x c c c c c x S c c k c x z c c x c c x x x x c x c c x c c c c x z x c c c c c l c c c x x c c c l c c x c x c c x c x c x c x c x z x z x c x c x c l c l c x z x c l c x x S x x x x c x x x x x x x x c x c x x x x c x x c x x x k x x x x x k A x c x x x S A c x k x x x x A x C x A x x x A x x x x x x A x x x A x x x x x x x x x x x A A x x x A x x x x x x x x x x x x x x x x x x l x x l x 8 x x 8 x 8 A 8 8 x x 8 8 A 8 x 8 x 8 A 8 x 8 x x x 8 x x x 8 A 8 x 8 8 8 x A 8 x x x x 8 x 8 x x 8 x 8 x 8 x 8 8 x A 8 8 x x 8 8 x q 8 x q 8 A x 8 x 8 x 8 x 8 8 6 x 8 8 8 x 8 x 8 x x x 8 x 8 8 8 8 8 q 8 8 x 8 8 8 q 8 8 8 q x 8 x 8 8 8 A 8 8 8 8 8 8 x 6 8 6 8 8 8 8 8 8 x 8 8 x 8 8 x 6 8 6 8 6 x 6 8 x 8 8 6 8 8 x 6 6 8 8 6 8 6 8 x 6 8 8 6 8 8 6 x 6 8 6 x 8 8 8 8 8 6 8 8 8 8 8 8 8 8 8 8 8 8 8 8 8 8 8 8 8 8 8 8 8 8 8 8 8 6 8 8 8 l 8 8 l 8 8 6 8 6 8 8 8 8 x 8 8 6 8 x x 6 8 8 8 6 6 8 6 6 8 6 6 8 6 8 6 8 6 8 6 8 8 6 8 6 8 6 6 8 6 8 6 8 6 x 6 8 8 6 8 6 6 8 6 8 8 8 8 8 7 8 8 8 8 7 8 7 7 8 7 q 7 8 7 7 8 7 7 8 8 8 7 8 7 7 8 7 8 8 7 7 7 8 7 7 7 7 q 7 7 8 8 8 8 7 8 7 8 q 7 8 8 7 7 8 8 7 8 7 7 8 8 7 7 8 8 7 8 7 7 8 6 7 7 5 6 5 8 5 7 7 5 7 5 8 8 7 5 7 7 5 8 5 7 7 8 7 5 7 5 7 7 5 7 5 7 7 7 5 8 6 6 7 7 7 6 5 8 5 6 7 7 5 7 7 5 8 7 7 5 7 7 6 7 6 7 7 5 7 5 8 7 6 5 7 6 7 5 8 5 6 7 5 7 7 8 5 7 7 6 7 7 7 6 8 5 7 6 7 7 5 5 5 7 6 7 7 5 7 5 6 7 7 6 7 7 5 5 7 7 5 7 7 5 7 7 6 8 5 5 8 7 5 7 7 7 5 8 6 7 7 5 7 6 5 ",
"%.%.o.%.%.o.%.o.o.%.o.%.%.%.o.%.o.o.o.%.o.o.%.o.o.} %.o.' %.o.%.%.o.o.o.o.o.%.o.+.%.o.%.o.o.o.%.%.o.o.o.%.o.o.o.%.o.%.o.o.o.o.o.o.X.' X.%.%.%.%.&.%.%.%.%.+.%.%.%.%.%.%.%.$.*.*.=.=.*.=.&.&.&.=.=.&.*.&.&.*.&.*.&.&.*.&.&.&.&.&.&.&.*.*.=.=.&.=.&.&.&.&.*.&.&.&.=.=.=.=.=.&.2.$.&.&.&.*.=.=.=.=.&.*.*.&.*.=.*.=.*.&.&.*.&.*.=.@.*.%.*.=.*.%.*.*.%.*.*.*.%.*.%.*.%.%.+.%.%.%.o.+.o.o.o.o.o.' ' o.o.o.` ` ` ` X.o.o.X.X.X.X.X.X.X.` X.X.X.X.X.X.X.V X.X.X.X.X.X.H H X.X.X.H X.H X.X.X.V X.X.X.X.X.X.X.X.X.X.V X.X.V H ` X.X.V ` X.H ` X.X.H X.X.X.H X.H X.H H H X.X.H H X.H H X.H H H K H H H H X.H H H H X.H H V H H H X.V H H H H H H X.H H H H H H X.V H H H H X.H H V X.H H H X.H H V H H H H H V H H V V H V V H V H V H V H J H G H H G H H H H G G H B B H G H H G G G V B V V B V V B V V G G G G V B H G G G G G G G H H G H H H V V G V G V B B B B B G B G B G G B G G G G G G G G S G G G G H G G G B B B B B B B B B B B B G G B G B B B B G B B G B B B B B B B B B B G B G G B G B G B G G B G B G c G G B G B G B G B G B B B G B B M k G B B B B B B c B B B G S B c B B G c G S G c c B B B B B B B c B B c B B c B c c G B c c B c c G S c B c B c c B G c c G c B c G S c c B c S S G S c G S c S S c c S S c S c c S S c c S c c S c c S c G c c c c c c c c c c c c c c c c c c c c c c c c c z c c c c c c c c c c z c c c c c c z z c c c c c c c c c S x c S x c c c c c k c c c c c c x c c c c c c c c c c c c x c c c c x c c c l c c c c c c x c c x c x x c c x c x c l c x c x c x c c l x c x x c x c c x c l c l c x c l c x c x z x c l c l c x c x c x c x c x k x x x c x x x c x c x x c x c x x x x c x x x x A x x c x A x x c x c x x x x c x x x x x x x x A S x x x x j x x x x x x x x x x x x x x x x A x x A x x A x x x x x x x x x x x x x x x A x x A x x x x A x 8 x x x x x x x A 8 x x 8 x 8 x x 8 8 x x 8 x x A 8 x 8 x 8 x 8 8 8 x 8 8 x x 8 x 8 x x x x 8 x x 8 8 x x 8 x x 8 x 8 x x x 8 x x x 8 x x 8 8 x A 8 8 x 8 8 x 8 x 8 8 x x 8 8 x x x 8 x 8 x 6 x 8 x 8 8 8 x 8 6 x A 8 x 8 x q 8 x q x 8 A 8 x 8 8 q x 8 x 8 8 8 x 6 6 8 6 8 8 8 6 8 6 x 6 x 6 8 8 8 6 6 6 8 8 8 x 8 8 8 8 8 6 8 x 8 8 8 6 8 x 8 8 x 8 8 8 6 8 8 8 x 8 6 8 8 8 8 8 8 8 6 x 6 x 8 8 8 8 8 8 8 8 8 7 7 8 0 8 8 8 7 8 8 8 7 8 8 8 8 8 8 6 x 6 x 8 8 8 8 8 8 8 x 8 8 8 6 8 l 6 8 8 x 8 6 8 6 8 8 8 6 8 6 x 6 6 8 8 6 6 6 8 6 8 6 8 6 6 8 6 8 6 8 6 6 8 6 8 6 6 6 8 6 6 8 6 8 8 6 x 6 8 8 7 8 8 8 8 8 0 8 7 7 8 7 7 7 8 7 7 q 7 7 q 7 7 7 8 0 q 7 7 8 0 8 7 8 q 7 7 8 7 8 7 8 8 7 0 7 7 8 7 8 7 7 8 7 7 8 8 7 7 8 7 8 8 7 7 8 8 7 7 8 7 8 8 5 7 5 5 8 7 7 8 7 6 7 8 5 7 5 5 5 7 6 5 8 5 5 7 6 5 5 8 7 8 7 6 8 5 8 7 6 7 6 5 7 7 7 6 5 7 7 8 7 7 5 5 8 7 6 7 5 6 7 8 5 7 7 5 8 7 6 8 5 7 5 7 7 8 5 5 7 7 6 7 7 8 8 5 6 8 7 5 8 8 5 6 7 7 5 5 8 7 5 5 8 7 8 7 7 6 7 8 5 7 7 7 6 7 5 5 8 7 6 5 8 6 7 8 5 7 7 7 5 7 5 7 6 6 6 7 8 5 7 8 5 8 5 7 7 ",
"o.%...%.%.o.o.%.o.%.%.o...%.o.%.@.o.o.o.} o...o.%.o.' %.o.%.%.o.o.%.+.%.%.o.o.%.%.o.o.o.o.%.o.o.o.%.o.o.o.o.o.o.o.o.+.%.o.o.%.o.+.+.o.X.o.' o.( ` ' ' o.' o.o.o.o...o.+.o.%.%.%.%.} %.%.%.%.| %.*.%.&.o.%.| %.} &.} &.*.*.&.&.%.%.*.&.%.%.&.*.*.&.%.&.*.*.*.*.&.%.%.%.$.=.=.=.=.&.*.&.&.%.&.*.*.*.&.&.*.*.*.@.*.*.*.&.*.%.*.&.%.%.%.+.%.%.%.%.%.+.%.o.o.o.+.+.o.o.o. .o.' X.o.( ` o.` o.` ` o. .X. .o.` ` X.o.X.o.X.X.X.X.O.X.X.X.X.X.X.` X.X.X.X.X.X.X.` X.X.X.H X.X.H X.X.X.X.X.X.X.X.H X.H X.X.X.X.X.X.H X.H X.X.X.V X.H H X.H X.X.H X.` X.V X.X.H H X.H K H X.H H X.K X.X.H H X.X.H X.H X.H H X.H H V X.H X.X.H X.H H H X.H X.H H H H V H H H H H H H X.H H H H H X.H H H X.H H H X.H H H H H H H V H H H H H H H H H V H H H D H H G G H G G H B V B G H B G G G G V G G H G H G H H B H B H G H G G G B G B G G G G G H G G G B H G H B V B B B B B B G G G S H G G J G G G G G J G S G G G G G B B B G G B V B V B V B B B B B B B B c G G B G B G B G B B B G B B G B B B B B B G B B B B B G c G B B B B B B B B B B G B B B G B B B B B B B B B B c G B B B B G S c B B B B c G S B S c B B c B c B B M B B c B c c B c c B c c B c B c c B c B c B B c B B c c B B c B S c B c B G c c S c S S S G c S S c G G c c S c c S c c S S c S c c S c S S S c B c c B c c c c c c c c c c c c c B c c c c c z c z c c c c c c c c c c c z c c c c c c c c c c x S x c c x c x S c c c c c c x S c c c c c c c c k c c k S c c x x k c c x c c x c l c c c c c l x c c l c x c c c c x c c x c x c c x x c z x c x c c c c c x c c x l c x c l c l c x c x c x c x c x c x c l c x c x z l c A x c x c x x k x x A x S x x x x x A x x c x c x k x x x x c x c x x A c x c x c x x x x c x x c x x x C x x x x x x x x x x A x A x x x x x x x x x x x x x x A x x x x x x A x x x A x x x x x x x x x x x x x l x x x x x 8 8 x x 8 x x x x 8 x x 8 8 x x 8 8 8 x x x 8 x A A 8 x x x 8 8 x x x x 8 8 x x 8 8 x x 8 8 x x 8 x x 8 x 8 x 8 8 8 x x 8 8 x x 8 A 8 8 x A 8 A 8 8 x 8 8 8 x 8 8 8 x x 8 8 x x 8 x 6 8 x x 6 8 x 8 8 q 8 8 A 8 x x 8 x q 8 8 8 x 8 8 8 q 8 8 x 8 x 8 x 6 8 8 8 6 8 8 8 6 8 8 8 8 6 x 8 8 8 8 8 x 8 8 8 8 x 6 6 8 6 8 8 8 8 6 8 6 6 8 8 x 6 8 8 8 8 8 x 6 6 8 6 8 6 x 6 x 8 8 8 8 8 8 8 8 8 8 8 8 q 7 7 8 8 8 8 8 q 8 8 8 8 4 8 4 8 8 8 8 8 6 x 8 x 6 8 8 8 6 8 x 6 x 6 x 8 8 8 6 6 x 6 8 x 6 8 x 6 8 6 8 8 6 6 8 8 6 6 8 6 8 6 8 8 6 8 6 8 6 6 8 6 8 6 8 6 8 6 8 8 6 8 6 8 6 6 8 8 7 7 8 7 8 8 7 8 7 7 q 7 7 8 7 8 8 7 8 8 7 7 8 0 8 7 8 7 8 q 7 8 7 8 0 7 8 q 7 8 7 8 7 7 8 7 8 q 7 8 0 7 8 7 7 8 7 7 8 7 8 7 7 7 7 8 7 7 8 7 7 7 8 5 7 5 8 5 8 7 7 5 5 8 5 7 6 7 6 5 8 5 8 7 6 7 8 7 6 5 8 7 6 5 7 7 5 5 8 7 6 5 7 7 6 5 7 5 8 6 7 5 5 5 8 7 5 5 7 7 6 8 5 6 7 5 7 6 5 7 5 7 7 6 7 8 5 6 7 8 5 7 7 5 8 5 5 5 7 5 5 7 5 5 5 5 7 7 6 5 8 5 8 7 5 7 7 5 8 8 5 6 7 7 6 5 7 5 8 7 5 7 7 7 6 8 5 6 7 5 7 8 8 7 5 8 7 7 5 7 5 5 8 5 7 7 7 8 5 ",
"..%.%.o.%.%.o.%.%.o.%.%.o.%.%.o.%.o.@.o.o.%.o.%.o.o.%.o.%.o.o.' o.o.o.o.o.+.o.o.o.o.o.%.o.o.%.o.o.o.o.%.o.%.o.%.%.o.o.o.%.o.+.o.o.O.o.o.o.o.o.o.+.o.o.+.+.o.o.X.o. .o. .` o.' ) o.o.o.} } %.' } ' ' } o.' %.' o.o.o.' ' ' ' o.o.%.%.%.%.o.%.o.%.%.%.o.%.o.&.%.%.+.+.%.+.%.%.%.%.*.%.} %.o.%.%.%.%.o.o.o.%.o.o.o.' o.' o.o.o.' o.' o.'  .o.` o. .o.` o. .`  . .( X. .X.X. .X.O.X. .X.X.X. .O.X.X.o.X.X.X.X.X.X.` X.X.` X.X.X.X.X.H X.X.X.X.X.X.H X.X.X.X.X.H X.X.X.X.X.X.X.H X.H X.X.H X.X.X.X.X.H X.H X.X.X.X.X.X.V X.V X.` X.H X.H ` X.X.H X.V H H X.K H X.X.H H H X.H X.H H X.H H H X.H H H H H H X.H H H H H H H V H H X.H H H H H H H X.H H X.H H H H H H H H H H H H H H H H H H H H H X.H V H H H H V V H H V V H H H H V H H H G H F G H H G H B V H G V G H G G H G H G H G H B B H H G H J G G G G G G G G G G G G G G B G H G G G B B B B B B B G G G G G G G G S G S G S B G G G G G G B G G F G G G B B B V B B B V G G G G G G G G B B B B B B B B B G B B B B G B G G c G c G B G G B B B B B B G B G B G B B B B G B B B G B G B B B B B B k M B B B B B c B G B c c B B c G c B B c B B B M B M M B B M B B B c G c c G c c B c G c c B c B c c B c B S B c c B c c B c B c c B S c S c c S c S c c S c c S S c G S c S S c c G c S S B S c S c c c c c c c M c c c c B c M c c c c c c l c c c c c c c z c c c c z c c c c c c c z c c c c z c c c k S c c S k c c c x c c A k c c c x c c c c x S x S x S x c c c c S c c c c c c c c c x c x c c c x c x c c x x c l c c x c x c c x c c x c x c c c x l c x z c x c c x c l c x c x c l c l z x c l c x z x c x c l c x c x c x x x x x x A c x x k x x x A x S k x x x x x x x c x S x x x x x x c x x x x x x A k x x c x x A A x x x x x x x A x x x x x x x x x x A x x x x x x A x x x x x x x x x x x x x x x A x x x x x x x A x x x x x l x x x l x 8 x 8 A 8 8 x 8 A 8 x x 8 x 8 x x x 8 x 8 x x 8 8 x 8 A 8 x x 8 8 A 8 x x 8 x 8 x 8 8 A A 8 8 x x 8 A 8 A 8 x x x 8 x 8 x 8 x A 8 x q 8 A 8 8 x x 8 8 x x 8 8 x x 8 8 6 x 8 x 8 8 8 x 8 x 8 x 8 x q 8 x 8 8 8 8 8 8 8 8 8 x 8 x A 8 x 8 x 8 8 8 6 8 8 8 6 x 8 8 x 6 8 8 6 8 x 6 8 6 6 x 8 6 8 6 8 8 l 8 8 8 8 6 8 8 8 l 8 x 8 8 x 8 8 6 x 8 8 8 l 8 8 8 x 8 8 8 8 6 8 8 8 8 8 8 8 8 8 8 8 8 8 8 8 8 8 4 q 8 8 4 8 4 4 8 4 8 4 8 x 6 8 8 8 8 6 8 6 8 8 6 x 8 8 6 8 8 8 8 8 6 8 8 8 8 8 8 6 8 8 8 8 6 8 6 6 8 8 6 6 8 8 6 8 6 8 6 6 8 6 8 6 8 8 6 8 6 8 6 8 6 8 6 6 8 6 8 6 6 8 8 8 8 8 8 8 7 7 7 7 8 8 7 8 q 7 8 0 7 8 7 7 q 8 7 8 7 8 7 8 7 7 8 7 8 7 8 7 8 7 8 0 8 7 8 0 8 8 7 8 7 7 8 7 8 0 8 7 8 7 7 8 7 8 7 8 7 7 8 8 7 7 8 7 5 8 5 7 5 8 5 5 6 5 5 5 5 5 5 5 7 5 8 7 5 7 7 5 8 5 7 7 5 5 8 7 6 7 6 7 7 5 7 8 5 7 7 5 8 7 6 7 7 5 8 7 7 6 8 7 6 7 7 5 7 7 7 8 5 7 7 5 8 6 7 5 7 5 7 7 7 6 7 5 8 5 7 5 8 8 5 5 8 8 5 7 8 8 5 7 7 7 5 7 7 6 8 5 6 7 5 5 7 7 5 7 7 5 8 7 7 6 8 5 6 7 7 5 7 7 7 8 5 5 5 6 7 5 7 8 7 6 7 7 5 5 8 6 7 5 7 ",
"%.%.o.%.o.%.o.o.%.%.o.@.%.%.o.%.o.o.o.%...o.%.' %.o.o.%.' %.o.%.o.%.o.o.%.o.%.o.+.%.o.%.o.o.o.%.o.o.o.%.o.%.o.%.o.o.o.%.o.%.o.+.o.+.o.o. .+.o.+.o.O.o.o.O.o.o. .o.O.X.o.o.o.X.o.o.' o.o.' o.} o.%.' o.' o.' o.' o.o.' o.o.o.o.o.' o.' o.o.' o.' %.' o.o.o.o.o.o. . . .o. .o.) ` ' ' ' ' o.o.' o.' o. .o.' o.' o.( o.` ' o.o.o.o.o.` ' X.X.o.o.X.` X. .X.o. .X.X.X.O.X. .X.X.O.X. .H X.X. .X.X. .X.X.X.X.X.X.X.X.X.X.X.X.X.X.X.X.X.H X.X.X.X.X.X.X.X.X.X.H X.X.` X.X.X.H X.X.H X.X.X.H X.H X.H X.X.H X.H H ` X.V X.H X.V X.X.V X.X.X.V V X.X.X.X.H X.X.H H X.X.H H X.X.H X.X.H X.X.H H H H H X.H X.H X.H H X.H X.V X.H H X.H H V H H X.V H H X.H H H X.V H H H H H H H X.H H H X.H H H H H H H V V H H H H V V H V H V H H V V H H J G H H G H H G G H B H H B H G V G G G G H G G G G G G G G G G G G G H G G H G D G G G H G D H B H H H G B B D D H B G B H H G G B H G G G G G B H B D G G G G G H B G G G F B B B B B B B B G B B B B B G B B B B B B B G B G B B B G B G B B G B B G B B B B G B B B B B B B B B G B G B G G B G B G B B B B B B B B B B B B B B B B J B B B B c c B B B c B B B B B B M B B B B M B B c B c B c c B c G c c G c B c B S c c c B c B c c B G c B G c c c c S c c S c c S c c S S c S c c S S c S c c S S c S S G c S S c S c B c c c c c c c c c c c c c c c c c c c c z c c c z c c c c z c c c c z c c c c c c z c c c c c c x c c c c x c x c c c c c c k S c c c c x S x c c c c S c c c c c c k c x k l c c c c x c z x c c x c c x c c c x x c x x c c x x c c x c c c x x c z x c c c c x x c x x c c l c l c x c x x c x c x c x c x z x c l c l c x c x x x c x c x c x x x c x k x k A x x c x c x c x x c x x x x x x c x c x x k A x x x x x c A x x x C j x x x x x x x x A x x A x x x x x x x x A x x x x A x x x A x x x x x x x 8 x x x x x x x x x x x x 8 x x x 6 x x x x 8 x x x 8 x x 8 A 8 x 8 x 8 x 8 x 8 x 8 x x 8 x x x x 8 A 8 x x 8 x A 8 x 8 x 8 A 8 x 8 x x 8 x 8 x x x 8 8 A x 8 8 x x 8 x x 8 8 A q 8 x 8 q 6 8 x 8 x 8 8 x 8 6 x 8 x 8 8 x 8 8 x 8 x 6 x x 8 8 8 q 8 8 A x 8 x 8 8 8 8 x 8 8 8 8 4 8 8 A 8 8 x 6 6 8 x x 6 x 8 8 6 8 8 6 8 8 8 8 6 x 8 8 8 8 8 x 6 8 8 8 x 8 8 6 x 8 6 6 8 6 8 8 6 8 6 8 8 8 x 6 8 6 x x 6 6 6 8 8 8 8 8 8 7 7 8 8 8 8 x 8 8 8 8 j l x 6 x l l l 6 6 j x 8 8 6 6 8 8 8 6 x 8 8 8 x 6 8 8 8 x 6 8 8 x 6 6 8 8 6 8 6 6 8 6 8 6 8 6 8 6 8 6 8 8 6 8 6 8 6 8 6 6 8 6 6 6 8 6 8 8 6 8 6 6 8 6 8 8 6 8 6 8 7 8 8 8 8 7 8 7 8 7 q 8 q 7 8 8 7 8 8 7 8 7 7 7 8 7 8 7 8 q 7 8 7 7 8 7 q 7 7 8 7 7 7 8 7 7 8 7 q 7 8 7 8 8 7 8 q 7 8 8 8 8 8 8 7 8 8 6 7 8 5 5 8 8 7 5 8 5 7 7 7 6 7 7 7 6 6 7 5 7 7 8 7 6 7 5 8 5 5 5 7 7 6 5 7 6 5 7 5 7 6 7 5 8 6 7 8 5 7 5 5 8 7 5 8 5 8 5 7 7 5 8 5 5 7 7 6 7 6 7 6 8 7 5 7 7 5 8 5 7 7 6 8 5 7 5 7 6 6 7 7 7 7 7 5 7 7 8 5 6 7 5 8 6 7 7 5 7 6 6 7 7 7 5 8 5 8 5 8 5 8 5 7 7 5 6 7 7 5 7 6 7 6 7 6 8 5 7 7 5 8 5 7 5 7 6 5 8 5 5 8 5 7 ",
"o.%.%.o.%.o.%.%.o.%.o.+.o.%.@.o.o.@.%.o.%.o.o.%.o.%.%.' %.o.%.o.o.o.%.o.o.o.o.o.o.o.o.o.%.o.+.o.o.%.o.o.o.o.o.o.%.o.o.o.o.o.o.o.+.+.o.o.o.o.o.o.o.o.o.o.o.O.o.o. .O.o.O.X.o.o.o.o.' o.' o.' ' o.' o.o.o.' o.o.o.o.' o.o.o.X.' o.o.o.' o.' o.o.o.o.o.' o.o.o.' o.O.o.O. .o.o.o.o.` o.o.' o.' o.` o. .o.X.o. .o.o.o.o. .o. .o. .o.X.o.X.o.X. .` o.X. .o.X.X.X.X.X.X.X.X.X.X.K X.K X.O.X. .O.X.X.O.X.X.O.X.X.X.X.X.X.O.X.X.` X.` X.` X.` X.X.X.X.X.X.X.H X.X.X.X.X.X.V X.X.X.X.X.X.X.X.X.X.X.X.X.X.X.X.X.X.X.X.H X.V X.X.V X.H V X.V X.X.X.X.V V X.X.H H H H H H X.X.H H H H K H H H X.H X.H X.H H V H H H H V H H H H X.H H H H X.H H H H H H H H H H H H H H X.H H H H H H H H H X.H H V V H H H H B V H H H H H H H H H H H H H F H H G H H G G B H B H H B B H H G G H G H G G G G H G G H G G G H H D D G G G G K H G G G G G B V G F G G V B H B B D G G D B G G G G G B B G G G G G V B B F G B D G G B G B B V B V V B B V B B B G B G B B B B G B G G c B B B B G B B B B B B B B B B B G B B G B G B G B G B B B B B B B G c B B B B B B B B B B B B B B B B c B B c B k c B B B G c S B c c B B M B c M c M c B B c c B B c S B c B c B c c B c B c B B c B c c c G c c c c c c c B G c c G S c S S c G G c c S B S S G S S c S S G c S G c c S S c G c c c c c c c c c c B c c c c c c c c c c z c c z c c c c z c c c c z c x c c c z z c c c c c z c c c c c c c c c c c c x c x c c x c x S x c c c c c c c c x c c c x x c x c c x c c x c c c c x c x x c c x l c x c c z c c c l x c c x c c x l c c c x x c c x x c c c c c c x x c x c x c l c c x z x c l c l c x c x c x c x x x c x x x x x x x k x x x x x x x x x x x x x x A c x x x x c x k x x x x k x x x x c x c x x x C x x 8 x x x A x x x x x x x x x x x x x A x x x x x x x x x x x x x x x x x x x x A A x x A A x x x x x A x x x 8 x x x l x 8 x A 8 8 x x 8 x 8 8 x x 8 A 8 x 8 A x A 8 x x x 8 8 x x 8 8 x 8 x x 8 x 8 x 8 x 8 x x x 8 x x x x 8 8 8 x x 8 8 x A 8 8 x x 8 A 8 8 x A 8 x 8 x x 8 6 8 x 8 x 8 x 8 x 6 x x 8 x 6 8 x 8 x 8 8 8 x 8 x 8 x 8 8 8 q A 8 x 8 8 q 8 x x 8 8 8 x 8 8 8 8 8 8 6 8 8 6 6 8 x 8 6 x 8 x 8 8 8 6 8 6 x 8 8 6 8 6 x 8 8 8 6 8 8 8 x 8 8 8 8 6 x 8 x 8 8 8 6 8 8 8 6 8 8 x 8 6 x 8 8 8 q q 8 8 8 6 6 6 6 A 8 x x x l l l x z x l x 8 6 6 8 x 8 8 6 8 8 8 6 x 8 8 8 6 6 x 6 8 8 8 6 8 x 8 6 8 6 8 8 6 8 6 8 6 8 6 8 6 8 6 6 8 6 8 6 8 6 8 8 6 x 6 8 6 8 6 6 8 6 6 8 6 8 6 6 8 6 8 8 8 8 8 7 8 7 7 7 8 8 7 7 7 7 7 8 0 7 7 q 7 7 8 7 8 8 0 8 7 7 7 7 8 8 0 8 7 7 8 8 0 8 7 7 7 q 7 7 7 8 7 q 7 7 8 7 7 7 7 7 7 7 7 7 8 7 7 7 7 5 5 7 5 5 5 7 5 8 5 6 7 7 5 5 8 7 7 8 7 6 7 5 7 5 7 5 8 7 8 8 5 5 7 8 5 7 7 5 8 7 7 7 6 5 7 7 5 7 6 8 7 5 7 7 5 7 7 7 6 5 8 7 5 8 5 7 7 5 8 7 7 5 5 8 6 7 8 8 7 5 8 7 5 6 7 8 5 7 7 8 5 6 7 6 8 5 6 5 7 7 5 7 5 7 7 5 8 7 7 7 5 6 7 7 5 7 7 7 5 7 7 7 6 5 8 7 5 5 8 7 7 5 8 7 7 5 7 5 6 7 5 7 6 8 5 7 7 6 7 7 7 7 6 ",
"o.@.%.o.%.@.%.%.%.o.%.%.%.o.%.o.o.o.' %.' %...o.o.%.o.%.%.o.%.o.%.o.%.+.o.o.%.o.o.%.o.o.o.%.o.%.%.o.o.+.%.o.o.o.o.%.o.%.o.o.%.o.o...o.+. ...o.o. .o.o.o.o.o.o.o.X.O.o.X.O.o.X.o.o.o.' o.o.o.o.o.' X.o.' o.o.o.X.o.` o.o.o.o.o.o.o.' o.o.o.X.o.` o.o.o.o.o.X.o.o.O.O. .O.O.X.o.o.X.' X.o.o.X.o.` o.o.o.X.X.o. .X. .X.X.o.X.o.o.X.` X.` X.X.` X.X.X.X.X.X.X.X.X.X.X.X.K X.X.X.X.X.X.X.X.O.X.X.X.X.X.X.X.X.O.X.X.X.X.O.X.X.X.X.X.X.H ` H X.X.X.X.X.X.X.X.X.X.X.X.X.X.H X.H X.H H X.X.H X.X.X.X.X.X.X.X.X.X.X.V V X.X.X.X.X.X.V X.X.X.H X.V X.X.V X.H K H X.X.H H H K H X.X.H X.X.H H H H H H H H X.H H X.V H X.H H H H V H X.V X.H H H H H H H H H H H H H V H H H H X.H H H X.H H H H H X.V H V H H H H V V V H V H V H V V H H V H G H H G H G H H H B H B H H B V G H G G H B H H G H G G H G H D G H G G H H H G H D H D H D H V H H H F V D m D G H F V D B J G V G D B F V D V G F B V G V B B H G G G B G G B V B B B B B M G B B G B B B B G B B G B B G B G B G B B B G B B G B B G B G B B B B B B B B G B G B G B G B B G B G B B B B B B B k B B B B B B B k B c B B c B B c B G G c c c B c M c B B B B B c B B c M c G c B c c B c c B c G c c c B c B c c G c G G c c B B c B c c B S c S G c S S S c S S c S c S c c G S c c S S c c S c c S c c S c c c c c c c c c c c c c M B c c c c c c z c c z c c c c c c c c c z c c c c c c c z c x c c c c x S c x S S c c c x S c c x S c c x c c c c S c k c x c k x c k c c k c x c x x c l c z c c c c x c c c c c c c x l c x c c c c z c c x c c c l c c c l c c x z x c x x c x c c x c x z x c l l c l c x c x c l c z x l c x c x x x x k A S x x x A x x c k x x x c x k A c x A x x x A x x x x c x c x x A x x x x c x x x A x A C x x x A x x x x A x A x x x x x x A x x x x x x x x A x x x A x x x x A x x x x x x x x x x x x A x x x x x l x l l x 8 l x 8 8 x 8 x 8 x 8 x x 8 x x A 8 x 8 x 8 8 x x 8 8 8 x 8 8 x x 8 x 8 8 x x 8 x x x 8 x 8 8 A x 8 8 A 8 x x x 8 x A x 8 x x x 8 x A 8 9 x 8 8 A A 6 x 8 x x 8 x 8 8 x x 8 x 8 8 x 8 x x 8 x 8 6 x 8 x 8 8 q 8 8 x x q 8 8 8 q x 8 8 8 8 8 8 8 8 8 8 6 8 8 8 8 l 8 8 8 8 8 8 x 8 8 6 8 8 8 6 x 8 6 l 8 8 8 8 8 6 8 x 6 8 8 8 8 x 6 8 8 8 8 8 8 6 x 6 8 8 8 8 8 l 8 8 l 8 8 8 8 8 8 q 8 8 8 8 x x x 8 8 8 8 8 8 6 x 5 6 6 6 8 8 8 8 8 8 x 6 x 6 8 6 8 6 8 8 8 6 8 8 8 8 8 8 8 x 6 6 8 6 8 6 6 8 6 8 6 6 6 8 6 8 6 8 8 8 6 6 8 6 8 6 6 8 6 8 6 8 6 8 8 6 6 8 6 8 6 8 6 8 8 8 7 8 8 8 8 7 8 7 0 8 8 7 7 7 8 7 8 7 8 8 7 8 q 7 0 8 8 7 7 0 8 8 7 8 8 7 7 8 8 7 8 7 8 q 8 7 7 8 8 7 8 7 7 7 8 8 7 7 8 7 7 8 7 8 7 8 7 8 7 5 7 8 7 6 5 8 8 8 5 5 5 7 8 5 7 5 5 8 5 7 7 5 6 7 8 5 5 7 7 6 7 7 8 5 7 7 6 7 7 7 5 8 5 7 5 8 7 6 7 5 8 5 7 5 8 7 8 6 5 8 7 6 5 8 7 5 5 7 6 5 5 8 6 7 5 7 5 5 5 5 7 5 6 7 7 7 7 7 8 5 5 7 7 5 7 7 5 7 7 6 5 8 6 5 8 6 7 7 5 8 5 8 7 5 6 5 8 6 6 5 8 6 5 8 7 6 5 8 7 5 5 7 6 5 5 8 6 7 8 5 7 7 7 5 7 7 6 7 7 7 7 6 5 8 ",
"%.o.%.%.o.%.o.o.o.%.%.o.%.o.%.o.%.o.@.o.%.o.%.%.o.' %.o.o.%.' %.o.o.o.o.o.%.+.o.o.o.%.o.o.o.o.o.o.o.o.%.o.o.%.+.+.o.o.o.o.%.o.o.o.+.....o.o.o.o.o.o.o.o.O...o.o.X.O.X.o.o.o.X.o.o.X.o.o.o.' o.' o.o.o.o.X.' o.o.o.o.o.X.X.o.X.X.X.o.X.o.o.X.o.o.o.X.o.X.o.X.o.X.O.o.O.o.o.X.X.X.X.o.o.X.o.o.X.o.X.o.X.o.o.X.o.X.o.X.o.X.o.X.o.X.X.X.X.X.X.o.X.X.O.X.X.X.X.X.O.X.K X.X.K K X.X.X.K O.K X.X. .X. .X.X.X.X.X.X.X.X.X.X.X.X.H X.X.X.X.X.X.X.X.X.X.X.X.X.X.X.X.X.X.H X.X.X.X.X.` X.X.X.X.H X.H X.V X.X.V H X.X.X.X.X.X.V V X.X.X.X.V X.V X.X.V X.X.H H X.X.H K X.X.H H X.H H H H X.H X.H X.H H X.X.H H X.H H H X.H X.X.H X.H H H H H H X.H H H X.H H H X.H H X.H H H H H H H H V H H H H H H H H V H H V H H H H H H H H H V H H H H G H G H H D H G B H H B H B H H G H B G H G H B G G G G G G B H H H H D G F B D H D H G H G H G B V B F H G H B V F B B B D n G D B B V V B V B B B V V B V V B B G G B G H G G B B B B B B V B B B B B B G B G B B B B G B B B B B B B B G B B B B G B B B B B G B G B G B B B B B B B B B G B G G B B B B B B B B B B B B k B M B G G G B S G c B B B S S G c B c B c B B c B B B M B c B c B c B c c B c G c c B c B c B c c c G B c B c c B G c c c c G B c c S S c S c S c S c S S c S c S S c G c S c S c S c S S c S c c c c c M c B c c c c c c c c c c c c c z c c c c c c c l c c z c c c c c c z c c c c c c c z c c k S x k c c k x c c S k c x S k c c c c c c x k x S c c c A c c S x c x c c c k c c c c x c x c x c z x x x c x c x c c c x x c c x l c c x x c c x x c c c x c c x c c z x c l x z l c x c x c c x c x c x z x c x c x c x z x S x c x x x x x x c x x x x A x x c x x x x x x x x k x k x x S A x x x c x c x S x x x x c x k x x j x x x j x x x x x x x x x x x A x x x x x A x x x x x x x x x x x x x x x A x x x x x x x x x x x A x x x x x x x x x x x 8 x x 8 A 8 x 8 A 8 x x 8 x 8 x 8 x 8 x 8 x 8 A x x 8 A x x 8 x x 8 A 8 8 x 8 A 8 x 8 x 8 x 8 x x 8 A 8 x 8 x 8 8 x x 8 8 8 A 8 8 x 8 8 8 A 8 8 8 8 x 8 x 8 8 x x 6 x 8 8 x 8 6 x 8 6 x 8 8 x 8 8 q 8 x 8 x 8 8 8 8 8 x x 8 8 q q x 8 8 8 8 x q 6 x 8 8 8 8 8 8 8 8 8 6 8 6 6 x 8 6 x 6 8 8 8 8 8 8 8 6 8 8 x 6 8 8 8 6 x 6 8 8 8 l 8 8 x 8 8 6 x 8 8 8 8 8 8 8 x 8 x 6 8 8 8 8 8 8 8 4 j 6 l 6 8 8 8 8 8 8 x 8 x x 8 8 0 7 7 7 8 8 8 8 8 8 8 6 8 8 x 6 8 x 8 6 8 6 x 6 8 8 8 8 6 8 6 8 6 6 8 6 6 8 8 6 8 6 8 6 l 8 6 8 6 8 6 8 8 6 8 6 8 6 8 6 6 8 8 6 8 6 8 6 7 8 8 8 8 8 8 8 7 8 7 8 8 7 7 8 8 8 7 q 7 8 7 0 q 7 8 7 8 7 7 8 8 7 8 7 q 7 8 7 7 q 7 8 7 8 7 7 7 q 7 q 7 8 8 0 7 8 7 0 8 8 7 q 8 7 8 7 8 7 8 7 5 8 5 8 5 7 7 7 5 5 7 8 8 7 6 7 6 7 7 5 7 6 5 8 7 7 6 7 8 5 7 7 6 6 7 7 6 7 7 5 5 6 7 5 8 7 5 7 7 7 5 8 5 5 8 8 5 5 5 7 7 5 7 7 7 6 7 8 8 5 7 7 7 5 7 7 6 7 8 7 5 8 8 5 7 5 8 5 6 7 5 7 7 6 5 8 8 5 8 5 7 7 7 7 7 7 5 7 5 6 7 5 7 7 6 8 7 7 5 7 7 7 5 7 7 5 7 7 7 7 6 8 8 5 7 7 7 5 7 7 6 7 6 7 5 8 6 7 7 5 8 5 7 6 7 5 ",
"o.%.%.o.%.o.o.%.%.%.o.%.%...%.@...%.%.o.' %.%.o.%.o.%.o.} o.%.o.o.o.o.o.%.o.%.o.+.o.%.%.o.o.o.o.%.o.%.o.o.o.o.o.o.%.o.%.%.o.%.o.+.+.o.o.o.o.o.o.o.o.o.o.o.o.o.o.X.o.' o.X.' X.o.X.o.' o.o.o.' o.o.X.o.X.o.o.X.o.X.o.o.X.o.' o.o.o.o.o.X.o.X.O.o.X.o.o.X.o.O.o.X. .O. .X.X.X.X.X.X.X.X.X.X.o.X.X.X.X.o.X.X.o.X.o.X.X.X.X.X.o.X.o.o.X.X.X.X.X.X.X.O.X.X.X.X.K X.X.X.X.X.X.X.K X.X.X.X.X.o.X.X. .X.X. . .X.o.X.o.` X.X.X.X.X.X.X.X.X.X.X.X.X.X.X.X.X.H X.X.X.X.X.` X.X.X.X.X.X.X.H H X.X.V X.X.X.X.X.X.X.X.H X.H H X.V V X.V X.` H X.H X.X.X.X.X.V X.X.H H H H X.X.X.H H X.X.K H X.H X.H X.H H H H X.V H H X.H H H H H H X.H H X.V H H H H H H H H H H V H H H H H H H H X.H H H H H H H X.H H H V H V H H V H H H V V H H H H V V H H G H H G H F V G H B H B H H V V H V H V G H H G G H B H G G G H H B H H B H G B G H B H V G H D H B H B B G G B G G G D G G G G G G G G B V V G B B V V V V V G G B G G B B B V B B V B B V B B B B B B B B G B G B G B B B G B G B G B B G B G B G G B G B B B B B G B B B B G G B B B B G G B B B G B B B B B B B B B B B B B B B S J M G B c B c G S c B c B c B B c B B c B c B B c B c c B c G c c B c S B c B c B c G B c c G c c c B c B c G B c c B S c G c c c S c c S S c S c S c c c S c S c S B S G c S c c S c c c c c c B c c c B c c c c c c c c c z c z c c z c c c c c c c c c z c c c c c c c z c c c c c S c c c c x S c c c S x c x c c c k S c k x c c S c x c c c c S c c k c x c x k c x c c c c c c c x x c c c l c x c c x c c c x c x c c x c x x x c c x x x c x x c c x c l c l c l c x c x c x c x x x l c l c c c x c c x z x x x x x x k c x c x x x x c x x c x x x S x c x c x x x k A x x x c x c x c x x x x x x x A x x x x x x x x C x x x x x x x x A A x x x x A x x x x x x x x A x x x x x x x x x x x A x x x x x x x x x x x x x 8 x x l x 8 x x x 8 A 8 x 8 x x 8 x 8 x 8 x 8 x x x 8 x 8 x 8 8 x 8 x 8 8 x x 8 x 8 x x x 8 8 x x x 8 A 8 x 8 A 8 x x 8 A 8 x x x x 8 x x x 8 x x 8 A A 8 8 x q 8 x 8 x x 6 x 8 8 x 6 x 8 x 8 x 8 x 8 x 6 x 8 x 8 x 8 x 8 q 8 q 8 8 8 8 x 8 x 8 A 8 8 8 8 8 8 8 8 8 8 6 x 8 8 6 8 8 8 8 x 6 8 8 8 8 8 8 8 x 6 8 6 8 8 x 8 8 6 x 8 6 8 8 8 x 6 8 8 6 8 8 6 8 8 8 8 8 8 6 8 8 8 8 8 l 6 8 8 8 8 8 8 8 8 j l l l g x 9 x j 8 g g 6 6 x 6 8 8 7 8 q 8 8 8 8 8 6 8 x 8 6 8 8 8 x 6 8 8 8 8 8 x 8 6 8 8 6 8 6 6 8 6 8 8 6 8 6 6 8 6 8 6 8 6 8 8 6 8 6 6 8 6 8 6 6 8 6 8 6 8 6 6 8 6 8 8 8 8 6 7 8 8 7 7 q 7 8 0 8 0 8 7 q 8 7 8 7 8 7 7 7 0 8 7 8 q 7 7 8 7 7 7 7 8 7 7 8 7 7 8 7 7 q 7 8 7 8 8 7 8 8 7 8 7 8 7 8 7 7 8 7 8 7 7 7 8 7 7 7 5 8 7 5 8 6 5 7 7 5 5 7 7 5 5 8 5 5 6 7 5 7 7 5 7 5 8 5 8 5 7 5 7 7 5 8 5 8 8 5 7 7 5 8 8 5 6 7 6 7 7 5 7 5 7 7 5 8 6 6 7 7 8 5 7 5 7 7 7 6 6 5 8 5 7 8 5 5 8 5 6 7 7 7 5 8 5 8 5 7 6 7 8 5 5 7 7 6 5 7 8 6 8 5 7 5 8 6 7 7 7 7 6 5 5 7 7 7 5 7 7 5 6 6 7 7 7 7 6 7 7 5 5 8 6 5 8 5 6 7 7 5 5 8 8 7 7 5 7 6 8 5 7 7 ",
"%.o.%...%.%.%.%.%.o.%.o.o.%.o.%.%.o.o.o.%.o.' %.o.} o.o.o.%.' o.%.%.o.%.o.o.o.o.o.o.o.o.o.%.+.%.o.o.o.+.%.o.%.o.o.o.o.o.o.+.o.o...o...O.o.X.o.o.o.O.X.o.o.o.o.o.o.X.o.X.o.o.o.o.o.o.X.o.X.X.o.X.o.o.X.o.o.X.o.o.' o.o.o.X.o.X.' o.X.o.o.o.o.o.o.o.X.X.O.o.X.O.O.X.O.O.O.X.O.o.O.X.X.o.X.X.X.o.X.o.X.X.X.X.X.X.X.X.o.X.o.X.o.X.X.X.` o.X.` o.X.X.X.X.X.X.X.O.X.X.X.K X.X.X.X.O.X.X.X.X. .X. .O.X. .O.X.X.O. .X.X.X.X.X.X.X.X.X.X.X.X.X.X.V X.V X.X.X.X.X.X.` X.X.X.X.H X.H X.X.X.X.X.X.X.X.V X.H X.H H X.` X.X.` X.X.X.X.X.H X.X.V X.` H H V X.X.H H H X.X.H H K H H X.H H X.H H H X.H H X.H X.X.H H V X.H H V X.X.H H V X.H H H H H V X.H H V X.H H X.H H H X.H H H H V H H X.H H H H H H V H H H H H V H H V V H H V H V H H H H G G H H G G K G H B H B H H B B H V H V V G G G H V G G G B H H B B H H B H H H H H B G V G H H V G G V G B G B G B G B G G G B G B B B G B G G V V G G B V B G G G G G B H G B B B V B B B B G B G B B G B G B B B B B B B G B B B B c G B B B B B B c B B B G B B G B B G B B B B B c G B B G B B G B B B B B B B B B B B B B c B B B c G c B c B B S G B c B c c c c B B M B B B c c B c B c G B c B G c B B c c c c G B c c B c c c G B c c G B c c B S c S S c S G S c S S c c G S S c S S S c G S c c S c c S c S c k c c c c c c c c c c c c c c c c c c c c c c c c c c c c c c c z c c c c c c z c c c c c c c c c c x c x c c c c c x c c S c c c c c x x S S c c S c c c c c c x k x c x c k c c x z c c x x c l x x c c c x c c x c c x c x x z c x c c x c c c c c l c c c c c c z c x c x c x c x c l c l c x z l c z c c x c x l c l c l c x c x x c x x A x x x x c x x x S x x x x c x x x x x x x c x x x c x x x x x x S x c x c x x x k x A x x C x x x x x x A x x x x x x x x x x x x x x x A x x x x x A x x x A x x x x x x x A x x x x A x x A x x A x l x x x x l x 8 A 8 x x x 8 x x 8 x 8 8 x x 8 8 A x 8 x x x x x A 8 x A 8 8 x 8 A 8 x 8 x x 8 8 x x 8 x x x 8 x 8 8 x 8 x 8 x 8 8 x 8 8 x A 8 8 q 8 8 A A 8 8 x 6 x 8 8 x 8 x 8 8 x 8 8 8 x 8 8 8 x 8 x 8 x 8 q 8 8 x x 8 x 8 8 x 8 x 8 q 8 8 8 8 x 4 8 x 8 A 8 6 6 x 6 8 8 x l 8 x 8 8 8 8 6 8 6 x 6 6 8 8 8 x 8 8 6 6 8 8 8 6 x 8 8 8 8 8 6 6 x 8 8 8 6 6 x 6 x 6 x 8 8 8 8 6 8 8 6 8 8 8 4 8 4 j j l x k k r y r k t k h h g = g g g 2 j 8 x 6 6 x 8 x 8 8 8 x 8 8 8 6 8 8 8 6 x 6 6 8 8 6 6 8 6 8 8 6 8 6 6 8 6 8 8 6 8 6 8 6 8 6 6 8 6 8 8 6 8 6 8 8 6 8 6 8 6 8 8 6 8 6 8 8 8 8 8 8 7 7 8 7 8 7 8 7 7 7 8 7 7 8 7 q 7 8 7 8 8 7 8 7 7 7 8 7 8 q 7 8 7 q 8 7 q 7 7 7 8 7 8 7 8 0 7 q 7 7 8 0 8 7 q 7 7 8 7 7 7 8 8 8 7 8 6 7 7 5 7 6 5 7 8 7 6 8 7 6 5 8 5 8 7 8 7 5 8 7 5 8 7 6 6 7 5 7 8 7 6 7 7 5 7 7 6 7 6 7 7 5 5 7 5 7 7 5 5 8 7 6 5 6 7 5 7 7 8 5 5 7 8 5 5 6 7 7 7 7 6 7 5 8 5 8 5 7 7 5 6 7 7 5 7 7 7 6 7 7 5 5 7 6 7 7 7 6 5 7 5 5 8 8 5 7 8 5 5 8 7 7 8 8 7 8 8 6 7 8 7 7 8 5 6 7 7 5 8 8 5 7 7 7 6 7 7 7 5 8 7 5 5 5 5 8 7 7 5 7 6 7 ",
"%.o.%.%.o.%.%.o...o.%.%.%.%.o.o.o.o.o.@...%.o.o.o.%.o.%.o.%.' %.o.o.o.o.+.o.%.o.o.%.o.o.%.o.o.o.o.o.%.o.o.o.o.%.o.%.o.o.o.%.%.o.o.O.O.o.X.o.o.O.o.o.o.o.o.o.o.o.' o.o.o.o.o.o.X.X.o.X.o.o.o.o.o.X.X.X.O.X.X.o.X.X.o.X.X.o.' o.o.' o.o.X.X.o.o.X.X.o.X.o.O.O.X.o.O.o.X.o.O.X.X.O.X.X.X.o.X.O.X.X.X.X.o.X.O.X.X.X.o.X.X.X.X.X.X.O.o.X.` X.X.X.X.X.X.X.X.X.X.X.X.X.X.X.X.X.X.X.X.X.X.X.X.X.X.X.o.X.o. .X.X.X.X.X.O.X.X.X.X.X.X.X.H X.` H X.X.X.X.X.X.X.X.H X.X.X.X.V X.X.H H X.X.X.H X.X.H X.H X.X.X.X.X.X.X.H X.H V X.` H H ` V X.V X.` X.X.` H X.K X.X.H H X.X.H X.H X.H H X.X.H H H H H H H X.H X.H X.H X.H X.H V X.H X.V X.H X.X.H H H X.H H H X.H H H H H H H H X.H H V H H H H X.H H H H V H H V H V H H H H H V H H V H H H G H H G G H H G H G B H H B B H V V V V H V G V G G G G H G H B B B H H B B H B B B G H G H B B G B H G B G G G G G B G G G S G G G G G G G G B G B B B B V V G B G G G B H B V B B B B B M B B B B G c G B B B B B G B G B G B B B G B B G B G B G B B G B G B B G B B G B G B B B B B G G B G G B G B G B G B M B c B M B B B B B B B G k c G B B B c B S B c c c B c c B B B B c c B c B c c B c c c c c c c c c B c B c c B S B c B B c c G B c c B B c c B c S S c c S S c c S S c B c S c c S S c c S c S S c S c S k c c c c c c c c c c M c c c c c c c z c c c c c c z c c c c c z c c z c c c c c z c z c c c c c S c x S c c c c c S c c c k c c c x c c c x c x c x c S c c x c c c c c c x c c c x c x c c c c c c c c c x x c c x c x x c c x c x x c x c z x x c c x x c c x x c c x c l c l c x c x c x c x c x c x l c l c x z x x c x c x c x k x x x x x x x S x x x x x x x k x c x x x x x c x c x c x c x x k x x x A x x x x x x c x x S c x x x x x x x x x x x A x x x x x x A x x x x x x x x x x x x x x A x x x x A x x x x x x A x x x x A x x x x x x x l l x l x x x 8 8 8 x x 8 x 8 x A x 8 x x A 8 8 x x 8 x 8 8 x x 8 8 A x 8 x 8 8 x A 8 x x x 8 8 x A 8 x x 8 x A 8 8 x 8 x x 8 8 A x 8 8 x 8 x A 8 8 x 8 x 8 8 6 8 8 8 8 x x 8 x x x 6 x x x 6 x 8 8 8 x 8 x 8 x 8 8 8 q 8 q 8 8 q x x 8 x 8 8 8 8 8 8 8 8 8 x 6 x 6 8 6 8 6 x 6 8 8 8 8 8 6 x 8 8 8 8 8 6 8 8 x 8 x 6 8 6 8 8 x 6 6 8 8 8 8 8 l 8 8 8 8 8 8 8 8 8 8 x 8 8 x 6 8 x 8 8 8 8 x 4 8 4 g g g h a T T (  .o.' o.o.+.X.V N h t @ l 8 8 6 8 8 8 8 6 8 8 8 8 8 8 x 6 x 8 6 8 8 8 x 8 6 8 6 6 8 6 8 6 8 x 6 6 8 8 6 6 8 6 8 8 6 8 6 6 8 6 8 6 8 8 6 8 6 8 6 6 8 6 6 8 6 8 8 8 8 7 8 7 7 q 7 7 q 7 8 7 7 8 7 7 8 7 7 8 7 7 8 7 0 8 8 0 8 8 7 7 q 7 8 7 8 7 8 q 7 8 7 q 7 7 8 7 7 8 0 7 8 7 8 7 8 q 7 8 8 8 7 7 8 8 7 5 7 6 7 5 7 7 6 5 7 7 5 5 8 7 6 5 7 7 6 7 5 7 6 7 7 5 7 7 8 5 7 5 7 7 5 6 5 8 6 7 7 7 5 8 8 5 6 8 6 7 8 7 7 5 7 8 5 7 7 8 5 5 7 6 7 5 7 8 5 8 5 6 7 7 7 7 5 5 8 7 6 5 8 7 5 6 7 7 6 5 5 5 8 7 8 7 7 5 8 7 7 5 8 7 7 5 5 8 5 5 7 5 5 8 5 5 7 7 7 5 7 5 5 8 5 5 7 5 7 6 7 5 5 8 5 6 7 7 7 8 5 7 5 7 6 5 8 7 5 6 7 8 7 8 7 ",
"o.%.%.o.%.o...%.%.%.o.%.%.o.%.%.o.@.%.o.%.o...%.%.o.%.' %.o.%.o.%.o.o.%.o.%.o.o.o.o.%.%.o.o.o.%.o.%.o.o.%.o.o.+.o.o.%.o.+.o.o.o.o.o.o.o.X.o.o.o.X.X.o.o.' o.o.o.o.' ' o.' ' o.o.' o.o.o.X.' o.X.o.O.o.o.o.o.O.o.o.o.o.' o.o.o.o.o.X.X.o.o.X.X.o.O.X.O.X.X.X.X.X.X. .X.O.o.X.X.X.X.X.X.X.O.X.o.X.X.O.X.X.O.X.X.O.X.X.X.O.O.X.X.X.` X.X.X.X.X.X.O.X.X.X.X.O.X.X.X.X.X.X.X.O.X.X.H o.X. .O.X.O. . .X. .o. .X. .X. .X.o.X.X.X.X.` X.X.X.X.X.X.X.X.X.` X.X.X.H X.X.X.X.X.X.X.X.X.X.H X.X.X.X.X.X.X.H X.X.H X.X.V X.` X.H X.H X.X.H X.X.X.H H X.H ` X.H H X.H H X.H K X.H K H X.H H X.X.H X.H X.H H H H H H H V H H H H H H H H H H H H H H H H H H H H H H H X.H H H H H H H X.H H H H H H H V V H H H V H H H V H V H H H V H H H H H H G F H H G H V G H B H H B H H V V H V B V V H V G H G V G G H G G B H G G G G H H B G G G H G G G G G G G B G G G G B G G G G S G G B G G H B G V G B G B V B G H B B V B B B V B B V B B V G B B G B B B G B G B B B B B B B G B B B B B B B B G B G B B B B B B B B B c G B G B G B B B B G c B B B B B B B B B B B B k G B M B G S B B S c B B B S G B c B c c B B c c B c M B c B c B c c c G B c G G c B G c B c B c c B c c G c B c c c c G c B c c G G c S c S c S G G c S S c S G c S c S S G c S S c S S c S c c c B c c c c c c c c c c c c c c c c c c c z c c c c c z c c c c c c c c c c x c c c c c c k x k c c k S k c k c k c k c c x c C S c c c c c S c S x k c x c c c c k x k x c x c k c c x c x z c x c l x z c x c c l c c x c c c x c c l c c x c c x c c x c c x z x c x c x c c l x z x c l c x z x c x c c x x c c z x c l c l c A x c x x c x c x x k A c x c x A x x x k A x c x x x x x x x x x A c x x k x x A k x c x x x x x A x x 4 x x x A x x x x x x x x x x x x x x A x x x x x x A x x x x x x x x x x A x x x x x x x x x x x x x x x l 8 x x x x 8 x 8 x x x 8 8 A 8 x x 8 8 A x 8 8 x 8 x 8 A 8 x x 8 x 8 x 8 x x x 8 x x 8 x 8 A 8 x 8 x 8 x 8 8 x 8 x x x 8 x x 8 A x x 8 x x 8 A 8 8 x q 8 x 8 l x 8 x x 8 x 8 6 x 8 8 8 x 8 8 8 x 8 x 8 x 6 x 8 8 8 q 8 x 8 x x 8 x 8 8 8 q 8 8 x 8 8 x 8 8 x 6 8 8 8 8 8 8 8 8 8 8 6 8 l 8 8 8 6 6 x 8 8 6 x 6 8 6 8 8 8 8 6 x 8 6 8 x 8 6 8 6 x 8 8 8 8 8 l 6 8 x 8 8 8 8 8 6 6 8 8 8 8 j 9 4 y r h n X.%.=.4.4.5.5.5.w.5.5.5.5.5.4.=.=.%.' h l z l l l l 6 x 8 8 8 8 8 8 6 8 8 8 x 8 6 8 8 8 8 8 8 8 6 8 6 8 6 8 6 6 8 6 6 x 6 8 6 6 8 6 8 8 6 8 6 8 6 6 8 6 8 6 8 8 6 8 8 7 8 8 7 7 8 8 7 7 8 7 8 7 7 7 7 7 8 0 8 8 7 q 7 7 q 8 7 8 7 8 7 8 7 7 8 7 7 8 7 8 0 8 7 7 8 7 8 7 7 8 7 8 7 8 7 8 7 8 0 8 7 7 8 5 7 5 8 5 5 7 5 8 7 6 7 8 5 7 7 7 6 7 6 7 5 7 7 8 5 7 7 5 8 5 8 6 7 8 5 7 5 7 6 7 6 5 8 7 7 5 7 7 6 5 8 5 5 7 7 5 7 7 5 6 7 8 5 6 7 6 7 5 7 7 6 7 5 8 7 6 7 5 7 7 5 8 5 7 6 7 5 7 7 7 7 6 8 5 7 5 8 7 8 7 5 5 8 5 6 7 5 6 7 7 5 7 6 8 7 5 7 7 6 8 7 5 7 6 7 7 8 6 7 8 7 5 7 7 6 8 5 7 7 5 8 5 7 7 5 8 5 5 5 8 8 5 7 7 7 6 8 5 7 7 7 7 7 ",
"%.o.%.%...%.%.o.%.o.%.%.%.%.o.%.o.%.o.%.o.%.o.%.o.+.o.o.o.o.+.o.o.+.o.%.o.%.o.o.o.o.%.%.o.o.o.%.o.o.o.o.o.+.o.o.O.o.+.o.O.o.+.o.o.X.o.o.o.X.o.o.o.X.o.o.o.o.' o.` o.X.o.o.o.' X.X.o.o.o.' o.o.' o.X.X.o.o.o.o.o.o.o.o.X.o.X.` o.X.o.X.o.X.o.o.X.X.o.o.O.X.X.X.O.O.X.O.o.X.O.X.o.X.X.o.X.o.X.X.o.X.o.X.X.X.X.X.X.X.o.X.X.o.X.o.X.X.X.X.' X.X.X.X.X.` o.X.X.X.o.X.X.X.X.X.X.O.X.X.X.X.O.X.X.X.X.X.X. .X.X.X.X.X.X.X.X.X.X.H X.X.X.X.X.X.X.X.X.X.X.X.H ` X.X.` X.H H X.X.X.X.X.X.X.H X.X.H X.X.X.X.H X.X.H X.V X.X.X.V ` H X.X.H X.H X.H H H X.X.H X.X.H X.H H X.X.H X.X.H H X.H H H H X.H X.V H X.H X.V X.H X.H X.X.H X.H H H H H H H X.H H H X.H H H X.H H H X.H H H V H H H H X.H H H H V H H H H H H G H H J H G F H G F G H H G H H G H H H G G H B H H B H G H G V G H H B H H G V H G V B H G G V J G G G G G G B G G H V J G G H G B G B G B G B G B G B G B G V G B G B H B H B G B H B B H V G B V G B B B B B B B B B B G B B B B B G c G G B B G B B B B G G B B B B B B B B B B G G B B G B G B B B B G B G B G B G B D B B B B B B B B M B B M B B B B B B B B B B B B B M c B B c c B c B c c B c B c c B c B c B c c B c G c G c c G c S B c B c c c c B c S B c B c G c c c c B c c c S c S c S G c S c S c G c S G c S S c S c G c S c S c k S c c c c c B c c c c c c c B c c c c c c c c c c z c c c z c z c k k Z k A x c A c c k k k k S A C k Z n n d u d n h n k S c A A A c l c c S A C S x c c c c c z c c x x c c x c x k k c x c c c c x x c x c c l c c x x c c x c c c c x c c l x c x x c c c l c l c l c x c x c x c x c l c x z x c x c x c x c x c x c l c x c x x x x x x x x x x c x A x x x x x c x c x x x x x x x x x x x x x x k A x c x x x x c x c x x x x x x x x x x x x x x A x x x x x x x x A x x x x x x x x x x x x x x x A x x x x x x x x A x x x x x x x x x x x 8 8 x x x 8 A 8 x x 8 8 x A 8 x 8 x x x 8 8 x x x x x 8 x 8 A 8 A 8 8 x 8 x 8 x x 8 x x x 8 A 8 x 8 x 8 8 x 8 q 8 x 8 8 A x 8 x A 8 x x x 8 A 8 x x 8 x 8 x x 8 x 8 x 8 x 6 x x 8 8 q 8 x 8 x 8 x x 8 8 8 q 8 x 8 x 8 q 8 8 x x q x 8 8 8 8 8 8 8 8 8 8 8 8 8 8 8 8 8 8 8 8 x 6 8 8 x 8 6 8 6 8 8 8 8 8 6 8 6 8 8 x 8 6 8 8 8 l 8 8 8 8 8 x 8 8 8 8 4 8 8 8 x l l l l 8 8 0 7 6 l 8 1 7 C C ; y d  .*.4.w.w.w.w.w.w.w.w.w.e.w.w.w.w.w.w.w.w.w.=.+.` v - - g x 8 5 3 0 q 1 2 8 8 8 8 8 8 8 8 8 7 3 7 0 8 8 8 8 6 8 6 8 6 8 8 6 8 6 8 6 6 8 8 8 6 7 8 8 8 8 8 8 7 8 8 8 5 8 8 8 8 7 7 q 7 7 8 7 7 7 q 7 8 7 0 7 7 8 8 7 8 7 8 8 8 7 0 7 8 7 7 q 7 8 7 8 7 7 8 7 8 7 7 8 7 8 7 7 8 0 8 7 8 7 7 q 7 8 7 8 7 7 8 7 7 7 5 7 6 7 8 5 7 7 5 8 5 8 5 7 7 5 7 6 7 8 5 7 7 6 7 8 5 7 7 5 5 8 7 6 7 5 7 7 7 5 7 7 6 7 5 7 7 7 5 5 5 7 7 5 6 7 7 5 7 6 5 8 7 8 5 7 7 7 5 7 6 7 8 5 7 7 5 8 7 7 7 7 7 7 7 7 7 7 7 8 7 7 7 7 7 7 7 7 7 7 7 8 7 7 7 7 7 7 7 7 8 7 7 7 7 7 7 7 7 7 7 7 7 7 7 7 7 7 7 7 7 7 q 7 7 7 7 7 7 7 7 7 7 7 7 7 7 7 7 7 8 7 7 7 7 7 7 7 7 8 7 7 ",
"o.@.o.o.%.o.%.%.o.%.o.%...o.%.o.o.o.o.o.+.o.o.o.%.o.%.o.%.%.o.o.o.o.o.o.o.+.%.o.o.%.o.o.%.o.o.o.o.o.o.+.o.o.o.+.o.o.o.o.o.o.o.+.o.o.o.o.o.o.X.o.o.o.o.o.X.o.X.o.X.o.' o.o.X.o.o.' o.o.X.o.X.o.X.o.o.o.' X.o.` X.' X.o.o.o.o.o.o.o.' o.o.o.X.o.o.o.o.X.o.o.O.o.o.O.o.X.O.X.o.X.O.X.` X.X.o.X.X.X.X.X.o.X.o.X.o.X.X.X.X.o.X.X.X.X.` o.X.X.X.X.` o.X.X.X.X.X.X.` X.X.X.X.X.X.X.X.X.X.o.X.X.X.X.X.X.X.O.X.X.X.X.X.X.X.X.X.X.X.X.X.X.X.X.V X.X.X.X.X.X.X.X.X.X.X.X.X.X.X.H X.X.H X.V X.X.X.` H X.X.H X.X.X.X.X.V X.V X.X.X.H X.V H ` X.K H X.X.H H H H H H K X.H H H K H H X.X.K H X.H X.H H H H H H H H H H H H H H H H V H X.H X.V H H V H H H H H H H V H H H H H H H X.H H H H H H X.H H V H V H H H H H G H H H H G H G G H H G H G G H D K H G H G V G G G V G G V G V G G H G G G G G G G H B G H G G G H G G G G H H G G G G H G G G G G H B H G G B H G G B G G B G G G G G G B G G G B G G B B V B B B B H B V B V V B B V B B B G B G B B B B G B c G G B B B B B B G B G G B G B B B B B B B B B B G B G c B B B B B B B B B B J B B B B B B B B B B B B B B B B B B c B B c B B c B B B c c c G B c B c G c c B c c c G B c c c B c c B B c c B B c c B G c c B B c c G B c c B G c c B S S c S c S S c S c S S S c c S c S S c G c S S S c c S G c S c c c c c c c c c c c c c c c c c c c z c z c c c c c c c c z c c k Z S S x A c x c c G D k j j k u a d f F f f m f m v u z c A S c c c c A A S C c c k c c c c c c x c x x c S x x S c c c c x c c c c c x c c x c c c c x c c l x c c x x c z c c c c x c x x c x c l c l c l c x z x c x c x c l c x z l c x z l c x c x z l c x c x c S x c x x x x k x c x A x x x x S x c x x S x k x c x c x c x x x x c x x A x x x x x c A x x x x x x A x x x x x x x x x A x x x x x x x A x x x x x A x x x x x x x x x A x x x x x x x x x x x x l x 8 x x 8 8 8 x 8 x 8 x A x x 8 x 8 A 8 8 8 x x 8 x 8 8 A x 8 x 8 x 8 x x 8 x 8 x 8 A x 8 8 x x 8 x 8 x 8 x x 8 A x 8 8 A A 8 8 q x 8 x 8 8 x x 8 x 8 8 x 8 x 8 8 6 x x 8 8 6 x 8 8 8 x 8 8 8 q 8 q 8 8 q x x 8 x 8 q 8 8 8 x 8 8 8 8 8 8 8 x 8 8 8 8 8 8 8 8 8 8 8 8 8 8 l 8 8 8 8 8 8 8 6 x 8 x 6 8 8 8 8 x 8 8 8 8 6 8 x 8 8 8 8 8 6 x 8 8 6 8 x 8 8 8 8 4 8 x l x x 6 8 8 0 7 8 5 6 x j ; w D +.*.4.w.w.e.q.e.e.e.e.e.e.q.e.e.e.e.e.e.e.e.q.w.5.5.4.&.' N - = 8 8 0 7 7 8 x 8 8 8 j 8 6 8 8 4 8 7 7 0 7 8 6 6 8 6 8 6 8 6 6 8 6 8 6 8 4 8 8 8 8 8 8 7 6 8 8 8 6 8 8 8 8 8 8 5 8 8 7 7 8 8 7 q 8 8 7 8 7 8 8 8 q 7 7 q 7 8 7 0 7 8 8 8 7 8 7 7 7 7 8 7 7 q 8 7 7 8 q 7 7 7 8 7 7 8 7 8 7 q 8 7 7 7 8 7 8 7 7 8 6 7 8 5 6 7 5 7 6 7 7 5 7 7 7 6 5 8 7 6 7 5 7 6 5 8 7 5 7 6 7 6 7 5 7 7 8 7 6 6 6 8 5 6 7 5 8 7 6 5 8 8 8 7 6 8 7 5 8 7 7 7 7 5 7 5 5 8 6 7 8 5 5 7 5 7 6 7 7 5 7 7 7 7 7 7 7 7 7 7 7 7 7 7 q 7 7 7 7 7 7 7 7 7 0 7 7 7 7 7 7 7 7 7 7 7 7 7 7 7 7 7 7 7 7 7 7 7 7 7 7 7 7 7 7 7 7 7 8 7 7 7 7 7 7 7 7 7 7 7 7 7 7 7 7 7 7 8 7 7 7 0 7 7 ",
"%.o.o.%.%.o.o.%.%.@.o.%.%.o.%...o.o.o.o.o.%.o.%.o.o.o.%.o.o.o.%.%.%.o.%.o.o.o.o.+.o.o.o.o.%.o.%.o.O.o.+.O.o.+.o.o.o.+.+.+.o.o.+.o.o.o.o.o.X.o.o.o.o.o.X.o.o.o.X.o.` o.o.o.X.o.X.o.X.o.o.o.o.' o.' X.X.o.o.' o.o.X.o.o.' ' X.o.X.o.X.` o.o.X.o.X.X.o.o.X.O.X.O.X.X.X.o.o.X.O.X.o.X.o.X.o.X.o.X.o.o.X.X.X.X.X.X.o.o.X.o.X.X.X.o.X.X.X.` o.X.X.X.X.` X.` X.` X.X.X.X.X.O.X.X.X.X.X.X.X.X.X.X.X.X.X.X.X.X.X.X.O.O.X.O.X.X.X.X.X.X.X.X.X.X.X.X.V H X.X.X.X.X.X.X.X.X.H X.X.X.X.X.X.X.H X.H X.X.X.H X.V X.X.H H X.X.X.V X.` X.X.V X.X.X.H H X.H K X.X.H X.X.H H X.X.H X.H H H X.H H X.H H H H X.H X.X.H X.H H H X.X.V H H X.H V H H X.H H H H H H H H H H H H H H H H H H H H V X.H H H H H V H H H H H H G F H G G H H G H H H D J H H H G H H G H H H B G G G H H G G V G G H B B H H V G H H G G H G H H G G H J H H G J H G G G H G G G G B H G G B G G G B G G G G B G G B G G B G G D G G G G V B G G B V G B B B V B B M B B B G B G B B B B B B B B B B B B B B B B B G B B B B B B G B B B B B G G B G B B B G B G B B B G B H B B n B B B B B B B B B c B B B B B c B B B c B B c c c M c c c G c c c c B c c G G c c B S c c B B c c B c B c G c c c B B c c B G c c c B c c B B c c B G c c S S c S c c S c c G c S B S c S c c S c c S c S c G c c c c S c B c c c c c c c c c c c c c c z c c c c c c c c c c c c c c k n k k A A A x x c B B v a d m H +.%.=.4.4.4.4.4.&.*.) ( b v h k k S x x c S S l c c c c c c x x c c c c c c x k x x x x x x x A c x x c c x c x x c z x c x x c x c c x c c x x x c c x c c c x c x c x c x c x c l c l c l c l c x c x c l c x c x c x c x c x c x x x x x x c x c x x c x x k x k x x x x x c x c x x c x x x x x x x x x x x x k S x c x k x x x x x x x x x x A x x x x A x x x x x x x x x x x x x A x x x x A x x x x A x x x x x x x x x x x x x x x 8 x A 8 x x x 8 x x 8 A x 8 8 x x 8 x 8 8 x A 8 x x 8 x x 8 8 x x 8 x x x 8 x A 8 x A 8 8 x x 8 8 x x 8 x A 8 x x x 8 C x q 8 8 8 x A 8 x 8 x 8 8 A 8 8 x 8 8 x x 8 x 8 x 8 x 8 x x q 8 8 x x 8 8 8 8 x x 8 8 q 8 8 8 8 8 x x 8 8 q 8 x q x 8 4 8 8 x x 8 6 8 x 8 8 x 6 8 8 8 6 6 8 8 8 8 8 8 8 x 6 8 8 8 l x 6 x 6 l 8 8 8 6 8 6 8 8 6 8 8 x 6 8 6 8 8 8 8 8 8 6 8 8 x 8 8 7 7 0 0 8 8 j r t F %.=.1.5.w.w.e.w.e.e.e.e.e.e.e.e.e.e.e.e.q.e.e.e.e.w.w.w.w.w.4.*.` M j 2 7 1 3 q 8 6 8 8 6 8 8 8 8 8 7 8 7 7 8 8 6 6 6 8 6 8 6 8 6 6 8 6 8 6 8 8 8 8 8 7 8 8 8 8 6 8 8 8 8 8 8 8 8 8 7 0 7 8 0 8 7 7 7 q 7 7 8 7 8 7 7 8 8 7 7 q 8 7 7 q 8 7 8 0 7 8 q 7 8 q 7 7 7 8 8 7 8 7 q 7 7 q 7 7 8 7 8 7 7 q 8 7 8 7 7 8 8 7 5 7 6 7 7 8 5 7 7 5 6 7 7 6 5 5 7 7 5 7 7 6 7 5 7 5 5 8 7 7 5 7 6 7 8 5 5 7 7 7 7 7 5 7 7 6 7 6 7 5 5 7 5 7 7 5 7 5 7 6 6 7 6 7 5 5 5 8 8 5 6 7 8 6 7 7 7 7 8 5 7 7 7 7 q 7 7 7 7 7 7 7 7 7 7 7 8 7 7 7 7 7 7 7 7 7 8 7 7 7 8 7 7 0 7 7 7 7 7 7 0 7 7 8 7 7 q 7 7 8 7 7 7 7 7 7 7 7 7 7 7 q 7 7 8 7 7 7 7 7 7 7 7 7 7 7 7 7 7 7 7 7 7 7 ",
"%.%.%.%.o.%.%.o.o.o.%.o.%.%.o.%.o.o.%.o.o.o.o.+.%.o.o.o.%.o.o.o.o.o.o.o.%.o.%.o.o.o.%.%.o.o.+.o.o.+.o.o.+.o.o.o.O.o.o.o.O.o.o.+.X.o.o.o.o.o.o.o.X.o.o.o.o.X.o.' o.o.o.X.o.o.' o.o.o.` X.X.o.X.o.o.o.o.o.X.o.o.X.X.o.X.o.o.o.o.o.' o.o.o.O.o.O.o.X.o.X.o.O.o.o.X.o.O.O.X.o.o.X.O.X.X.X.X.O.X.X.X.X.X.X.o.o.X.X.X.X.X.X.X.X.o.X.X.X.X.X.X.o.` X.X.X.X.o.X.o.X.X.X.X.X.X.X.O.X.X.X.X.X.X.X.X.O.X.X.X.X.X.X.X.X.X.X.X.X.X.X.` X.X.H X.X.X.X.X.X.X.` X.X.X.X.H X.X.X.X.X.H X.H X.H X.X.X.X.X.X.X.X.X.X.X.X.X.X.X.V V X.H H X.X.X.X.V H X.H H H X.H H H H X.H H X.K H H X.X.H H H X.H V X.H X.H H V H H V X.H H V H H V X.H H H X.H H H X.H H H X.H H H X.H H H X.H H X.H H H H H H H H H H X.H V H V G G H G G F H G G H H G H H H H H D H G G H H G B H G H V G G V H G G H B H H B B H G G G V H G G G G G G G H G G G G G G H G G G G H G G G G G G G F B G G H B G G G G F G G G G G V G B H B D B V B G B B H B B B B B B B V B B B B B B G B G B B G B B G B G G B B G B B B G G B B B B G B G B B c G B B B G G B B B B G B B D B B n B B B B B c B B B B B B B B B B B B B B c B B B B B c B B c B B S B c B c c B c B c B B B c c G c G c c B c c B B c c G B c c B B c c B c c B S B c c B S c S G c S G c S S c S c S c S c S S c S S c S S S c S S c c c c c c c c c c c M c c c c c B c c c c l c c z c c z c c c c c c k k k c x S A x k n i a ( o.=.=.4.5.5.w.w.w.w.w.w.5.4.4.&.) / s B k S k c S c z c c c c x A A A c x c c c x x x c A A A A c A x x c l c c x c c c x x c c c x c c l c c c x c c c x c c x c x z l c l c x z x c x c x c x c x c l c x z x c x c l c x z x c l c x x A x k x x x x x x c x x x x x A A k x x x x x x x c A x x A x S x c k x c x x x x x x x A x x x x A A x x x x x x x x x x x x x x x x x A x x x x A x x x x x x x x x x x x x x x A x x x A x l x x x l x l 8 x 8 A 8 x 8 x x 8 8 x x 8 x 8 x x x x 8 x 8 A x 8 8 x x x 8 x 8 x 8 A x 8 x 8 8 x 8 x x 8 A 8 8 x x 8 x 8 x 8 8 A 8 8 8 A C 8 8 x 8 x 8 x x 8 x 8 8 x x 8 8 x 8 x 8 8 8 x 8 8 8 x 8 x 8 q x q 8 8 8 8 x 8 x 8 8 A q 8 x 8 x 8 8 8 8 x 8 8 4 x 8 8 8 x 8 8 8 8 8 8 8 x 8 x x 6 8 j 8 8 8 8 6 8 x 6 8 8 6 8 8 8 8 8 8 6 8 8 x 6 8 x 8 6 6 8 8 x 8 8 8 8 x 6 x 8 8 8 8 8 8 8 8 8 j j k h  .4.w.w.w.w.e.e.w.e.w.w.e.e.e.e.e.e.e.e.e.q.e.e.e.e.e.e.e.0.w.w.w.5.4.*.m h r 8 8 4 7 8 8 8 6 6 6 8 6 6 8 4 8 8 6 l 6 8 8 6 8 6 8 6 8 6 6 8 6 8 6 8 4 8 8 8 8 6 7 8 8 7 7 8 8 8 8 5 8 8 8 8 8 7 7 8 8 7 8 7 8 7 q 7 7 7 7 7 7 7 8 7 7 8 8 7 7 8 7 8 8 7 7 8 7 7 8 8 8 0 0 8 7 8 7 8 8 7 8 q 7 8 7 7 8 7 7 8 7 8 8 7 7 8 8 5 7 7 7 5 7 6 6 8 5 7 7 5 8 8 6 7 8 5 7 7 5 8 7 6 7 5 6 7 8 5 5 7 5 7 7 6 5 8 8 5 8 5 7 7 5 8 5 8 8 5 5 8 7 6 5 8 5 8 7 5 7 7 8 8 7 5 5 7 7 5 5 7 7 6 6 5 8 5 7 8 7 7 7 7 7 7 7 7 7 7 7 7 7 7 7 7 7 7 7 7 7 7 7 7 7 7 7 7 7 7 7 7 7 8 7 7 8 7 7 7 7 7 7 7 7 7 7 7 7 7 7 7 7 7 7 7 7 7 7 7 7 7 7 7 7 7 0 8 7 7 8 7 7 7 7 7 7 7 7 7 7 7 ",
"o.%.%.o.%.o.%.%.%.o.%.%.%.o.@.' o.o.%.o.o.o.o.%.o.%.o.o.o.o.%.%.o.o.o.+.o.%.o.o.o.o.%.o.o.o.o.o.o.o.o.o.+.O.o.+.o.O.+.o.o.o.+.+.o.o.o.X.o.o.o.o.o.o.o.o.X.o.` o.X.' X.o.X.' X.o.o.' X.o.X.' o.o.X.o.` o.o.o.o.' o.X.o.o.o.X.o.X.o.o.o.` o.o.X.o.o.o.X.o.o.X.O.O.o.X.X.O.O.O.X.O.X.X.X.X.X.X.O.X.X.X.o.X.X.X.X.X.X.X.X.X.o.o.X.X.' X.X.X.X.X.' X.X.X.X.X.o.` ' X.X.O.X.o.X.X.X.X.X.X.O.X.X.X.X.O.X.X.X.X.X.X.X.X.X.X.O.X.X.X.X.` X.X.X.X.X.X.X.X.X.` H X.X.H X.X.X.H X.H X.H X.X.X.X.X.X.X.X.X.X.X.X.X.H X.` X.X.X.V V X.V X.` H H H X.H X.K H H X.H H X.H H H X.X.H H X.X.X.H H H H X.H H V H H H H H X.X.V H H H H H H H X.V X.H H H H H H H V H H H H H H H V H H X.H H H H X.H H H H H V V H H G J H H H H H H G H G G H H G H G H H G H G H H H B H H B H G H H B H H H B H V G H V V G G V J H G G G G H G G J H G G G G G J G G G G G B B G G B G B D H G G B G G G G G G B H G G G G G H H B V G B B V G B V B B V B B V G B B B G c B B G B B B G B B B B B B B B B B B B B B B B B B B B B B G B B G B B G B B B B B B B B B B B B B B M B B B B B c B B B B B B c c B B c c B c B c c c S B c c c B c B c c c B c B c c S c c B c c G c B c c c c B c c B c c G c B c B c B c B c c c c S c G c S c S c S S c S c S c S c S G G c S c c S S c c c c c c c c c c c B c c c c c c c c c z c c c c c c c c c z c c c c c M k k c c A S c t a ( @.4.5.w.5.w.w.w.w.w.e.e.q.e.e.w.w.w.5.&.%.a h Z G x g z B c c c c A A A A A c x x A x A x A x x A x S x c c c c x c c c l l c c x x l c x c c x x l c c x c x c x c c c x c x c x c l c l c l c l c x c x c l c x c l c x c x c x c l c l k x x c c x x A A x x c c x x x x x x x x c x c x x x k x c x k x c x c A x c x c x x x x c x c x x x x x x x x x x x x x x x x x x x A x x x A x x x x x x x x x x x x x x x x x x x x x x A x x x x x x x x x x x 8 x 8 x x 8 x 8 x x A x 8 x 8 A 8 x x 8 x 8 8 x x 8 8 A 8 x 8 x 8 8 x 8 x 8 x x x x 8 x 8 x 8 A 8 x x 8 x 8 8 x 8 x 8 x x 8 x x x x 8 x 8 x x 8 6 x 8 x 8 8 8 x 8 x 8 8 x 8 8 q 8 x x 8 8 8 8 8 x 8 x 8 8 q 8 8 q x x 8 q 8 q 8 x 8 8 8 8 8 8 8 8 8 8 8 8 x 8 8 8 8 8 8 8 8 8 8 8 4 8 8 8 8 6 8 x 8 8 8 8 l 6 8 8 x 8 8 x 8 8 8 8 8 x 6 8 8 8 8 8 8 l l 8 8 8 7 7 7 8 8 8 g , w d *.5.w.e.q.q.q.e.e.e.e.8.8.e.e.e.e.q.e.e.e.e.e.9.e.e.e.e.e.9.9.e.9.e.w.w.5.=. .k k x 2 8 x 8 7 8 8 8 8 6 x 8 6 6 8 8 6 8 6 6 8 8 7 8 8 5 8 8 8 6 8 8 7 6 7 6 8 7 8 8 8 8 7 7 8 8 7 8 7 8 8 7 7 8 0 7 8 7 8 7 7 q 7 7 8 7 q 8 7 8 7 7 8 7 7 7 7 8 0 8 7 8 7 7 7 8 7 7 q 7 7 7 8 7 7 7 7 8 7 7 8 7 8 7 0 7 8 7 7 5 8 7 8 5 7 7 8 5 5 5 7 7 5 7 7 5 5 8 5 5 7 5 7 7 5 5 7 6 7 5 7 7 7 5 8 8 5 8 6 7 7 5 7 7 5 5 7 7 5 7 7 6 5 7 7 7 5 7 7 5 7 7 7 5 8 7 8 5 5 5 7 7 5 7 8 5 8 6 7 5 7 7 5 7 8 7 7 7 7 7 7 7 7 7 7 8 7 7 7 8 7 7 7 q 7 7 7 7 8 7 8 7 7 7 7 7 7 7 7 7 7 7 7 7 7 7 7 7 7 7 7 7 7 7 7 7 7 7 7 7 7 7 7 7 7 7 7 7 7 7 7 7 7 7 7 7 7 7 7 7 7 7 7 7 7 7 8 7 7 ",
"%.o.+.@.%.o...%.o.%.@.o.%.o.o.o.%.o.o.o.%.o.%.o.o.o.%.o.o.%.o.o.%.o.%.o.o.+.%.o.o.%.o.o.o.%.o.%.o.+.+.o.o.o.o.O.o.o.o.o.o.o.o.o.X.o.o.o.o.X.o.o.o.o.o.o.o.o.o.o.o.o.o.o.o.o.o.o.o.X.o.o.o.o.X.o.o.o.X.o.X.' X.o.o.' X.o.o.` o.' X.o.o.o.X.o.o.X.X.o.o.O.O.X.X.o.O.O.o.X.X.o.X.o.` o.o.X.o.o.X.X.X.o.X.X.X.o.o.X.o.o.X.o.X.X.o.X.X.X.X.X.X.X.X.X.X.o.X.X.X.X.X.X.X.X.X.X.X.X.X.X.X.X.X.X.X.X.X.X.O.X.X.X.X.X.X.X.X.X.X.X.X.X.X.X.` H X.X.X.H X.X.X.X.X.X.` X.X.X.X.X.X.X.X.X.X.X.H X.H X.H X.H X.X.H X.X.X.H H ` H X.X.X.X.H X.X.X.K H X.H H X.X.H X.X.H H X.H X.H X.H H H K H X.H X.V H H X.H X.X.H H H H H H X.H X.V X.H H H H H H V X.H H H X.H H V X.H H H X.H H V H H H H H H X.H H H H H H H H H G G H G H K H G H H G G H H G G H H G F H H B H B B H B H B B H H H B B H G H G G G H G G H G G G G G G G H G H G H G G H H H H G G G F G B H V D G H B G G G G V B G H B G G G B G G B B V B B B G V B B B B B V B B B B B B B G B G B G B B B G B B B G G B G B B G B G G B G B B G B G G B B B B G B B B B G B G B B G B B D n B B B B B B B B B M B B B B B B B B B B B B B B B c c B B c c B B G c B G c G c c B c c c B G c c B c B G c B G G c c B B c c B c B c c c B c c c G G c S c S c S c S S G c S S c S S G c S S c S S c S G c B S c S S S c c c c B c c c c c c c c c c M c c c c c c z c c l c c c c c c B B B c c c k n d o.&.5.w.w.w.e.e.e.w.e.q.e.e.e.q.e.e.e.w.w.w.5...d u n B B c c c c c c A A q A A A c A A A x x x A x x x c k c c x x c c x c x c c x c c c c c x c c c c c x c l c c x c x x c l c l c x c x c x c x c x z l c x c x c x c x z l c x z x c x c A x x x x x x k c x x x x x x S x c x c x A x x c x x A x x x x x x x x x x x x x x x c x x x x A x x x x x A x A x x x A x x x x x x x x x x x A x x A x x A x A x x x A x x x x x x x x x x x x x x l 6 x l x x 8 8 x A 8 8 x 8 x x 8 8 x x 8 x 8 8 x x 8 8 x A x 8 x x 8 8 x x x x x x A 8 x x 8 8 A x 8 x x x 8 x x 8 A x x q x A 8 A q 8 x x 8 8 x x 8 x x 8 x 8 8 x 8 8 x 8 x x 8 x x 8 x x 8 8 8 q 8 8 x A 8 q 8 8 q x 8 x 8 8 8 8 8 8 x x 8 q 8 x 8 8 8 j 6 x j j 6 8 6 x 4 j 8 8 4 x 4 x 8 8 8 8 8 8 8 8 8 6 8 8 8 8 8 x 8 8 6 8 8 6 6 x 6 8 6 8 8 8 8 8 8 l 8 6 x 8 8 0 < < 0 8 l g - a T =.5.w.q.q.q.q.q.q.9.e.9.8.w.e.e.e.q.e.e.e.e.e.e.e.e.e.e.e.e.9.9.9.9.9.e.w.w.5.4.+.n t h x 8 6 8 7 8 8 6 6 6 l 8 l 6 6 8 6 8 8 5 8 8 8 8 8 8 8 8 8 8 7 8 4 8 7 8 8 8 6 8 8 8 8 8 8 8 8 8 8 7 8 7 8 8 8 7 0 8 7 8 7 8 7 q 8 7 7 q 8 7 8 7 q 7 8 7 8 8 7 7 7 q 8 q 7 8 8 7 7 8 8 7 q 7 8 q 7 8 q 7 8 7 8 8 7 8 5 6 7 5 7 7 6 7 5 8 5 8 8 7 6 8 8 5 8 7 8 7 8 5 8 6 7 8 8 5 5 7 8 5 6 7 5 7 5 7 5 7 8 5 8 5 6 7 7 6 5 8 5 8 7 7 7 6 5 8 6 7 8 5 6 7 7 5 5 8 5 8 6 7 6 7 7 5 7 7 7 5 8 7 5 8 5 5 7 7 7 7 8 7 7 7 7 7 7 7 7 7 7 7 7 7 7 7 7 7 7 7 7 7 7 7 7 7 q 7 7 7 7 7 7 7 7 7 8 7 7 7 7 8 7 7 7 7 8 7 7 7 7 8 7 7 7 7 7 7 7 7 7 7 7 7 7 7 7 7 7 7 7 8 7 7 7 7 7 7 7 7 ",
"o.%.%.o.o.%.%.o.@.o.o.%.%.o.' %.o.%.%.o.o.+.o.%.o.o.o.o.+.o.o.o.o.o.%.o.o.o.o.o.o.o.o.o.%.o.o.+.o.O.o.o.o.o.o.o.o.o.o.+.O.+.+.o.o.o.o.o.o.o.X.o.X.o.o.o.o.o.X.X.o.o.o.X.o.o.X.o.o.o.o.` o.o.' X.o.o.o.o.o.o.X.' X.o.o.' o.o.o.X.o.o.X.o.o.X.X.o.o.X.X.o.o.O.X.X.X.o.O.o.X.o.O.X.X.X.o.X.X.X.X.o.X.X.X.X.X.X.X.X.X.X.X.X.O.X.X.X.X.X.X.X.o.` X.X.` X.X.X.X.o.` X.X.X.X.X.X.X.X.X.X.X.X.O.X.X.X.X.X.O.X.X.O.X.X.X.X.X.X.X.X.X.` X.X.X.X.X.X.X.X.X.H X.X.X.X.X.X.H X.X.X.X.X.X.H X.X.X.X.X.X.X.X.H X.H X.H X.X.V X.X.` X.V X.H H X.H X.H X.X.H X.H K H X.H K X.H H H X.H X.H X.X.H H H H H X.H V H H X.H X.X.H X.H X.H H H H X.H H X.H H H X.H H H X.H H H H H H H H H H H H X.H H H H H H V H H V G H D H H H G G D H G H H H H H H H G H H G H G B B H H H H B B H B H B B H H B H B B H G H G H G H H G G H G H G G G G H G G G G G G G G B G G B G G G G B B G G G G D G G G G G G B G B H G G G V G H B V G H B B M B B B B B G B B G B G B B G B G B G B G B B B B G G B B B G B B B G B B B B G B G B B B B B B B B B B B G n B B B c B B B k B B B B B B B B B c B c c B c B c B S B c B c c B B c c G c c c c G B G B c G B B c B G B c c c c B c c B S B S B B c c B c G B c c G c c G c G c S S S c S c c S S c S S c S S c c S c S c S c c S c c c c k c c B c c c c c c B c c c c c c c c c c c z c c c c z c z c c z c c c k k h n m %.=.5.w.w.q.q.e.e.w.w.e.e.e.e.e.e.e.9.w.w.w.w.w.4.+.d a D G S l z c x c x A A A C C C C A x x x x x c c c c B z c c l c l x c c c x x c c l x c z x x c x c x c c c c c x x c l c x z x c x c l c x c x c x c x c l z x c l c x c l c x c x c x x S x c c x c x c x x k c x k x k x x x x k S x c x x x x c k x x c A x x c S x c x A k x c x x x x x A A x x x x x A x x x x A A x x x x x x x x x x x A x x x x x A x x x x x x A x x x x x x x x x x x x x x x 8 A 8 8 x x 8 x x 8 x x 8 8 x 8 x x 8 8 x x 8 8 x 8 x 8 x x 8 x 8 x 8 8 x x 8 8 x x 8 8 8 A 8 8 x x 8 8 A 8 x x 8 8 q 8 8 8 q 8 8 x 8 x 8 A 8 x 8 8 x 8 x x 8 x 8 8 x 8 x 8 8 8 8 8 A 8 x q 8 8 8 x 8 x 8 x q 8 8 8 A x 8 8 8 q 8 x 8 9 8 8 x 8 8 8 8 x 8 j 8 8 8 8 4 8 8 8 8 8 8 8 8 x 8 8 x 8 x 8 8 6 6 8 l 6 8 x 8 l 8 8 8 6 8 8 8 6 6 8 8 8 8 x l l 6 8 8 7 < < 0 8 g h N %.5.w.5.w.e.e.e.q.q.q.9.e.e.e.e.e.e.e.e.e.e.e.e.e.e.e.e.e.e.e.9.9.9.9.9.9.9.9.e.w.w.4.o.m h h g 8 7 7 8 8 8 6 6 l 6 6 l 6 8 8 8 8 8 5 8 5 8 8 8 8 8 8 7 7 4 6 8 8 8 8 6 8 8 8 6 8 8 8 8 8 8 8 8 q 7 7 7 7 8 7 8 7 8 7 8 8 7 8 7 7 8 7 8 q 7 8 7 8 0 7 7 7 q 8 7 7 8 7 7 7 8 8 7 q 7 8 7 7 8 7 7 7 7 8 7 7 8 7 7 8 5 7 7 8 7 7 7 5 5 8 5 5 7 7 5 5 7 7 5 5 5 7 7 5 7 5 5 8 5 8 5 8 5 5 7 8 5 6 7 8 5 5 7 8 5 5 5 5 8 7 6 5 5 8 5 5 8 7 6 6 7 5 7 7 5 6 7 5 5 8 5 7 5 7 7 6 5 8 6 7 5 7 6 7 7 8 5 7 7 7 7 7 7 7 7 8 7 7 7 7 7 7 7 7 7 7 7 7 7 7 7 7 7 7 7 7 7 7 7 7 7 7 8 7 7 7 7 7 7 7 7 7 7 7 7 7 7 7 7 7 7 7 7 7 8 7 7 8 7 7 7 7 8 7 0 7 8 7 7 7 7 7 0 7 7 8 7 7 7 7 7 ",
"%.%.o.%.%.%.o.%.o.o.%.o...%.o.o.o.o.+.o.%.o.o.o.%.+.o.%.o.o.%.%.o.%.o.o.%.o.%.o.o.%.+.%.o.o.o.%.+.o.o.+.o.+.+.o.O.+.o.o.o.o.o.+.o.X.o.o.o.X.o.o.o.o.o.X.X.o.o.' o.X.' o.X.o.X.' ` o.o.o.o.X.o.o.X.o.X.' X.o.o.o.o.o.o.X.o.` o.o.X.X.' o.O.o.o.X.o.o.X.o.X.O.o.o.X.O.X.O.o.X.O.o.X.X.X.X.X.o.X.X.X.o.X.o.X.o.o.X.o.X.X.o.X.X.o.X.X.` o.X.X.X.X.` X.X.o.` X.X.X.X.X.X.X.X.X.X.X.O.X.X.X.X.X.X.X.X.X.X.X.X.X.X.X.X.X.X.O.X.H X.X.X.X.H X.X.X.X.` X.X.X.X.X.X.X.X.X.X.H H ` X.H X.X.X.V X.H X.X.X.X.X.X.X.X.V X.X.H X.H X.H ` X.H ` H X.H H X.H H H X.H H X.X.H H X.K H K X.H H X.H V X.H X.H H X.H H H H V H H V H H H H X.H H X.V H H H H H H H H H H H H X.H H H H X.H H H H H H H H H H H H H H H G H H D H H H G H H G H D H G F J H H G H G H H H B H H B H H H H B H H B H H B H H B H G G V G G G G G H J G G H G G J G H G G H G G G H B G G G G G G G G G H B G G B G G B B G H D B G G G B B B B G B B B B V B B V B B V B B B B B B B G B B B B B B B B G B B G c B B G c G B G B B B G B B B B B B G B G B G B G B B B D B B B B M B B B B B B B B B B B B B c B B B M B B c B c B c B c G c B c c B c B c c c c c B c c c B c c c c G c B c B c c B c c B c c G c B c c G B c B c c B c S c S c S c G c S c G c c S c c G S c S c S c S S c S c S c S c c c c c c c c c c B c c c c c c z c c c c z c c c c c c c c c x k c c k n ( o.5.5.w.e.e.e.e.q.e.e.e.e.9.e.9.9.e.9.e.9.e.9.e.w.5.4.@.d t k c x x c c c c S k Z Z k C C x A x c c x c c c M z c x c c x c c c x x c c x c c c x c x c c x c c x c x x c c z x c x c x c x z x c x z x z x c l c x c x c x c x c x c x c l c x z x x x x x x x x x A x x x x A x x x x S x x x x x x x c x x A x x x k x x x x x x x x x x x k x x x x x x x x x x x x x x x x x x x x x x A x x x x x x x x x x x x x x x x x A x x x x x A x x x x l x x x x 8 x x 8 x x x 8 x 8 8 A 8 8 x x 8 A x 8 x A 8 x x x 8 x 8 A 8 x x 8 A 8 x x 8 x 8 x 8 8 x x x 8 x 8 x 8 x x 8 x 8 q 4 x x 8 A C 8 x x 8 A 8 x 8 x x 6 x 8 6 6 x 8 8 x 8 8 x 8 x 8 q x 8 8 8 8 x 8 x A 8 8 8 8 8 8 q x 8 8 q 8 x 8 x x 8 8 8 8 8 8 8 8 8 8 6 8 8 8 8 x 8 8 8 8 7 q 4 8 8 8 8 8 8 8 8 6 8 8 l x 6 8 8 8 6 8 8 8 8 6 8 8 x 6 8 x 8 8 7 8 8 l l l 8 7 < 0 0 4 2 h N o.5.8.w.w.e.9.q.9.9.9.e.e.e.9.e.e.e.e.e.e.e.e.e.e.e.e.e.e.e.e.e.e.e.9.9.9.9.9.9.e.e.w.5.5.%.b t k 2 7 7 7 7 5 6 6 6 l l l 8 8 7 8 8 8 8 8 8 8 8 8 8 6 8 8 8 8 7 8 8 8 8 7 8 8 7 8 8 7 8 8 7 8 8 8 7 8 7 8 8 0 8 7 8 0 8 7 7 8 7 8 8 7 8 0 7 8 7 8 7 8 7 8 8 7 7 q 8 7 q 7 8 7 7 q 7 8 7 7 q 7 8 8 7 8 7 q 8 7 7 q 6 7 6 7 5 5 7 6 8 7 5 7 7 6 7 6 7 6 5 8 5 8 7 6 6 7 8 7 5 5 8 7 7 5 8 6 7 7 7 5 5 7 7 6 7 5 8 8 7 5 7 7 8 7 5 7 7 5 7 7 7 5 8 7 6 8 5 7 8 7 5 7 5 8 7 6 7 7 5 7 5 8 5 8 5 6 7 7 8 7 7 0 7 7 7 7 7 7 0 7 7 7 7 7 7 7 7 7 7 7 7 7 7 7 7 7 7 7 7 7 7 7 7 7 7 7 8 0 7 7 7 7 7 7 7 7 7 7 7 7 7 7 7 7 7 7 7 7 7 7 7 7 7 7 7 7 7 7 7 7 7 7 7 7 7 7 7 7 7 7 7 7 ",
"o.%.%.o.%.%.o.%.%.%.o.%.o.@.%...o.o.o.o.o.+.o.%.o.o.%.o.%.o.o.o.o.o.o.o.o.o.+.o.o.o.o.%.o.o.%.o.+.o.O.+.o.+.+.o.o.o.o.o.+.+.O.o.' X.o.o.X.o.o.o.o.o.o.o.o.o.o.o.' o.o.X.o.X.o.X.o.o.o.' o.o.` X.o.' o.o.' o.o.X.o.X.o.X.o.o.o.o.o.o.X.o.X.X.o.X.o.X.o.o.O.X.X.O.o.X.o.O.X. .O.X.X.X.X.o.X.X.o.o.X.o.X.o.X.X.X.X.X.X.X.o.X.o.X.X.o.` X.X.X.o.X.o.o.X.X.X.X.X.X.` X.X.O.X.X.X.X.X.X.X.X.X.O.X.X.X.X.X.X.X.X.X.X.X.X.O.X.X.X.X.X.X.X.` ` X.H X.X.X.X.X.H X.` X.X.X.X.X.X.X.X.X.H X.V X.X.V X.X.X.X.H ` X.X.X.H H ` X.V X.V X.X.X.V X.K H H X.H H X.H X.H H X.H H H X.H H X.K X.H H H V H H V H H H H X.H H X.H X.V H X.H X.V H H X.H H X.V H H H H H H H H H H H H H H H H X.H H H H H H H H H V V H G H G G H H G H H H G H H G H H H G H H G G H H B H H B H H B B H H B G H B G G V G G B H H G J H G G J H G G G B G G G H H G J V G G B G G B G G B G B G B H G G G G G B G G B B H B G B F B V B V B G H H B B B B B B B B B B B G B G B B B G B G B B G B G B G B B B B B B B B B B B B G B B B G B B B B B B B G B G B B B B B n J M B B B B B k B B B B B c B B B B c G c c B S B c B S c B c B c c B c B G c c G G c c G G c B c B c c B G c B c G B c B c c B c G c c B c B c c c B c c S S c S S S c S S c c G S c S c c S S S c S c G c S c S S c S c c c c c c c c c c c c M c c z c c c c c c c c c c c c c c c c x A A S Z a f =.w.w.w.e.e.e.e.9.9.e.w.e.e.e.e.e.e.e.e.9.e.e.9.e.w.w.w.5...d k c C l x c c B M n n d u t k k k k c c B c x c S B x c x c c x c z c c c c x c c l c c x c c x c c c x c x c c l c l x c x c l c l c c x c x c x c l c x c x c x c l x c l c l c l c x x c x x x x x x x S x x k c x A x x k A x c x A x x x x c x x x x x S A x x x x x x x x k x x x x x x A x x x x x x x x x x A x A x x x x x x x A x x x x x x x x A x x x x x A x x x x x x x x x x x x x x 6 8 x 8 A x 8 x 8 x 8 x 8 x A 8 x 8 x 8 8 x 8 x 8 8 8 x 8 8 x x 8 A x 8 x x x 8 x 8 x x 8 x 8 x 8 x 8 x 8 A x 8 x 8 x q 8 C 8 8 x A x 8 A 8 x x x 8 x 8 8 8 x 8 x 8 A 8 8 q 8 x x x 8 x 8 8 8 q x 8 8 8 8 x 8 8 x x 8 x 8 8 8 q 8 A 8 8 8 8 x 8 8 8 8 8 8 8 8 8 8 6 8 6 7 8 7 7 7 8 8 4 8 8 8 8 6 8 8 8 x 6 6 6 l 8 8 x 8 8 6 8 x 8 8 8 6 8 8 8 8 8 8 8 x l l 8 8 7 0 0 4 g n *.5.w.9.e.e.e.e.e.e.e.e.e.e.e.e.e.e.e.e.e.e.e.e.e.e.e.e.e.e.e.e.e.e.e.e.e.9.9.9.e.9.e.e.w.w.4.=.( O g 4 q 7 7 7 8 8 6 6 6 8 8 8 3 7 7 7 4 6 7 2 4 6 8 6 7 8 7 8 8 6 7 7 8 7 8 7 8 7 8 7 8 7 8 7 8 7 7 8 7 8 7 8 0 8 7 8 7 0 8 8 8 0 7 8 7 8 7 7 8 7 7 8 7 0 8 8 8 7 0 8 7 8 7 8 7 8 7 7 8 7 7 8 7 0 8 7 7 7 7 7 7 5 7 7 7 7 5 7 6 7 7 5 8 6 7 7 5 7 6 7 5 7 5 8 7 6 7 8 5 7 8 5 7 5 8 7 6 7 7 6 7 8 7 6 5 8 5 5 5 8 6 7 7 5 7 6 7 6 6 7 8 5 7 7 5 8 7 7 5 7 6 7 6 7 7 7 0 7 7 7 7 7 7 7 7 7 7 7 7 7 0 7 8 7 7 7 7 7 8 7 7 7 7 7 7 7 7 7 7 7 7 7 7 7 7 7 7 7 7 7 7 7 7 7 7 7 7 7 7 7 7 7 8 7 7 7 7 7 7 7 7 7 7 7 7 7 7 0 7 7 7 7 7 7 0 7 7 7 7 7 8 7 7 7 7 7 7 7 7 7 8 0 7 7 ",
"o.%.o.%.%...o.%.o.o.%.o.o.o.o.%.o.%.%.o.%.o.o.o.o.%.o.o.+.o.o.%.o.%.o.%.%.o.o.%.%.o.o.o.o.%.o.o.o.o.o.o.o.o.o.o.o.o.o.+.o.o.o.o.o.o.o.o.o.o.o.o.' X.o.o.o.o.X.` X.o.o.o.o.o.' o.o.X.o.X.o.X.o.o.o.X.X.o.X.o.' o.o.o.' o.o.X.X.' ` o.o.o.o.o.o.o.O.o.o.X.o.X.o.O.O.X.o.X.O.X.X.o.X.o.X.X.X.o.X.X.X.X.X.X.X.o.X.o.o.X.X.X.X.X.o.X.X.X.X.X.X.` X.X.X.X.` X.` X.X.o.X.X.X.X.X.X.O.X.X.X.X.X.X.X.X.X.X.X.X.X.X.o.O.X.X.X.X.X.X.X.X.X.X.X.X.X.X.X.X.X.X.X.X.X.X.X.` X.X.H H X.X.X.X.X.X.H X.X.X.X.X.K X.X.H H ` X.X.H X.X.X.H X.V H X.H X.X.H H X.X.H H H X.X.H H X.X.H X.X.H X.H X.H H X.H X.X.H X.H H V H X.H H H H H H H H X.H H H H H H H H H H X.H H X.H H H X.H H X.H H H H V H H H H X.V H H H H H G H H H G H H G H G G H H G G H H G G H H G H H B B H B H G H B B H G H H V H G G H H B B H H G H G H G G G G G G H G G H J G G G G G G F B B D H G G G G G B G H B H B G G H D G G G G G G G B G G G G G V V B V B B V V B B G B B B B B G B B B B B B B B B B B B G B G B B G B G B B B B B G B B B G B G B G B B B B G B B B B B G c B B B B B B B B B B B B c B B B c G G c c G B c c S c c c G B c B S c B c c c B c c c B c B c c G c B c c c c c G c G c c B B c c B S c B G B c B B c c S c c c G c c S S c c S S S S c B c S c S c k c c c k c c c c c c c c c B c B c c c c c c c c z c l c c c c c z c c c c c c A C Z k m %.4.w.w.e.e.e.e.9.9.e.e.e.e.e.e.e.e.e.e.9.e.9.e.e.9.e.e.e.5.=. .u k S c c B h & & s ( ( m ( ( m n v t h z k c c k x A c c x l c c x x c x c x x c c x c x x c l c l c c c c c c c x c c l c l c x c x l c x z l c x c l c l c x z x c z x c x c x c x A k x x x c A k x c x x x A x x c x x x x x x x k x c x x x S x c x x x k x x c x c x S x x x x A x x x x x x x A x x A x x x x x x x x x x x A x x x x x A x x x x x x x A x x x x x x x x A x x x x x l x x x x x x 8 8 x A 8 x x 8 x x 8 x 8 x 8 A x 8 x 8 x x x 8 A x 8 8 x 8 x x 8 8 x A 8 x x 8 A x A 8 x x x 8 x 8 x x 8 A 8 8 x x q x q 8 8 x x A x 8 8 8 8 8 x 8 x q 8 8 8 8 x 8 x 8 8 8 8 q 8 8 x 8 8 x 8 A 8 q 8 8 8 8 8 q 8 8 x 8 x 8 8 8 8 4 8 8 x 8 8 8 8 6 6 6 8 8 8 8 8 7 7 7 7 7 8 8 8 8 8 8 8 l 8 8 l 6 x 8 8 6 8 6 8 6 x 8 6 x 8 6 x 8 8 x 8 7 0 8 6 l 6 x 8 7 0 4 y d +.4.5.w.e.9.e.e.9.e.w.e.e.w.e.e.e.e.e.e.e.e.e.e.e.e.e.e.e.e.e.e.e.e.e.w.w.e.e.e.e.e.9.q.e.e.w.5.5.%.m g 8 4 4 3 7 7 0 8 6 6 6 8 8 7 3 7 8 8 8 8 7 8 8 7 4 8 8 8 8 8 8 7 8 7 8 0 8 7 8 0 8 7 8 8 0 7 8 8 7 7 q 8 7 8 7 8 7 8 7 8 7 7 8 8 0 8 8 7 q 7 8 7 q 8 7 8 7 7 7 8 7 7 7 8 0 8 7 q 7 7 8 8 8 7 8 7 7 7 7 7 7 7 8 8 5 6 7 8 5 6 7 7 6 5 7 8 5 8 5 7 5 8 7 7 5 7 7 7 5 7 6 5 7 8 5 5 7 8 5 7 6 7 5 7 7 7 7 7 8 7 5 7 5 5 8 7 7 7 5 6 7 5 7 6 7 7 5 6 7 8 5 5 7 7 5 7 7 8 7 7 7 7 7 7 7 7 7 7 7 7 8 7 7 7 7 7 7 7 7 7 7 7 7 7 7 7 7 8 7 7 7 8 7 7 7 7 7 7 7 7 7 7 7 7 8 7 7 7 7 7 7 7 7 7 7 7 7 8 7 0 8 7 7 7 8 7 7 7 7 7 7 7 7 8 7 7 7 7 8 7 7 7 7 7 7 7 7 7 7 7 7 7 7 7 7 ",
"%.%.o.%.%.%.%.%.%.@.o.%.%.} o.o.o.o.o.o.o.%.o.%.o.o.+.o.%.o.%.o.%.o.+.o.o.o.%.o.o.%.o.%.o.o.+.o.o.+.o.o.O.o.o.o.+.+.o.o.O.o.+.o.o.X.o.o.o.o.o.O.X.o.X.o.o.X.o.o.o.o.` o.' X.o.o.o.X.o.X.o.o.o.X.o.o.o.o.o.o.X.o.' X.o.o.o.o.o.o.o.o.o.o.o.X.X.o.o.X.X.o.O.O.X.X.o.O.O.X.X.o.X. .X.o.X.o.X.X.X.X.o.X.X.X.o.X.X.X.X.o.X.o.o.X.X.X.X.X.X.X.X.X.' X.` X.X.o.o.X.X.X.X.X.X.X.X.X.O.X.X.X.X.O.X.X.X.X.X.X.O.X.X.X.X.X.X.X.X.X.X.X.X.H X.X.X.X.X.X.X.X.X.X.H X.X.X.X.X.X.X.X.X.X.H X.X.H X.V X.X.X.X.X.X.H X.` H X.H ` H H X.` X.V X.` H H H H H X.H H X.K H H X.H X.H H X.H H K X.H H H X.H H H H H X.H H H H H V X.H H X.H H H X.V X.H H H H X.H H H H H H H H H H H H H H X.H H X.H X.H H H V H V H G H H H G H F H G G H H H G F J D H H G H G H G B H B H H B G H G G H G V G G V H B B H H H H H G G H G G H H G G G G G G H G H H G G G G G B B B H G B G G B B G G D B G G G G G B G G B G B G B G G B G H G B B M V B B B B B B B B B G B G B B B c G B G B B B B G B B B B G G B B B B G B B B B B B B B B B B B B B G B B B B B B M B B B B B B B B B B B c B c B c S B c S c G S c c G S S c G G c c c B c c B B c c B c B c B c c B c c B c c B G G c c c c B B c c S B c B c B c c G B c G c c S S c c S G S c S S c c S c S G c S c S S S S c c S c S c c B c M c c c c c c c c z c z c c c z c c c c z c c z c c k z c A C k d @.4.w.w.e.e.q.e.e.e.e.9.e.e.e.e.e.e.e.e.e.e.e.e.e.e.e.e.e.e.w.5.=.m e k k k v b / %.&.&.5.5.5.5.4.&.%.o.m v t k A A q A x c c c x c x c x x c c x c c x l c c c c c x c c c c x x c c x x z x c x c x c c l c x c x c x c x c x c l c l x c l c x c l c x x x x x x x x x x x x x x x x x c x c x x c x x x x x x x x x x x x x x x x c x x x x x x k x x x x A x x x x x x x x x A x x x x A x A x x x x x x x x x x x x x x x x x x x x x x A x x x x l x x x 8 x l x A 8 x x x x 8 x 8 A 8 x A 8 8 x x x x 8 x x 8 x 8 x x x 8 x x 8 x 8 8 x x 8 8 A 8 x x 8 8 x x 8 8 A 8 x A 8 8 x A 8 q x 8 A 8 8 x 8 x 8 8 x x x 8 x 8 x q 8 8 x 8 x 8 q 8 8 8 x x x 8 x 8 x 8 x 8 q x 8 x 8 x x x x 8 x 8 x 8 x x 8 8 j 8 8 x 8 8 8 8 8 6 x x 8 6 8 8 7 7 7 7 8 7 4 8 8 8 8 8 x 8 8 x 8 8 l l 8 6 8 8 8 8 8 8 8 6 8 8 8 8 8 8 8 8 8 8 l l l 6 8 8 4 j t o.=.w.8.e.9.e.e.e.e.e.e.w.e.e.w.e.w.e.e.e.e.e.e.e.e.e.e.e.e.e.e.e.e.e.e.e.w.w.e.e.e.e.9.q.e.e.w.w.w.5.*.d g 2 8 7 7 7 7 6 8 6 8 8 7 0 3 7 j 4 8 8 8 4 8 8 8 8 7 6 6 8 8 7 q 7 8 8 7 7 q 8 7 8 7 8 7 7 q 7 7 8 7 8 7 7 8 0 8 7 8 7 0 8 7 7 8 7 0 7 7 7 8 8 7 8 7 7 0 8 8 7 8 q 7 7 8 8 8 8 7 0 8 7 0 7 8 7 7 8 4 7 7 7 4 5 7 7 5 6 7 7 7 5 7 7 6 5 7 7 7 7 5 7 6 6 7 8 5 5 8 7 6 6 7 5 7 6 7 5 7 5 7 7 6 6 5 8 6 7 5 7 6 5 8 7 7 5 7 8 8 7 8 5 7 7 5 6 7 8 5 6 7 8 6 7 8 7 7 7 7 7 8 7 7 7 7 7 7 7 7 7 7 7 7 8 7 7 7 7 8 7 7 7 7 0 8 7 7 7 7 7 7 7 7 8 7 7 7 q 7 7 7 7 8 7 7 7 7 7 7 8 7 7 7 7 7 7 7 7 7 7 7 7 7 7 7 7 7 7 8 7 7 7 7 7 7 7 7 7 7 7 7 7 7 8 7 7 7 0 8 7 8 7 7 7 7 ",
"..%.%.o.o.o.%.o.o.%.%.o.o.o.%...o.%.%.o.o.o.o.o.o.%.o.%.o.o.o.o.o.o.o.%.%.o.o.o.+.o.o.o.%.o.o.%.o.o.+.o.o.+.O.+.o.o.O.o.o.o.+.o.o.X.o.o.o.o.o.o.o.o.o.o.o.o.` o.X.` o.o.o.o.X.X.o.' o.o.X.' o.o.o.X.' X.` X.o.o.o.X.o.X.' X.X.o.o.X.' X.O.o.o.X.o.X.o.o.X.o.o.O.X.X.O.o.X.O.o.O.X.X.X.X.X.o.X.o.X.X.o.X.O.X.o.X.X.X.X.X.X.X.X.o.X.` o.X.X.X.X.X.X.X.` X.X.X.X.X.X.X.X.X.X.X.X.X.X.X.X.X.X.X.X.X.X.X.X.X.X.X.X.X.X.X.X.O.X.` X.X.X.H X.X.X.X.X.V X.X.X.` X.H X.X.X.X.H X.X.X.H X.X.X.V X.X.X.H X.X.X.V X.H X.X.` X.` H X.X.X.X.H X.H X.X.X.H K X.H X.X.H X.K H H X.H H X.X.H X.X.H H V X.X.H H H X.H X.V H X.H H V X.H X.H H H H H X.H H H H H H X.H H H X.V H H H H H H H H H H V H H H H H H H F J D H G H J H H H D H G H H H H H G H D H G F V G H H B H G V V H G V G G H G H H B H B H B B G G G G J G G G G G G H J H H G G G B G G G H B G G G G B H D H G G B H G G B G G G H B G G H G V B V B B G V B B B B B B V M B B G B G B B B B B G G B B B B G B G B B G B B B B B B G B B G B B G B G G G c G B G B G c G G B n B n J M B B B B B B M B B B B B B B c G c G c G c c G S c S c c B c c G c c B B c c G c c B c B c B c B S c G c G c c c B c B B c c B B c c B c B c B c c S c c S S G c S S S c S S c S S c B S c S S c G c S c c S c c S c c c c c c c c c c c c c c c c c c c c c c z c c c z c c c c c c c C j n  .4.w.e.e.e.e.e.e.e.e.9.e.e.e.q.e.e.e.q.e.e.e.e.e.e.9.e.e.q.q.w.w.4...d u m v m ..4.5.w.w.w.e.w.w.w.w.5.4.o.( n k x C q q x x x c x c c c c z x c c x c c c c x x x c c x c x x c c l l c c x c x z x z x x c x c l c x z x z x c x c x c c x c x c l c x x c x c S x c x x c x A x c x c x x x x x S x x x S x c c x c x c x A k c x x x c A k x x x x j x x x x x x A x x x x x x x x x x x x x x x x x x x x A x x x x x A x x x x x x x x x x x A x x x 8 x l x l x x 8 x 8 8 8 x x 8 x 8 x 8 8 x 8 x 8 x 8 x x 8 A 8 x 8 x 8 A 8 x x 8 A 8 x 8 x x 8 8 x 8 x x 8 x 8 x 8 x 8 8 x 8 x 8 x 8 8 x 8 8 A x x 8 x x 8 8 x 8 q 8 8 8 x 8 8 8 8 8 x x 8 q 8 8 q 8 8 8 8 q 8 x 8 8 q 8 8 8 q 8 q 8 8 8 8 q 8 8 8 8 8 8 8 8 q 8 6 6 6 6 6 l l 6 6 8 8 q 7 7 4 7 7 8 8 8 8 8 8 8 8 6 8 6 6 x 6 x 8 8 l 8 8 x 6 8 8 8 8 8 l 8 8 8 8 8 8 6 x 6 x x g t  .=.w.w.8.e.w.9.w.e.e.e.e.e.e.e.e.w.e.w.e.e.e.e.e.e.e.e.e.e.e.e.e.e.e.e.e.e.w.e.w.w.e.e.e.9.e.e.q.w.w.w.4. .h , 4 8 3 7 7 8 6 6 l 8 4 7 3 8 4 8 8 8 8 8 8 6 4 8 8 6 8 6 8 8 7 8 7 7 7 8 7 7 8 8 0 7 8 7 7 q 7 7 8 7 q 7 7 8 7 8 7 7 8 8 7 8 7 8 7 8 8 8 0 7 8 7 8 8 7 8 7 q 7 7 8 8 7 7 0 7 8 7 8 8 7 8 7 7 8 7 7 7 8 8 7 7 6 5 8 7 5 8 5 8 5 7 7 7 6 6 7 5 8 5 8 5 7 5 7 7 5 7 7 7 5 8 7 7 7 6 7 8 5 7 7 7 7 5 7 8 8 5 7 7 7 6 6 8 5 5 5 7 5 7 6 6 8 5 7 5 7 7 7 5 7 7 5 7 7 7 7 7 7 7 7 7 8 7 7 7 7 7 7 7 7 7 7 7 7 7 7 7 7 7 7 7 7 8 7 7 7 7 7 7 7 0 7 7 7 7 7 7 7 7 7 7 7 7 7 7 7 7 7 7 7 7 7 7 7 7 7 7 7 7 7 7 7 7 7 7 7 7 7 7 7 7 7 8 7 7 7 7 7 7 7 7 7 7 7 7 7 7 7 7 7 8 7 ",
"%.o.%.%.@.o.%.o.%.o.%.%...%.o.o.o.%.o.o.o.o.+.%.o.o.%.o.o.%.o.%.o.o.%.o.o.o.%.o.o.%.o.+.o.%.o.o.+.o.o.o.+.o.o.o.o.+.o.+.o.o.+.o.o.o.o.X.o.o.o.o.o.X.o.o.` o.o.o.o.o.X.o.' X.o.' o.X.o.X.o.' ` o.o.o.o.X.o.` o.o.o.o.X.' X.' X.o.' o.o.o.o.o.X.o.o.O.o.X.X.O.X.o.O.o.X.o.X.O.X.X.X.o.X.X.o.X.X.X.o.X.o.X.X.X.X.X.X.o.X.o.X.X.X.X.X.X.o.X.X.X.o.X.X.X.X.X.X.X.X.X.O.X.X.X.X.X.X.X.X.X.X.X.X.X.X.O.X.O.X.X.X.O.X.X.X.X.X.X.X.X.X.X.X.H X.X.X.X.` H X.X.X.X.X.X.X.X.V X.X.X.X.H ` H X.X.H X.X.X.X.X.` H ` X.X.X.` H X.V V X.H H X.H K X.H H H X.X.H H H X.H X.H H X.K H K X.H X.H H H X.V H H X.V H X.H X.H X.H X.V H H X.H X.H X.H H H H H H H H H H H H H H H H H H H X.V H H H H H H X.H V H H V H G H G H H G H H G D K H H G H H H G H H H H V G G V G G V G G G H G H G V H G B H H B H B B H G H G G H G H G H H G G H G G G G G B D G G G G G G G H G G G G B H G G G B V G G G G G B H G G G V B G B V B B B V B B V B B V B B G B G B G B B B B B B B G B G B B B G B B B B B G c G B B G B B B B B G B B B B G B B B B B B B k B k B B c B c B B B B B B B B c B G c G G S G S S S c S c B c c B c B c c c c B c B c B c c c B c B c B c c c B c c B c S c B c c c c B c c B c B G c c B S S c G S c G c S c c S c G c S S c S c S c S c c c S c c S k c c c c c c c B c c c c c c c z c c c z c c z c c c c c z c c z c S v m $.5.e.8.9.9.q.e.e.e.e.w.9.e.e.q.e.q.e.e.e.e.q.e.e.e.9.e.q.e.q.w.w.5.=.T p U ' &.5.5.w.w.w.q.q.w.q.q.e.w.w.5.=.( d k x A 8 x x c x l c c x c x x c c x c c c x c c l c c x x c c x x c x x x c x c x c l c z x c l c l c x c l c l c x c x l c l c x c x c x S x c x x c x x c x k x x x x c x A k x x x c x x c x x x k x x x x x c x x x x x x k A x x x x x A x x x x x x x x x x x x x A x x x x x x x x x x x x x x A x x A x x x x A x x x x x x x x x x l x x x x l x x 8 x x 8 x x x 8 8 A x x 8 x 8 x 8 A x 8 x 8 x 8 8 x x 8 x 8 x x x x 8 x 8 x A 8 x 8 x x 8 x x 8 x A x x 8 x x 8 A C 8 8 x q 8 x 8 x 8 x 8 8 8 x 8 x 8 q 8 q q x q x 8 8 x 8 q 8 8 8 x 8 x 8 8 x 8 8 8 x x q q 8 8 8 x 8 x 8 8 8 8 8 8 j 8 8 8 x l x l l z l x x x 8 8 8 8 7 q 0 8 8 8 8 8 8 8 6 8 x x x l 6 6 8 8 8 x 8 8 8 6 8 8 8 8 8 8 8 8 8 8 8 8 8 6 l k # b #.5.w.9.9.9.w.w.e.e.e.e.e.e.e.e.e.e.w.w.e.e.e.e.e.e.e.e.e.e.e.e.e.e.e.e.e.e.e.e.w.e.e.9.e.9.e.e.q.e.w.w.w.=.V t r j 7 5 4 8 6 6 6 8 8 7 3 7 6 4 8 g 8 6 6 8 6 8 6 6 8 6 6 8 7 7 8 7 8 7 8 7 8 7 8 7 8 7 8 7 8 7 8 8 q 7 8 7 8 7 8 q 7 7 8 7 q 8 7 7 q 7 7 7 7 8 0 7 8 8 7 7 8 7 8 7 0 7 8 7 7 7 7 7 8 3 8 4 7 5 8 7 7 7 7 7 6 5 8 7 5 7 6 6 7 7 5 7 6 5 8 7 7 6 7 7 8 5 7 6 7 6 7 7 5 7 6 5 7 7 5 8 5 8 5 7 5 7 7 5 8 5 7 7 7 5 7 7 5 7 7 6 7 8 5 7 8 5 7 7 5 8 6 6 7 7 7 7 7 7 7 7 7 7 7 7 7 7 8 7 7 7 8 7 7 7 7 7 7 7 7 7 7 7 7 7 7 7 7 7 7 7 7 7 7 7 7 7 7 7 7 7 7 7 7 8 7 7 7 7 7 7 7 7 0 8 7 7 7 0 7 7 7 7 7 7 7 7 7 7 7 7 7 7 7 7 7 7 7 7 7 7 7 8 7 7 7 7 7 7 7 7 7 7 7 7 7 ",
"%.%.o.o.o.%.%.%.+.@.o.%.o.o.%.} o.o.+.%.%.o.o.o.o.%.o.o.o.o.o.o.o.%.o.o.o.%.o.o.o.o.%.o.o.o.o.%.O.o.o.+.o.o.+.o.o.o.o.o.+.o.+.o.X.o.o.o.o.X.o.o.o.o.o.o.o.o.X.o.X.' o.o.o.o.o.X.' o.o.o.X.o.o.o.o.X.' o.o.o.o.X.X.o.o.o.o.o.o.o.o.X.o.X.X.o.o.X.o.X.X.o.o.o.X.O.O.X.O.X.o.X.o.X.X.X.o.X.X.X.X.o.X.X.X.X.o.X.o.X.X.X.X.X.X.o.X.o.X.` ` X.X.X.` X.o.` X.X.X.X.o.` X.X.X.X.X.X.X.X.X.o.X.X.O.X.X.X.X.X.X.X.X.X.X.X.X.X.X.X.X.X.X.X.X.X.X.` X.X.X.X.X.H X.X.X.X.X.H X.X.H X.X.X.X.X.H X.X.H X.X.H X.H X.X.H H X.H X.X.X.X.X.X.` ` X.H X.X.H X.H H H X.H H X.H H X.K H X.H X.X.H X.H H V X.H H H X.H V H H H H H H H H X.V H H H V H H H X.H H H X.H H H X.H X.H H H H X.H H H H H H H H H H H V H V H H G H G H H G G H H H H G G F D H H G B B G D H G G H H G G H G G G V G G G V H B H B H H H H G G G H G G G G J G G G J G G H G G V G G H D B B G G B G G B H B G G B G G D G F B G G B G B G B B B B V B B B B B B V B B B B G c B B B B B B B G B G B G B B B B B G B B G B B G B B G B B B G B G B B B G B B G B B G B G B k G G n G G B B M B B B B B B B c B G c c G S c c c G c c S c S c c G c G c B B G c c B c c c G G c B S c c c B B G c B B c c B B c S B B B c B B c G c c B B c c S S c c S c S c S G c S c S c S c c S c S c S G c c c c c S S c c c c c c c c c B c c c c x c c c c c c c c k c c c c c c c c V m %.5.w.e.9.9.e.e.e.e.e.e.e.e.e.e.e.e.e.e.e.e.e.e.e.e.e.e.e.e.e.q.9.w.5.5.#.I #.4.w.w.w.e.w.e.e.e.e.e.e.e.e.e.w.5.*.m h c A x c c c c c c x c x z c c l c c x x c c x c c x c c l c x k x x c c l c l c z c x c c x c x c l c x c x c l c l c c x c x c x c l x x x x x x x x x x x x k x c x x x x x k A x x x A x x c x A x c x x c x x c x c x x x x x x x x x x x A x x x x x A x x x x A x x x x x x x x x A x x x x x x x x x x x x x x x A x x A x x A l 6 x x l x x 8 8 A x 8 x x 8 8 8 x x 8 x 8 x 8 x x x 8 x A 8 x 8 A A 8 8 x x 8 x 8 8 x x 8 x x 8 x x x 8 x A 8 8 x 8 8 x 8 A 8 q 8 8 8 A A 8 8 x 8 8 x x 8 x x q 8 8 8 x 8 x 8 8 8 8 x x 8 8 q 8 x 8 x 8 q x 8 q 8 8 x 8 8 8 8 8 x 8 A 8 q x 8 8 8 4 8 8 8 8 8 8 l l g l l l g g g l j 8 j 4 7 8 8 7 8 8 8 8 8 x 8 8 8 l 6 l 8 x 8 8 8 6 6 8 x x 6 8 8 8 8 8 x x 8 8 8 8 8 j l - v %.5.w.e.9.9.e.e.9.9.e.e.e.e.e.e.e.e.e.e.e.e.e.e.e.e.e.e.e.e.e.e.e.e.e.e.e.e.e.e.e.e.e.w.e.e.9.e.e.9.e.e.e.w.5.%.b t g 8 7 5 6 6 l l 8 4 8 4 4 6 6 2 8 6 6 6 6 j 8 6 8 8 x 6 8 7 8 7 8 0 7 8 8 0 8 7 q 7 8 7 7 7 8 0 7 7 8 7 8 7 8 0 7 8 7 7 8 7 7 8 8 7 7 8 8 8 7 8 8 7 7 8 7 7 8 7 8 8 7 8 7 8 8 7 3 7 7 8 8 5 8 3 7 7 8 7 5 7 7 5 5 8 7 7 7 5 5 8 5 7 7 5 6 7 5 7 5 7 7 6 5 7 7 5 5 8 7 6 5 8 7 6 6 7 5 7 6 8 5 6 5 7 7 6 6 7 8 5 6 8 5 6 7 7 5 7 7 5 5 8 7 6 5 7 7 5 8 7 7 7 8 7 7 7 7 8 7 7 7 7 7 7 7 7 7 7 7 7 7 7 7 8 7 7 7 7 7 7 7 7 7 7 0 7 7 7 7 7 7 7 7 7 7 7 7 7 0 7 7 7 7 7 7 7 7 7 7 7 7 7 8 7 8 7 7 7 7 7 7 7 7 7 8 7 7 7 7 q 7 7 7 7 7 7 7 7 7 7 7 7 7 7 7 7 7 7 7 7 ",
"..%.o.%.%.o.o.%.%.o.o.%.%.o.%.o.o.%.o.o.o.%.o.%.o.o.o.%.%.o.o.o.o.o.+.o.o.o.o.+.o.o.o.o.o.o.o.o.o.o.o.+.o.O.o.+.+.O.O.o.o.+.O.o.o.o.o.o.o.o.X.o.o.o.X.o.X.o.o.o.o.X.o.o.o.' o.o.X.o.X.` o.o.' o.X.o.o.o.o.X.o.o.o.' o.X.o.o.o.X.X.o.o.' O.o.o.X.X.o.o.X.O.X.O.X.X.o.O.o.X. .X.O.X.X.X.X.o.X.o.X.X.X.o.X.X.X.X.o.X.o.o.X.o.X.X.X.X.X.` X.` X.X.X.X.X.o.` o.` X.` X.X.X.O.X.O.X.X.X.X.O.X.X.X.X.X.X.X.X.X.O.X.X.X.X.X.X.X.X.X.X.H X.X.X.X.X.X.X.X.X.X.X.X.X.X.X.` H X.H X.X.X.X.X.X.X.V X.H X.X.X.H X.V ` H X.X.V H X.` H V X.H X.X.H H H K H H X.X.K H X.H X.X.H X.X.H H K X.H H H H H H H H H H H H X.V H X.X.H H H X.H H H H X.H H H H H H V H H H H K H H H H V H H H H H H H H H H H H H V H F H H H H G G H H G H G G H H G G H F B F B H G H G G V V G G G H V G G H B H G H B H H B H H B G G G G H G G H G G G G H G G G G B B B G G H G G G G G B H G B G G B G G H G G G G G B G D V G B G B V B V B B B B B B B B B B B G B B B B G B G B B B B B B B G B G B G B B B B B B B B G B G B B B G B B B B B B B B B B M G G B B B B B B B B B B B B B B B B c S c S c c G S G S S c S G S c G G c c c B c c B G c c B S c B c c B c B B c c G c c c B B c G c c G c B c S G c c c c c c B S c c S c S c G S c c S S c S c S G c S G S c S c S S c c S c c c c c B c c c c c c c c c c c c z c c c c c c c c c c c c c c M N ' 4.w.e.9.9.9.9.e.e.e.e.e.e.e.e.e.e.9.e.e.e.e.w.e.e.e.e.e.e.e.e.e.e.w.w.w.1.>.w.w.w.w.e.e.e.e.e.w.e.e.9.9.9.9.e.w.5.*._ z c x x c x c c x x c c c c x x c x c x c x c c x x c x c l c c c c x x c x c x x c x x x c x c x c x c l c x c x l c l x x z x c k x x k x x x c k A x c x x x A x c x x x x x c x c x k x x x x S x x k A x S x k x x c x c x x x x x A x x x x x x x x x x x x x x x x x x A x x A x x x x A x x x x x x x x x x x x x x x x x x x x 6 x 8 l x x x x 8 8 x 8 A 8 x x x 8 x x 8 x 8 x 8 x x 8 x 8 x x x 8 x x x 8 x 8 A x 8 8 8 x 8 x x 8 x x 8 8 A x x 8 x x 8 x 8 8 x A 8 8 x 8 x x x A 8 x x x 8 x 8 x x 8 8 q 8 8 q x 8 8 x 8 8 x 8 8 q 8 A 8 q 8 x 8 8 q x x 8 x 8 8 8 8 x 8 q 8 8 8 6 8 8 8 8 g j g j h g g = z z l g g j 8 x q 8 q 8 8 8 8 x 6 8 8 8 6 l 8 l x 6 8 8 8 8 8 8 8 8 l 8 8 8 8 8 8 8 7 4 8 8 x z - _ 4.w.w.9.9.9.9.e.e.e.e.e.e.e.e.9.e.e.e.9.e.9.e.e.e.e.e.e.e.e.e.e.e.e.e.e.e.e.9.9.9.e.9.8.w.w.e.9.e.e.e.e.e.w.w.4.+.v g 8 8 8 5 6 l l l 6 4 5 4 l 6 l 4 l 6 6 6 l l l 6 l 6 8 8 7 8 8 7 7 8 7 8 8 7 8 7 7 8 7 q 7 8 8 8 7 7 7 q 7 7 8 8 7 7 q 7 7 0 8 7 8 8 7 8 0 8 7 7 8 8 7 8 8 0 8 7 7 q 7 7 7 3 7 8 7 8 7 7 8 7 7 7 7 7 7 8 5 8 5 5 5 5 8 7 8 7 7 8 5 8 5 5 7 8 5 7 6 7 5 8 6 7 8 7 7 5 7 7 7 5 7 7 8 5 7 7 7 5 7 7 6 7 5 8 5 6 7 7 7 5 7 7 6 7 6 5 5 5 8 5 7 7 6 5 8 7 8 7 7 7 7 7 7 7 7 7 7 7 7 7 7 7 7 7 7 7 7 7 7 7 0 7 7 7 7 7 7 7 8 7 7 8 7 7 7 8 7 7 7 7 8 7 0 7 8 7 7 7 7 7 7 7 7 7 7 7 7 7 7 7 7 7 7 7 7 7 q 7 7 7 7 7 7 7 7 7 7 7 7 7 7 7 7 7 0 7 7 7 7 7 7 7 7 7 7 7 7 ",
"%.o.%.%...%.%.o.o.%.%.%.' %.o.%.o.o.%.o.o.o.o.o.%.o.o.o.+.o.%.o.o.%.o.%.o.%.%.o.%.o.%.o.%.o.%.o.+.o.O.o.o.+.o.o.o.o.o.+.o.o.o.o.o.X.o.o.o.X.o.o.o.o.` o.' o.X.o.o.o.o.` X.o.X.o.o.o.o.o.o.X.o.X.o.' X.' o.o.o.` X.o.o.' o.X.' o.X.o.o.X.o.o.X.o.o.o.X.o.O.o.o.X.o.X.X.O.X.O.o.X.o.X.o.X.X.X.X.X.X.o.X.X.o.X.X.X.X.X.X.X.X.X.X.o.o.X.X.X.X.o.X.` o.X.X.X.X.X.X.X.X.X.X.X.X.X.X.X.X.X.X.X.X.X.X.X.X.X.X.X.X.X.X.X.O.X.X.X.X.V ` X.X.X.X.X.H X.X.X.X.X.` X.X.H X.X.X.X.X.X.X.H X.H X.X.X.X.X.X.X.H X.V X.H X.X.X.X.X.V X.H X.X.V X.H H X.X.H X.X.H H H X.H X.H H X.H H H X.X.H X.H X.H X.H X.V X.H H X.H H H H H H H H H H V X.H V X.H H H X.H H H H H H H H H H H H H H H H X.H X.H X.H H V H H H G G H G G F H G H H H G H H G H H H B H G H G V B G H G H B H H B H G H G H B H B H H B H B B H J H G H J G G G H G G H G G G H G B G G G H G B G V D G B G D B G G F G G B B G G B G G G G G G B V B B B V B M B V B B N B B V B B G B G B B B B B B G B G B G B B B B c G G B B G B G B B B B B B B B G B G B B G B B G B J B B B n B B B B B B B B B B c B B S G c G G c G c S S G S S c S c B c c B c B c B S c B c B c B B c c B c B S c B c c G c B c c B c B c c B c B c c B c B G c B c c S c S S c S S c S S c S G c S c c B c S c S S c S k c c B c c c c c c c c c c c z c c c c c c c c c c z c c c x c c x c c c M U #.w.w.w.9.9.9.9.e.w.e.e.e.e.e.e.e.e.e.e.e.e.e.e.e.e.w.w.9.e.e.e.e.e.e.w.w.w.e.w.e.e.e.e.e.e.e.e.w.e.9.9.e.9.9.q.e.w.5.} v z G z c x c x c c x c x x c c l c c c x c x c x c x c l c x x x x x x x z x c c l c l c l c x z x c x c l c l c x c c c x c c x x c x A c x x x x x x x c x c x A x x c c x x x x x x x c x c x x x x x x x x x x A x x x x x x k x x x x x x x x A x x x x A x x x 8 A x x x x x x x x x A x x x x A x x x x A x x x x x A x x x x l x l x 8 x x l 8 x x 8 x 8 A 8 x 8 x 8 x x 8 A 8 A 8 8 x 8 x 8 8 x x 8 x 8 A 8 x 8 8 x A x 8 x 8 8 A 8 8 x x 8 x 8 x 8 x x 8 x x q 8 8 C 8 A 8 8 8 8 x 8 x 8 x 8 8 8 q 8 x 8 x x 8 8 8 q 8 8 x 8 x x 8 8 8 8 8 8 8 A 8 x 8 8 8 x 8 x 8 8 8 8 x l l j j j r k h B m X.X.X.o.o.X.` V N h h t t j x q 8 4 8 8 8 8 8 6 l l l x 8 8 8 8 8 8 8 8 8 8 8 8 8 8 8 8 8 8 8 8 8 8 8 8 x j v &.w.w.q.9.9.9.9.e.e.9.e.e.e.9.e.e.e.9.e.e.e.9.e.e.e.e.e.e.e.e.e.e.e.e.e.e.e.e.e.q.e.9.e.e.9.e.e.e.q.e.e.9.9.w.w.w.&.m r j 8 6 6 l l l z j j y g h h j h h h h k g j l l l l 4 8 7 7 0 7 8 7 q 7 7 8 0 7 8 7 q 8 7 7 7 7 8 7 q 7 8 7 7 8 7 8 7 7 8 7 8 7 7 8 0 7 7 7 8 0 8 8 8 8 7 8 7 8 7 7 8 7 8 8 7 7 7 7 7 7 7 7 7 7 8 7 8 7 7 7 5 8 8 7 5 5 7 6 6 7 7 7 5 8 7 6 7 7 6 7 8 5 7 7 5 6 7 8 5 6 7 8 5 7 5 7 6 7 6 8 5 7 7 5 8 5 7 7 5 8 5 8 7 5 7 7 5 8 8 7 5 8 5 7 7 7 5 7 7 7 7 7 7 7 7 7 8 0 7 7 7 7 7 7 7 7 7 8 7 7 7 7 7 7 7 7 8 7 7 7 7 7 7 7 7 7 7 7 7 7 7 7 7 7 7 7 7 7 7 7 7 8 7 7 7 8 7 7 7 7 7 7 7 7 7 7 7 7 7 7 7 7 7 7 7 7 7 7 7 8 7 7 7 7 7 7 7 7 8 7 7 7 8 7 7 7 7 7 8 ",
"%.o.%.%.%.o.%.%.o.%.%.%.o.' %.o.%.o.o.o.o.o.%.o.o.o.o.o.o.o.+.o.%.o.o.o.+.o.o.o.o.o.+.o.o.o.o.o.o.o.o.+.o.o.+.+.o.o.O.o.o.o.O.o.o.o.X.o.o.o.X.o.o.o.o.X.o.` o.o.o.` X.o.o.o.' o.o.o.o.X.X.o.X.' X.X.o.o.X.o.o.o.o.` o.X.o.` o.o.o.X.o.X.o.o.X.o.X.X.o.X.X.o.O.O.o.X.X.X.X.o.X.o.o.X.o.X.o.X.X.X.o.X.o.X.o.X.X.X.X.X.X.o.X.X.X.X.X.X.o.X.X.X.X.X.o.X.X.X.X.` X.o.X.X.X.O.X.X.O.X.X.X.X.X.X.X.X.X.X.X.X.O.X.X.X.X.X.X.V X.X.X.X.X.X.X.X.X.X.H X.X.X.X.X.` X.X.X.X.X.X.X.X.X.X.H X.H X.H X.X.X.X.V ` X.V X.X.` H V X.X.X.X.V V X.H X.H X.X.H H H X.H K X.H X.H H K H X.X.H X.H X.H X.H X.H X.H X.H H H H H H H H H H H H H H H X.H H H H H H H V H H H J H H H H H H H H H H H H X.H V V H V H X.H H G H H H G H H G H G H G G H D H G G G H G G B H H G G G H G G H G G H H G G V G V H G G V H G H G H G H G J G H G G G H G G H G B G G B H B G G H G B G G G G B G G G G G G H G G G G B G G B H V G B B B B B B B B M B B B B B B B B B G G B B B B B B B G B B B B B B B B B G B c G B G B G G B G B G B B B B B B G B G B B S G B c B B B B B B B c B S B c B c S c G c G S c B c c B c B c G c c B c G c c c B c c B c B c B c B c S B c B c B c c B c B c B c G c c B c G c G c c B c G c G c S c S S c G c G c c S c S c B B B c c S S S A S A S A c c c c c c c c c c c c x c c c x c c c c M c c c z x x C A A x c c v ] 5.w.w.9.e.9.e.e.e.w.e.e.e.e.e.e.e.e.e.e.e.e.e.e.e.e.e.e.e.e.e.e.e.e.e.w.e.e.e.w.e.q.e.e.e.e.e.e.e.e.e.e.e.9.e.9.e.e.w.4.( t Z c z k x c c c A x c x c c x c c x x x x A A x A x x c x x x x C x c x x c x c x x c l c c l c x c x x x x x x k x x x x x k c x x x x x x x x x x x x c x c x x x x x x x c c x x x x x c x x x x c x A x x x x x x x x x x x x x x x A x x x x x x x x x A x x x x x x A x x x x x x x x x x x x x x x A x x x x x A x x x x x 8 8 x x 8 x x x 8 x x x 8 A 8 x 8 A 8 8 x 8 x 8 x A 8 x x x 8 x 8 x 8 x 8 A 8 x A 8 x 8 x 8 x x x 8 x x x 8 x x 8 x 8 A 8 x x 8 8 x 8 8 x 8 x 8 A 8 x x 8 x 8 8 x 6 x 8 x 8 x 8 8 8 x 8 8 8 x 6 x 8 8 8 8 0 8 7 q 4 8 4 x 8 x 8 8 x x 8 x 8 x g o @ a b ( %.=.4.5.5.5.5.5.w.5.w.5.5.5.5.=...U $ t z z 6 3 q 0 7 8 l l l l l 8 x 4 8 q 8 8 0 7 4 8 7 7 7 7 7 0 8 8 x 7 A 4 x j y o.5.w.q.q.e.e.w.e.e.e.e.e.e.e.e.e.e.e.e.e.e.e.e.e.e.e.e.e.e.e.e.e.e.e.e.e.e.e.e.e.e.e.e.e.e.e.e.e.e.e.e.e.e.e.e.w.5.4.+.n r 4 2 g = - # & f  .+.*.=.=.=.=.=.=.*.' ( d t y j r 2 8 0 7 7 7 7 7 7 8 8 8 8 7 5 5 8 0 7 7 7 7 8 8 8 8 6 8 7 5 7 7 7 5 8 7 7 < 7 7 0 0 7 3 7 7 4 8 8 8 8 7 8 8 8 8 7 7 7 7 7 7 7 7 7 7 7 7 7 5 8 6 8 5 6 6 6 7 7 7 7 5 8 5 6 7 5 7 5 8 6 7 7 5 7 7 5 6 7 5 7 5 8 7 6 7 6 8 5 7 5 7 7 7 7 7 7 7 8 7 7 7 0 7 7 7 7 7 8 7 7 7 8 7 7 7 7 7 7 7 7 7 7 0 8 7 7 7 7 8 7 7 7 7 8 7 7 7 7 7 7 7 7 7 7 7 8 7 7 7 7 7 7 7 7 7 7 7 7 7 7 7 8 7 7 7 7 7 7 7 7 7 7 7 7 7 7 7 7 7 7 7 7 7 7 7 7 7 7 7 8 7 0 8 7 7 7 7 7 7 7 7 7 7 7 7 7 7 7 7 7 7 7 7 8 7 7 7 7 7 7 7 7 7 7 ",
"o.%.%.o.o.%.%.o.o.%.o.%.o.%.o.%.o.o.o.%.o.%.o.o.o.%.o.%.%.o.%.o.o.o.%.o.%.o.%.o.o.%.o.%.o.%.o.%.o.+.o.O.O.o.o.o.O.+.o.o.+.o.o. .o.o.o.o.o.X.o.o.o.o.o.o.o.o.o.X.o.o.o.o.X.X.o.X.' X.o.' o.o.o.o.o.o.X.' ' o.o.X.o.o.o.X.o.o.o.X.o.X.' o.o.X.o.o.o.o.o.o.O.X.X.o.O.O.o.O.X.X.X.X.X.X.X.X.X.X.o.X.X.X.X.X.X.X.X.o.X.o.X.X.X.o.X.o.X.X.` X.' X.X.X.` X.X.X.X.o.X.X.X.X.X.X.X.X.X.X.X.O.X.X.X.X.X.X.X.X.X.X.X.X.X.X.X.X.X.X.X.X.V X.X.X.X.` X.X.X.X.X.X.X.H V X.X.X.X.H X.H V X.X.X.X.X.X.X.V V X.X.H X.V X.H X.X.X.X.H V X.X.X.` X.H H H H K X.H X.X.H H X.H X.X.H H H K X.V H H H V H H H H H V H H H H K H H H J H H H H H H H H H H H H X.X.X.H H H K H K H H H H V H X.H H H H H H V H H H H H G H H G G F G H H G H H H H H H H H V G G V H G V G B H V G G V G G V G B G H G H G G G G H B G G G G G G G H G G G H J G G G G G F G G G G H B G B G G G B B H G H B G G B G B G G B G H G G G B B V B B V N B B V B V V B B V G B G B G c B B B G B G B G B B B G B G G B G B B B G B B B B B B B B B B B B G B G B B B B G B G k B B B B B M B B B B c G c G S G G c c G G c B c S B c B c B B c c B B c c B B S B c c B c c c B c B B c c c B S B c c B c c B S c B B c c c B c c B B S c B S S c S c S S c S c S S c S c B c B c B B c S A S A S c c c c c c c c c c c c c c c c c c c c z z c z c c c c S A A A A S S c b #.q.e.w.w.e.e.w.9.e.e.e.e.e.e.q.e.e.e.e.e.e.e.e.e.e.e.e.e.e.e.e.e.e.e.e.e.e.e.e.e.e.e.e.e.e.e.e.e.e.e.e.e.e.e.e.q.e.q.q.w.%.e Z c c c c x x A x x S A c c c z c k x x x A x A x l z c x x x x x x x k x x c l c c l c x x c l c c x c x c x x x c x c x x A x x x c x c c x S x x c x x x x S x A k c x x x x x x c x S x x x c x x x k x c x c c k x x c x k x x x x x A x x x x A x x x x x x x x x x x x x x A x x x x x x A x x x x x x x x x x x x x x x 8 x 8 x 8 x x 8 A x 8 8 x x 8 8 x x 8 x x x x 8 x x 8 x 8 8 x A 8 x 8 A 8 x 8 x x x x 8 x 8 x 8 8 8 x A 8 8 A 8 x A 8 x x x 8 8 x A 8 x x 8 x 8 x 8 x x 8 x 8 8 x 8 x 8 8 8 x 6 x x x 6 x x x 8 x x x x 8 8 0 8 q q 8 4 x x x x 8 8 8 8 8 l x k r v m o.=.4.w.8.w.8.8.e.e.w.w.e.w.w.w.w.w.w.5.1.4.' M @ j 4 3 3 8 8 l l l l l 4 4 5 7 7 7 7 7 8 8 8 q 8 q 8 7 q 7 8 8 6 8 4 x r u +.5.e.q.q.e.w.w.e.e.e.e.e.e.e.e.e.e.e.e.e.e.e.e.e.e.e.e.e.e.e.e.e.e.e.e.e.e.e.e.e.e.e.e.e.e.e.e.e.e.e.e.e.e.e.e.w.w.5.=.F w X y t b ' =.4.4.<.1.5.w.w.w.w.w.w.w.5.5.=.*.o.m t r 4 5 q 8 8 3 8 7 7 8 0 7 4 q 8 8 7 0 < 7 7 8 6 5 6 8 6 8 8 8 7 7 6 6 7 8 7 7 7 3 7 0 7 0 8 q 8 8 8 q 7 7 8 7 7 7 7 7 7 7 7 7 7 7 3 7 7 < 7 5 7 6 5 6 6 5 7 5 7 7 5 8 7 7 5 8 7 6 5 7 8 5 8 5 6 7 7 5 8 7 7 5 7 7 7 7 5 7 6 8 5 6 7 7 7 7 7 7 7 7 7 7 7 7 7 7 7 7 7 7 7 0 7 7 8 7 7 7 7 7 7 7 7 7 7 7 0 7 7 7 7 7 7 7 7 7 0 7 7 7 7 7 7 7 7 7 7 7 7 8 7 7 7 7 7 7 7 7 7 7 7 7 7 7 8 7 7 7 7 7 7 7 7 7 7 7 8 7 7 7 7 0 7 8 7 7 8 7 7 7 7 7 7 7 7 7 7 7 7 7 7 7 7 7 7 7 7 7 7 7 7 8 7 7 7 7 7 7 7 7 7 7 7 7 ",
"%.o.%.o.o.%.%.o.%.%.o.o.' %.%.' o.%.%.o.o.o.+.o.%.o.+.o.o.o.o.%.o.+.o.%.o.o.o.%.%.o.o.o.%.o.o.+.o.+.o.o.+.o.o.o.o.o.+.+.o.o.o.o.X.o.o.X.o.o.X.o.o.X.X.o.o.` o.o.o.X.o.` o.' o.o.X.o.o.o.' o.X.o.X.' o.o.X.o.' o.o.o.X.' X.o.o.' o.o.o.X.X.X.o.X.o.o.O.o.X.o.O.o.X.o.X.o.X.o.X.X.X.X.o.X.X.X.X.o.X.X.o.X.o.X.o.X.X.o.X.o.X.X.X.X.X.X.X.X.X.X.X.X.o.X.' X.` X.X.o.X.X.X.X.X.X.X.X.X.X.X.X.X.O.X.X.X.X.X.X.O.X.X.X.X.` X.` X.X.X.X.X.H ` X.X.X.X.V X.X.X.X.X.X.X.X.H X.X.X.X.X.H X.X.X.X.X.X.H V X.` X.X.X.X.V X.V ` H X.X.H X.H X.H X.X.H X.X.H H X.H H X.H H H K X.H H H H H X.V H H X.H H H X.H H  .X.H K H H H H H H H X.H X.V H H H H V ` H H H H H H H H H H H H H H X.H H H V V V H V H H V H H G H G H H G H H H G G H H G G B B H G V G V B H H B B H H B H B V G H V H G G G G V H G G H H J G H G G G G G G G G G H G G G B B G B G G D G B G G H G G B G G B G D V G G B H V G G B G G B G G B B B B B B V B B B B B B B B B G B B B B G B B B B B B B G B B B c G B G B B B B B G B B B B G B B B B G B c G G B B B B B B B B B M B B B B B c S c c S B c G G G c c G G c B c c B c c c S B c c B G c B c c G G B c G G B c c c c B c B c c G G B c G c B c c c B B c c B B c c B c c c S c G S c c S c S S c S S c S B c B S c S c S S k c c c c c c c c c c c c c c c c c c c c c c c c z c c c x k C S j j S k k N 3.w.e.e.e.e.w.e.e.w.e.e.e.e.e.e.e.e.e.e.e.e.e.e.e.e.e.e.e.e.e.e.e.e.e.e.e.e.e.e.e.q.e.e.e.e.e.e.9.e.e.e.e.e.w.9.9.e.q.q.w.=.n j x c x x x x x x A x x c x x k c c z c c x c c c z c c z c z c x x x x x c x c x x c x c c c c x l x x x x c x c x x x c x x x x k x x x x x x x x A x c x x x x x x x x x x x x x x x x c x A k x c x x c x x A x x x x x x x j A x x x x x x A x x x A x x x x x A x x x x A x x x x x x x x x A x x A x x A x x x x x x 8 x j x 8 8 x A 8 x x 8 x x 8 8 x x 8 8 x x 8 8 A 8 x A 8 8 x x 8 8 A x 8 x x 8 x x 8 8 x 8 x x x 8 A x 8 8 x x 8 8 x 8 8 x 8 8 x x 8 x x x 8 A x 8 x A 8 8 x 8 x x 8 8 x 8 x 8 x 8 8 8 x 8 8 8 x x 8 8 x x 8 q 8 q 8 8 9 x x x 8 l 8 8 4 8 j j h b N *.=.5.5.w.w.w.w.w.e.w.e.e.9.q.e.e.e.w.w.w.w.w.w.5.&.' v y 4 3 3 7 7 8 8 l x 8 8 8 x x 8 8 8 x x 8 8 8 8 6 6 6 6 8 7 7 8 7 x r F =.w.e.q.e.e.w.w.e.e.e.e.e.e.e.e.e.e.e.e.e.e.e.e.e.e.e.e.e.e.e.e.e.e.e.e.e.e.e.e.e.e.e.e.e.e.e.e.e.e.e.e.e.e.e.e.q.e.w.5.%.p i ` o.&.5.w.w.w.w.w.w.w.w.e.e.e.e.e.w.w.w.5.5.4.*.%.n h = o 4 A 8 7 0 0 7 7 7 7 7 7 < 7 7 q 8 A 8 8 2 2 g 8 4 4 8 4 l l l 8 8 7 1 1 7 3 7 0 7 7 8 7 7 7 7 7 0 7 7 0 3 7 7 7 7 7 7 7 7 7 7 0 7 8 8 5 8 8 6 6 8 5 8 7 5 7 7 6 7 5 8 7 7 6 5 7 8 5 5 5 7 5 7 6 6 7 8 5 5 8 6 7 7 7 7 7 7 8 7 7 7 7 7 7 7 7 7 7 7 7 7 7 7 7 7 7 7 7 7 7 7 7 7 7 7 7 7 7 7 7 7 7 7 7 7 7 7 7 7 7 8 7 7 7 8 7 7 7 7 8 7 7 7 7 7 7 7 7 7 7 8 7 7 7 0 7 7 7 7 7 7 7 7 7 8 7 0 7 7 7 7 7 7 7 7 7 7 7 7 7 7 7 7 7 7 7 7 7 7 7 7 7 7 7 7 7 7 7 7 7 7 7 7 7 7 7 7 7 7 7 7 7 7 7 7 7 7 7 ",
"o.%.o.@.%...%.%.%.' %.%.%.o.%.o.+.o.o.o.o.%.o.%.o.o.o.%.%.o.o.o.%.o.o.o.%.o.o.o.o.o.o.%.o.o.o.%.O.o.o.+.o.o.+.o.o.o.o.o.o.o.o.O.o.o.o.o.o.o.o.o.o.o.o.' o.X.o.` o.o.o.o.X.o.o.` o.o.X.o.o.X.o.o.o.o.o.X.o.o.X.o.` o.o.o.o.o.o.X.` o.o.' o.o.O.o.X.X.o.X.O.o.X.X.X.O.O.o.X.X.o.X.X.o.X.X.X.o.X.X.o.X.o.X.X.X.X.X.X.X.X.X.X.o.X.X.' X.X.X.X.X.o.` ` X.X.X.X.X.X.` X.X.o.X.X.X.X.X.X.X.X.X.X.X.O.X.X.X.X.X.X.X.X.X.O.X.H X.X.X.X.X.X.X.X.X.X.X.X.X.X.X.X.X.X.X.X.X.X.X.X.X.H X.X.X.X.H H X.` X.X.X.H H X.V X.V X.X.H X.` H X.X.V X.X.K H H H H X.H H X.H H X.H X.X.H X.X.H H  .H H H X.H H V X.H H H H H H H H X.H K H H X.V H X.H X.H H X.X.V X.H K H H H H H H X.H H H H H H H X.H H V H H H H H G F J H H G H H J F G H H H G H H H H B H G G B H B H H H B H H B H G H G G G V G V H G G V V G H G G G H G G H H G G H G J G H G G G H G G B H G D H B B G G H B G G G G G G G G G D G G G G B B V B G B B V B B B B B B B V B G B B B B G B G B B B G B G B G B B B G B B B B B G G B B B G B B G B B G B B B B G B B G B G B B c B B B B B B B B B B G c G G c G S c c S G c c B c c B c G c B c c B G c B c c B c c c c B c c c G c B G c B c B c c c c B c B c c B c c c G c G c B B c c B S c S c c S S c S S c G G c S c c c c c S S S k M c c B c B B c B c c B B c c c B c c c c c z c c c c c c B c c S S k k H M V o.5.w.e.w.e.e.w.e.e.e.e.e.e.e.e.e.e.e.e.e.e.e.e.e.e.e.e.e.e.e.e.e.e.q.e.e.q.e.e.e.e.e.e.e.e.e.e.e.e.e.e.e.e.e.e.e.e.e.e.e.w.4.F k x x x x x A x c x c x A c c c x c B c c z c x c c M z c c c z x c x c x x z x c c l c l z x l c c x c x x x x x c x x A x c x c A x x c A k x c x k x x x A k x x S x c c x k A c A k x x x x x x x x c x x x x x x x k x x x x x x x x x x x x x x x x x A x x x x x x x x x x x x x A A x x x x x x x x x x x A x x x x x x x x x 8 x 8 x 8 8 A 8 8 x A x 8 x x x 8 x x 8 x 8 8 x 8 x x 8 x 8 8 x 8 x 8 x 8 x x 8 x 8 A 8 x 8 8 x x 8 x 8 x x x x 8 x x 8 x A 8 x 8 x 8 x x 8 8 x 8 x 8 x 8 x x 8 x 6 x 8 x 8 x 8 x 8 x 6 8 8 8 x 8 8 8 8 8 q 8 8 8 4 8 x 8 8 7 4 j k v b o.4.w.w.w.w.w.w.9.w.e.e.e.e.e.e.e.e.e.e.e.e.w.w.w.w.w.w.4.' d j 4 3 7 7 7 q 8 8 x 8 8 8 8 8 8 j 6 6 x x x x x x 8 x 8 7 8 8 8 j r +.5.w.e.e.e.e.w.e.e.e.e.e.e.e.e.e.e.e.e.e.e.e.e.e.e.e.e.e.e.e.e.e.e.e.e.e.e.e.e.e.e.e.e.e.e.e.e.e.e.e.e.e.e.e.e.e.e.q.w.w.4.@.@.4.5.w.w.w.w.e.e.w.e.q.e.e.e.e.e.q.e.e.w.e.w.w.w.w.&.o.v # j j 9 7 0 0 < 0 7 7 8 8 8 4 4 8 g r r O r r t t t t t t g - @ @ g g x x 8 8 8 8 7 7 7 7 7 0 0 7 7 0 7 7 0 7 < 7 7 7 7 7 7 < 7 7 5 7 6 8 6 7 5 6 5 7 7 7 8 5 7 7 8 5 5 7 7 7 7 6 7 5 8 8 5 8 5 8 5 7 5 7 7 5 7 5 8 5 6 7 7 7 7 7 7 7 7 7 8 7 7 7 7 7 7 7 7 8 7 7 7 7 7 7 7 8 7 7 8 7 7 7 7 8 7 7 8 7 7 7 7 7 7 7 7 7 7 7 7 7 7 7 7 7 7 0 7 7 7 7 0 8 7 7 7 7 7 7 8 7 7 7 7 7 7 7 7 7 7 7 8 7 7 7 7 7 7 7 7 8 7 7 7 7 7 7 7 7 7 7 7 7 7 8 8 7 7 7 q 7 7 7 7 8 7 7 8 7 7 0 7 7 7 7 0 8 7 7 7 7 8 7 ",
"%.%.%.%.o.%.%.o.%.o.o.%.o.%.' o.o.%.o.o.o.o.o.o.o.o.%.o.o.%.o.o.o.%.o.o.+.%.o.%.%.%.o.o.o.o.%.o.o.o.o.+.o.o.+.O.o.o.+.o.+.o.o. .o.X.o.o.o.X.o.o.o.o.o.o.` o.o.o.` o.` o.o.o.o.o.X.X.o.o.o.X.o.X.o.o.o.o.X.o.o.X.X.' X.o.' o.o.X.X.o.o.o.X.o.o.X.o.X.o.o.O.X.o.O.O.O.o.X.o.X.X.X.X.X.X.X.X.o.X.o.X.X.X.o.X.X.o.X.o.X.o.X.o.X.` X.X.X.X.` o.X.X.X.X.X.X.X.X.X.X.X.O.X.X.X.O.X.X.X.X.X.O.X.X.o.X.X.O.X.X.X.X.X.X.X.X.X.H ` X.X.X.X.X.X.X.X.X.X.X.X.H X.X.X.X.X.X.V X.X.X.V X.X.X.X.X.H X.X.V X.X.V X.X.X.X.V X.V X.H X.X.X.` H X.` X.H H X.H H K X.H X.X.H X.H H H H X.H K H H H H H V H H H X.H V H  .H H H  .V H X.V V H H H V H H H X.H X.H H H H H H V X.H V H X.H H H H H H H V H B H H H H H H G H G H G H G G H H G G F H H H G B H V G G V H B H H B H H B H G H G G V G G H V G H G G V G G G H H G G H G J G H G H G G H B G G B G H G B G B H B G G B D H H B G D G B B B G G B G G B G V G V G B B V B B V B B V M B V B B G B B B B B B B B G B B B B G B B G B G B G B B B B B B B B G c B B B G B B B B B B B G B B G S B B B B B M B c B c B c G c G c B S G S c G c B c G c G B c c B G c c c c G B c G B B S c B c B G c c G c c G c c B B S c B c c B c G c c G c B c c c c B c c S c S G c S S c S S c S c S c S S S Z k c k S M c B c c B B c c B G k c c B k B k c B B k k c x c c c B B M N h n a v N s s %.w.e.w.e.w.e.e.e.e.e.e.e.e.e.e.e.e.e.e.e.e.e.e.e.e.e.e.e.e.e.e.e.e.e.e.e.e.e.e.e.e.e.e.e.e.e.e.e.e.e.e.e.e.e.e.e.e.e.e.e.w.4. .k x x x x A x c c x c x x Z x C S c M c c c c c c c c c z z z c c x c x c c x c l x c l c c c x c c x k x x x x k x x k x x x x x x x x x k A x x x S x c c x c x x x c x k x x S x x x k A x x x x x x S x c x k x k j x k x x x x x x A x x x x x x A x x x x A x x x x x x x x x x x x x x x x x x A x x x x x x x x x x x x 8 8 x x 8 x 8 8 x x 8 A 8 8 x x 8 8 x 8 x 8 x A 8 x x x x 8 x 8 x x A 8 x 8 x 8 x 8 8 x 8 x 8 x x x 8 x 8 A 8 x 8 8 x x 8 8 8 x 8 8 x 8 x x 8 x 8 x 8 x 8 x 8 x 8 8 x 8 8 x 6 8 x 6 8 x 8 8 x 8 x x 8 x 8 8 8 8 8 8 8 x 8 8 x 8 8 4 , y D ( *.5.w.w.e.e.e.e.e.e.9.9.e.e.e.e.e.q.e.e.q.e.e.e.w.e.w.e.w.w.5.+.d t j 3 0 7 0 8 q 8 8 7 7 7 8 8 8 8 8 l 6 6 l 6 6 6 6 8 8 8 7 8 j h =.5.w.e.e.e.e.9.e.e.e.e.e.e.e.e.e.e.e.e.e.e.e.e.e.e.e.e.e.e.e.e.e.e.e.e.e.e.e.e.e.e.e.e.e.e.e.e.e.e.e.e.e.e.e.e.e.q.q.q.w.w.w.w.w.w.e.e.e.e.e.e.9.e.e.e.e.e.e.e.e.q.e.e.e.q.q.q.w.w.w.4.' v r 2 A 7 < < 0 7 7 8 l j r r @ a b `  ...%.%.%.%.@.#.%.o.` ( m v & t g j x 6 6 6 7 7 < < 7 7 7 7 7 7 7 7 7 7 7 5 6 7 7 < 7 7 7 8 7 7 6 5 8 6 7 7 5 8 5 6 7 7 5 7 6 8 5 5 8 5 8 5 7 5 7 7 7 5 8 7 6 7 7 8 8 5 7 6 7 7 5 7 7 7 7 7 7 7 7 7 7 7 7 7 7 8 7 7 7 7 7 7 8 7 7 7 7 7 7 7 7 7 7 7 7 7 7 7 7 7 7 7 8 7 7 7 7 7 7 7 7 7 7 7 7 7 7 7 7 7 7 7 7 7 7 7 7 7 7 7 7 7 7 7 7 7 7 7 7 7 7 8 7 7 7 7 7 7 7 7 7 7 7 7 7 7 7 7 7 0 7 7 7 7 7 7 7 7 7 7 7 7 7 7 7 7 7 7 7 7 7 7 8 7 7 7 7 7 7 7 7 7 7 ",
"%.o.o.%.%.o.%.o.o.} %.o.%.o.o.%.o.o.o.%.%.o.%.o.o.%.o.o.o.o.%.+.o.o.o.%.o.o.o.o.o.o.%.o.o.%.o.o.+.o.o.o.o.+.o.o.o.O.o.o.o.O.o.o.o.o.o.o.o.o.o.o.o.X.o.` o.X.X.o.o.o.X.o.X.' X.o.o.' X.o.o.X.o.' o.X.X.' ' o.o.X.o.o.o.o.X.o.o.o.o.' X.o.o.X.o.o.o.o.X.o.o.X.X.O.o.X.X.O.X.X.X.o.O.o.X.o.X.X.X.X.o.X.X.X.o.X.X.X.X.X.X.X.X.X.` X.X.` X.o.` X.X.` X.X.X.' o.X.X.X.X.X.X.X.X.X.X.X.X.X.X.X.X.X.X.X.X.X.X.O.X.X.X.O.X.X.X.X.V X.X.X.X.X.H X.X.V X.X.X.X.X.X.X.` X.X.H X.X.X.H X.H X.X.X.H X.X.X.H X.X.V V X.V X.X.X.X.X.V V H X.X.H H X.X.H X.X.H H X.K H H X.K X.H X.H H X.X.H  .H H X.H X.H H H X.H H F H H H X.V V H H H V H H H H X.H H H H H H X.H H V H ` X.H V H H H H H H H H V H V H H H V H H H H H H G H H H G H H J G H H H H G G H G G B H B H H B H B G V V G G H H G G G G G H G G H G G J G G G J G H G G G G G G G G H G G B B G H G H D B B G G H D B G G B G H G G G G F G G F G G B B G B B B B B B M V B B B B B G B B B G B G B G B B G B B G B B B B B B B B B G B G G B G B B G G B B B G B B G B G B B G B c G B B B B B B B B B c B B c G c B S c c G G c c G B c B c c c B c c B c B B c c B c c c c B c B c c B B c c B c B B c c c B c B G c B c B c c c G G c B G c B S c S G c S S c S c c S c S c S S C S S S c k B c B M c c B c B c c c c B k B c c k c k c c c c k c c M v v v s m  .( ( ( ( / &.w.w.e.e.e.e.e.e.e.e.e.e.e.e.e.e.e.e.e.e.e.e.e.e.e.e.e.e.e.e.e.e.e.e.e.e.e.e.e.e.e.e.e.e.e.e.e.e.e.e.e.e.e.e.e.w.9.e.e.q.w.4...u x x x x c c c c k c c k C x A k c c z c x x c x c x z z c c x x x x x x l c x c c l c x l l c l x x A x c x x A x c x x x A k x c x x x x x x c x x x x x x x x x A x x A x x x c x x x x x c x c x x x x x x x x x x x x x x x x x x x x x x x x x x x x x x x x x x A x x x A x A x x x x x A x x x x A x x x x x x x x 8 x x x 8 x 8 8 A x x x x 8 x x 8 8 x x 8 A 8 x x 8 x x 8 8 x x 8 x x x 8 x 8 x 8 A 8 x x 8 A 8 A 8 x 8 A 8 x x x 8 A x 8 x x x x 8 A x x A 8 x x 8 x x x 8 x 8 x 8 8 x 6 8 x 8 x x 8 x 8 8 x 8 x x 8 x 8 8 8 8 q x 8 8 q 8 8 8 8 8 C j u d ..=.w.w.e.q.e.q.e.e.e.e.w.e.e.e.e.e.e.e.e.e.e.e.e.e.e.e.e.e.9.9.w.5.=.m @ j 7 7 7 7 8 8 8 8 8 8 8 8 2 4 2 k x j x x k c x j x 8 5 8 r ` 4.w.e.e.q.9.e.9.e.e.e.e.e.e.e.e.e.e.e.e.e.e.e.e.e.e.e.e.e.e.e.e.e.e.e.e.e.e.e.e.e.e.e.e.e.e.e.e.e.e.e.e.e.e.e.e.e.q.9.e.8.e.w.w.8.e.q.q.e.e.e.e.e.e.e.e.e.e.e.9.e.q.q.q.e.e.e.q.e.q.e.w.5.%.m g : 3 7 7 7 2 6 6 g # s / o.%.=.5.5.w.w.0.w.w.w.w.w.5.4.4.&.%.' b v # = g 6 8 7 7 5 7 7 7 7 8 7 7 7 8 7 8 8 6 6 6 6 7 7 7 7 7 7 6 8 8 6 7 6 8 5 7 7 7 5 5 8 7 7 5 7 7 5 7 7 7 6 8 5 6 7 7 5 5 8 7 6 5 5 5 8 7 5 5 8 7 7 7 8 7 7 7 8 7 7 7 7 7 7 0 7 7 7 7 7 7 0 7 7 7 7 7 7 7 7 7 7 7 8 7 0 7 7 7 7 7 7 7 7 7 7 7 7 7 7 7 7 7 7 7 7 8 7 7 7 7 7 7 7 7 7 7 7 7 7 7 7 7 7 0 8 7 7 7 7 7 7 7 7 8 7 7 7 7 7 7 7 7 7 7 7 7 7 8 7 7 7 7 7 7 7 7 7 7 7 7 7 7 7 7 7 7 7 7 7 7 7 7 7 7 7 7 7 7 7 7 7 ",
"o.o.@.o.%...%.%.%.o.%.%.o.o.%.o.o.%.%.o.o.o.+.%.o.o.o.+.o.o.o.o.%.o.o.o.o.%.o.o.o.o.o.+.o.o.o.o.o.o.o.o.O.o.+.+.+.o.o.+.o.o.o.O.o.o.o.o.o.o.o.X.o.o.o.o.` X.o.' o.o.o.o.X.o.X.' X.o.o.o.' o.o.o.' o.o.o.X.o.X.o.o.o.o.` o.o.` o.X.o.` o.o.X.o.X.X.o.X.X.O.O.X.X.o.X.o.O.o.X.o.X.o.X.X.X.X.o.X.X.X.o.X.o.X.X.X.X.X.X.o.X.o.X.X.` X.o.X.' X.X.X.o.X.X.X.X.` X.X.` X.X.X.X.X.X.X.X.X.X.X.X.X.X.O.X.X.X.X.X.X.o.X.X.X.X.H X.X.X.X.X.X.X.H ` X.X.X.X.X.X.X.X.H X.X.X.H X.X.X.X.X.X.X.X.X.X.X.X.V X.H X.X.H X.X.X.H V V X.X.X.H X.X.V H H X.H H X.H X.H H H X.H H X.X.X.H H X.V H X.H X.H H H H X.H H H H H K H X.H  .V H H V V H H H H H K H H H H H H V H X.X.H H H H X.X.H H H H V H V V H H H H H G H H D G H J H G H F G G H H G H B H G G H V B H H B B H B H H H G G H G G G G H G H B G V B H H G G G H G G G H G G G G G G G G B G H G G B D B G G G H G G B G G B H B H G B H B B G G B G G B B B B V B B B B B B B B B B B B B B B G B B B B B B G B G c B B G B G B G B B B B B B B B B G B B B B B B B B G B B B B B B B B k B B B B B B B B B B c B B c G S c G G c c S B c c c c c c G c G B c c B c c c c c B B c G c c G B c c B B c c c c B B c G c c B c c c B B c c c c c c G c c c S S c S c c G c G S c S S c S Z C S c c c c B M B c B c c c c c c c c c c c c c c c c c c c k c c k M b ` / ' *.=.4.4.4.4.4.5.w.e.e.w.e.e.e.e.e.e.e.e.e.e.e.e.e.e.e.e.e.e.e.e.e.e.e.e.e.e.e.e.e.e.e.e.e.e.e.e.e.e.e.e.e.e.e.e.9.e.e.e.e.e.e.w.e.e.e.e.w.5.%.d k k x c B c M M k B k c c x C x z c c A x A x x C x x A x x x x x c x x c x c x x c x c c c c c c x c x c x x x x A x x c x x c x c x S c x c x x x x x x A c x x k x x x x x x x c x c c x S x c x x x x c x x x x j x x x x x x A x x x x A x x x x x x A x x A x x x x A x x x x x A A x x x x A x x x x x x x x A x x x x x x x 8 x x x 8 8 8 x x 8 8 x x 8 x x A 8 8 x x 8 8 x x 8 8 x x 8 A 8 8 x x x A 8 8 x x x x 8 8 x x x 8 8 8 x x 8 8 A A 8 8 x x x x 8 A 8 8 x 8 x 8 A 8 8 x x 8 x 8 8 x 6 x 8 6 x 8 x x 6 x 8 x 8 8 8 q 9 x 8 8 8 8 q 8 q 8 8 4 x u F %.=.w.w.e.q.e.q.9.q.q.e.e.e.e.e.e.e.e.e.e.e.e.e.e.e.e.e.e.w.9.9.9.8.8.w.&.b z 8 7 7 7 q 8 8 6 2 2 2 g r g h h k t k t h t # z j : j j # *.5.w.e.e.9.e.9.e.e.e.e.e.e.e.e.e.e.e.e.e.e.e.e.e.e.e.e.e.e.e.e.e.e.e.e.e.e.e.e.e.e.e.e.e.e.e.e.e.e.e.e.e.e.e.e.e.e.e.e.9.e.8.w.e.8.e.e.e.9.9.e.e.e.e.e.e.9.9.e.e.9.9.e.e.e.e.e.q.q.7.7.q.w.5.*.V @ g j 4 4 g g k V %.&.5.5.w.w.w.w.w.e.e.e.q.e.e.e.w.w.w.w.w.5.4.=./ b h = l 6 6 6 7 8 7 8 8 5 6 6 6 6 6 6 6 6 6 6 7 7 7 7 6 5 8 5 6 7 6 8 7 7 8 7 5 8 7 7 5 8 6 7 6 5 8 6 7 5 7 7 8 7 8 5 7 5 7 5 7 6 5 8 5 8 7 5 7 7 7 7 7 7 7 7 7 8 7 7 8 7 7 7 7 7 7 7 7 7 7 7 7 7 7 7 7 7 7 7 7 7 7 7 7 7 7 7 7 7 7 7 0 8 8 7 8 7 7 7 7 8 7 7 7 7 7 7 7 7 7 7 8 7 7 7 7 8 7 7 7 7 7 7 7 7 7 7 7 7 7 7 7 7 7 7 7 7 7 7 7 7 7 q 7 7 7 7 7 7 7 8 8 7 7 0 8 7 7 7 7 7 7 7 7 7 7 7 7 7 7 7 7 7 8 7 7 7 7 8 ",
"%.%.+.%.o.%.%.o.%.%.o.%.%.%.' %.o.+.o.o.%.o.o.o.%.o.%.o.%.o.%.o.o.o.o.%.o.o.%.o.%.%.o.o.%.o.+.%.o.+.+.O.o.o.o.o.+.o.o.O.o.o.o.o.X.o.o.o.X.o.o.o.o.X.' X.o.' X.o.X.o.X.' o.o.o.o.o.o.X.' o.X.o.X.o.X.X.o.o.o.o.' o.X.o.o.X.` o.o.o.o.o.o.O.o.O.o.o.O.o.o.X.o.O.o.X.O.o.X.X.X.X.X.X.X.X.o.X.X.o.X.X.X.X.X.X.o.X.o.X.o.X.X.X.` X.X.X.X.X.X.X.X.X.X.o.` X.X.X.X.X.o.X.O.X.X.X.X.X.X.O.X.X.X.X.X.X.X.X.X.X.X.X.X.X.X.X.X.` X.X.H ` X.X.X.X.X.X.X.X.X.` X.X.H X.X.X.X.X.X.X.H V X.X.H X.H X.X.X.H ` X.V X.X.V X.V X.X.V X.H ` X.V X.X.X.K H X.H H H X.H X.X.H H X.H H H H X.H X.H H H H H V X.H H X.H H J H H F K H H V H H H H G H H H H H H J H H H H H H ` ` H X.V H H H H H H H H H V V H V H H H H G G H H G F H J H H G H H G H G H G G V G H B H B H H B H H B G V G G V G H V G G V H H B H G G G H G G G G H G G H G G H J H D B G B G G G H G G B H G B G G G B G G G G G G G G G G H B G G V G V G B B V B B V B B V B B V B G B G B B B G B G B B B B G B B B B B B B G B G B G B G B B B G B G B G B G B B B B B G B G B B c B B M B B M B B c B B c c B G c G S c G c G c c G B c G B c c c c c G c c G G c B c c B c B c c c c B c B S G c B c c B c B S c G c B c c G B c G B c c G c c G c S c S S c S S c S c B S c S S c c c M c c c M c M c c A S A S S A c A c c S x c A c x x c k n v m ' &.4.5.5.5.5.w.5.w.w.w.w.e.e.w.e.e.e.e.e.e.e.e.e.e.e.e.e.e.e.e.e.e.e.e.e.e.e.e.e.e.e.e.e.e.e.e.e.e.e.e.e.e.e.e.e.e.e.e.e.e.e.e.e.e.e.e.9.q.e.e.w.5.@.i n k v b v v b b N n M k c C x x c x x x A A 9 C x C x x A 8 q A x x c x l c x z c l c l c x l c c x x x x x x c x c x c x x x x x x x x x x x x A k c x x k x x x x c x c x c x x x x x x x x x x x A k x x c x l j x l x k x x x x x x x x x x A x x x x x x x x x x x x x x x x x x x x x x x x x x x x x x A x x x x x x x 4 8 A x 8 x 8 8 x x 8 x 8 x x 8 A 8 x 8 x x 8 x 8 x 8 8 A A 8 8 x 8 x 8 x 8 x 8 x x 8 x 8 x 8 x x x 8 x x x 8 8 x x 8 8 x x 8 x 8 8 x 8 x x 8 x x x 8 x x 8 8 x 8 x x 8 x 8 x 8 8 x 8 8 x 8 x 8 8 8 8 8 8 8 x x 8 8 x 8 8 x 4 j k i %.5.w.w.w.e.e.9.9.9.9.9.e.e.e.e.e.e.e.e.e.e.e.q.e.q.e.e.e.e.e.e.8.8.9.e.w.5.4.s h 4 8 3 8 8 j h t t v B  .+.+.+.%.*.*.*.*.o.o.b m O y n $ 5.w.q.e.e.e.9.e.e.e.e.e.e.e.e.e.e.e.e.e.e.e.e.e.e.e.e.e.e.e.e.e.e.e.e.e.e.e.e.e.e.e.e.e.e.e.e.e.e.e.e.e.e.e.e.e.e.e.e.e.e.e.8.w.e.8.9.9.9.9.e.e.9.w.e.e.e.e.e.w.w.9.e.9.9.e.q.9.e.q.9.7.9.w.w.4.*.O.@ r t t a m +.=.5.5.w.w.w.w.e.e.e.e.e.e.e.e.q.e.e.w.w.w.w.w.w.5.5.=.( v h h j g 6 8 7 8 6 6 5 6 6 6 6 6 6 6 6 6 8 7 8 7 7 7 6 8 6 8 8 1 8 7 8 7 7 7 6 6 7 5 7 5 7 7 5 7 5 8 6 7 5 5 8 5 7 6 7 8 5 7 7 5 7 7 6 8 7 7 7 7 7 7 7 7 7 7 7 7 7 7 7 7 7 8 7 7 7 7 7 7 0 8 7 7 8 7 7 7 7 7 7 7 8 7 7 7 7 7 7 7 7 7 7 7 7 7 7 7 7 7 7 7 7 7 7 7 8 0 7 7 7 7 7 7 7 7 7 7 7 7 7 7 8 7 7 8 7 7 7 7 7 8 0 7 8 7 7 7 7 7 7 7 7 7 7 7 7 7 7 7 7 7 7 7 7 7 7 7 7 q 7 7 8 7 7 7 7 7 7 8 0 7 7 7 7 7 7 0 ",
"@.o.%.%.%.o.o.%.o.%.%.o.%.o.o.%.o.%.o.%.o.+.o.%.+.o.o.o.o.%.o.%.+.o.%.o.+.o.o.o.o.o.o.o.%.o.o.o.+.o.o.o.o.o.+.o.o.o.o.o.+.o.O.o.o.X.o.o.o.X.o.o.o.o.' o.o.` X.o.o.o.o.' o.o.X.o.o.` o.o.o.' o.' X.' o.o.o.o.o.X.' X.o.' X.o.X.o.o.o.X.o.X.o.X.o.o.O.o.o.o.X.X.O.O.X.X.X.o.o.X.X.X.X.o.X.o.X.X.o.X.o.o.X.o.X.o.X.X.X.X.X.X.X.o.` X.X.X.` X.X.X.X.X.o.X.` ` X.X.` X.X.X.X.X.X.X.X.X.X.O.X.X.X.X.X.X.X.X.X.X.X.X.X.X.X.X.` X.X.H X.X.X.X.X.X.X.H X.X.X.X.X.X.X.X.X.X.X.X.X.V X.H X.X.X.X.X.X.V X.V V X.X.X.X.V V X.X.X.X.X.V V X.X.H X.H H H X.X.H X.K H X.K H H X.X.H H H H H H X.V H H H H X.X.H K H H H H F V H X.H H X.H H H H H K K H G J H J H H H H H H H H H H H H H H H H H V H V H H H V H H G H J H H G F H H D H G H G G H G G H G H G H G G V H H B H G H B H H B H H V G H H B H G H G H J G G H J G G H G G G G G B G G G G B D G B G G G F G G B G G B G B H G G G G G G G G G H B B V V B B M B B B B B B B B B B B G B G B B B B B G B B B B B B B G B B B B B G B G B G c G B B B G B G B G B G G c B B B B B c G c B B B B B B B B c B c G G c c G S c B c G S c B c c B c G B B c S B c B c c B B c B c G c c B c c B c B c c B B c B c G c c B c B c c c G c c c B c B c c B S c S S c S c S S c S c S S c G S S c c c B c c c z c c c A S x S c A S c x S x x x x A S x x S n i f %.4.5.w.w.w.w.e.w.w.e.e.e.e.e.e.e.e.e.e.e.e.e.e.e.e.e.e.e.e.e.e.e.e.e.e.e.e.e.e.e.e.e.e.e.e.e.e.e.e.e.e.e.e.e.e.e.e.e.e.e.e.9.e.e.e.e.e.e.w.e.e.q.e.w.@.% p f ( ) ' ) _ / / v & v z c x c z c k x k C C j C j C S A 8 4 A x A x x c x c x c x c l x c z x x x x c S x x k A c x x x c x c x x x x x x A x x x c x x x x x x x x x x k x x x x x x x x x x x x x c x c x x x k x x x x x x x x x x x x x A x x x x A x x x A x x x x x x x x x x A x x x x x x A x x x x x x x x A x x x x x 8 x x x 8 8 A x 8 8 x x 8 x 8 x 8 x A 8 x 8 x 8 A 8 x 8 x x 8 x x x x 8 x 8 A x 8 x 8 A 8 x 8 x 8 x 8 x 8 x 8 x 8 x 8 x x 8 x A 8 x x 8 x 8 8 x 8 8 x x 8 6 x 8 x 8 x 8 x 6 8 8 x 8 8 x 8 x 8 8 8 q 8 x 8 8 8 8 x 6 6 x g 2 v &.5.w.w.w.e.9.9.9.9.e.9.e.e.e.e.e.e.e.e.e.e.e.e.e.e.e.e.e.e.e.e.8.e.9.e.q.e.w.w.o.t y j j r j t / ) &.4.4.5.5.5.5.w.w.w.w.w.w.w.4.=.*. .f R 1.9.e.q.e.9.e.e.e.q.e.e.e.e.e.e.e.e.e.e.e.e.e.e.e.e.e.e.e.e.e.e.e.e.e.e.e.e.e.e.e.e.e.e.e.e.e.e.e.e.e.e.e.e.e.e.e.e.e.e.w.w.8.e.8.e.e.9.e.e.w.w.w.e.e.e.e.e.w.w.e.w.w.9.e.e.9.e.e.e.9.9.9.e.w.w.5.4.' % $ / 4.4.4.5.w.w.w.w.e.w.w.e.e.e.e.e.e.q.e.e.e.e.e.e.e.e.e.w.5.w.5.=...s # r j 8 8 5 5 7 8 6 8 8 6 8 8 8 6 8 6 5 6 7 8 5 5 5 7 7 7 8 6 1 6 8 6 7 7 5 7 8 5 8 7 5 7 7 6 7 8 5 5 8 8 5 7 7 7 5 5 8 5 6 7 5 7 5 7 7 7 7 8 0 7 7 7 7 7 7 7 7 7 7 7 8 7 7 7 7 7 7 7 8 7 7 7 7 7 7 7 7 7 7 7 7 7 0 8 7 7 7 7 7 7 7 7 7 7 7 7 7 7 7 7 7 7 7 7 7 7 8 7 7 7 0 7 7 7 7 7 7 7 7 7 7 7 7 7 7 7 7 7 7 8 7 7 7 7 7 7 7 7 7 7 8 7 7 7 8 7 7 7 7 0 8 7 7 7 7 7 7 7 7 7 7 7 7 8 7 0 7 7 7 7 7 7 7 7 7 ",
"o.%.o.o.o.%.%.o.%.o.o.%.' %.%.o.o.o.o.o.%.o.o.o.o.%.o.%.o.o.+.o.o.%.o.o.o.%.o.%.%.o.%.o.o.+.o.%.O.o.+.+.+.o.O.o.O.+.O.o.o.o.o.o.o.o.o.o.o.o.X.o.o.X.o.X.o.o.o.o.o.` X.o.X.o.' o.o.o.o.X.o.X.X.o.o.o.X.o.' X.o.o.o.o.o.X.o.o.X.' ` o.o.o.o.X.o.X.X.o.X.X.O.O.o.o.X.o. .X.X.X.o.X.X.o.X.X.X.X.X.X.X.X.X.X.X.X.X.X.X.o.o.X.X.X.X.X.X.' X.o.X.X.X.' ` X.X.X.o.X.X.o.X.X.X.X.X.O.X.X.X.X.X.X.X.X.X.X.O.X.X.O.X.X.X.X.X.X.X.H X.X.X.X.H X.X.` H X.X.X.X.X.` X.X.H ` X.H X.X.X.X.X.X.X.H X.H X.X.X.X.V X.X.V V X.X.X.X.X.V H X.X.X.X.V X.H H X.X.H H H H X.H H X.X.H H X.H X.H X.H H H X.H H X.X.H H X.G J K K H H X.X.` ` V H H H H K X.F F F J K H J H H ` ` H H G V H H H H X.H H H H V H H H V H V D G H H H G H H G H G H H H H H V G G V H G G G B G H G B B H H H B G H B H H B G G G G G V G V G G H G G G H G G G G H H G G B G B B H B H G G G G B B B G G G G F G G G B V D G V B G H B B D B B B B B B V B V B B V V B B V B B B B G B G c B B B G B G B G B B G B G B G c B B B B B B B G B B B B B B B B B G G B G B B B G c B B B B B V B B B B G c S G G c c G S B c G B c c B c B c c c B B c B c S B c c B c B c c B c G B c B c S B c c B c B c c B c B B c B c c B G c c B c B B c c S S c S c G c c S B S c S S c S c S c B B c B B c c c c A A S x x x x x c c S S S c x c x x B d ( $.4.5.w.w.e.e.e.e.e.e.e.e.e.e.e.e.e.e.e.e.e.e.e.e.e.e.e.e.e.e.e.e.e.e.e.e.e.e.e.e.e.e.e.e.e.e.e.e.e.e.e.e.e.e.e.e.e.e.e.e.e.e.e.e.e.q.e.w.e.e.9.q.e.e.w.#.Y @.&.4.4.5.w.5.5.&.*.` N v c c h h v v t u u d d d y r y k x A 8 x k c x l c l c l c x c c l x c c x x x x x x x x x c x x A x x x c x c c x c x x c x x x S k x x S c x x A c x x x S x c A k x x c x x x x S x x x x x k x x k x x A x x x x x x x x x x x x x x x x x A x x A x x x x x x x A x x x x x x A x x A x x x x x x x x 8 8 8 x x 8 8 A A 8 8 x x x 8 x x 8 x 8 x 8 x 8 x x A 8 x x x 8 8 x x 8 x 8 x 8 8 x x x 8 A x A 8 x x x 8 x 8 x x 8 8 x A 8 8 x x 8 x 8 x 8 6 x 8 8 8 x 8 8 x 6 8 x x 8 8 x x 8 x 8 6 x 8 x q q 4 4 x j x x 8 8 6 x l r h ..w.w.e.e.q.9.e.9.e.e.9.e.e.e.e.e.e.w.e.e.e.e.e.e.e.e.e.e.e.e.e.e.w.e.9.9.e.e.e.w.&.m u e w e m o.&.5.5.w.w.w.e.w.w.e.e.e.e.q.e.w.w.5.4.$.$.<.w.e.e.q.9.e.e.e.e.e.e.e.e.e.e.e.e.e.e.e.e.e.e.e.e.e.e.e.e.e.e.e.e.e.e.e.e.e.e.e.e.e.e.e.e.e.e.e.e.e.e.e.e.e.e.e.e.e.w.e.e.e.w.e.9.e.9.e.9.e.e.e.w.e.e.e.e.e.e.e.w.w.e.w.w.e.e.e.e.e.9.9.9.e.e.w.w.5.5.>.{ ,.5.w.5.w.w.9.e.e.e.9.e.e.9.w.e.w.e.w.e.e.e.9.e.9.e.e.e.e.w.w.w.w.5.=.Y i g 7 8 4 8 8 8 7 8 5 7 7 8 7 7 8 8 8 5 6 7 8 8 7 7 7 7 7 7 8 8 6 7 5 6 7 7 5 7 7 6 8 5 6 7 7 5 7 7 5 5 5 7 6 5 8 5 8 7 7 5 8 7 6 7 8 7 7 7 7 7 7 7 7 7 8 7 7 7 8 7 7 7 7 7 7 7 7 7 7 7 7 7 q 7 7 7 7 7 7 7 7 7 7 7 7 7 7 7 7 7 7 0 7 7 8 7 7 7 7 7 7 7 q 7 7 7 7 7 7 7 8 7 7 7 8 7 7 7 7 0 7 7 7 7 7 7 7 0 7 7 7 7 7 7 7 7 7 7 7 7 7 7 7 7 7 7 7 7 7 7 7 7 7 8 7 7 7 7 7 7 7 7 7 7 7 7 7 7 7 7 7 7 8 7 7 ",
"%.o.%.%.@.+.%.%.%.o.%.%.o.%.' %.o.%.o.o.o.%.o.%.o.%.o.o.o.%.o.o.o.o.o.o.%.o.o.o.o.o.o.%.o.o.o.o.o.o.o.o.o.o.o.+.o.+.o.o.o.o.o.o.X.o.o.o.o.X.o.o.` o.o.o.o.X.X.o.o.o.' o.' o.X.o.o.` o.o.o.o.o.o.o.o.' X.X.o.o.' o.' o.o.o.' o.o.o.o.X.o.X.X.o.o.o.X.o.o.X.o.O.X.O.X.X.X.X.X.X.X.X.X.X.X.o.X.o.o.X.o.o.X.X.X.o.X.X.X.X.X.X.X.X.X.X.X.X.` X.X.X.X.X.X.o.X.X.X.X.X.X.O.X.X.O.X.X.X.X.X.X.X.X.O.X.X.X.X.X.X.O.X.X.O.X.X.H ` H ` X.X.X.X.X.X.X.X.X.` H X.H X.X.X.X.X.X.H X.H X.H X.H X.X.X.X.X.` H X.X.V X.X.H X.` H X.X.V V H ` X.V X.K H X.H H X.X.H X.X.H H X.H X.H H X.X.H X.H  .X.H X.H H X.H H J H K F H m (  .( ( `  .` ` ` ` ( m m K H J J H H H X.H K H K K H H H X.H H H V H H V H H H V H H H H G H F H G H H G H H F G H H G H B B G G V H V H G H B H B V H G G H B B H G H B H G V G G G G G H G G G H G G G H G G G B G G H B G H G G B H G G H G G G G G G G G G G G G D G G G G G H V G B V V B V B B B V M B B B B B G G B B G B G B G B B G B B B B B B B G B B B B G B B G B G B B G B B B G B B B B B B B B B M c G B B B k B B B B B c c G B c c G G c c S S c c c B c B c c B B c c B G c B c B c c G c B B c B c c S G c B c G c c G c B B c B c c B c G c G c G G c B c c B S S c G S S G c S c S c S c c S S c c c c c c c c c c c c S S S S G B c c c c G c G G c B G k h T $.5.5.w.e.e.e.e.e.9.e.e.9.9.e.e.e.e.e.e.e.e.e.e.e.e.e.e.e.e.e.e.e.e.e.e.e.e.e.e.e.e.e.e.e.e.e.e.e.e.e.e.e.e.e.e.e.e.e.e.e.e.e.e.e.e.q.e.e.e.w.e.e.e.e.e.w.5.>.5.w.5.w.w.w.w.w.5.4.&.' N v M v * b ( o.+.o.%.+.o. .m a v B c j x x x x c x c l c x c x c c c c c x x k c x c x x x x x k x S x c x A x x x x c x x x x x x A x x x x x x x x x k A x c x x x c x x x A x A x x x x x j x x x j x x x x x x x x x A x x x x x A x x A x x x x x x x x x A x x x x x x x x x x x x x x x x x 8 x 8 A 8 x x x 8 x x 8 x x x x 8 A x 8 8 x x 8 x x x 8 x 8 8 x A 8 8 x x 8 8 x x 8 8 x A 8 8 x x 8 8 x x 8 8 A 8 x x x 8 x x 8 8 x x 8 8 x 8 x 8 8 x 8 8 x x 8 8 x 8 8 x 6 8 6 x 8 x 6 x 8 x 8 8 8 8 8 8 x 8 j 8 8 8 6 8 x g t  .=.w.q.e.e.e.e.w.9.9.w.e.e.e.e.e.e.e.e.e.e.w.e.e.w.e.e.e.e.e.e.e.e.e.e.e.q.q.e.w.w.5...i i T %.<.5.w.e.w.e.w.e.9.e.q.9.q.9.q.q.q.q.e.e.0.w.w.w.w.9.9.e.9.e.e.e.e.e.e.e.e.e.e.e.e.e.e.e.e.e.e.e.e.e.e.e.e.e.e.e.e.e.e.e.e.e.e.e.e.e.e.e.e.e.e.e.e.e.e.e.e.e.e.e.e.e.e.e.e.e.e.e.e.9.e.e.e.e.e.e.e.e.e.q.e.e.e.e.e.e.e.e.e.w.e.e.e.e.9.e.e.9.e.e.w.w.e.w.w.e.e.w.9.e.9.9.e.9.9.e.9.e.e.e.e.e.e.e.w.e.e.9.e.9.e.e.q.e.e.9.8.w.w.w.<.@.t : : 2 4 4 2 4 5 5 7 4 7 7 7 7 6 5 6 2 8 8 8 7 8 7 8 8 8 7 5 8 5 8 7 7 6 5 8 6 7 7 5 7 7 6 7 6 7 5 8 8 5 8 7 6 5 7 7 6 7 5 7 7 7 7 7 7 7 7 7 7 7 7 7 0 7 7 7 7 7 7 8 0 7 7 7 8 7 7 7 7 7 7 7 7 7 7 8 7 7 7 7 8 7 7 7 7 7 7 7 7 7 7 7 7 8 7 7 7 7 7 7 7 7 7 7 7 7 7 7 7 7 7 7 7 8 7 7 7 8 7 7 7 7 7 7 8 7 7 8 7 7 7 7 7 7 7 7 7 7 7 7 7 7 7 7 7 7 7 7 7 7 7 7 7 7 7 7 7 7 7 7 7 7 7 7 7 7 7 8 7 7 7 7 7 ",
"%.%.o.%.o.%.' %.o.%.%.o.o.' %.o.o.%.o.%.o.o.o.o.o.o.%.o.o.o.%.o.o.%.o.%.o.o.o.%.%.o.o.o.%.o.%.o.o.o.O.o.o.+.o.o.o.o.o.+.o.o. .O.o.o.o.X.o.o.o.o.X.o.X.o.' o.' o.o.X.X.o.X.X.o.o.o.X.o.X.o.X.` o.o.X.o.o.X.o.X.o.X.o.X.o.X.o.X.o.` o.o.o.o.o.X.o.o.o.X.o.X.O.X.o.o.X. .O.o.X.o.X.X.o.X.o.X.X.X.X.X.X.X.X.X.o.X.X.X.o.X.o.X.` o.X.X.X.X.o.o.` X.X.X.X.X.` X.X.X.X.X.X.X.X.X.X.X.X.X.X.X.O.X.X.X.X.X.X.X.X.X.X.X.X.X.X.X.X.X.X.X.X.X.X.X.X.X.X.X.X.X.X.X.X.X.X.X.X.X.X.X.X.X.X.X.X.X.H X.V H X.X.V H X.V X.X.V X.H V X.X.X.X.X.H X.H X.H H K X.H H X.H H X.H H H X.K X.H H H H H H H H H H H H H H X.K H m ( ..%.@.=.=.&.&.=.%.) ( ( (  .X.K D V H H H ` V ` V F D K H H H X.H X.H V H H H V H H H H G G H H G H D G H H G H J H G G V G H H V H G G G G V G H B H G G V G H H B H V G H B H G G H G H G G G H G G G H G J G G F B G G B D G B G B G G G G B G V D B G G B G B G G G G B G B G G B B B B V B B B B B B B B M B V B B B B B B B B B B B B G B B B G G B G B B B B G B B G B B B B B B B G B B B G B G B G B B B B B G c B G B B B B B B B B c S S B G c S G G c G G B G c B c c B c c B c c c B c c c B c c c B c B c B c B c B c c c B c c c B c B c c G c c B c c c c B c S c B c c c S c c S c S S S c S c G S c B c c G c c c c c c c B B k n n v v v v n v v v t v n v n n V m =.5.w.w.w.e.e.q.9.e.9.e.9.e.e.9.e.e.e.e.e.e.e.e.e.e.e.e.e.e.e.e.e.e.e.e.e.e.e.e.e.e.e.e.e.e.e.e.e.e.e.e.e.e.e.e.e.e.e.e.e.e.e.e.e.e.e.e.e.e.e.e.w.e.9.q.e.w.w.w.w.w.e.e.e.w.w.w.w.5.5.4.&.s & ( ] #.4.5.w.5.5.w.4.4.=.' b h k c k x c x l c x c l c x z x c l x c x x x x x x x k x c x x x x x x x x x k x x x x c x c x c x x x c x A c x c x x x x x c x x x x c x k x k x x x x k x x x x x A x x x x A x x x x x x x x x x x x x x x x x x x A x x x x x x x A x x x x x x x x x x x x x x x 8 A 8 x 8 x 8 8 x x 8 8 8 x 8 x 8 A 8 8 x 8 A 8 x 8 x 8 x 8 x x 8 8 A x x 8 x x x 8 x x 8 8 x x 8 x 8 x 8 A 8 x 8 A 8 8 x x 8 x 8 x x x 8 8 x 8 x x 8 6 x x 8 8 x 8 x x x 8 x 8 x 8 x 8 x x 8 q 8 8 4 x 4 q 8 q 8 x c - a *.w.e.q.e.q.e.e.e.w.w.e.w.w.e.e.e.e.e.e.e.w.e.e.e.e.e.e.e.e.e.e.e.e.e.e.q.e.e.e.e.w.5.=.Y R 4.w.w.e.e.w.e.e.9.q.9.9.9.9.9.9.9.9.9.9.9.8.8.e.w.e.e.e.e.9.e.e.e.e.e.e.e.e.e.e.e.e.e.e.e.e.e.e.e.e.e.e.e.e.e.e.e.e.e.e.e.e.e.e.e.e.e.e.e.e.e.e.e.e.e.e.e.e.e.e.e.e.e.e.e.e.e.e.e.e.e.e.e.e.e.e.e.e.e.e.e.e.q.e.e.e.e.e.e.e.e.e.e.e.e.e.w.9.8.w.9.e.e.q.q.e.e.e.9.9.9.9.9.e.9.9.e.9.e.9.e.e.e.e.e.e.q.e.e.e.e.e.e.9.e.9.9.e.9.0.8.w.w.w.+.J k y r r j 4 2 4 4 7 5 3 5 7 8 6 6 8 7 1 7 7 7 7 7 5 6 6 7 6 7 7 6 5 7 7 5 7 8 5 8 7 5 7 7 5 6 7 5 7 7 5 7 7 8 5 7 7 8 5 8 5 7 7 7 7 7 7 7 7 7 7 7 7 7 7 7 7 7 7 7 7 7 7 7 7 7 7 7 7 7 7 7 7 7 7 7 7 7 7 7 7 7 7 7 8 7 7 8 7 7 7 7 7 7 7 7 7 7 7 7 7 7 7 7 8 7 7 7 7 7 7 7 7 7 7 7 7 7 7 7 7 7 7 7 7 7 7 7 7 7 7 8 7 7 8 7 7 7 7 7 7 7 7 7 7 7 7 7 7 7 7 7 7 7 7 7 7 7 7 7 8 7 7 7 8 7 7 7 7 7 7 7 7 ",
"o.%.%.o.%.%.o.%.o.%.%.o.%.' %.o.o.%.o.o.o.o.o.o.%.o.%.o.o.o.o.o.o.%.%.o.o.+.o.o.o.o.o.+.o.%.o.o.+.+.o.o.+.o.O.+.o.o.o.+.+.o.o.o.` o.o.o.o.o.o.o.o.X.o.o.' X.o.X.o.X.o.X.o.X.o.' o.o.o.' X.' o.o.o.o.o.` o.o.' o.o.o.o.o.o.o.o.' X.o.o.o.o.o.o.X.X.X.o.X.o.O.X.X.X.O.X.X.X.o.X.X.X.X.X.X.X.o.X.o.X.X.X.o.o.X.X.X.X.X.X.X.X.X.X.X.' X.X.X.X.X.X.' o.X.X.X.X.X.o.X.X.X.X.O.X.X.X.X.X.X.X.X.X.O.X.X.X.O.X.X.X.X.X.X.X.X.` X.X.X.X.X.X.X.X.H X.X.X.X.X.X.` X.X.X.X.X.X.X.X.X.X.X.X.X.X.H X.X.X.` X.V X.X.X.V X.V X.X.H ` X.V X.X.H X.H H X.H H X.H H H H H X.H X.K H H X.X.H H H H X.X.H H H H X.H ` V ( ( o.*.4.4.5.5.w.w.w.5.5.4.#.) ) (  .F H V K X.` ` ` ` H H H H H H H H X.V H H V H H H H H V H G H G H G H H J H H G H G H G G G H B G H G G H G G H H H B H H G G H B H H B H B H H G H V G G H G G G G G G G H G G G G G B G G G H G G G G B G G B H G B G G G B G G G B G B H G G H B G G H V G B B B B B B V B B V B B V G B B B G B G B B B B G B G c B B B B B B B B B B G B G B B B B B B B G B B B B B B B B B B B k G B B k B B B B B B c B S G c S c G S c G c G c c B B c c B c B G c c B c B c G G c c B c G c S c B c B c B c G c B c B c G c S B c S B c B c B B c B c B c G c S c S c S c c S c G c S B c S S c B S S c c A c B c B n v b b s b U ( ( ) o. .( ( ( U s s p ( &.w.w.w.8.e.e.e.9.e.9.9.e.e.e.e.e.e.e.e.e.e.e.e.e.e.e.e.e.e.e.e.e.e.e.e.e.e.e.e.e.e.e.e.e.e.e.e.e.e.e.e.e.e.e.e.e.e.e.e.e.e.e.e.e.9.e.q.e.e.q.e.w.w.9.e.q.e.e.w.w.w.9.e.9.e.e.e.e.e.w.w.w.5.@.} @.5.w.w.w.w.w.e.w.w.w.w.4.o.s h M c x x x k x c x c x c x c z x z x x x x x c c x A x x x x k c x c x k A k A x c x k x c c x k A x c x k c x S x x x x c x c x c c A c x x x x c k x x x x x x x x x x x x x x x x x x x x x x x x x x x x x x x x x x x x A x x A x x x A x x x x x x A x x x x 8 x x 8 x 8 x x x x 8 x x 8 A x x 8 x x x 8 8 x x 8 x x 8 x 8 8 x 8 x 8 8 x 8 x 8 x x 8 8 x x 8 x 8 A 8 x 8 x x A 8 8 x A x 8 x x 8 x 8 x x x 6 8 x 6 x x 8 x 8 x 8 8 x 8 x 8 x 8 x 8 8 8 x x 8 8 8 x 4 j 4 8 8 8 8 l l # ) 4.w.e.e.q.e.9.e.e.w.e.e.w.e.e.e.e.e.e.e.e.e.e.e.e.e.e.e.e.e.e.e.e.e.e.e.e.e.e.e.e.w.w.w.5.5.w.w.q.e.w.9.e.9.e.9.9.9.e.9.e.9.9.9.e.9.e.9.e.q.q.e.e.e.9.9.e.e.e.e.e.e.e.e.e.e.e.e.e.e.e.e.e.e.e.e.e.e.e.e.e.e.e.e.e.e.e.e.e.e.e.e.e.e.e.e.e.e.e.e.e.e.e.e.e.e.e.e.e.e.e.e.q.e.e.q.e.e.e.e.e.e.e.e.q.e.e.e.e.q.e.e.q.e.e.e.e.q.e.e.e.e.e.w.e.e.e.e.9.q.e.e.9.e.9.e.9.q.e.q.e.e.q.9.e.e.e.q.e.e.e.e.e.q.e.e.e.e.e.9.e.e.9.9.e.e.e.9.w.w.4.+.m $ O e u y k j g g j 2 2 l 2 6 6 7 5 7 4 3 8 7 7 5 5 5 6 6 7 7 6 8 6 7 7 5 5 7 7 5 5 7 8 8 7 7 5 8 6 6 7 7 6 7 7 5 7 8 7 8 7 7 7 7 7 7 7 8 7 7 7 7 7 7 7 7 7 7 7 7 7 7 7 7 7 7 7 7 7 7 7 7 7 7 7 7 7 8 7 7 7 7 7 7 7 7 7 7 7 7 7 7 7 7 7 7 7 7 7 7 7 7 7 7 7 7 7 7 7 7 7 8 7 7 7 7 7 7 7 7 7 7 7 7 7 7 7 7 7 7 7 0 7 7 7 7 7 7 8 7 7 7 7 7 7 7 7 7 7 7 7 7 8 7 7 q 7 7 7 7 7 7 7 7 7 7 7 7 7 7 7 7 ",
"%.o.o.%.o.%.%.o.%.%.o.%.o.%.o.%.o.%.o.+.+.%.o.%.o.o.o.o.%.o.%.o.o.o.o.+.%.o.o.%.%.o.%.o.o.o.o.+.o.o.o.O.o.o.o.o.+.O.o.o.o.O.o.o.o.o.o.o.o.X.o.o.o.' o.X.o.o.o.o.' o.o.' o.o.X.o.X.' X.o.o.o.X.o.` o.o.o.X.o.X.o.X.` o.` o.X.o.X.o.o.' X.X.X.o.O.o.o.o.o.X.O.o.O.o.o. .X.X.X.o.X.o.X.o.X.X.X.X.X.o.X.X.X.X.X.X.o.o.X.o.X.` o.` X.X.X.X.X.X.X.X.X.` X.o.X.X.X.` X.X.X.X.X.X.X.X.X.X.X.X.X.X.X.X.X.X.X.X.X.X.X.X.X.X.X.X.H X.X.X.X.X.X.X.` H X.X.` X.X.X.H X.X.V X.X.H X.X.H X.X.V X.X.X.X.H X.H X.X.V X.X.X.H X.V X.X.H X.V X.H ` X.H H X.H K X.X.H X.X.H H X.H X.X.H H X.X.V H H H V V X.H H H H ( ) ..&.5.w.w.w.w.e.w.w.w.w.w.w.4.&.( ( O.F H V ` ` ` ` ( H F H H H H H H K H V H V H V V V H H G H H H H G G H H H G H G H H H V G G H G G V H G V V G B H H B G G V B H B B H H B B H V G G H G G H J H H G H G H J G G G G G B G G B D G B H G G G H B G G G B G G H B H G G G G G B G G G B B B H B B N V B B B B V B B B B B B B G B B B B G B B B B B G B G B G B B G B G B B B B G B G B G B B B G B G B B B B B B B B B c G B B B B M B B B B c c G G c c S G c c G c G G c c B B c B c B c c G S c B c B c B c c c B c B c c G S c B c B c B c c c B c c G c B c c B c c B c B B c c B c S G c c S S c S c S S S S S k S k S Z c c S k k M n a b ) %.&.&.4.5.5.5.4.5.4.4.4.2.&.@.] @.5.w.w.e.e.e.9.9.9.e.e.e.e.e.e.e.e.e.e.e.e.e.e.e.e.e.e.e.e.e.e.e.e.e.e.e.e.e.e.e.e.e.e.e.e.e.e.e.e.e.e.e.e.e.e.e.e.e.e.e.e.e.e.e.e.9.e.e.e.e.e.e.w.w.e.9.e.q.e.e.w.q.e.9.q.9.q.9.9.9.w.w.e.w.w.5.w.w.w.w.e.9.q.9.q.e.e.w.w.4.` b k c x c x x c l c l c l c c x c x c x c x x x x x x x x S x A x x x x x x x x x x x x x A x x x x x x x x x x x x c x x x x x x x x x x x c x x x x x x x x k x x x x x x x x A x A x x x A x x x A x x x x A x x x x x A x x x x x x x x x x x x x x x x 4 x x x x 8 8 x x 8 8 x 8 8 x 8 8 x x 8 8 A 8 x 8 x x 8 8 A x 8 x x x x x A 8 x A 8 8 x A 8 8 x A 8 x x 8 x 8 x 8 x x 8 8 x x 8 8 x x 8 x 8 8 x 8 8 8 x x 8 x 8 8 x 6 x 6 x 8 8 x 8 8 6 x 8 x 6 x 8 8 x 8 8 8 x x 8 9 8 8 x l = N &.w.w.e.9.9.e.e.e.e.e.e.e.e.e.e.e.e.e.e.e.e.e.e.e.e.e.e.e.e.e.e.e.e.e.e.e.e.e.e.e.e.e.w.e.w.w.e.w.q.9.9.w.e.w.e.e.e.e.9.e.e.e.w.e.e.w.q.e.e.e.e.e.w.0.w.8.e.9.q.e.e.e.e.e.e.e.e.e.e.e.e.e.e.e.e.e.e.e.e.e.e.e.e.e.e.e.e.e.e.e.e.e.e.e.e.e.e.e.e.e.e.e.e.e.e.e.e.e.e.e.e.e.9.e.e.q.e.q.e.e.e.e.e.e.e.e.e.e.e.e.e.e.e.e.e.e.e.e.e.e.e.e.e.e.e.e.e.e.e.e.9.e.e.q.e.e.e.e.e.e.e.q.e.e.e.9.9.e.e.e.e.q.e.e.e.e.q.e.e.e.e.9.e.e.9.e.e.e.e.w.w.5.4.$.@.=.=.*.*.+.O.H V M h z 2 2 2 2 2 6 5 8 7 7 6 8 6 6 6 8 6 7 7 5 7 7 6 8 7 6 5 8 8 5 5 5 5 6 7 5 7 7 8 5 7 7 5 8 7 7 7 7 7 7 8 7 7 7 7 7 7 7 7 7 7 7 7 8 7 7 7 7 7 7 7 7 7 7 7 7 8 7 7 7 7 7 7 7 7 7 7 7 7 7 7 7 7 7 7 7 7 7 7 7 7 7 7 7 7 7 7 7 7 7 7 7 7 7 7 7 7 7 7 0 0 7 7 7 7 7 7 7 8 0 7 7 8 7 7 7 7 7 7 7 7 7 7 7 7 8 0 7 7 7 7 7 7 7 7 7 7 7 8 7 7 7 7 7 7 7 7 7 7 7 7 7 7 7 7 7 7 8 7 8 ",
"o.%.%.@.%.o.o.%.%.o.o.%.o.%.o.%.o.o.o.o.%.o.o.o.o.o.%.o.o.o.o.%.o.%.o.o.o.%.o.o.o.o.o.%.+.o.o.+.o.o.+.o.o.+.O.+.o.o.+.o.O.o.o.O.o.o.o.o.o.o.X.o.o.X.o.o.o.X.o.o.o.X.o.o.X.' o.o.o.o.X.o.o.o.' X.o.o.X.o.` o.X.o.o.o.o.o.o.X.o.X.o.` o.o.o.X.o.o.o.o.O.X.o.X.O.X.O.X. .X.o.X.X.X.X.X.X.o.X.o.X.X.X.o.X.o.X.o.X.X.X.X.X.o.X.X.X.o.X.X.X.X.o.` X.X.o.X.` X.` X.X.X.X.X.X.X.X.X.X.O.X.X.X.X.X.X.X.X.O.X.X.X.X.X.X.X.X.X.` X.X.` H X.X.X.X.` X.X.X.X.X.X.X.X.X.X.X.X.H X.X.H X.X.X.X.X.H X.X.X.X.X.V V X.V X.X.` ` X.X.V V X.X.X.X.H K X.H X.X.H X.H H H H K X.H H X.H K H H X.H H  .H H H X.H V H ` ' @.4.5.w.w.e.e.e.9.9.q.9.e.e.w.w.4.@.( F X.` V N _ _ ' X.` m m X.H H H H K H H H H V H H H H H G H J F G H H H F H G H F H G H G H H G H B V G G G G G H B G V V G H H H H H H B H H B G G G G G G G G G J G G G G G H H B G B B H G B V G G B B G B D G G G G F G G B B H G B G G B G G B G G V B B B B B B B B B B M B B B B G B G B B B c G B G B G B G B B B B B G B B B B B G B B B B B G G B B B B B B B G B B B B B B B B c B B B B B B B B B B G c c G G S c G G G c S c c B c c c c c c c B c B c c B c c B c B c G B c c B c B c B B c c B c B c G B c G c c B c B c G B c S c G c c G S c S S S c S c S S c c S S S S S S S C k S S M n m o.&.&.5.5.w.w.w.w.w.w.w.w.w.w.w.w.w.5.3.w.w.e.e.e.e.q.e.e.e.e.w.w.e.e.e.e.e.e.e.e.e.e.e.e.e.e.e.e.e.e.e.e.e.e.e.e.e.e.e.e.e.e.e.e.e.e.e.e.e.e.e.e.e.e.e.e.e.e.e.e.e.e.e.e.e.9.e.q.q.e.e.e.w.9.e.9.e.e.w.w.e.e.e.e.9.e.9.9.9.9.e.8.e.e.w.e.w.e.e.e.9.9.9.e.9.e.w.w.4.*.H h k x S x c x c x c x z x x x c c c x x x x x x x c x c x x x x x x c x c c x c x x S x x x c x c x c x x x x c x A k x c x c k x x x c x A k x c x x x k x x x x x x A x x x x x x x x A x x x x x x x x x x x x x x x x x x A x x x x x x x A x x x x 8 x x x 8 8 x A 8 8 A 8 x x 8 x x x 8 8 x x 8 8 x A 8 x x x 8 8 x x 8 x x 8 x 8 x 8 A x 8 8 x x 8 8 x x 8 x x x x x 8 8 x x 8 8 x A 8 8 x 8 x x 8 x 8 8 8 x 6 8 8 8 8 8 x x 8 6 x 8 8 x 8 x 8 x 8 8 x x 8 8 8 8 j 4 9 3 q 8 q 6 z ' 5.w.9.9.8.e.9.e.9.q.e.e.e.e.e.e.e.e.9.e.q.e.e.e.e.e.e.e.e.e.e.e.e.e.e.e.w.e.e.e.9.e.e.e.q.q.q.e.e.w.e.e.e.e.e.e.e.e.9.e.e.e.e.e.e.e.e.e.e.q.e.e.e.w.w.w.e.9.e.e.e.e.e.e.e.e.e.e.e.e.e.e.e.e.e.e.e.e.e.e.e.e.e.e.e.e.e.e.e.e.e.e.e.e.e.e.e.e.e.e.e.e.e.e.e.e.e.e.e.e.e.e.9.e.e.e.e.e.e.e.w.e.e.e.9.9.e.w.e.e.e.e.e.e.e.e.e.e.e.9.e.e.e.e.e.e.e.e.e.9.e.e.e.e.e.e.e.e.e.e.e.e.e.e.e.e.9.e.e.9.e.e.9.e.e.e.e.e.e.e.e.e.e.e.e.e.w.q.e.e.q.w.e.w.w.w.w.w.5.5.5.=.=.%.o.X.V k 8 4 1 1 4 7 7 7 7 7 5 6 5 6 5 6 7 7 6 7 5 7 5 5 8 7 6 8 5 5 7 8 5 7 7 8 5 5 7 7 6 7 5 7 8 7 7 7 7 7 7 7 7 7 7 7 7 0 8 7 7 7 7 7 7 8 7 7 7 7 8 7 0 7 8 7 7 7 7 7 8 7 0 7 7 7 7 7 7 7 7 7 7 7 7 7 7 7 7 7 7 7 7 7 8 7 7 7 7 7 0 7 7 7 7 7 7 7 7 7 8 7 7 7 8 7 7 7 7 7 7 7 7 7 7 7 7 7 8 8 7 7 7 7 7 7 7 7 7 7 8 8 7 7 7 8 7 7 0 7 7 7 7 7 7 7 7 7 7 7 7 7 7 0 7 7 0 7 7 ",
"%.%.o.o.%.o.%.%.o.%.%.o.} o.%.' o.%.o.%.o.o.o.%.o.%.+.o.%.+.o.o.o.o.%.o.o.o.o.%.%.o.o.o.o.%.o.o.+.o.+.o.o.o.o.o.o.+.o.o.o.o.o. .o.X.o.o.o.X.o.o.o.o.o.` o.X.' X.o.o.X.o.o.o.o.X.X.o.o.' o.X.o.o.X.` o.o.o.o.o.o.X.' X.o.o.' o.o.o.o.X.X.o.o.X.o.X.X.o.o.O.X.o.O.o.X.O.X.X.X.X.o.o.X.X.X.X.X.o.O.X.X.X.X.X.X.o.X.o.X.X.o.X.` X.X.X.` o.X.X.X.X.X.` X.X.X.o.X.X.X.X.o.X.X.X.X.X.X.O.X.X.X.X.X.X.X.X.X.X.X.X.X.X.X.X.X.X.H X.X.X.X.H X.X.X.X.X.X.H X.X.X.X.X.X.H ` X.X.X.X.H X.X.H X.X.H X.X.H X.V X.X.V X.H X.H H X.X.X.X.V H ` X.H X.H H X.H H H X.X.H X.H H X.H H X.X.H H H H H X.H H H H ` ` ` @.4.5.w.w.w.e.e.e.9.9.e.9.e.9.e.w.w.5.=.) ( ( ( ' &.&.4.4.=.*.%.` X.` X.H H H H G H H H V H H G H G H H V H H G H G H G G G H H G V G G V H G G H V G H G H G G H G B H B B H B H H B H G H H G H G G H G G H G G H G G G G F B G G G G G G G G G H B G G B G G B G G G G B D H B G F G G G G G G B G V B B V B B V B B V B B V B B B B B G G B B B B B B B G B G B B B G B B G B B G B G B B G c B B G B G B G B B B B B B B B B c M B B B M B B B B c c G S c c G G c S c G c c B c B B B B B G c c B c B B c S B c B c B c c G c c B c B c c S B c B c B c c B c c B c B c G c c B c B c c B S c S c c S G c S c B c B c c B k D k Z k J n n m ( %.=.5.w.w.w.w.9.e.w.w.e.e.e.e.e.w.9.e.e.e.e.e.e.e.q.e.e.e.e.e.w.e.e.w.e.e.e.e.e.e.e.e.e.e.e.e.e.e.e.e.e.e.e.e.e.e.e.e.e.e.e.e.e.e.e.e.e.e.e.e.e.e.e.e.e.e.e.e.e.e.e.e.e.e.e.w.e.e.e.e.e.w.w.9.w.e.e.e.e.q.e.e.q.e.e.e.9.9.9.9.9.9.9.9.e.9.e.e.9.9.9.e.9.e.9.q.e.w.w.=.*. .k x x x x x c x c x c x c c z c l x x k x c x k A x x x x x c x c x x x x x x x x x x c x x x x x x x c x A k x x x x x x A x x x x c x x x x x x x x x x x j x x x x x x x A x x x x x x x x x A x x x A x x x x A x x x x x x x x x A x x x x x x x x x x x x x x 8 x x x 8 x x 8 A 8 A 8 x x 8 x 8 x x 8 x 8 A 8 x 8 x 8 A 8 8 x 8 x 8 x 8 x x x x 8 x 8 x 8 A 8 8 x 8 A 8 x 8 x x x x 8 x 8 x x 8 x x x 8 x 6 8 x 8 x x 6 x 8 x 8 x 8 x x 8 x 8 x 8 x 8 8 8 x 8 x 8 9 4 q 8 q 8 8 = M *.5.w.e.8.8.e.e.9.e.e.e.q.e.e.e.e.e.9.e.e.e.e.e.e.e.e.e.e.e.e.9.e.e.e.e.e.e.w.9.e.e.q.q.q.e.e.e.q.e.w.9.e.e.q.e.e.e.e.e.e.e.e.e.w.e.e.e.e.e.e.q.e.e.w.w.w.w.e.e.q.e.e.e.e.e.e.e.e.e.e.e.e.e.e.e.e.e.e.e.e.e.e.e.e.e.e.e.e.e.e.e.e.e.e.e.e.e.e.e.e.e.e.e.e.e.e.e.e.e.e.e.9.e.9.e.e.e.e.e.w.e.e.w.e.e.9.e.8.8.e.w.e.e.e.e.e.e.e.e.e.e.e.e.e.q.q.e.e.e.9.e.e.w.e.e.e.e.e.e.e.e.w.w.w.w.e.w.e.9.e.e.9.e.9.e.e.e.e.e.e.e.w.e.e.e.e.e.e.e.e.e.e.9.e.e.e.w.w.w.5.2.&.=.&.=.=.+.O.G j g j x 8 1 8 7 7 7 7 6 6 6 8 5 7 7 5 8 7 6 7 5 7 7 7 5 8 7 6 7 6 7 5 7 7 6 5 8 5 8 5 7 8 7 7 7 7 7 7 7 7 7 8 7 7 7 7 7 7 7 7 7 7 7 7 7 7 7 7 7 7 7 7 7 7 7 7 7 7 7 7 7 7 7 7 7 8 7 0 8 7 7 8 7 7 7 q 7 7 7 7 7 7 7 7 8 7 7 8 7 7 7 8 7 7 7 7 7 7 7 7 7 7 7 7 7 7 7 7 7 7 7 7 7 7 7 7 7 7 7 7 7 7 7 7 7 7 7 7 7 7 7 7 7 7 7 7 7 7 7 7 7 7 7 7 7 8 7 7 7 8 7 7 7 7 7 ",
"o.%.o.@.o.%.%.%.o.%.' o.%.o.o.' %.o.o.%.o.o.%.%.o.o.o.%.o.%.o.o.o.%.o.%.o.o.o.%.o.%.o.+.%.o.o.o.o.+.o.+.O.o.o.+.+.o.O.o.o.+.o.o.O.o.X.o.o.o.o.X.o.o.o.o.o.o.X.o.o.' X.o.X.o.X.o.o.o.o.o.o.` o.o.o.' o.' o.o.X.o.o.o.' o.X.o.o.X.o.o.o.o.O.o.X.X.o.X.o.o.O.o.O.X.X.X.X.X.X.o.X.X.o.X.o.X.X.o.X.o.X.X.o.X.X.X.X.X.X.o.X.X.X.X.` X.X.X.o.` X.' X.X.X.o.X.o.` X.X.X.X.X.X.X.X.X.X.X.X.X.O.X.X.X.o.X.X.O.X.X.X.X.X.X.X.X.X.X.X.X.H X.X.` X.X.X.H X.X.X.X.X.X.V X.X.X.X.X.X.X.X.X.X.H X.X.H X.X.V X.` H X.H X.` H X.` X.X.V V X.H X.X.H H K H X.K X.H H H O.F F K F K X.X.X.H H H F H G K H V X.` ` *.5.w.w.0.e.e.e.e.e.9.9.e.9.e.e.e.w.w.w.w.>.E Q <.w.w.w.w.w.w.w.5.5.| _ ` O.G S J G G G H H H H G F J H H V H V H H H J H H H H V H G H G V H G V G H G G H G H G V H G V G G H V G G G G H G G H G G G G G G G G G G H J G G G B G G G B G G B H G B H B G G B H G G G G G G B G B V V G B G B G V B B B B B B V B B B V M B V B B B B B B B B B B B G B G c B B B B B G B G B G B B B G B G B B B B B B B G B B B B B G B B B B k G B B B B M B B B B B c B c G S G B S c B M c M c B B B c B B c B c c c c B c B c c B c B c c S c B c B c c B c B G c G c B c c S c B G c S c c S c S S S c S c G B c S G c k k B k Z S k D S d n D F m m T U =.4.5.w.w.w.w.w.e.9.9.e.w.e.8.e.8.e.e.w.e.e.e.9.e.e.e.e.e.9.e.e.9.e.e.e.e.e.e.e.e.e.e.e.e.e.e.e.e.e.e.e.e.e.e.e.e.e.9.e.e.e.e.e.e.9.e.e.e.9.e.e.e.e.e.e.e.9.e.e.e.e.e.e.e.e.e.e.w.e.9.e.w.e.e.w.e.e.w.e.w.e.e.w.q.e.e.e.e.e.e.e.e.e.e.e.e.e.e.e.e.e.e.e.e.e.e.e.e.w.w.5.=.%.O.n z c c x c x c x x c x c x c l c x S x c x x x x x k x S x A x x x x x x x x x x x k c x x A x x x c x c x x x x x x x k x x x x x c x x x x x x x x c x x x l x x x x x x A x x x x x x x x x A x x x x x A x x x x x x x x x A x x x x A x x x x x x x l 8 x x 8 x 8 x 8 x x 8 A 8 x 8 x x 8 x x 8 A x 8 x 8 x 8 8 A 8 8 x x 8 A 8 x 8 x x 8 x 8 A 8 x x 8 x 8 x 8 x x x 8 x A 8 x 8 x 8 x x 8 8 x 8 8 x 8 6 x 8 8 x 8 x 8 8 x 6 x 8 x 8 8 x 8 6 x 8 8 x 6 x 6 8 4 x q 0 0 7 0 7 q g m 4.w.q.e.9.9.e.e.e.9.e.e.e.e.e.e.e.q.e.e.e.e.e.e.e.e.e.e.e.e.e.e.9.e.e.e.e.e.e.e.e.e.e.e.e.e.e.e.e.e.e.e.e.e.e.e.e.q.e.q.e.e.e.e.e.e.e.e.e.e.e.e.e.e.e.e.e.e.e.e.e.e.e.e.e.e.e.e.e.e.e.e.e.e.e.e.9.e.e.e.e.e.e.e.e.e.e.e.q.e.e.e.e.e.e.e.e.9.e.e.e.e.e.9.e.e.e.e.e.9.e.e.9.e.e.e.e.e.e.e.e.e.e.e.e.e.e.e.e.9.e.e.e.e.e.9.e.e.e.e.e.9.w.e.e.e.e.e.e.e.e.e.e.e.e.e.e.e.e.e.e.e.e.e.e.e.e.e.e.e.e.e.e.e.e.e.e.e.w.e.e.e.e.e.e.e.e.e.e.e.q.q.e.e.e.e.w.e.w.w.>.&.&.&.&.&.*.*.*.+.+.H h r 2 x 5 5 7 7 7 7 6 6 8 5 7 7 5 8 8 5 7 7 5 8 5 7 6 5 7 8 7 7 7 7 7 7 7 7 8 7 7 7 7 7 0 7 7 8 7 7 7 7 7 7 7 7 7 7 7 7 7 7 7 7 7 7 7 7 7 7 7 7 7 7 7 7 7 7 7 7 0 7 7 7 7 8 7 7 7 8 7 7 7 7 7 7 7 7 7 7 7 7 0 7 7 7 7 7 0 7 7 8 7 7 7 8 7 7 7 7 7 7 7 7 7 7 7 7 7 7 7 7 7 7 7 7 7 7 7 0 7 7 7 7 7 7 7 7 7 7 7 7 7 7 7 7 7 7 7 7 7 7 7 7 7 0 7 7 7 7 7 7 7 7 7 7 ",
"o...%.%.%.o.%.o.%.o.o.%.' %.%.o.o.+.o.o.o.%.o.o.%.o.o.o.o.o.%.o.o.o.o.o.%.+.o.o.o.o.%.o.+.o.o.%.o.o.o.+.o.o.o.o.o.o.o.o.o.O.o.o. .o.o.o.X.o.o.o.X.o.` o.` o.` o.o.X.o.o.X.' o.o.' X.o.X.o.o.o.X.o.X.X.o.X.o.' o.X.o.X.o.' o.o.o.o.` o.X.o.X.o.o.o.o.X.o.X.X.O.o.o.X.o.X.X.X.X.o.X.X.O.X.X.X.X.X.o.X.X.X.X.o.X.o.X.X.X.o.X.` o.X.X.X.X.X.X.X.X.X.X.` X.X.X.X.` o.X.X.O.X.X.X.X.X.X.X.X.X.X.X.X.X.X.X.X.O.X.X.X.X.V X.X.X.` X.X.X.X.X.X.X.X.X.X.X.` X.X.X.X.X.X.X.H X.H X.X.H X.X.X.X.X.X.X.X.X.V H X.X.X.H X.X.H V X.X.X.X.X.V X.X.H X.H H H X.H K X.H H H O.F H H H H X. .H K F G H H V ` ( ) 4.w.e.e.e.8.e.9.e.e.e.e.e.e.9.e.e.e.w.w.w.6.,.,.q.w.w.w.e.e.e.e.q.w.2.| ' F D J J J G H H H H H J J J H V V ` ` V H G G G H H V V V G G G G G G G V G G V V G G G G G G G H G B H G G G G G G J G G H H G G H H G G G G H G H G G G G H B G G B G G G G G D G G G B G H B H B G G G B B G B V V B B B V B B V B V B B B B B B B B B B B B G B B G B B B B B G G B G B B B B B B B G B B B B B G B G B G B B B G B G B B B B B B B G c B B B B B B B B c B B c S G S S c S B B c B B B B M M B M B B c B B B G c B c c B c G c B G B B c c c c G c c c c B c B c c S c S S S S c S S B S c c c S c c c c c S k B B B n J D F F D F F m m p % I @.5.w.w.w.e.e.8.9.9.9.9.9.9.9.9.w.w.w.e.w.9.e.e.e.e.e.e.e.e.e.e.e.e.e.e.e.9.9.9.e.9.e.e.9.e.e.9.e.e.e.9.e.e.e.9.e.e.e.e.e.e.e.9.e.e.e.e.e.9.e.e.9.e.e.e.9.e.e.e.e.9.e.e.e.e.e.e.e.e.e.9.w.w.9.e.9.9.e.e.e.9.9.8.e.e.e.e.e.e.e.e.e.e.e.q.e.e.q.e.e.e.e.e.e.w.e.e.w.w.w.5.4.2.=.%.o.V z x l c l c l l c l c l z x c x x x x x x c x c A x x x x k x c S x A k c x S x x A x x x k c x x x x x k x x S c x x A x S k A x x c x k A x c x x l x c x x x x x x x x x x x A x x A x x x x x A x x x x x x x A x x x x x x x x x x x x x x 8 x l x x x l x x 8 8 x x 8 8 x x x 8 A x 8 A 8 8 x x 8 x 8 x 8 x x 8 x x 8 8 x x x 8 x x 8 A 8 x 8 x 8 8 x x 8 8 A x 8 8 x x 8 x 8 x x x 8 8 A x 8 x x 8 x x 8 8 x 6 x 8 x x 8 8 8 x 8 8 x 8 l x 8 8 x 8 x 8 x 8 4 4 7 7 4 q q 8 x t ( 5.w.q.e.e.e.e.9.e.e.e.e.e.e.q.e.e.e.e.e.e.e.e.e.e.e.e.e.e.e.e.e.e.e.e.e.e.e.e.e.e.e.e.e.e.e.e.e.e.e.q.e.e.q.e.e.e.e.e.e.e.e.e.e.e.e.e.e.e.e.e.e.e.e.e.e.e.e.e.e.e.e.e.e.e.e.e.e.e.e.e.e.e.e.e.e.e.e.e.e.e.e.e.e.q.e.e.e.e.e.q.e.e.e.e.e.e.e.e.9.e.9.e.e.e.9.e.9.e.e.e.e.e.e.e.e.e.e.e.e.e.e.e.e.e.e.e.e.e.e.e.e.e.9.e.e.e.e.e.9.e.e.e.e.e.e.e.e.e.e.e.e.e.e.e.e.e.e.e.e.e.e.e.e.e.9.e.e.e.e.e.e.e.e.e.e.e.e.e.e.e.e.e.e.e.e.e.e.e.q.e.e.9.e.e.e.e.w.w.5.2.2.&.&.&.=.&.*.=.*.%...m n g 6 5 7 7 7 < 7 8 6 6 7 6 7 7 5 5 5 7 6 7 5 8 5 7 7 7 7 7 7 8 7 7 7 7 7 7 7 7 7 7 7 7 7 7 7 7 7 8 7 7 7 7 7 7 7 7 8 7 8 7 7 7 7 7 7 7 7 8 7 8 7 7 7 8 7 7 7 8 7 7 7 7 7 7 7 7 7 7 7 7 7 7 7 7 7 7 7 7 7 8 7 7 7 7 7 7 7 7 7 7 7 7 7 7 7 7 7 7 7 7 8 7 7 7 7 7 7 7 7 7 7 8 7 7 8 7 7 7 7 7 7 7 8 7 7 7 7 7 7 7 7 7 7 7 7 7 8 7 7 7 8 7 7 7 7 7 7 7 7 7 7 7 7 ",
"%.%.%.o.o.%.%.o.o.%.o.o.%.%.o.o.o.o.%.o.+.o.o.o.o.%.o.%.o.o.o.+.o.%.+.o.o.%.o.%.o.o.o.o.%.o.%.o.o.o.o.o.o.+.+.O.o.+.O.+.o.o.o.o.o.o.o.o.o.o.o.o.o.o.o.o.` o.o.o.o.o.o.X.o.X.o.X.o.` o.` o.X.o.o.o.o.' o.' o.X.o.X.o.X.o.X.o.X.X.o.X.' o.o.o.o.o.X.o.X.X.o.X.X.O.X.X.X.o.X.X.o.X.X.o.X.o.X.o.X.X.X.o.X.X.o.X.X.X.X.o.X.X.X.X.` X.X.X.X.X.X.X.X.X.X.X.X.X.X.' X.X.X.X.X.X.X.X.X.X.X.X.X.X.X.X.O.X.X.X.X.X.X.X.O.X.X.X.X.X.H X.X.X.X.X.H X.` X.X.H X.X.X.X.X.X.X.X.X.X.X.X.X.X.X.H X.X.V X.X.H X.H X.X.V V X.X.X.V V X.X.X.V V X.X.H H X.H X.H X.H H H H X.H H X.O.F H  .K K H K H F H H m ( ' &.4.w.9.8.e.w.e.e.e.9.e.e.9.e.e.e.e.e.e.e.w.e.e.e.e.9.e.e.w.w.e.e.w.e.w.4.) f K K J G H H H G G J J G S G H H V H H G G G J J H H H V G H V H B H G B H G H G G H V G H H G G V V G G G J H G G H G G G H G J G H G G G G H G G D B G D B G G G G D B G G D V G G G G G D B G G G G B B B B V B G B B V M B B V B B B B B B B V V B B B B B G B B B B G B B G B B B B G B G B G B B B G B G B G B B B B B G B B B B c G B G k B B B S c B B B B B M B B B B B c G c S c G G c G c B B c c B B B M B B c B c c B c c B c S B c c B c c B c G G c c B G c B c c B c B S c c S c S S c c S c S S c c G c G S c B c k D F H X.O.+.O.+.o.*.*.=.*.@.3.w.w.w.w.e.w.8.9.9.e.9.e.e.9.e.e.e.e.e.e.e.e.q.e.q.e.e.e.e.e.e.e.9.e.e.e.e.e.e.e.9.e.e.q.e.e.e.e.e.e.e.e.e.e.e.e.e.e.e.e.e.e.e.e.e.e.e.e.e.e.e.e.e.e.e.q.e.e.e.e.e.e.9.e.e.e.e.w.e.e.e.e.e.e.e.e.e.e.9.e.e.e.e.e.e.e.e.e.e.e.e.e.e.e.e.e.e.e.e.e.e.e.e.e.e.e.w.e.w.e.w.5.2.&.*.*.+.m k x z x c x x c x z x c x c l c x x x x c x x x x x x x x c x x c x x x x x x c x x x x x x x x x c x x A x c x c x x x x x x x x x x x x x x x x x x x x x x x x x x x x x A x x x x x x A x x x x x x x x x x x x x x A x x x x x A x x x x A x l x x x x x x 8 x x 8 8 x x 8 8 x 8 8 x 8 8 x x 8 8 A x 8 A x 8 x x x 8 x A 8 8 x 8 x x 8 8 x x x x x x x 8 x x 8 8 x 8 x 8 x 8 8 x 8 8 x x 8 x 8 x 8 x 8 x x 8 x x 8 x 6 8 x x 8 x x 8 x 8 x 8 x 8 x 8 x l 8 C x 8 8 6 8 8 6 j h a o.w.w.q.e.9.e.9.e.9.e.e.e.e.e.e.e.e.e.e.e.e.e.e.e.e.e.e.e.e.e.e.e.e.e.e.e.e.e.e.e.e.e.e.e.e.e.e.e.e.e.e.e.e.e.e.e.e.e.e.e.e.e.e.e.e.e.e.e.e.e.e.e.e.e.e.e.e.e.e.e.e.e.e.e.e.e.e.e.e.e.e.e.e.e.e.e.e.e.e.e.e.e.e.e.e.e.e.e.e.e.e.e.e.e.e.e.e.e.e.e.e.e.e.e.e.e.e.e.e.e.e.e.e.e.e.e.e.e.e.e.e.e.e.e.e.e.e.e.e.e.e.e.e.e.e.e.e.9.e.e.e.e.e.e.e.e.e.e.e.e.e.e.e.e.e.e.e.e.e.e.e.e.e.e.e.e.e.e.e.e.e.e.e.e.e.e.e.e.e.e.e.e.e.e.e.e.e.e.e.e.e.e.e.e.e.e.w.w.w.2.2.&.&.&.=.&.*.&.=.$.=.*.+.K v 2 8 5 7 7 5 5 5 6 8 5 7 7 6 5 8 8 7 7 8 5 7 7 8 5 7 7 7 7 7 7 7 7 7 7 7 7 7 7 7 8 7 7 7 7 7 7 7 7 7 7 7 8 7 7 7 7 7 0 7 7 7 8 7 7 0 7 7 7 7 7 7 7 7 7 7 7 7 7 8 7 7 7 7 7 7 7 7 7 7 8 7 7 7 8 7 7 7 7 7 7 8 7 7 7 7 7 7 7 7 7 7 7 7 8 7 7 7 0 7 7 7 7 7 7 7 7 7 7 7 7 7 7 7 7 7 7 7 7 8 7 0 7 7 7 7 7 7 7 7 7 7 7 7 7 7 7 7 7 7 7 8 7 8 7 7 7 7 8 7 7 7 7 ",
"%.o.o.%.%.%.o.%.%.o.} %.o.%.o.} o.%.o.o.o.o.%.%.o.+.o.o.%.o.%.o.o.%.o.o.o.o.o.o.%.o.%.o.o.o.o.o.o.o.+.o.o.o.o.o.o.o.o.o.o.O.o.o.o.o.o.X.o.X.o.o.o.` o.X.o.o.X.o.X.' o.o.o.o.o.' o.o.o.o.o.` o.` o.X.X.o.X.o.X.o.o.' o.o.o.o.o.' ' o.o.X.X.o.X.X.o.O.o.o.O.O.X.o.o.X.X.X.o.X.X.X.X.X.X.X.X.X.o.X.X.X.X.o.X.X.X.o.X.X.o.X.o.X.X.X.X.` o.X.` o.X.X.X.X.' X.X.X.X.X.X.X.O.X.X.X.O.X.X.X.X.X.X.X.X.X.X.X.X.X.X.X.X.X.X.X.X.X.X.X.X.X.X.X.X.X.X.X.X.X.H X.X.X.X.X.X.V H ` X.H X.H X.X.X.H X.X.X.V X.` V X.X.X.V V X.X.X.X.V V X.X.X.V X.X.` H X.X.H X.X.H X.H  .H H H X. .H H F D K H G H K V ( ..&.w.w.e.w.e.e.9.e.e.e.e.e.e.e.e.9.e.e.w.e.8.w.e.w.e.e.e.e.e.e.e.e.e.e.w.5.@.( m  .D H H H H G G G S S J J J H H H H G D G G H H H V H G B H G H B H H B H G H G B H G G V G G H G G H G H G G H G G H J G G H G G G H G G G G H B G B H G G G G G V G H B B G G B G G G B H G G B G V G V G G B H B B V B B B B B B V B B V B B B B V B B B B B B G B B G B B B G B B B B B B B G B B B B B B c G B G B B B G B G B G B B B B B B B B B B B B B B B B B c c c B c G G S c S G c B c B B B B M B B c B c c B S c G c c G c B c B c B c c B c B c c B c B c c G c B c c G S c S c S c S c S S c G S S A S S S k B n B X.+.*.*.*.=.=.&.=.=.5.5.5.5.w.w.w.q.q.q.e.9.9.e.q.e.e.e.e.e.q.w.w.e.e.e.e.q.e.q.9.e.e.9.e.e.e.e.e.e.9.e.e.e.e.e.e.e.q.e.e.e.e.e.e.e.e.e.e.e.e.e.e.e.e.e.9.e.e.e.e.e.e.w.e.e.e.e.e.e.e.e.e.9.e.e.e.e.e.e.e.e.w.e.e.e.e.e.e.q.e.q.e.q.e.q.e.9.e.e.e.w.w.e.w.e.e.e.e.e.e.e.e.e.e.e.e.e.e.w.e.w.w.w.0.>.$.#.=.*.+.D z l x c l c c x c x c l c x c x x c A k x x x c x c c x x x x c x x x c c x x x x c x c S x c x x x c A x x x x x x x c x c x c c x c x c x x S l c x x l x x c A x x x x x x x x x x x x x x x x x x A x x x A x x A x x x x x x x x x x x x x x l x 8 x l 6 x x x 8 x x A 8 x x 8 x x x x 8 x x 8 x 8 8 x 8 x A 8 x 8 x x 8 x x 8 A 8 x x 8 x 8 x 8 8 x 8 A 8 8 x x 8 x 8 A 8 x x 8 A x 8 x x 8 x 6 x 8 x 8 8 x 8 x 8 8 x 8 8 8 x 6 8 8 8 8 8 8 8 x 8 x 8 x 8 4 8 8 4 x x x z r t a @.w.w.w.e.e.e.e.e.e.e.e.e.e.e.e.e.e.e.e.e.e.e.e.e.e.e.e.e.e.e.e.e.e.e.e.e.e.e.e.e.e.e.e.e.e.e.e.e.e.e.e.e.e.e.e.e.e.e.e.e.e.e.e.e.e.e.e.e.e.e.e.e.e.e.e.e.e.e.e.e.e.e.e.e.e.e.e.e.e.e.e.e.e.e.e.e.e.e.e.e.e.e.e.e.e.e.e.e.e.e.e.e.e.e.e.e.e.e.e.e.e.e.e.e.e.e.e.e.e.e.e.e.e.e.e.e.e.e.e.e.e.e.e.e.e.e.e.e.e.9.e.e.e.e.9.e.e.e.e.e.e.9.e.e.e.e.e.e.e.e.e.e.e.e.e.e.e.e.e.e.e.e.e.9.e.e.e.e.e.e.e.e.e.e.e.e.9.e.e.e.e.e.e.e.e.e.e.e.e.e.q.e.e.e.w.w.w.w.2.>.2.$.&.&.*.&.&.*.$.=.*.*.*.+.H j 2 6 5 7 7 5 1 8 5 8 5 6 7 7 5 7 6 5 8 5 6 7 5 7 7 7 7 7 7 7 7 7 7 7 7 7 7 7 7 7 7 7 7 7 7 7 7 7 7 7 7 0 7 7 7 7 7 7 7 7 7 7 7 7 7 7 7 7 7 0 7 8 7 7 7 7 7 7 7 7 7 7 7 7 7 7 7 7 7 7 7 7 7 7 7 7 7 7 7 7 7 7 7 7 8 7 7 7 7 7 7 7 7 7 7 7 7 8 7 7 7 7 7 q 7 7 7 8 7 7 7 7 7 7 7 7 7 7 7 7 7 7 7 7 8 7 7 8 7 7 7 8 7 7 7 7 7 7 7 0 7 7 7 7 7 7 7 7 7 7 7 7 ",
"@.%.o.%.o.o.@.o.o.' o.o.%.o.o.%.%.o.o.o.%.o.o.o.%.o.%.o.o.%.o.o.o.%.o.%.o.o.o.o.o.o.%.o.o.o.%.o.o.O.o.+.o.o.+.O.o.+.o.o. .O.o.o.X.o.o.o.o.o.X.o.o.o.' o.o.o.o.X.X.o.' o.o.o.' o.X.o.X.o.o.' o.o.o.X.o.X.o.X.o.' X.o.o.o.o.o.o.X.o.X.o.X.o.o.X.o.o.o.X.o.X.X.o.X.X.X.X.X.o.X.o.X.o.X.X.X.o.X.X.o.o.X.X.o.X.X.X.X.X.o.X.o.` o.X.X.X.X.X.o.` X.` X.X.` X.X.X.X.o.` X.X.X.o.X.X.X.X.O.X.X.X.X.X.X.X.O.X.X.X.X.O.X.X.X.X.X.V H X.X.` ` X.X.X.X.X.X.X.X.H X.X.X.X.` H X.X.H X.V X.H X.X.H H X.X.V X.V X.X.X.H X.X.H X.X.V X.X.H ` X.X.X.V X.` V ` X.H H X.H V X.H X.X.K H F K K H H J G H X.` ( } 4.w.w.e.e.e.e.e.e.e.e.9.e.e.e.9.e.9.e.e.e.9.9.e.e.w.e.e.e.q.e.e.e.e.e.w.w.$.^ T f  .V V ` V H G J J J G J G H F H V H G G K D H F G H G G H V G G V G G H G G H G H V G G G H G G H G G H G G G G G G G H G G G H J G G G G G G G G G G G G G G G G G G G G G G G G B H G G G B V G B G V B B G B B V B M B B B B B B M V B B B B B G B G B B B B B B G B G B B B B B G B B B G G B B G B G G B G B B B G B B B B B B B B G B B B B k B B M B B M B B B B B S B G c S S B S B c B B c c B B B B B B B c B c G c c B c B c G c B c c B c B c c S B c c c B c B c B B S S c S S S c G c c S c S c S c S S S c G B B O.+.%.*.=.&.&.>.2.@.&.2.2.5.w.w.e.e.w.q.q.e.9.e.q.e.e.e.w.w.0.3.:.0.w.q.e.e.e.e.e.e.e.9.e.e.e.e.e.e.e.e.e.e.e.e.w.e.e.e.e.e.e.e.e.e.e.e.e.e.e.e.e.e.e.e.e.e.e.e.e.w.w.e.w.e.e.e.w.w.e.e.e.e.e.e.e.e.e.e.e.e.w.w.e.q.e.e.e.e.q.e.q.q.q.e.q.e.e.q.e.w.w.e.e.e.e.e.e.e.e.e.e.e.e.e.e.e.e.e.w.w.w.5.,.<.>.#.&.*.*.+.n k l x c l c x z x c x c x c x c x A x x x x k x x x x x x k A x x x x c x x x x x A x x x x k A S x x k x c x c x x x c x x x x x x x x x x x j x x x x x x x x x x x x x A x x x x x x x x x x x x x x x x A x x x x x x x A x x x x x x x x x x l x x l x x l 8 x 8 x x 8 x 8 x 8 x x 8 A 8 x x 8 x x A 8 8 x 8 x 8 x x 8 x 8 A 8 x x 8 A 8 x 8 x 8 A x 8 x 8 A 8 x 8 x x x x 8 x x 8 8 8 x 8 x 8 x 8 8 x 8 8 6 x 8 x 8 x 6 x 9 8 8 8 x 8 8 8 8 x 8 8 x x x x x j j j g h k h v * U $.w.w.e.e.9.e.e.9.e.e.e.e.e.e.e.e.e.e.e.e.e.e.e.e.e.e.e.e.e.e.e.e.e.q.e.e.e.e.e.e.e.e.e.e.e.e.e.e.e.e.e.e.9.e.e.e.e.e.e.e.e.e.e.e.e.e.e.e.e.e.e.e.e.e.e.e.e.e.e.e.e.e.e.e.e.e.e.e.e.e.e.e.e.e.e.e.e.e.e.e.e.e.e.e.e.e.e.9.e.e.e.e.e.e.e.e.e.e.w.e.e.e.e.e.w.e.e.w.e.e.e.e.e.e.e.e.e.e.e.e.e.e.e.e.e.e.e.e.e.e.e.e.e.e.e.e.e.e.e.e.e.e.e.e.e.e.e.e.e.e.e.e.e.e.e.e.e.e.e.e.e.e.e.e.e.e.e.e.e.e.e.e.e.e.9.e.e.e.e.9.e.e.e.e.e.e.e.e.e.e.e.e.e.e.w.w.w.3.2.>.&.&.&.&.&.*.=.&.*.&.*.@.*.%.O.D g o 1 6 8 5 7 7 7 7 5 7 5 7 7 5 7 7 7 7 6 7 6 7 7 7 7 7 8 7 7 7 7 7 8 7 7 7 7 7 7 7 7 7 7 7 7 7 7 7 7 7 7 7 7 7 7 7 7 7 7 7 7 7 7 8 7 7 8 7 7 7 7 7 7 7 7 7 7 7 7 0 8 7 7 7 0 7 7 7 0 7 7 7 7 7 7 7 7 8 7 7 8 7 7 7 7 7 7 7 7 7 7 7 7 7 7 7 7 7 7 7 7 7 7 7 7 7 7 7 7 7 7 7 7 7 7 7 7 7 7 7 7 7 7 7 7 7 7 7 7 0 7 8 7 7 7 8 7 7 7 7 7 7 7 7 7 7 7 7 7 8 ",
"o.o.%.%.%.%.o.%.%.o.%.' o.%.%.o.o.+.o.%.+.o.o.%.o.o.o.o.o.o.%.o.o.%.o.o.o.%.o.%.o.%.o.o.o.%.o.o.o.+.o.o.+.o.o.o.o.O.o.+.+.o.o.o.o.o.o.X.o.X.o.o.X.o.X.X.o.` o.o.o.o.o.X.X.X.o.X.' o.o.o.o.X.X.o.o.o.o.' o.o.X.o.o.o.' X.o.X.' o.o.o.o.X.o.X.o.O.X.X.o.o.o.O.o.O.o.X.o.X.X.X.X.X.X.X.X.o.X.X.X.o.X.O.X.X.X.o.X.o.X.X.X.X.X.X.X.X.X.' X.X.X.X.o.X.X.o.X.X.X.X.X.X.X.X.X.X.X.O.X.X.X.X.X.X.X.X.X.X.X.X.X.X.X.X.X.X.X.X.X.X.X.X.X.X.X.H X.V X.X.X.X.X.X.X.` X.X.X.X.X.X.X.X.X.X.X.X.X.X.X.X.X.X.X.H H V X.` X.V V X.X.H X.H X.X.H V X.X.` X.X.X.` X.` X.X.X.` X.V H X.F F K H K H H G V X.` ) $.5.w.w.e.e.e.9.e.e.9.e.e.e.e.e.e.e.9.w.e.e.e.e.e.e.e.e.e.e.e.e.e.e.e.9.9.0.1.-.^ T ) ) ( ` N F G H J J J G G H V H V H F H J K H H D G G V G G H H G V G G V G G V B G H V H G V V G G H J G H G J H G G G G G G H G H G G G G B G G B H B G B G H B G B B H G G B H B G G B G G D G V B G B B V B H B B B B B V B B B B B B V B V B B B B B B G B G B B B B G B G B B B G B G c B B B B B B B B B B B G B B G B G B B G B B B B B M G S B B B B B B B B c B B S c G S S c B c B B c M B M B c M M B c B B c c B B c B c c c B S B c c B c G B c c B G c c G c c c S c S G c c S S c G S c S c S c S A A x S S G V o.*.*.=.&.&.>.2.2.5.2.2.2.5.5.w.w.e.e.e.e.e.w.e.w.w.w.w.w.3.3.:.;.3.0.w.w.w.w.e.w.e.e.e.e.9.e.e.w.e.w.e.w.w.w.w.e.e.e.e.e.e.e.e.e.e.e.e.e.e.e.e.e.e.e.e.e.e.e.e.e.e.e.e.w.w.w.w.w.w.w.w.e.e.e.e.e.e.e.e.e.e.w.w.w.w.e.w.e.w.e.e.w.e.e.e.e.q.e.e.e.e.w.w.w.w.e.w.e.w.e.e.w.e.e.w.e.e.w.e.w.w.1.<.;.>.#.&.=.*.+.O.n x c c l c x c x c l c l c l z x x k c x x x A x x c x c x x x x x c x x S x A k x k x c x x x x x x x x x x x x x c x x c x x A x k x x x x x x x x c l x x c x x x x x x x x x x x A x x x x A x x x x x x x x x x x A x x x x x x x x x A x x x x x l x x 8 x 8 x A 8 8 x x 8 x x 8 8 x 8 x 8 8 x 8 x 8 x x 8 8 x x 8 8 x x 8 8 x 8 8 x 8 x 8 x x x 8 x A 8 x x x 8 A x 8 8 x A 8 x x A x 8 x 8 x 8 8 6 6 x x 8 8 x 8 8 6 x 8 8 x 8 A 8 8 x 8 8 x x l l l l l x j h h v b ( ' &.@.2.5.w.w.e.e.e.e.e.e.e.e.e.e.e.e.e.e.e.e.e.e.e.e.e.e.e.e.e.e.e.e.e.e.e.e.e.e.e.e.e.e.e.e.e.e.e.e.e.e.e.e.e.e.e.e.e.e.e.e.e.e.e.e.e.e.e.q.e.e.e.e.e.e.e.e.e.e.e.e.e.e.e.e.e.e.e.e.e.e.e.e.e.e.e.q.e.e.e.e.e.e.e.e.e.9.9.e.e.e.e.e.e.e.e.9.e.e.e.e.e.e.e.w.w.e.e.e.e.e.e.w.e.e.e.e.e.e.e.e.e.e.e.e.e.e.e.e.e.e.e.e.e.e.e.e.e.e.e.e.e.q.e.e.e.e.e.e.e.e.e.e.e.e.e.e.e.e.e.e.e.e.e.e.e.e.e.e.e.e.e.e.e.e.e.e.e.e.e.9.e.e.e.e.e.e.e.e.e.e.e.e.e.e.w.w.w.3.3.2.2.2.&.&.&.&.&.&.&.=.=.&.&.&.=.*.+.+.h g 2 6 8 5 5 8 6 7 8 5 8 6 7 8 8 5 6 7 5 7 7 5 7 7 7 7 7 7 7 7 0 7 7 7 7 7 7 7 7 7 7 7 0 7 8 7 7 7 7 7 7 7 7 8 7 7 7 8 7 7 7 7 7 7 7 7 7 7 7 7 7 7 7 7 7 7 7 7 7 7 7 7 7 7 8 7 7 7 8 7 7 7 0 8 7 7 7 7 7 7 7 7 7 7 7 7 7 7 7 7 7 7 7 7 7 7 7 7 8 7 7 7 7 7 7 7 7 7 8 7 7 7 7 8 8 7 7 7 8 7 7 7 7 7 7 0 7 7 7 7 7 7 7 0 7 7 7 7 7 7 7 7 7 7 7 7 7 7 7 7 ",
"%.o.%.o.o.%.%.o.} o.' o.%.%.o.%.%.o.%.o.%.o.%.o.+.o.o.%.o.o.o.o.o.o.o.+.%.o.o.o.o.o.+.%.o.o.o.o.o.o.+.o.O.o.o.+.+.o.o.o.o.o.O.o.o.o.o.o.o.o.X.o.o.' o.o.o.o.o.` X.o.X.o.o.o.o.o.X.X.o.` o.o.' o.` o.o.o.X.' o.o.' X.o.o.X.o.o.o.o.o.X.' X.X.o.o.o.O.o.X.o.X.X.O.o.X.o.X.X.X.o.X.o.X.o.X.o.X.o.X.X.X.X.X.X.o.X.o.X.o.X.X.X.X.o.` X.X.o.X.X.X.X.X.X.X.' X.X.X.X.X.X.X.X.X.X.X.X.X.X.X.X.O.X.X.X.X.X.X.X.X.O.X.X.X.X.X.` X.X.X.X.X.X.X.X.X.X.H X.X.X.X.X.X.X.X.X.X.X.H X.X.X.X.X.X.X.X.X.X.X.X.H ` X.` H X.X.V X.X.X.` X.X.X.V H X.` H V X.X.X.H X.X.H K X.H H X.H K H F H F H J J H H ` ` [ $.w.w.e.9.e.e.e.e.e.e.e.9.e.9.e.e.e.e.9.e.e.e.e.e.9.e.e.e.e.e.e.e.e.9.e.9.w.w.1.<.=.4.&.&.%.'  .m m D K D F  .H (  .H H m H F J H K K G H V G G G G G G H B H V G B H G H G B G V G G H G G G G G H G G H G H H G G G J H G G G G B H G G B G G G G G H G G G B F G B G G B G G H G G G B V G G V B V B B M B V B V B V B B B B B V B B B G B G B B B B G B B B B B G B B B B B B B B B G B B B G G B B B B B B B B G B B B G B B B B S G B B B B B M B B B B c G S c G c G S B c c B c B c B B B M B c B c B c c B c c B B c B c c G c G c B c B B c c G c B c G c c S c c S G c S S c S S c c S c S S A A S G k H +.%.*.=.&.2.3.3.2.<.&.$.2.2.3.2.3.5.w.w.w.w.w.w.5.5.5.2.2.2.2.#.#.2.2.5.5.5.w.w.w.e.9.e.w.e.e.e.e.e.w.w.w.0.0.w.w.e.e.e.w.e.e.w.e.e.e.e.e.e.e.e.e.e.e.e.e.e.e.e.w.w.w.w.w.w.5.3.3.5.8.w.e.e.e.e.q.e.e.e.w.w.w.1.>.5.5.w.w.w.w.w.w.w.w.w.e.w.w.w.w.w.8.w.w.e.w.w.e.e.e.e.w.e.w.w.w.w.w.w.3.3.2.>.@.$.#.&.=.*.+.o.h k x x c l c x c x c x c x c x c x x x x x S x x x x x x S x c x x x x A x x c x x c x x x x c x c x c x x k x x x x x A x c x k x x x x x x k x c x x x l x x l x x A x x x x x x x x x x x x x x A x x x x x x A x x x x x x x A x x A x x x x x 6 x x x x x x x 8 x x x x 8 x 8 A 8 x 8 x x 8 8 x 8 x x 8 x x x x 8 A x x 8 x x x 8 x 8 x x 8 x 8 x x 8 x 8 x 8 x 8 8 8 A 8 8 8 x x 8 8 A x x x 8 x 6 8 x 8 x x 8 x x x 8 x x x 8 8 8 8 x 8 8 8 8 l x l x z l O t n X.%.&.5.5.w.w.w.w.w.e.e.e.e.e.e.e.e.e.e.e.e.e.e.e.e.e.e.e.e.e.e.e.e.e.e.e.q.e.e.e.e.e.e.e.e.q.e.e.e.e.e.e.e.e.e.e.e.e.e.e.e.e.e.e.9.e.e.e.e.e.e.e.e.e.e.e.e.e.e.e.e.e.e.e.e.e.e.e.e.e.e.e.e.e.e.e.e.e.e.e.e.e.e.e.e.e.e.e.e.e.e.e.e.e.w.e.9.e.e.9.e.e.e.e.e.e.e.e.e.e.e.e.e.e.e.e.e.e.e.e.e.e.e.e.e.e.e.e.e.e.e.e.e.e.e.e.e.e.e.e.e.e.e.e.e.e.e.e.e.e.e.q.e.e.e.q.e.e.e.e.q.e.e.e.e.e.e.e.e.e.e.e.e.e.e.e.e.e.e.e.e.e.e.e.e.e.e.e.e.e.e.e.e.e.e.e.e.e.w.w.w.w.5.3.2.2.2.&.&.&.*.&.&.&.&.&.&.&.&.4.=.$.*.+.H h > 6 8 7 5 7 8 5 6 7 5 7 5 5 5 7 7 5 8 6 7 8 7 0 7 7 7 7 7 7 7 7 8 7 7 7 7 8 8 7 7 7 8 7 7 7 7 7 8 7 7 7 7 7 7 7 7 7 7 7 7 7 7 7 7 7 7 7 7 7 7 7 7 7 7 7 8 7 7 7 7 7 7 7 7 7 7 7 7 7 7 7 7 7 7 7 7 7 7 7 7 8 8 7 7 7 8 7 7 7 7 7 7 7 7 7 7 7 7 7 7 7 7 7 7 8 7 7 7 7 7 7 7 7 7 7 7 7 7 7 7 7 7 7 7 8 7 8 7 7 7 8 7 7 7 7 7 7 7 7 7 7 7 7 0 7 7 7 7 7 ",
"%.%.o.%.%.+.@.o.o.o.%.' %.o.%.%.o.o.o.o.o.o.o.o.%.o.o.o.%.+.o.%.o.%.o.o.%.o.o.%.o.%.o.o.o.%.+.%.o.+.o.o.o.+.o.o.o.o.+.O.o.o.o.o.o.X.o.o.o.o.o.o.X.o.o.X.' X.o.o.' o.o.o.X.' o.X.o.o.o.o.o.X.X.o.o.o.X.o.o.o.o.X.o.o.X.X.o.' ` o.` o.o.o.o.o.X.o.X.o.X.o.O.O.o.X.X.X.X.X.X.o.X.X.X.X.X.X.X.X.X.X.X.o.o.X.X.X.X.X.X.X.o.o.X.X.X.X.X.X.` X.X.' X.X.o.X.X.X.X.` o.X.X.X.O.X.X.X.X.X.X.X.X.X.X.O.X.X.X.X.X.X.X.X.X.X.X.H X.X.X.X.X.H X.X.X.X.X.` X.X.X.X.X.X.H X.X.X.X.X.H X.H X.H X.H X.X.H X.V X.V X.H X.V X.X.X.V H X.V V X.X.X.` H X.X.X.V H X.H X.H H H X.H H K K H H K H H H H H B V ( ] 4.w.w.w.e.e.e.9.e.e.e.e.e.e.e.e.9.e.e.e.e.e.9.e.9.e.e.9.e.9.9.e.e.e.9.9.9.9.e.8.w.w.w.w.5.4.&.&... .( ( F (  .T ( (  .( m ( F H H J G H B H B H H G V G V H G G H H H V G G H H G G H G G H G G H G G H J G G G G H G H G G G B H G G G G G F B G G B B G G B G G G G G G F G G B B G H B B G B B B G B B B B B V B M B B V B B M B B B G B B B B B G B B G B G B B B G B G B B G B G B B G B B B B B G c G B G B B B B G B B c B B B B S B B B B B B B B c c G c G c S G c G B c B c B c B c B B c B B c B c G c c G c c c G c B c c c c B c c G c B c c B c B c B G c S S c c S c c S c S G G c S S A S S S G k F +.*.%.=.2.2.2.>.$.&.&.&.>.&.$.<.<.2.2.<.3.4.<.3.<.&.$.&.2.&.&.2.4.&.$.$.2.5.w.5.w.w.w.e.e.e.w.w.w.w.w.w.w.>.3.2.3.w.w.w.w.e.w.e.e.w.w.e.w.e.w.e.e.e.w.e.e.e.w.e.e.w.w.w.3.3.2.>.{ <.5.w.w.e.e.e.e.e.e.e.e.w.5.<.-.-.$.<.5.5.5.w.w.w.w.5.w.5.3.>.:.>.<.1.w.w.w.w.w.w.w.w.w.w.w.w.w.3.3.2.>.#.>.$.&.&.&.*.*.+.+.F h c l c l c c l l c x z x c l c x c x c x x x c x c x A k x x x x x c x k x x x x x x x c x c x x x x x x x A c x x S x k x x x x x j x k x x x x l x x x x c x c x x x x x x A x x x x x A x x x x x x x x A x x x x x x A x x x x x x x x x x A x x l x 8 l l x 8 x x 8 8 x A 8 x 8 A 8 x x 8 x A 8 x x 8 x 8 x 8 x x 8 x 8 A 8 x 8 x 8 A x 8 x 8 A 8 8 x 8 x 8 x 8 x x x 8 x x 8 x 8 x x 8 x 8 x 8 6 8 6 6 x 8 8 x 6 8 8 x 8 8 x 8 8 q 8 8 8 q 8 x x z l z l k V O.=.4.5.5.w.w.w.w.e.w.9.e.e.q.e.e.e.e.e.e.e.e.e.e.e.e.e.e.e.e.e.e.e.e.e.e.e.e.e.e.e.e.q.e.e.q.e.e.e.e.e.e.e.e.e.e.e.e.e.e.e.e.e.e.9.e.e.e.e.9.e.e.e.e.e.e.e.e.e.e.e.e.e.e.e.e.e.e.e.e.e.e.e.e.e.e.e.e.e.e.e.e.e.e.e.e.e.e.q.e.e.e.w.e.e.w.e.e.e.e.e.e.e.e.9.e.e.e.e.e.e.e.e.e.e.e.e.e.e.e.e.e.e.e.e.e.e.e.e.e.e.e.e.e.e.e.e.e.e.e.e.e.e.e.e.e.e.e.e.e.e.e.e.e.e.e.e.e.e.e.e.e.e.e.e.e.e.e.e.e.e.e.e.e.e.e.e.e.e.e.e.e.e.e.e.e.e.e.e.e.e.e.e.e.e.e.e.w.w.e.w.e.5.5.2.#.#.2.&.&.&.&.&.&.&.=.&.&.&.&.&.2.3.$.%.*.+.B g 2 7 7 7 7 7 5 7 7 6 7 8 7 7 6 5 8 5 7 7 5 7 8 7 8 7 7 7 7 7 7 7 7 7 7 7 7 7 7 7 7 7 7 7 7 8 7 0 7 7 7 7 7 7 7 7 7 8 7 8 0 7 7 7 7 7 7 7 7 7 7 7 8 7 7 7 7 7 7 7 7 7 7 7 8 7 7 7 7 7 8 7 7 7 7 7 7 7 7 7 0 7 7 7 7 7 7 0 7 7 8 7 7 7 8 7 7 7 7 7 7 7 7 7 7 7 0 7 7 7 7 7 7 7 7 7 7 7 7 7 7 7 7 7 7 7 7 7 7 7 7 7 7 7 7 7 7 7 7 8 7 7 7 8 7 7 7 7 7 ",
"o.o.%.%.o.%.o.o.o.o.%.o.%.o.%.o.o.%.o.o.o.%.o.%.o.o.%.o.o.o.o.o.o.+.o.o.%.o.+.o.%.o.o.%.%.o.%.o.o.o.+.o.o.o.+.o.+.o.o.+.o.O.o.o.o.X.o.o.o.o.o.o.o.o.o.o.o.' o.X.o.` o.o.o.o.o.' X.' o.o.o.o.o.X.` X.o.o.o.o.o.o.X.o.` o.X.o.o.o.' o.o.o.o.X.X.o.o.o.X.o.X.X.O.X.X.o.X.o.X.X.o.X.X.X.X.o.X.o.X.o.X.X.X.X.o.X.X.X.X.o.` X.X.o.X.X.X.X.X.` X.` X.X.` X.` X.X.X.' X.X.X.X.X.X.O.X.X.X.O.X.X.X.X.X.X.X.X.X.O.X.X.X.X.X.X.X.X.X.X.X.X.X.H X.X.X.X.X.H X.` X.X.X.X.X.X.X.H X.X.V X.X.X.X.X.H X.X.X.X.H H H X.X.X.V X.X.X.X.V X.V X.X.X.X.K X.H X.H H K H H H H X.H H H H H F H K H H H X.V ` / [ 2.w.w.w.e.e.e.e.e.e.e.e.e.e.e.e.e.e.e.e.e.e.e.e.e.9.e.e.9.e.e.e.e.9.e.9.e.e.e.e.w.e.w.w.w.w.w.w.4.@.Y ! $.=.4.4.4.=.#.) / s ` K G c G B G H H H H G G H V G H B H H B H B H B H B B H G H G G G G G J G G H G G H G G H G G G B B B G B B G G B G G V G G B G G G G G G G B G H B G G B B G B B B G B B V B M V B B V V B B V B B B B B B B B B B G B G B B G G c G G B G B G B B B B B G B B B G B B B G B G B B B G B B B B k B B B c c B B B B M B B B B c G c S G c B G c B G c c c B c B B c B c c B c G c c G c c B c c c B c B B c c c B c c B c B c c B c B c S c S c S c S S c S c G S c S c S S c k G D H X.%.*.*.=.=.@.$.#.=.=.&.#.=.&.$.2.@.#.#.#.#.&.#.&.@.&.&.=.=.&.&.&.&.$.$.2.2.3.4.5.w.w.w.e.w.w.w.w.w.5.2.3.>.2.2.3.>.>.3.3.w.w.w.w.w.w.w.w.w.e.w.w.w.e.e.w.w.w.w.3.3.2.3.2.2.2.2.2.>.>.5.5.w.w.e.e.e.e.w.0.3.2.>.=.$.$.2.$.>.2.>.<.2.2.2.2.>.$.>.#.#.>.>.<.,.<.3.3.3.w.3.5.3.3.3.2.2.2.2.&.=.=.*.*.=.%.%.*.+.O.n n c l c x c x c l x c l c x z x z x x x x c x c x x x x x x x c x x A x x x x S x x S x c x c x x x x c x c x A x x x x x x x x x x x x x l x x x x x x c l x x x x x x x x x x x A x x x x x x x x x A x x x x x A x x x x x x x x x x x x x 8 j x x l x x x l x x 8 8 A x A 8 x 8 x 8 x 8 8 A 8 8 x x 8 A 8 A 8 A 8 x 8 x 8 8 x 8 x x 8 8 x x 8 x 8 x x x 8 A x x 8 x 8 x 8 x 8 x 8 x 8 x 8 x x x 8 8 x 6 x 8 x 8 8 x 8 8 8 x 6 4 8 x 8 8 A 8 8 j x c l g h V +.+.*.=.4.w.w.w.e.q.8.9.9.e.e.e.e.e.e.e.e.e.e.e.e.e.e.e.e.e.e.e.e.e.e.e.e.e.e.e.e.e.q.e.e.e.e.q.e.e.e.e.e.e.e.e.e.e.e.e.e.e.e.e.e.e.9.e.e.e.9.e.e.e.e.e.e.e.q.e.e.e.e.w.e.e.w.e.e.e.e.e.e.e.e.e.e.e.e.e.e.e.e.e.e.e.e.e.e.q.e.q.e.e.e.w.e.w.w.e.e.e.w.e.e.e.e.e.q.e.9.q.e.q.9.e.e.q.9.e.e.e.e.e.9.e.e.e.e.e.e.e.e.e.e.e.e.e.e.e.e.e.e.e.e.e.e.e.e.e.e.e.e.e.e.e.e.e.e.e.e.e.e.e.e.e.e.e.e.e.e.e.e.e.e.e.e.e.e.e.e.q.e.e.e.e.e.e.e.e.e.q.e.e.w.e.w.w.e.e.w.w.w.w.5.>.2.$.2.&.&.2.&.&.&.&.&.&.&.2.&.&.&.@.2.<.=.$.*.+.m r 2 6 5 5 7 8 5 7 7 5 8 8 5 5 8 7 6 7 5 7 7 7 7 7 7 7 7 7 7 7 7 7 7 7 7 7 7 7 8 7 0 7 7 7 7 7 7 8 7 7 7 7 7 7 7 7 7 7 7 7 7 7 7 7 7 7 7 7 8 7 0 7 7 7 8 7 7 7 7 7 7 7 8 7 7 7 7 7 7 7 7 7 7 7 7 7 7 7 7 7 7 7 7 q 7 7 7 7 7 7 8 7 7 7 7 7 7 8 7 7 7 7 7 7 7 7 7 7 8 7 7 7 8 0 8 7 7 7 7 7 7 7 7 7 7 7 7 7 7 7 7 7 7 7 7 7 7 8 7 7 7 7 7 7 7 7 7 7 7 ",
"%.%.%.o.@.o.%.%.} o.o.%.o.%.' %.o.o.+.%.o.o.o.+.o.%.+.o.o.%.o.%.o.%.%.o.o.o.o.%.o.o.+.o.o.o.o.+.O.o.o.o.+.o.o.+.o.+.o.O.o.+.+.o.o.o.o.o.o.X.o.o.o.X.X.' X.o.o.o.o.o.o.X.o.` X.o.o.o.X.o.' X.o.o.o.o.X.' ` o.` o.o.o.X.o.' o.o.X.X.o.X.X.X.o.o.X.o.X.o.O.O.o.O.o.X.X.X.X.o.X.X.X.X.o.X.X.X.X.X.X.o.` X.X.X.O.o.X.X.X.X.X.X.X.` X.` X.o.X.X.o.X.X.X.X.o.X.X.X.X.X.X.X.X.X.X.X.X.O.X.X.X.X.X.X.X.X.X.X.X.X.X.X.X.X.X.X.X.X.X.X.X.X.X.X.X.` X.X.X.` H X.H X.` X.X.X.X.X.X.X.X.X.H X.X.X.X.X.V H X.X.X.` X.V X.V X.V V X.X.H X.X.H H H H H H K K H X.H K H K H K K H K X.H O.X. .V m N ` ' / Y :.w.w.e.e.e.e.e.e.e.e.e.e.e.e.e.e.e.e.9.e.e.e.e.e.e.e.e.e.e.e.e.e.e.e.e.e.e.e.e.e.e.e.e.e.e.w.w.w.1.>.5.5.w.5.w.w.w.5.4.*.) N N H G G B V H G G H G H G G G G H B B H V H G H B H H B G G G H H G H H G G G G G G G H G H B G B G H G H D H B G H G D G G G G V D G B B G G G G G G B G V V B V G G V B B B B B B B B B B B B B B V B B G G B B G B B c G B B B B B B B B B B B G B G B B G B G c B G B B B B G B B B B G B G B B B B G G B B B B B B B B B B c G G c G c c c c c c B B c B c c B B c c c c B c B B c G c c G B c B c G c G c c G B c B c G c c B c B S G c G c S G c S c S c c S c S S S c c c B n V O.+.+.*.*.*.=.=.*.#.*.#.*.@.@.&.&.&.&.2.&.=.=.&.@.&.#.=.&.*.&.#.&.2.2.$.#.#.>.>.1.0.3.5.5.5.5.5.2.2.3.#.2.&.2.@.>.>.>.<.3.>.3.3.3.5.w.5.3.w.0.5.3.w.5.3.3.3.2.2.2.2.>.&.>.2.&.$.#.$.>.3.3.w.0.0.0.3.3.3.2.2.=.#.$.#.@.$.$.$.$.2.>.&.2.#.&.#.&.&.$.>.#.3.>.2.2.>.| #.>.#.>.&.>.@.&.&.&.*.*.%.*.*.*.+.+.+.O.D h h k x x z l c x c c l c x c x c x S x x c x x x x c x S x A k x x x k x c k x x x x x x x x x c x x A x x x x x k S x c x c A k x k x x x x x k x x x x x x c x x x A x x x x A x x x x x A x x x x x x x x x A x x x x x x A x x x 8 x x x x x x x 8 x x x l x 8 8 x x 8 8 8 x 8 x 8 x 8 x x 8 x x 8 8 x 8 x 8 x 8 x 8 x 8 x x 8 x 8 8 A x 8 8 x 8 A x 8 8 x x 8 x x 8 A 8 A 8 x 8 x 8 x 8 A x 8 8 x x 8 8 8 x 8 x x 6 x x x 8 x 8 q 8 q 8 8 x 4 x 2 g h B O.o.+.*.*.4.4.w.w.e.9.e.9.e.9.9.e.e.9.e.w.e.w.e.e.e.w.w.e.e.e.e.e.e.e.e.e.e.e.e.e.e.e.e.e.e.e.e.q.e.e.e.e.e.e.e.e.e.e.e.e.e.e.e.e.w.e.e.e.e.e.e.e.e.e.e.e.e.e.e.e.q.e.e.e.e.e.e.e.e.e.e.e.e.e.e.e.e.e.q.e.e.e.e.e.e.e.e.e.e.q.e.e.q.e.e.e.w.w.0.0.w.w.e.e.w.e.e.q.e.e.e.e.e.e.e.e.e.e.e.e.e.9.9.e.e.e.w.w.e.w.e.w.e.e.e.e.e.e.e.e.e.e.e.e.e.e.e.e.e.e.e.e.e.e.e.q.e.e.e.e.e.e.e.e.e.e.e.e.e.e.e.e.e.e.e.e.q.e.q.e.e.q.e.e.e.q.e.e.e.e.q.w.w.e.e.w.w.w.w.w.w.w.1.3.>.>.2.&.#.&.&.&.&.&.&.&.&.*.&.&.&.&.&.2.2.2.2.$.$.*.*.n r j 8 5 7 7 5 7 6 7 7 5 5 5 7 5 7 7 6 8 5 6 7 7 7 7 7 7 7 7 8 7 7 7 7 7 7 7 7 7 7 7 7 7 7 7 7 7 7 7 7 7 7 7 7 7 7 7 7 7 7 7 7 7 7 8 7 7 7 7 7 7 7 7 7 7 7 7 7 7 7 7 7 7 7 7 7 7 7 7 7 7 7 8 7 7 7 7 8 7 7 7 7 7 7 7 7 7 7 7 7 7 7 7 7 7 7 7 7 7 7 7 7 7 7 7 7 7 7 0 7 7 7 7 7 7 7 7 7 7 7 7 8 0 7 7 7 7 7 7 7 7 8 7 7 7 7 7 7 7 7 7 7 7 7 7 7 7 7 7 ",
"%.o.o.%.o.%.%.o.' %.%.' %.' o.%.o.%.o.o.o.%.o.o.o.o.o.o.%.o.o.o.o.o.o.%.%.o.%.o.o.%.o.o.o.o.%.o.o.o.+.o.o.o.o.+.+.o.o.o.o. .O.o.o.o.o.X.o.X.X.o.o.o.o.o.o.o.X.o.o.` o.o.o.o.' o.o.o.' X.X.o.o.' ` o.o.o.X.o.X.' o.o.o.o.X.o.o.o.o.o.o.' o.o.o.o.X.X.o.o.X.O.X.o.X.o.X.X.X.o.X.o.o.X.X.X.X.o.X.X.X.o.o.X.X.o.X.X.X.X.X.X.X.` X.` X.X.X.X.X.X.` X.X.X.X.X.X.X.X.X.X.X.X.X.X.X.X.X.X.X.X.X.X.X.O.X.X.X.X.X.O.X.X.X.X.H X.X.H X.X.X.X.X.X.X.X.X.X.X.X.X.X.X.` X.H X.X.H H X.H X.H X.X.H H X.X.X.X.X.H X.X.V X.X.X.X.X.X.X.V X.V X.H H H K H K H H H H H H X.K H F V K ` V ` ` ) o.%.%.%.&.| ] ;.w.w.e.e.e.e.e.e.e.e.e.e.e.e.e.e.e.e.e.e.e.e.e.e.e.e.e.e.e.e.e.e.e.e.e.e.e.e.e.e.e.e.e.e.e.e.e.e.9.w.e.w.w.w.w.w.w.w.w.5.&._ N H H B B V G B V G B G B H V G H H H H G G H B H H H H G H G G G G G G H H G H G H G G G G G G D V G G B G G B G B B G G G G B G G H B H G G G B G G G B G B B G V B B V B B V B B B B B B B B V B V B B B B B B B B B B G B G G B G B B G B B G B B B B B B B G B B B B G G B B G B G B G B B B B B B S G B B c B B B B B c B S c c G c c c B c B B c S B B c B c c B B c B c B c c G B c c B c c B c c c G c B c c G G c B c S B c c c S c S S S c S S S S c S c S c c B c c B B n B K F X.O.O.+.*.*.%.&.*.*.=.=.=.&.&.&.&.&.&.&.&.&.2.&.&.&.&.&.&.&.&.&.&.2.<.2.2.$.#.{ >.;.>.#.>.2.2.#.2.#.&.2.&.&.$.2.2.2.$.>.#.>.2.>.3.2.2.>.2.2.3.>.:.2.>.2.3.#.&.$.#.&.&.&.&.&.&.$.2.2.2.:.3.3.:.>.>.#.2.$.&.&.=.$.2.4.2.2.2.2.2.2.2.2.2.&.2.&.&.@.#.@.&.&.&.@.&.&.&.=.&.=.*.*.&.=.*.*.+.+.+.+.O.V N V V k k k c l c x c x c x x c x c x c x c x k x x x c k A x x x A x x x x x c x x A x c x x x x A x x x x x k x x c x S x x x x c x x x c x x x x x x x x x x l x x x l c x x x x x x x x x x x x x x x x x x x x A x x x x x x x x x x x x x x x x x j 8 x l l x x x x l x 8 8 x x 8 x x x 8 A x 8 x x x x x x 8 x x 8 8 x x 8 x x x 8 A 8 x x 8 x x x 8 A 8 8 x x 8 8 A 8 x x 8 x x 8 x A x 8 x A 8 8 x x 6 8 x x 8 x 8 8 x x 8 8 x x 8 8 q 8 x 8 j x x j g h N +.*.%.o.*.#.#.2.3.0.q.q.e.e.e.e.e.e.e.e.e.e.e.e.e.e.e.e.e.e.e.e.e.9.e.9.e.9.e.w.e.e.e.e.e.e.e.e.e.e.e.e.w.e.w.e.e.e.e.e.e.e.e.e.e.e.e.e.e.9.e.e.e.e.e.e.e.e.e.e.e.e.q.w.e.w.9.e.e.e.e.e.e.e.e.e.e.q.e.e.e.e.e.e.e.e.e.e.e.e.w.w.e.e.e.w.w.w.w.3.,.,.,.,.w.w.e.e.e.e.e.e.e.e.e.e.e.e.e.e.e.e.e.e.q.e.e.e.e.e.e.e.e.w.e.e.e.e.e.e.e.e.e.e.e.e.e.e.e.e.e.e.e.e.e.e.e.e.e.e.w.e.e.e.e.e.e.e.e.w.e.e.e.e.e.e.e.e.e.e.e.e.e.e.e.e.e.w.0.0.3.w.5.w.w.w.w.5.w.5.w.5.3.2.3.>.3.2.2.&.2.&.&.&.&.&.&.&.&.&.&.2.2.&.&.&.2.2.#.$.$.*.*.n g 8 8 7 7 7 6 7 5 7 6 5 8 8 6 7 8 5 7 7 5 7 7 7 7 8 7 7 7 8 7 7 7 7 7 7 0 7 7 7 7 7 7 7 7 7 7 7 7 7 7 7 0 8 8 7 7 7 7 7 7 7 7 7 7 7 7 7 7 7 8 7 7 7 7 7 7 7 0 8 7 7 7 7 7 7 7 7 7 7 7 7 7 7 7 7 7 7 7 7 7 7 7 7 7 7 7 7 7 7 7 7 7 7 7 8 7 7 0 7 7 7 7 7 7 8 7 7 7 7 7 7 7 7 7 7 7 7 7 7 7 7 7 7 7 7 7 8 7 7 7 7 7 7 7 7 7 7 7 7 7 7 7 7 7 7 8 7 7 7 ",
"@.%.o.%.%.%.o.%.o.o.o.%.o.o.%.o.o.o.%.o.o.o.%.o.o.%.o.%.o.o.o.%.o.%.o.o.o.o.o.o.o.o.%.o.o.%.o.o.o.O.+.o.O.+.o.o.o.+.o.o.o.o.o.o.X.o.o.o.o.o.o.o.' X.o.X.X.X.' o.o.X.o.X.X.o.X.o.o.X.o.o.X.o.X.o.o.o.o.X.o.o.o.o.X.o.X.' o.o.` o.X.o.o.X.o.O.X.o.o.o.X.o.o.o.X.O.X.X.o.X.X.X.X.X.X.X.o.X.X.X.o.X.X.X.X.X.X.X.o.o.X.X.` o.X.o.X.X.X.o.X.` o.X.o.X.X.' X.X.X.X.` o.O.X.X.X.X.X.X.X.X.X.X.X.X.O.X.X.X.X.X.X.X.X.X.X.X.X.` X.` X.X.X.X.X.X.X.H X.X.X.X.X.X.X.X.X.X.X.X.X.X.X.X.X.X.X.X.X.X.X.X.V V X.X.V X.X.V X.H V V V X.X.X.V X.H K K H K H H K  .O.X.K F H  .H F X.` ( ) %.=.4.4.5.4.5.4.3.,.w.w.e.e.e.e.e.e.e.e.e.e.e.e.e.e.e.e.e.e.e.e.e.e.e.e.e.e.e.e.e.e.e.e.e.e.e.e.e.e.q.e.q.e.q.9.e.e.e.9.e.e.e.e.e.e.w.e.w.w.4.&.( ` B B H B H B B H H H H G G H B H B B G H H B H B B H J H G G G H G G J G G G J H G G H G G G B G B G H G G G G G G G G B G H G B G G G B G G V D H B B V B H B B B H B B B B V B B V V B B V B M B B G B G B B B G B B B B B B B B B B B G B B B B G G B G B B B B G B G c B B B B B B B B B B B B M B k B B B M B V B B B B G c G c G c G c B c B c c B c c c B B c c B c B c B c c c G c c G c c G B c c B c B c c c B c c B c B c S c S c c c S c c G c S c S S B c c c B k k S n n B n D D D K F o.+.%.%.*.=.*.=.*.*.&.&.*.&.&.&.&.&.=.=.&.&.&.&.2.&.2.2.2.2.2.<.$.2.&.&.&.4.2.&.&.&.&.&.&.&.&.&.&.&.$.&.2.2.&.&.&.@.#.#.2.2.2.#.#.>.2.2.2.2.2.&.#.&.&.&.&.&.&.&.&.2.2.&.2.#.2.>.2.>.| &.&.&.&.=.$.2.&.&.&.&.2.&.:.&.&.&.&.| &.&.*.*.&.*.&.*.=.=.*.*.*.*.%.%.%.+.o.X.X.V F n J k k h k h k k c c x c x c l c x z c x z x c l c l x x A x x x x x c x x k x c x c x x x c x x x x x c x k k x S x x x c x x x x x x x x x c x x x x x x k k x x x x c x x x x x x x x x x A x x x x x A x x x x A x x A x x x x x x x A x x x x A x x x 8 x 8 x x x x 8 x 6 x x x x x x x 8 x 8 x 8 x 8 x A 8 x 8 8 A 8 x x 8 x x x 8 x 8 A 8 x 8 x 8 x x 8 A 8 x 8 x 8 x x 8 x 8 A 8 x 8 x 8 x 8 8 x x 8 8 x 8 x 8 x 8 8 8 x 6 x x 8 8 8 x 6 8 8 8 8 8 8 8 j x x g B X.+.%.*.%.&.=.=.>.>.>.,.,.6.e.8.8.w.w.e.e.e.e.e.w.e.e.e.e.e.e.e.e.e.e.e.e.e.e.e.e.e.e.e.e.w.w.e.e.e.e.e.e.e.e.w.e.e.w.e.e.e.e.e.e.e.e.e.e.e.e.9.e.e.e.e.e.e.e.w.e.w.e.w.e.e.e.e.w.e.e.e.e.e.e.e.e.q.e.e.e.e.e.9.e.e.e.e.e.e.e.e.q.e.e.e.e.w.w.3.2.>.:.>.>.<.1.5.w.w.w.e.e.e.e.e.w.e.e.e.w.e.w.e.e.w.w.e.e.e.e.w.e.w.e.e.e.e.e.e.e.e.e.e.e.e.e.e.e.e.e.e.e.e.e.e.e.e.w.e.w.e.e.e.e.e.e.e.e.e.e.e.e.e.9.w.e.e.e.e.e.e.e.e.e.e.w.w.w.3.3.:.:.2.3.3.3.2.3.3.2.3.#.:.>.| #.$.2.2.&.2.&.&.&.*.&.&.*.&.&.&.&.&.&.&.&.&.&.$.#.=.*.*.+.D g 2 6 5 7 7 7 5 8 7 7 7 5 7 5 7 5 7 7 6 8 5 7 7 7 7 7 7 7 7 7 8 0 7 7 7 8 7 7 7 7 8 7 7 7 8 7 7 7 7 7 7 7 7 7 7 7 7 8 7 7 7 7 7 7 7 7 7 7 7 7 7 7 7 7 7 7 7 7 7 7 7 7 7 7 7 7 8 7 7 8 7 0 7 7 7 8 7 7 7 7 7 7 7 7 7 8 7 7 7 7 7 7 7 7 0 7 7 7 7 7 8 7 7 7 7 8 7 7 7 7 7 7 7 7 7 7 8 7 7 7 8 7 7 7 7 7 7 7 7 7 7 7 7 7 7 8 0 7 7 7 7 7 7 8 7 7 7 7 7 ",
"o.o.+.o.%.%.o.%.%.o.%.o.%.o.o.%.%.o.%.o.o.o.o.o.o.%.%.o.+.o.o.o.o.+.o.o.o.%.o.%.o.o.o.%.%.o.o.o.O.o.o.+.o.o.o.+.o.O.o.o.o.o.O.o.o.o.o.X.o.o.X.o.o.o.o.X.o.X.o.o.o.o.o.' ' o.o.o.o.o.o.X.o.o.' o.o.X.o.o.X.o.o.X.o.' o.o.' X.o.` o.o.o.o.X.o.o.O.o.X.o.O.X.o.O.X.X.X.o.o.X.X.X.X.o.X.o.X.o.X.X.X.X.X.X.X.o.X.X.X.X.o.o.` X.X.X.X.` X.X.o.X.' X.X.X.X.o.X.X.X.X.X.O.X.X.X.X.o.X.X.X.X.O.X.X.X.X.X.X.o.X.X.O.X.X.X.X.X.X.X.X.H X.X.X.H X.X.X.H X.X.X.X.H X.X.X.X.X.X.X.X.X.X.X.X.X.X.X.X.H H X.` X.` H ` H X.X.X.X.X.X.X.` H X.H X.H H H K X.H H H H  . .H  . .o.o.o.) ) &.5.w.w.w.w.w.w.w.w.w.q.e.e.e.e.e.e.e.e.e.e.e.e.e.e.e.e.e.e.e.e.e.e.e.e.e.e.e.e.e.e.e.e.e.e.e.e.e.e.e.e.e.e.e.e.e.9.e.9.q.q.e.e.e.e.e.e.e.q.w.w.5.%.( N V G V G V G H H G V G V G G H B H V H G V B H B B G G G H G G G J G G H G G G G H G H B G B F G G G G G G G B G G G B B G G G G G G B F G B H D G V B G V B B B H B M V B B B M B B B V B B B B B B B B G B B B G B G B B B G B B B B B G B B G B B B B B B B B B B B B B B G B G B B B G B B B B c G B c B M B B c B B c B c G S S B c c c c B c c B c G c B c B G c B c G B c B B c B c c B c c G c B c G B c B G c c G G c B c c S G c S c S S c G c S S c c S c c S c S c G k k c k k k k n n N N N V ` ` X.` o.%.o.o.%.*.&.*.*.*.*.=.=.=.=.=.&.&.&.&.&.&.&.#.&.&.=.=.&.&.&.&.&.&.&.*.*.&.&.*.=.*.=.=.&.#.=.&.&.#.&.=.&.&.4.&.&.&.=.&.&.&.&.&.&.&.&.&.&.*.=.&.&.&.=.#.&.&.$.&.#.*.@.&.&.*.&.&.&.&.&.&.&.&.&.&.&.&.*.&.=.=.*.=.*.*.*.*.*.*.+.+.o.o.X.X.H V B n b v k k k k j g c k c c k k x c c x z x c l c x l c x c l c x c c x c x x x x S x x c x A x x x x x x c c x x x x c x c A x c x x c x c c x c x k x x c x c x c x j x x x x x x x l x x x x x x x x x x x x x x x x x x x A x x A x x x x A x 8 x x x x x x x x A x x x x 8 x x x l x l x x x x 8 A 8 x 8 x x 8 8 x 8 x 8 8 x 8 8 x 8 8 8 x x 8 8 8 x 8 x 8 x x 8 A 8 x x 8 x 8 x 8 x 8 x x x x 8 8 x 8 x 8 A x x 8 8 A x x 8 x x 6 8 x 8 8 x 8 6 8 x 8 8 x 6 x x 8 8 x 4 x j z t V +.*.*.=.&.&.&.&.2.2.2.:.3.:.1.1.1.5.w.w.w.e.w.q.e.e.e.w.e.e.e.e.e.e.e.e.e.e.e.9.e.e.e.e.e.e.e.e.e.w.e.w.q.w.w.w.w.e.e.e.e.e.e.e.e.e.e.e.e.e.e.e.e.e.e.e.e.w.e.w.e.w.w.w.w.w.e.e.w.e.e.e.e.e.e.e.e.e.e.e.e.e.e.e.e.e.e.e.e.e.e.e.e.e.w.e.w.w.4.2.2.#.>.&.$.$.2.>.4.5.w.w.w.w.w.w.w.e.w.e.w.w.e.w.w.w.e.w.w.w.e.w.e.e.w.e.w.w.e.e.e.e.e.e.e.e.e.e.e.q.e.e.e.e.e.e.e.w.w.e.e.e.e.w.e.e.w.e.e.w.e.w.e.e.w.e.e.e.e.e.e.e.e.w.w.w.w.w.5.2.2.2.2.:.>.#.#.>.&.>.2.@.&.&.$.#.#.@.&.@.&.2.&.&.&.&.&.&.&.&.&.&.&.#.$.2.&.&.2.&.=.$.*.*.O.z g 6 6 5 5 5 7 5 8 6 5 7 7 7 8 8 5 5 8 5 7 7 7 7 7 7 7 7 7 7 7 7 7 7 7 7 7 7 7 7 7 7 7 7 7 7 7 7 7 7 7 7 7 7 8 7 7 7 7 7 7 7 7 8 7 7 7 8 7 7 7 7 7 7 7 8 7 7 7 7 7 7 7 7 7 7 7 7 7 7 7 7 7 7 8 7 7 7 8 7 7 7 7 7 7 7 7 7 7 7 7 8 7 7 7 7 7 7 7 7 7 7 7 7 7 7 7 7 7 7 7 8 7 7 7 7 7 7 7 7 7 7 7 7 7 7 7 7 7 7 7 7 7 8 7 7 7 7 7 0 8 7 7 7 7 7 7 7 7 7 ",
"%.%.@.%.%.o.%...' %.' %.} o.} o.o.o.+.o.%.o.%.o.o.o.o.o.o.%.o.%.o.%.%.o.o.+.o.o.%.o.+.o.o.o.o.%.o.o.o.+.O.+.o.+.+.o.O.o.o.o.o.o.o.o.o.o.o.o.o.o.o.X.o.' o.' X.o.X.' X.o.X.o.X.` ` o.' o.X.o.X.o.o.o.o.X.' o.o.o.o.X.X.o.o.o.o.X.o.` o.` o.X.X.o.o.o.X.o.O.X.O.o.X.o.X.X.o.X.o.o.X.X.X.X.X.X.o.X.X.' X.X.X.o.O.o.X.` X.X.X.X.o.` X.X.X.` X.X.X.X.X.X.` X.o.` X.X.X.X.X.X.X.X.X.X.X.X.X.X.X.X.X.X.X.X.X.X.X.X.X.X.X.X.X.X.X.X.X.X.` X.X.X.X.X.X.X.` X.X.X.X.H X.X.V X.X.H X.H X.X.X.H ` X.X.H H X.X.X.X.H X.V V X.X.V H X.X.H X.X.H K H H X.H X.H  .m  .( ( ` ( ) / ) @.2.w.w.e.e.e.e.e.e.w.e.e.e.e.e.e.e.e.e.e.e.e.e.e.e.e.e.e.e.q.e.e.e.e.e.e.e.e.e.e.e.e.e.e.e.e.e.e.e.e.e.e.e.e.e.9.e.e.e.e.e.e.e.e.e.9.9.9.9.e.e.w.w.&.( m H V G H H H G G H H G G H V G H H G G G G H H H H G H G J G H G H G H G G H H J G G J H B B B G G G B G B G H B G D H G H B G G B G G B G G G B G G G B B V G B B B B B B B V B B B M B B B V V B G B B B G B B B B B G B B B G B G B B B G c B B G B G B B G G B G B B G B B B B G B B B c B B B G c B B B B B B B B B c B B c G B c G B c B B c c G B c B c B c c B c B c c G c c c c G S c B G c B c c c c S c c c B c c B c B S c S S c G S c S c S c c S G c S c B S G c S G G G G c G S c c k k n n M M M V V V ` _ ` ` ` ` ' o.+.+.%.%.*.%.*.%.*.*.*.=.*.=.*.*.*.&.*.*.*.%.*.%.*.*.*.*.&.=.*.$.*.*.*.*.*.*.=.=.=.=.&.&.&.&.=.#.=.=.&.=.&.=.=.=.*.&.&.&.=.=.*.*.&.&.&.&.&.&.$.=.&.&.&.&.*.*.*.*.*.&.&.*.*.*.=.=.*.*.%.%.%.+.+.O.K X.H H V V n B B k k k k k c k c k x x x S k x x k x x z l l c x c x c x c c x c l c x c x x x x x c x x x x c x x c x c x c x x x x x x c x x x x x x x x x x x x x x x x A x x x C x x x k x x x k x x k c x x x l c x x A x x x x x x A x x x A x x x x x x x x x x x A x A x x x x x x x x x x x x 8 j x x x 8 l x 8 l x 8 8 x x 8 8 A x 8 A x x x x x A 8 x x x x 8 x x x 8 A x 8 8 x 8 x A 8 8 x x 8 x x 8 x x 8 8 x x x 8 x 8 x 8 x 8 x x 8 8 x x 8 8 x x 8 x x 8 x x 8 8 x x 8 x 8 x 8 8 8 8 4 x k G X.%.*.*.&.4.2.$.&.&.2.&.| #.&.&.&.&.4.5.5.w.w.e.e.e.w.e.e.e.e.e.e.e.e.e.e.e.9.e.e.e.e.e.e.e.e.e.w.e.e.e.w.w.w.w.8.8.w.e.e.e.e.q.e.e.q.e.e.e.e.e.e.e.e.e.e.e.e.w.e.e.w.0.3.w.w.e.w.e.e.e.e.e.e.e.e.e.e.e.e.e.e.e.e.e.e.e.e.e.w.e.w.e.w.w.w.w.0.#.&.&.@.&.&.$.$.#.=.#.>.2.5.w.w.w.w.w.w.w.w.w.w.w.w.3.3.,.0.w.w.w.e.e.w.e.e.9.e.e.e.e.e.e.e.e.e.e.e.e.e.e.e.e.e.e.w.e.w.w.w.w.w.e.e.w.e.e.e.w.e.e.e.w.e.w.e.w.e.w.e.e.w.e.w.w.w.5.2.2.&.2.&.&.&.&.&.&.&.&.$.&.&.&.&.&.&.&.*.&.&.&.&.2.&.&.&.&.&.&.&.&.=.#.=.2.&.| 2.&.&.=.=.*.+.H k g l 6 8 8 8 7 6 5 7 8 7 6 5 5 7 5 8 5 7 6 7 7 7 7 7 7 7 7 7 7 7 7 7 7 7 7 7 7 7 7 7 7 7 7 7 7 7 8 7 7 7 8 7 0 7 7 7 7 7 7 7 7 0 7 7 7 7 7 0 7 7 7 7 7 7 7 7 7 7 7 7 7 8 7 7 7 7 7 7 7 7 7 7 0 7 7 7 7 7 7 7 7 8 7 7 7 7 7 7 7 7 7 7 7 7 7 7 7 7 7 7 7 7 7 7 7 7 7 7 7 0 7 7 7 7 7 7 7 7 0 7 7 7 7 8 7 7 7 7 7 7 7 7 7 7 7 8 7 7 7 7 7 7 7 7 7 7 7 8 ",
"o.%.%.o.o.o.%.%.o.' %.o.o.o.%.%.o.o.%.o.o.o.o.%.o.%.%.o.o.%.o.o.o.o.o.%.o.%.o.o.o.%.o.%.%.o.%.+.o.o.O.o.o.o.+.o.o.o.O.o.o.o.o.o.o.o.o.o.X.o.o.o.` o.o.o.` o.o.o.o.o.` o.o.o.o.o.' o.o.X.X.o.X.o.' o.o.' X.X.o.X.o.o.' o.o.' X.o.o.o.o.X.o.o.o.O.X.o.X.o.X.o.X.o.O.X.X.X.X.X.X.X.X.X.o.X.o.X.o.X.X.X.X.o.X.X.X.X.X.X.' X.X.X.X.X.X.` X.X.X.X.X.X.X.' X.X.X.X.X.' X.X.X.X.X.X.X.X.X.X.X.X.X.O.X.X.X.X.X.X.X.X.X.O.X.H X.` X.X.` H V X.X.X.X.` X.X.X.X.X.X.X.X.X.X.X.X.X.H H X.X.H X.X.H X.X.` X.X.V H X.X.X.H X.X.H H X.X.` X.V H X.H H H H X.X.X.X. .o.o.+.+.%.%.} @.2.w.9.9.9.9.9.9.9.e.e.q.e.w.e.e.e.e.e.e.e.e.e.e.e.e.e.e.e.e.e.e.e.e.e.e.e.e.e.e.e.e.e.e.w.e.e.e.e.e.e.9.9.e.e.w.e.e.e.e.e.e.e.e.e.e.e.9.e.9.9.e.w.w.4.@.(  .H B V H G G H H G H G G G G H B H B H G G B G G G H H G G H H G G J G G G G G G G G G G B H G B D G G G B G G G B G G B F B G G G H G G G G B G B B G B B G V G B V V B B V B V V B B V B B B B B G B G B G B G B B B B B B B B B G B G B G B B B B B G B B B B B B B G B G B B B G B G B B B B J B B B B B B M B B B B c B c c c c B c B c c B B c S c c S S S c B c c S c c c c G c B B c B c c B c G c c B c c B B c c B B c c S S c S S c S S S B S S c c S c S c S S S S c S c c G S S c c S S S c S k k c k k M h M M M v n n n n V V V V ` X.X.o.o.+.+.*.%.%.*.*.*.=.*.&.%.&.*.*.&.*.=.*.*.*.*.*.*.*.*.&.*.=.=.=.=.&.&.=.=.=.=.=.&.&.*.*.*.=.=.=.*.*.*.&.&.*.=.=.=.*.*.*.%.*.*.*.*.*.*.&.+.+.+.+.+.+.o.o.X. .X. .V m N n B n n n n h u h k k k k k x A c z c k x x A x C x x x l c x c x c x c x c l z x l c l c x c x c x x c x c x x x x x x x x x x c x k A c c x k x x S x x x x c x A c k x x A c x A k x c c x c x x x x k x x x x x x x c x x x l x x x A x x x x x A x x x x x x x x A x x x x x x x x x x A x x x x x x x x x x 8 x x x x x l x x 8 x 8 8 x A 8 8 x x 8 8 x 8 x x x x 8 8 A A 8 8 x x 8 8 A 8 x x 8 x x x x 8 x 8 x x 8 8 x x 8 8 A x x x 8 8 A x 8 8 x x 8 x 8 x 8 8 x 6 x 6 8 8 x x 6 x 8 x 8 8 x 8 8 x j j g O.+.+.%.#.&.3.#.&.&.&.&.&.&.&.&.*.&.&.&.&.2.3.0.0.w.w.e.e.w.e.e.e.e.9.e.e.9.e.e.9.e.e.e.e.e.e.e.e.w.e.w.w.w.w.w.1.1.6.0.w.e.e.e.e.e.e.e.e.q.e.e.e.e.e.e.w.e.w.e.w.w.w.3.3.:.3.3.0.8.w.e.e.e.e.e.e.e.e.e.e.e.e.e.e.e.e.e.e.e.e.e.w.w.w.0.w.0.,.3.&.&.*.#.*.*.*.=.=.#.=.#.>.2.2.5.w.3.5.5.w.5.3.5.3.2.3.>.>.>.2.3.w.8.w.e.e.e.e.e.e.e.e.e.e.e.e.e.e.e.e.e.e.e.e.e.e.w.w.0.8.1.0.6.8.e.w.e.w.e.e.e.w.e.w.e.e.e.e.e.e.8.w.0.w.5.5.4.2.$.@.@.&.&.&.*.*.&.&.&.&.&.&.=.&.&.&.=.=.=.=.&.&.2.&.&.&.2.&.&.&.*.&.#.=.&.=.2.&.&.&.#.=.=.%.o.n g 2 6 6 8 8 5 7 7 8 5 5 7 5 8 7 5 7 8 8 7 8 7 7 7 8 7 0 7 7 7 7 7 7 7 7 7 7 7 7 7 7 8 7 7 7 8 7 7 7 7 7 7 7 7 7 7 7 7 7 8 7 7 7 8 7 7 7 7 7 7 8 7 7 7 7 8 0 7 7 8 7 7 7 7 0 7 7 7 7 7 7 7 7 7 7 7 7 7 7 7 7 7 7 7 7 0 8 7 7 7 7 7 7 7 7 7 8 7 7 7 7 8 7 7 0 8 8 7 7 7 7 7 7 7 7 7 7 8 7 7 8 7 7 7 7 7 7 7 8 7 7 7 7 7 7 7 7 7 7 7 7 8 7 7 7 7 7 7 7 7 ",
"%.o.o.%.%.%.o.%.o.%.o.%.%.o.o.%.o.%.o.o.%.o.+.o.o.o.o.+.o.o.o.%.%.o.o.o.o.o.%.o.o.o.o.o.o.o.o.o.o.+.o.o.o.o.o.+.o.+.o.o.O. .o.o.o.o.X.o.o.o.o.o.X.o.X.o.o.o.o.` X.o.o.o.o.X.o.X.o.X.o.o.' o.o.o.X.o.X.o.o.o.o.' o.X.o.X.X.o.o.o.` X.o.o.X.o.X.o.o.X.o.o.X.O.X.O.X.X.o.X.o.X.X.o.X.o.X.X.X.X.X.X.o.X.X.X.X.o.o.X.X.X.X.X.o.` X.X.X.o.X.X.` o.X.X.X.X.X.` o.X.X.X.X.X.X.X.O.X.X.O.X.X.X.X.X.X.X.X.O.X.X.X.X.X.X.X.X.X.X.X.X.X.X.X.X.X.X.X.X.X.X.H X.X.X.X.X.H ` X.H X.X.X.X.X.X.X.H X.V X.V X.V V X.X.` H V X.` H X.` X.V H X.X.H H H X.K X.H  . .( ' *.&.4.4.5.4.5.w.w.e.9.9.9.9.9.7.9.e.9.e.9.e.e.e.e.e.e.e.e.e.e.e.e.e.e.e.e.e.e.e.e.e.e.e.e.e.e.e.e.e.e.e.e.e.e.q.e.9.e.e.e.e.e.9.w.e.e.e.e.e.q.e.w.e.e.e.9.9.e.9.e.e.w.@.R U m V V H H H B G G G V G G H B H G H B H H G H H G G G G G G G G H G G H G G G H G H G B B G G G V G G G G G B F H B G G G G G G B B G G B G H G B H V B G V B B B B B B B B B B B B B B B B B B B B B B B B B B G B G B G B G B B B B B B B G B G B B B G B G B G B B B B B G B B B B B B B B G k B B B B B B B B B c B B c B B c G c B c B c c c B c S c S c S B c B c B B c B B c B c c B c B B c B c B B c B G c c G c c c B c S c S c c G c c S c c S S S c S c S c c c c c c c c c c c c c S A A S A c S c c S c B B B B M M k k n k n k n B k b n n B V V N ( ` ` X.` o.X.o.O.o.+.*.%.+.+.%.+.+.*.+.*.%.%.+.*.*.*.*.*.*.*.%.*.*.*.%.*.*.*.*.%.%.%.%.%.%.%.%.%.*.%.+.+.+.o.o.o.o.o.' ` ' ` V V V V b n b v n v h h h k n z k k k k k B c k c c A x S C x x k l j x x x q x x x c c x x x x l c l c x c x c c x c x c l c x A k x x x x A k x x S x k x x x x x x x x x A x x x A k x c x x x x x x x c x x x x x x x x x x x x x x x x x j x x x l x x x c x x x x A x x x x x x x x x A x x x x x x x x x x x A x x x x x x x x 8 x j 8 x x l x l 8 x x x x A 8 x x x 8 x 8 x 8 x x 8 A 8 8 x 8 x x 8 8 x x 8 x x x 8 x x 8 x x 8 8 x A 8 x 8 8 A A 8 8 x x 8 x 8 x 8 x 8 x x x x 8 x 8 A 6 x 8 8 x 8 x 8 x 8 x 8 8 x 8 x 8 8 q x 8 j g g K +.*.=.#.2.2.>.&.&.&.| &.&.%.&.&.*.&.&.| &.2.3.,.,.0.0.w.w.w.e.w.w.e.w.w.e.w.w.w.e.w.e.w.w.w.w.w.w.3.3.3.,.;.;.-.-.<.1.w.w.e.w.e.e.e.e.e.e.e.e.e.e.e.e.e.e.e.q.w.w.3.:.>.:.3.3.1.6.w.w.w.e.e.w.e.e.e.e.e.e.q.e.e.e.e.e.e.e.w.e.w.w.w.3.3.>.;.{ &.*.&.*.*.&.*.%.$.$.=.=.&.&.>.#.{ >.:.#.>.>.>.| >.>.>.2.3.>.>.>.>.,.0.w.w.w.w.w.w.e.w.e.e.e.e.e.e.e.e.e.e.e.e.w.8.0.1.,.-.>.-.>.3.0.0.w.w.e.w.w.w.e.w.e.w.e.w.w.5.5.1.5.<.2.>.:.$.2.&.&.*.*.&.&.#.&.&.&.&.&.&.*.=.=.&.=.&.&.&.&.2.&.2.&.&.&.&.&.&.&.&.&.=.#.$.$.&.*.%.%.+.*.+.H g g 6 8 6 5 6 5 6 7 5 7 7 6 7 6 7 8 5 5 7 7 7 7 7 7 7 7 8 7 7 7 7 7 7 8 7 7 7 8 7 7 7 7 7 7 7 7 0 7 7 7 7 7 7 7 7 7 7 7 7 7 7 7 7 7 7 7 7 7 7 7 7 7 7 7 7 7 7 7 7 7 7 7 7 7 7 7 7 8 7 7 8 7 7 7 7 7 7 7 7 7 7 7 7 7 7 7 7 7 7 7 7 7 7 8 0 7 7 7 7 7 7 7 7 7 7 7 7 7 7 7 7 7 7 7 7 7 7 7 7 7 7 7 7 7 7 7 8 7 0 7 7 7 7 7 7 7 7 7 7 7 7 7 7 7 8 7 7 7 7 7 ",
"%.%.o.%.o.%.%.o.%.o.o.%.} o.o.%.%.o.%.o.o.%.o.%.o.o.o.%.o.%.o.o.+.o.%.o.%.o.o.%.o.%.o.o.%.o.o.o.o.O.+.o.+.o.o.o.o.O.o.o.o.o.o.o.o.X.o.O.o.O.o.X.o.o.' o.X.o.o.X.o.' o.o.X.o.` o.o.o.X.' X.o.o.X.o.o.o.` ` o.o.o.o.o.' o.o.X.o.X.o.X.o.X.X.o.O.O.X.o.o.O.X.X.O.o.X.X.o.X.o.X.X.o.X.o.X.X.o.X.X.X.o.X.` X.o.X.X.o.o.X.X.X.X.X.` o.X.X.X.X.X.O.X.X.O.X.X.X.X.X.X.X.X.O.X.X.X.X.X.X.X.X.o.X.O.X.X.X.X.X.O.X.X.X.X.X.X.X.X.X.X.` X.` X.H X.X.X.X.H X.X.H H X.X.X.X.X.H X.X.V X.X.X.X.V X.` H X.H X.X.` X.V X.H X.X.H X.X.X.V V X.X.X.H H D K D O. .) } $.5.w.w.w.w.w.w.e.e.e.9.e.9.9.e.9.e.e.e.e.e.e.9.e.e.e.e.e.e.9.e.e.e.9.e.e.9.e.e.e.e.e.e.e.e.e.e.e.e.e.q.e.e.e.e.e.e.e.e.e.e.e.e.e.9.e.9.e.e.e.e.w.9.e.e.e.e.9.9.e.e.w.w.,.;.Q [ ' ( m m K H B G G G G H B F G V G G V H H B H G G H G G H G G H G G G G G H G G G G G G G G G G H G G B G G B G H G G G G G G G G B G B B B H B B H V G B V G B G B B B B B G B B B B B G B B B B B B B B B B G B G B G B G B B G B B B B G B G B B B G B G B B B G B G G G G c B B B B B B k B B B c B B B c c B B B B c c B B c S B c B c c B c B c G B c G c B c S B c B c B c c B c B c c c c B c B c G B c B c G c c B c S c S c S c S c G c S S S c G S S c S c c S c S c G c S c S c B c c c c c c c c c c c c c B c B c c k c z c c c M c c c M k c z z n k M n k M n k v k n n n M B B N B m V V V V V V H H ` V V X.V X.V X.V X.` H V V V V V V V V M B n n B k n k k M k B z M k c z k c c z c c c k z c c c x k c k x k c x k c k x S S x k A x S x z x z x x x x x x x c x z x c c x z x c l c x z x z x c l c x x x x x x k c x x A x x k A x c x S k A x c x x x x k x x c A x x c k A x c x x x k x x S x c x x x x x x x x C x x x A x x x x x x x x x x x A x x x x A x x x x x x x A x x x x x x x x x x x x 8 8 x 8 x A 8 x 8 x 8 A 8 x x 8 x 8 x 8 8 x 8 x 8 x 8 x x x x 8 x 8 A 8 x x 8 8 x x 8 A 8 x 8 8 x x 8 8 x A 8 x 8 x A A 8 8 x 8 8 A 8 8 A 8 x x 8 A x x x 8 x x 8 x x 8 x 8 x 8 x 6 x x 8 x 8 8 8 8 q 8 x z h o.%.&.&.$.2.=.<.&.&.&.2.&.&.2.&.&.&.&.&.*.&.&.&.#.>.>.2.2.3.>.>.3.5.5.5.3.w.w.3.5.5.3.5.3.5.5.3.#.:.$.2.2.2.2.2.>.>.#.>.1.1.w.w.e.e.e.e.9.e.9.e.9.e.e.e.e.w.w.w.3.2.2.3.2.2.2.2.#.>.>.3.5.5.w.w.e.w.w.w.w.e.e.w.w.e.w.e.w.w.w.3.3.>.:.>.2.2.>.&.&.&.&.&.&.$.&.&.&.=.&.#.&.=.#.&.&.&.&.#.&.#.@.| 2.&.>.&.&.2.2.2.>.| 3.2.4.5.5.5.w.5.w.w.w.w.w.w.w.e.w.q.0.w.3.3.>.>.>.>.$.<.>.2.:.| :.>.2.2.2.3.5.3.5.3.0.3.3.5.>.=.$.>.&.<.&.$.$.&.&.#.=.=.&.4.#.&.&.>.&.&.2.&.| 2.&.&.2.2.&.&.2.2.#.>.&.&.4.&.=.=.=.&.=.=.&.*.%.*.*.+.+.K M 2 l 6 6 7 7 4 6 7 8 7 7 7 7 7 7 7 7 7 7 7 7 7 8 7 8 0 7 7 7 7 7 7 7 7 8 7 7 7 7 7 7 7 7 7 7 7 7 7 7 7 7 7 7 7 7 7 7 7 7 7 7 7 7 7 q 7 7 7 7 7 7 7 7 7 7 7 7 7 7 7 7 7 7 7 7 7 0 8 7 7 0 7 7 8 7 7 7 7 7 7 7 8 7 7 7 7 7 7 7 7 7 7 7 7 7 7 7 7 7 7 7 8 7 7 7 7 7 7 7 7 7 8 7 7 7 7 7 8 7 7 7 7 7 7 7 7 7 7 7 7 8 7 0 7 7 7 8 7 7 8 7 7 7 7 7 7 7 7 7 q 7 7 ",
"' o.%.%.%.o.%.%.o.} o.o.o.o.%.' o.o.o.o.o.o.o.+.%.o.o.o.+.o.%.o.o.o.o.o.%.o.o.%.o.o.%.o.o.o.o.%.+.o.o.o.o.o.+.O.o. .o.O.O.o.o.+.o.o.o.o.o.o.' o.X.o.X.o.o.o.o.o.o.X.` o.o.o.X.o.X.o.o.o.o.o.' o.' X.o.o.o.o.X.o.X.X.o.X.o.' o.o.o.O.X.O.O.X.X.o.X.O.X.O.O.o.O.X.X.o.X.X.X.X.X.X.X.X.o.X.X.X.X.o.X.X.X.X.O.o.X.X.` X.X.' X.X.X.X.X.X.X.X.X.X.X.X.X.X.X.X.X.X.X.X.X.X.O.X.X.X.X.X.X.X.X.X.X.X.X.X.X.X.X.X.X.X.X.X.H X.X.X.X.X.H X.X.X.H X.X.V X.X.X.X.X.X.X.V H X.X.X.X.X.H X.X.H X.H X.X.X.V V X.H H X.X.X.H ` X.V V X.X.X.X.H H K J H H F O. .R $.5.w.w.e.e.e.e.9.e.q.9.e.e.e.e.e.e.e.e.e.e.e.e.e.e.e.9.e.e.e.e.e.e.e.e.e.e.e.e.e.e.e.e.e.e.q.e.e.e.e.e.e.e.e.q.e.e.e.e.e.e.9.e.9.e.e.e.e.9.9.e.e.e.w.e.e.9.e.e.w.e.w.e.w.q.w.w.5.4.@...m m n J G G H G G V H H G H H G B H H B G H G H G G G G J G H G G H G G G G G B G B B F B B G G F G G G G B G G B H B G G G G H V G B B G V B B V B B B B B G B G B B B G B G B B B G B B G B G B G B G B B B B B B B B G c B G G c B B B B B G B B B B B G B B G G G G B B B B M B B B B c B B c c B B B B c B B B B B c B B c B c S B c B c B c c c c c G B c c B c c c G G c c G G c S B c B c c c c S c B c c B c G c S S B c S S c c S S c c S c S c S S G S B S c c S S c S c S c c c c c c c c c B c c c c c c c c c c c c c c c c c c c c c c c c k c k c k k c k c k c c c k c n k B k B M M B M M M k c M k M k v M k M z k k B M B M M z h k k S S c c k k c S k k c c k c c c l x c c c x c c c c x c c c x x S S x S x x S k x x c A c k x x c c x x c l c c c c l c x c x x c x c x c x c x c x c x c l c c x S x x A x x x k c x x x x x x x x x x x c x x x A x x x k x x x x x x x c x x x x x x x x x C x x C x x x x x x x x x x x A x A x x x x x x x x x x x x x x x A x x x x x x x A x x x x x A x A x x x 8 x x 8 A 8 x 8 x 8 8 x 8 x x x x 8 A A 8 8 x x 8 8 x A 8 x x x 8 8 x x 8 8 x x x 8 x x 8 x x x x 8 x 8 x 8 8 8 x x 8 A 8 q x x x x 8 8 x 8 x x x 6 x 6 x 8 8 x 6 8 x x 8 8 8 6 x 8 8 8 q 8 8 8 j z v o.&.&.&.2.<.=.@.&.&.&.&.&.&.&.&.&.&.&.&.&.&.&.=.&.&.$.&.&.2.&.2.| >.| 3.&.:.2.#.2.>.#.#.#.#.| @.&.2.&.&.&.&.4.&.=.<.#.$.=.3.5.5.w.w.e.w.e.e.e.e.e.w.w.w.w.w.w.3.:.>.:.| | | 2.2.&.#.#.$.>.2.5.5.5.5.w.5.w.5.w.w.0.0.0.0.w.1.3.3.>.2.2.>.&.2.&.&.2.#.&.$.$.&.$.&.&.&.&.*.=.&.&.*.&.&.&.&.&.&.&.&.&.&.&.&.2.2.&.&.&.&.&.&.&.4.&.>.2.4.2.4.5.3.1.5.3.3.3.,.:.3.:.3.>.2.=.<.&.#.$.&.&.&.&.&.2.2.2.4.2.| 2.&.2.2.2.2.2.$.$.=.&.&.&.2.&.4.2.4.2.$.&.2.| #.| :.:.&.2.&.&.&.2.&.&.&.&.=.&.&.&.&.&.&.*.*.=.=.=.=.*.*.*.*.+.O.K H B k l 2 6 6 8 7 6 7 2 7 7 7 7 0 8 7 7 7 7 8 7 7 7 7 7 7 7 7 7 7 7 7 7 7 7 7 7 7 7 7 7 7 7 7 7 0 7 8 7 7 7 7 8 7 7 0 7 7 7 7 7 7 7 7 7 q 7 7 7 7 7 7 7 7 7 7 7 7 7 7 7 7 7 7 7 7 7 7 7 7 7 8 7 7 7 7 7 7 8 7 7 7 7 7 7 7 7 7 7 7 7 q 7 7 7 7 7 7 7 7 7 7 7 7 7 7 7 7 7 7 7 7 7 7 7 7 8 7 7 7 7 7 7 7 7 7 7 7 7 7 7 7 7 7 7 7 7 7 7 7 7 7 7 7 7 7 7 7 7 7 7 7 7 7 ",
"%.%.%.o.@.o.%.o.%.o.' %.%.o.o.%.o.o.%.o.o.%.o.o.o.%.o.%.%.o.o.o.o.%.o.o.o.%.o.o.o.+.o.o.%.o.o.+.o.o.o.+.o.+.o.o.o.O.o.o. .+.o.o.o.O.o.o.X.o.o.X.` o.` o.` X.o.X.o.o.o.o.o.o.o.o.o.' o.X.X.X.o.X.X.o.o.o.o.o.' X.o.o.o.o.X.o.X.o.o.X.o.O.O.o.O.o.X.X.o.o.O.X.X.o.X.X.X.X.o.o.X.o.X.X.X.X.o.X.o.X.X.o.X.o.X.X.X.X.X.X.X.X.X.o.X.X.X.O.X.X.O.X.X.X.X.X.X.X.X.X.X.X.X.X.X.X.X.X.O.X.X.X.X.O.X.X.X.O.X.X.X.X.X.X.X.H X.X.X.X.` X.` X.X.X.X.X.X.X.X.X.X.X.X.X.X.X.X.X.H X.X.H X.H X.X.V X.V X.X.X.H ` X.X.X.V ` H V X.X.X.H X.X.V X.H H J K K X.O. .) 4.w.w.e.e.e.e.9.9.e.e.e.e.e.e.e.e.e.e.e.e.e.e.e.e.e.e.e.9.e.e.e.e.e.e.e.e.e.e.e.e.e.e.e.e.e.e.e.e.e.e.e.e.e.e.e.e.e.e.e.e.e.e.e.e.e.8.q.e.e.e.e.w.w.e.e.e.e.e.e.e.e.e.e.e.e.w.w.w.5.=.@.o.m B D G G G H V G G F G G G G H B B H G H G J H G H G G H H G G H G G B G G G H G G G G G G B G G B H B G G B G G B G B B G B B G V G G B B B G H B G B B B B G B B B B B B G B B B B G B B B G B B B B B G B B B G B G B B B B G B B G B G B B G B G B B B B B G G G B M B c B B B B c B c B B B B B B c B c B c B c B c c B G c B c c B c c c B B c B c c G B B c G c G c c B c c B c G c B c G c c B c B B B S c B S c c S S G c S S S c S S c c S c S c S c S c S S c S G S c S c c c c M B c c c c c c B B c c c c c c c c c c c c c c c c c c c c c k c k k c k c k c k c k B k k k z M B c B n B B B B B B B B B B c B B B M B B B B B c B B B k S k c k x k x x c k c c k c z x c c c c x c c x c x c c l x c S x x c c c k x A S x x S x A c c l c x c x c x l c x c l c l c c l c l c l z x c x c x x c c x x x x c x x x x x x x x c x c x x x x x x x x x x S x x x x x x x x x x x x x x x c x k c x x x x x x j x x x x x x x x x A x x x x x x A x x x x A x x x x x A x x x x x x x x x x x x A x x x 8 A x 8 8 A x x x x 8 x x 8 8 x x 8 x 8 8 x x 8 8 x x 8 8 A x 8 8 8 x 8 8 x x 8 8 x A 8 8 x 8 x x 8 A 8 8 x x 8 x x 8 x x 8 8 x 8 x 8 x x 8 x x x x 8 x l x x l x 8 8 x 8 8 x 6 8 6 x 8 x 8 8 x q 8 8 q 8 x j h X.%.&.*.&.&.=.#.&.=.&.*.&.=.&.&.#.*.&.=.&.*.&.#.*.&.*.=.&.=.&.&.@.&.4.&.2.2.&.4.&.2.>.&.2.&.&.&.&.&.&.&.&.&.&.&.&.=.=.$.#.&.&.4.5.5.5.5.w.w.w.w.w.w.w.5.5.3.3.2.>.| &.&.&.&.&.&.&.&.&.&.#.&.#.&.2.4.3.3.>.3.2.3.1.3.3.3.2.3.>.#.&.$.&.&.&.&.&.&.&.&.&.&.&.&.&.&.&.*.*.&.*.*.&.&.&.=.&.*.*.&.&.&.&.&.&.&.&.&.&.&.&.&.&.&.&.&.&.$.$.2.$.2.2.2.>.2.#.&.&.#.&.&.&.&.&.&.&.&.&.&.&.&.&.&.$.&.&.&.=.@.&.| #.#.&.&.&.&.&.$.2.2.&.<.4.&.=.$.#.=.$.$.&.#.2.&.&.&.&.&.&.&.&.*.=.=.&.&.&.=.&.%.*.*.=.*.=.*.+.+.O.X.X.X.` V B n k h g 6 6 6 8 7 6 7 7 7 8 7 7 7 7 7 7 7 7 7 7 7 7 7 7 0 8 7 7 7 7 7 7 7 7 7 7 7 7 7 0 8 7 7 7 7 8 7 7 7 7 7 7 7 7 7 7 8 7 7 7 7 7 7 7 7 7 7 7 7 7 7 7 7 7 8 7 7 7 7 8 7 7 7 7 7 7 7 7 7 7 7 7 7 7 7 7 7 7 7 7 7 7 7 7 7 7 8 7 7 8 7 7 7 7 7 7 7 7 7 7 0 7 8 7 7 7 7 7 7 7 8 7 7 7 7 7 7 7 7 0 7 7 7 8 7 7 7 7 7 7 7 8 7 7 7 8 7 7 7 7 7 7 7 0 7 7 7 8 7 7 7 7 7 7 7 ",
"%.o.o.%.%.+.%.o.%.o.%.o.%.o.%.o.o.%.o.+.o.o.%.o.o.o.o.o.o.o.%.o.o.%.o.%.o.o.o.+.%.o.%.o.o.o.%.o.o.+.o.o.o.O.+.o.o.o.o.o.o.o.O. .o.o.o.o.o.o.o.o.o.o.o.o.o.o.o.' o.X.` o.X.o.X.' X.o.o.' o.' o.o.o.o.X.o.o.` o.X.X.' o.X.' o.o.o.o.O.o.X.X.o.X.X.o.O.O.X.o.O.o.X.X.o.X.o.X.X.X.X.o.X.o.X.X.X.X.X.X.X.X.X.X.o.o.X.X.X.X.X.X.` X.` X.X.X.X.X.X.X.X.X.o.X.X.X.O.X.X.X.X.X.X.X.X.X.X.X.X.X.X.X.X.X.X.X.X.X.X.X.X.X.X.X.X.H X.` X.X.X.X.H X.X.X.X.H X.H X.H X.X.X.H X.X.X.X.X.X.X.X.X.X.X.V X.V X.X.X.X.V X.V X.X.X.X.X.V X.V X.X.H X.H K K F H  .o.$.4.w.w.e.e.e.e.9.e.e.e.e.e.e.e.e.e.w.e.e.e.e.e.w.e.e.9.e.e.e.9.e.9.9.e.e.9.e.e.e.e.e.e.e.e.e.e.e.q.e.q.e.e.e.e.e.e.w.e.e.e.e.e.w.w.0.1.8.w.w.w.w.e.e.e.e.e.e.9.w.e.e.w.w.e.w.w.w.w.4.=.*.+.H H H G G G G G H H G H H G V H B H H G G G G G G H J G G G G G G J H G H B G B G G G D G G G G B G G G G F B G G G G H D G G G V B B B G V G B B B V G B G B B B B G G B B B G B G B B B B G B B B G B G B B B G B B B B B G B B G B B B B B B B B B B G B G B B B B B B B B B B B B c B B B c B c B B B B c B B B c c B c c c B c c B c G c c c G c c B c c c c B c B c c B c B c c c c B c B c B G c B c c c c B c c S G c S c S c c c G c S c G c S c S c S c S S c S S c S G c S c c c c c c c c c c c c c c c c z c c c c z c c z c c z c c c c k c c k c c k c k M c c G k c c c B c c k c k S k c k c k c k c c c k k k c k c k k c k k k k k S c c c c c c c c c c x z x c c c c x x x c c l c c x c c x c c x c A k x c A S c x k S x c x c x c l c l c l c c x c l c x c x x c x c x c x c l c l c c z x c c x x x x c x c S x c x x x x x x c x c k x S x x x c x c x c x c x S x k x c x x A x x x x k x x x x x x C x x x A x x x x x x x x A x x x x x x x x x x x x x x x x x x x A x x x x A x x x x 8 x 8 x x 8 8 A x 8 x 8 x x x x 8 x 8 A x 8 x x x 8 x x x 8 8 x x x 8 x x x 8 A x x 8 x x 8 A 8 8 A 8 x 8 x 8 x x 8 x 8 x x x x 9 8 A 8 8 x 8 8 8 A x 8 x x 6 x 8 8 x 6 x 8 8 x x x 8 x 8 8 x 8 8 8 8 8 4 4 l k ` +.&.&.*.&.=.*.@.*.$.*.$.=.#.&.=.#.=.&.*.#.*.=.&.*.@.=.*.&.&.*.*.&.&.&.&.=.&.&.&.&.2.&.&.&.&.&.&.&.&.&.&.&.&.=.=.*.&.&.&.&.$.#.#.2.3.3.5.5.5.w.5.4.2.2.2.$.@.&.&.&.&.&.&.*.&.*.&.&.&.=.=.&.=.&.&.2.&.&.>.$.>.$.<.&.=.$.$.&.&.&.&.&.&.&.&.&.&.&.&.&.*.&.=.&.=.&.=.&.&.=.&.&.*.&.=.&.&.*.&.&.&.&.&.&.&.&.&.&.&.&.&.&.&.&.&.&.2.&.2.&.2.2.$.&.2.&.&.&.&.&.*.&.&.&.=.&.&.&.*.&.&.&.&.#.=.=.&.&.#.$.#.&.=.@.&.=.=.=.4.&.&.&.4.=.=.&.&.&.&.&.&.&.&.&.=.*.*.*.%.&.*.*.*.*.*.%.*.*.*.*.*.+.+.+.O.O.V V V n n h h h g @ @ g g 2 l 6 6 7 7 7 7 7 7 7 7 7 7 7 7 7 7 7 7 7 7 7 7 7 7 7 7 7 7 7 7 7 8 7 7 7 7 7 7 7 7 7 7 7 7 7 7 7 7 7 7 7 7 7 7 7 7 7 7 7 7 8 7 7 7 7 7 7 7 7 7 7 7 7 7 7 7 q 7 7 7 7 7 0 7 8 7 7 8 7 7 7 7 7 7 7 7 7 7 7 7 7 7 7 0 7 7 7 7 7 7 7 7 7 7 7 7 7 8 7 7 7 7 7 7 7 7 7 7 7 7 0 7 7 7 7 7 7 7 7 8 7 7 7 0 7 7 7 8 7 7 7 7 0 7 7 7 7 7 7 7 7 7 7 8 7 7 7 0 7 7 7 7 7 7 7 ",
"o.+.o.%.%.o.%.%.' %.o.%.%.o.%.o.%.o.o.o.%.o.+.%.%.o.%.+.o.o.+.o.o.o.%.o.o.o.+.o.o.o.%.o.+.o.%.o.o.O.o.o.o.o.O.o.o.O...+.o.o.O.o.o.O.o.o.o.o.X.o.' X.o.X.o.X.o.X.o.o.o.X.o.o.o.o.` o.o.o.o.o.o.X.X.X.o.o.o.' X.o.o.o.o.' o.o.o.X.X.O.O.X.o.O.o.O.o.O.o.X.X.o.O.X.X.X.o.X.X.o.X.o.X.X.o.X.X.X.o.X.o.X.X.o.X.X.o.X.` ` X.o.X.o.X.X.X.X.X.X.X.X.X.X.X.O.X.X.X.X.X.O.o.X.X.X.X.O.X.X.X.X.X.X.O.X.X.X.O.X.X.X.X.X.X.X.` X.X.H ` X.X.` H X.X.X.X.X.X.H H X.H X.H X.H X.X.X.X.X.X.X.X.X.H X.X.V X.H X.H X.V X.X.V X.H H H H X.X.V X.H H X.H K X.V  .o.&.5.5.w.w.e.e.e.e.e.e.e.e.q.e.e.w.q.w.q.w.w.e.e.w.e.e.e.e.e.e.e.e.e.e.e.e.e.e.e.q.e.w.e.9.e.e.e.e.e.e.e.e.e.e.q.e.w.e.w.w.w.w.w.w.w.,.>.>.1.5.w.w.w.w.0.w.w.e.e.w.e.w.e.e.e.w.w.w.5.2.$.&.*.O.F B G H G H H G G H B H B H B H H B J G G G G H G G H G G G J G G G D V H G G B G B V G G B D B H G G G G D D V G G B G G B B B B V B B H V H B V B B B G B B B B B B B G B B B B B G B G c B B G B B B B B c G B B B B B G B B B G G B G B B B B G B B G B B B B B B B B B B B c B B B B B B c B B c B c B B B c B G c c B c B c G S c B c G B c G B c c B B c c B c c G c c B c B B c c G c B B c c c G c B B c B S c S S S c S c S c G S c S S S S B S c S S G c S c c S c S c S c c c c c c c c c c c c B c c c c c c c c c z c c c c z c c c c c c c S k c c S c c c c c S c S c c A c c c c x c x k x c c x k k S x c c c S k x c k x c x x x x c k c c x k c c l c x c c x c c x c c x c c x l c c c x c c x c k k A c x S x A k S x k S x k c l c l c l c l x c x z x c x c c l c l c x c x x c x c l c x l x x k x k x c x x x x x c x A x x c x c A x c x x c x c c x c A x c x x A x c x x x x x k x x x x C 4 x x x x C x x x x x A x x x x x x x x x x x x x x x x x x x x x A x x x A x x x x x x x x A x x 8 x 8 A x 8 8 A 8 x 8 x 8 8 A x 8 x 8 x 8 8 x x 8 8 x 8 x 8 x x 8 8 8 x 8 8 x 8 8 8 x x 8 x 8 x x 8 A 8 x 8 x x 8 x 8 x 8 x 8 8 x 8 x 8 A 8 x x 8 x l x 6 x 8 x x x 8 x 8 8 x x 6 8 x x 8 8 8 8 4 8 4 x j B X.*.*.%.*.=.=.%.$.$.=.*.=.#.$.$.&.$.&.#.&.=.&.*.&.*.&.&.*.&.&.&.&.&.&.&.&.2.&.&.&.&.@.=.&.&.#.&.&.&.&.&.&.=.&.*.*.=.*.&.&.&.&.&.&.2.&.2.>.:.| &.#.&.&.&.&.&.&.&.&.=.=.=.*.&.&.*.%.&.*.=.&.=.&.&.&.*.&.&.=.#.=.&.=.&.*.&.&.=.=.&.*.&.&.&.*.&.*.&.*.=.*.*.=.*.&.=.=.=.&.&.=.&.=.&.&.&.*.&.&.*.*.&.&.&.&.&.&.&.&.&.&.&.=.&.&.=.&.&.&.&.&.2.&.&.&.*.&.&.&.&.&.&.&.&.&.&.&.&.&.&.&.*.#.*.=.=.=.=.=.*.=.*.@.*.$.*.=.#.=.#.=.&.=.&.@.&.&.=.=.=.=.=.&.*.*.*.%.%.+.*.+.+.+.+.+.X.X.` V G B k k h h g g 2 = 2 g g 2 6 g 2 2 4 7 8 8 5 5 7 < < 7 7 7 7 7 7 7 8 7 7 7 7 7 7 7 7 7 7 7 7 7 7 7 7 7 7 7 7 8 7 7 7 7 7 7 7 7 7 7 7 7 7 7 7 7 7 7 7 7 7 7 7 7 7 7 8 7 7 7 7 7 7 8 7 7 7 q 7 7 7 7 7 7 7 7 7 7 7 7 7 7 7 7 7 7 7 7 7 7 7 8 0 7 q 7 7 7 7 8 7 7 7 7 7 7 7 7 7 7 7 7 7 7 7 7 7 7 7 7 8 7 7 7 7 7 7 7 7 7 7 0 7 7 7 7 7 7 7 7 7 7 7 7 7 7 7 7 7 7 7 7 7 7 7 7 7 q 7 7 7 7 7 7 7 7 7 7 7 7 ",
"%.@.%.o.o.%.} o.%.o.o.' o.%.' %.o.o.+.o.o.o.o.o.o.o.o.o.o.%.o.%.o.%.o.o.o.%.o.%.%.o.o.o.%.o.o.o.+.o.+.o.+.o.o.+.o.o.o.o.o.o.o.o.o.o.o.o.o.o.X.' o.o.o.o.' o.o.' o.X.' o.' X.o.X.o.o.o.X.o.` o.o.o.' X.o.o.X.o.o.o.X.o.X.X.' X.o.o.X.o.X.o.X.X.O.X.X.O.O.O.X.O.o.o.X.X.X.X.X.X.X.o.X.X.X.X.o.X.X.X.X.X.X.o.X.X.X.X.X.` X.X.X.X.o.X.O.X.X.X.X.X.X.X.X.X.X.X.X.X.X.X.X.X.X.X.X.X.X.X.X.X.X.X.X.X.X.X.X.X.X.X.H X.X.X.X.X.X.X.X.H X.X.X.H X.X.H X.X.X.X.X.X.X.X.X.X.X.H H X.H X.H X.V X.X.V X.X.V X.H X.X.V X.X.X.` X.` X.V X.X.X.` X.H H H H  ...&.5.w.w.e.e.e.e.e.e.w.w.e.e.w.w.w.w.w.3.3.3.0.w.e.w.e.e.w.w.e.e.e.e.e.e.e.e.e.e.e.e.e.e.e.w.e.e.e.e.e.e.e.e.e.e.e.w.w.w.w.w.w.w.w.3.>.~ { #.2.2.2.0.3.:.3.w.w.w.e.w.w.w.w.w.w.w.5.5.#.@.=.=.+.X.D H G H B G H G D G V H H B H B H H H G G G G G G J G H G H G H G G G B G G G G G G G G G H B B G B G G V G B G G H G G G V G B G G V B B B B G B G G c B B G B G B G c G B B G B B B B G B G B B B G B G G B B G B G B B G B B B B B B B G B B B B G B B B B B B B B B B B B B B M c B c B c B c B B c B c B B B B c c G S c B c B B c c c c c c c B B c c c G c c G c B B c B S c G c B c c c B G B c c c c B c c G S c c S c S c S c S S c c S S c c S G c c S c S S c S c G c c c c c B c c c c c c c c c c c c c c z c z c c z z c c c c z c S k c k S x c k c c c S c c c c c c k c S x c c S S S S c c S S S S S S S A S S c c A S S k S S x k x c c c c x c c c c x c c c c c c x c c l l x c x c c x x c c A x S x S k x c c x c S x c A x c x c x c x c c l c x c x z x x c x c x c l c c l c x c x c c x c A x A x x x x x x c x x k x x x x x x x x x x x x x x x x x x x A k x x x x c x c x x x j x x x x x x C x j x x A x x x x x A x x A x x A x A x x x A x x x x x x x x x x x A x x A x x A x x 8 8 x x 8 x 8 x x 8 x 8 x 8 A x 8 x x 8 A 8 x x 8 8 A x 8 A x x x 8 x x x 8 A x 8 x x A 8 x x 8 x x 8 x x x 8 A 8 8 x x 8 8 A x q A 8 8 x x 8 x x 8 x 6 x l x 6 x 8 8 8 x 8 6 x 8 8 x x 8 8 x 8 x 8 8 q 4 j j g B +.*.*.*.*.=.*.#.*.=.#.=.=.&.&.&.&.$.&.$.$.&.&.&.&.&.&.&.&.*.2.2.&.2.4.2.2.2.4.&.&.&.&.&.=.&.&.&.&.*.*.=.&.*.&.*.*.*.*.=.*.&.&.&.&.&.&.&.&.@.*.&.&.&.&.&.*.=.&.&.=.&.*.&.&.*.&.&.=.&.=.&.*.&.&.=.*.=.$.=.*.&.=.&.&.&.&.=.*.&.=.&.&.*.&.&.*.&.=.$.&.&.#.=.&.=.&.&.&.&.&.&.&.&.&.*.&.&.&.&.&.&.&.&.&.*.&.&.&.&.&.*.&.&.&.*.&.&.&.=.&.&.&.&.&.=.&.&.*.*.*.*.&.&.&.&.&.&.&.&.&.&.#.#.=.=.#.&.=.@.*.@.*.*.*.*.*.*.*.=.*.*.*.=.=.=.*.*.%.%.%.%.%.*.+.O.+.O.O.X.X.K N B B n n h h g 2 X o 2 2 g l j 2 5 6 1 1 8 8 8 8 6 5 7 8 8 7 < 7 7 7 7 7 7 7 7 7 7 7 7 7 7 0 7 7 q 7 7 8 7 7 7 7 7 7 7 7 7 7 7 7 7 7 8 7 7 8 7 8 7 7 7 7 8 7 7 7 7 8 7 0 7 7 8 0 7 7 7 7 7 8 7 7 7 7 7 7 7 7 7 7 7 8 7 7 7 7 8 0 7 7 7 7 7 7 7 7 8 7 7 7 7 7 7 7 7 7 7 7 7 7 7 7 7 7 7 7 7 7 7 7 7 7 7 7 8 7 7 7 7 7 7 7 7 7 7 7 7 7 7 7 8 8 7 7 7 7 8 7 7 7 7 7 7 7 7 7 7 7 7 7 7 7 7 7 7 7 7 7 7 7 7 7 7 7 7 7 7 7 7 ",
"o.%.%.o.o.%.%.o.%.o.%.o.%.' ' %.%.o.%.%.%.%.o.%.o.o.%.o.%.o.o.o.o.+.o.o.%.o.o.o.o.%.o.%.o.%.o.o.O.+.o.o.o.o.o.o.o.o.o.o.o.o.o.o.o.o.o.o.o.o.o.o.o.X.o.o.o.X.o.o.X.o.o.o.o.X.' o.o.X.' o.` o.o.o.` o.o.o.o.o.o.X.X.o.o.o.o.o.` o.o.O.X.X.O.O.X.X.O.o.X.o.X.O.X.o.X.X.X.o.X.o.X.X.X.X.X.X.X.o.X.o.X.X.o.X.X.X.o.X.` X.X.X.X.X.X.o.X.X.o.X.X.X.X.O.X.X.X.X.X.X.X.X.X.X.X.X.X.X.X.X.O.X.X.X.X.X.X.X.X.X.X.X.X.` X.X.X.X.X.X.X.` X.X.H X.` X.X.X.X.X.X.X.X.X.X.H H X.X.X.X.X.X.X.H X.X.X.X.X.V V X.X.X.X.X.V X.V X.H H X.X.H X.V X.V X.H X.X.X. .o.@.4.5.w.w.w.e.w.8.w.w.w.w.w.5.w.0.5.,.;.;.;.3.w.5.w.w.w.w.w.e.w.w.w.w.q.e.e.e.e.e.e.e.w.w.8.0.w.e.e.e.w.e.e.e.e.0.0.1.1.5.5.3.3.<.2.#.#.#.#.@.@.#.3.:.:.:.3.0.w.w.w.w.w.w.w.5.4.3.3.2.&.&.*.+.X.H V H V G G G G H G G H B H H B H G G G H H G H G G H H G G H H G G G B G G D V G B G G G G G G H G G G G H G G G G B G G V B G B B B B H B V V G B B G B G B B B B B B B G B B G B G B G B B B B B B B B B B B B B B B B B G B G B B G B c G B G B B B B B B B B B B B B B B B G B B B c B B B c c B B B c B c B c c B c B c B B c B c G c c B c B c c B B c G c c G c c c c B c c B c c G B c c c B c B B c c G S c c S S S c G S c S c c c G c c S S c c S S c G c c S S c S c B c c c c c c c c c c c c c c M c c c c c c z c c c c c c c c c c c c c c c c c c c x S c c k c S A S A S S A A x C x A x x x A x x x x x x x x x c A c x x A x S x c c x x c c x c x c c x x c c x x c c x c c c c x l c x c c x S x x c c x S x c k A S k x c z x x c c x x x x c x c l c l c c x c l z x c x l c x z l c x z x x x x x x c x k x c x c x S x x S x x x x c x k A c x x x k x x c x x x x c x x x x x x x x l x x x A x x x x x x x x x x x x x x x x x x x x x x x A x x x x A x x x x x x x x x x x A x x x A x A 8 8 x A 8 8 x x 8 8 x 8 x 8 x x 8 8 A x x 8 x A 8 8 x x 8 8 A A 8 8 x x 8 8 A x 8 8 x x 8 x 8 8 A x 8 x x 8 x x 8 8 x 8 x 8 8 x 8 A 8 x x 8 x 8 8 8 l 8 x x 8 8 x 8 x 8 x 8 8 x 8 8 8 x 6 8 x 8 q q 8 4 x 2 k G +.+.*.%.*.=.=.*.#.&.&.&.$.2.2.2.2.2.2.2.&.&.&.&.2.&.2.&.2.&.&.| :.&.:.:.| &.&.&.$.&.&.&.#.&.&.&.&.&.&.&.&.@.*.=.*.&.&.&.&.@.&.&.&.&.&.2.2.&.&.=.&.=.*.&.&.&.&.*.&.&.&.*.&.&.&.&.=.&.&.*.&.&.*.&.&.#.=.&.&.&.*.&.=.=.=.=.&.&.=.&.&.&.*.&.&.&.@.$.*.=.#.#.=.&.&.2.&.&.&.&.&.&.&.&.&.&.&.&.&.2.&.&.&.&.&.2.&.&.&.&.2.&.&.&.&.=.&.&.&.&.&.&.=.&.$.$.&.&.$.&.4.&.>.&.&.2.2.2.&.&.$.#.=.&.&.&.=.*.*.*.&.*.*.%.%.*.*.%.%.+.%.+.+.+.+.+.o.+.O.O.X.J M z z h g g g = 2 g g g 2 g 2 x 8 6 6 8 8 7 5 8 7 6 5 5 5 7 7 7 7 5 5 7 < 7 7 < 7 7 7 7 7 7 7 7 7 7 7 7 8 7 8 7 7 7 7 7 7 7 7 7 7 8 7 7 7 7 7 7 7 7 7 7 7 7 7 7 7 7 7 7 7 7 7 7 7 7 7 7 7 7 7 7 7 7 7 7 7 7 7 7 7 7 7 7 7 7 7 7 7 7 7 7 7 7 7 8 7 7 7 8 7 7 7 7 7 7 7 7 7 7 7 7 7 7 7 7 7 7 7 7 q 7 7 7 7 8 7 7 7 8 7 7 7 7 7 0 7 8 7 7 7 7 8 8 7 7 7 7 7 7 7 7 7 7 7 7 7 7 8 7 8 7 7 7 8 7 7 7 8 7 7 7 7 7 7 7 7 7 7 7 7 8 7 8 7 7 7 ",
"%.%.o.%.%.o.%.%.o.%.' %.o.o.%.o.o.o.o.o.o.o.o.o.o.%.o.o.o.o.o.%.o.%.o.%.o.o.o.%.o.o.o.o.o.o.o.%.o.o.o.+.+.o.O.o.O.o.o.O.+. .O.o.o.o.X.o.o.o.X.o.o.X.' X.o.o.X.o.o.' X.' o.o.o.X.o.o.X.o.X.o.` o.o.o.o.` X.' o.o.o.' o.X.X.o.o.o.X.o.o.O.X.o.O.o.O.X.O.o.X.o.X.O.o.X.X.X.X.X.o.X.X.o.X.o.O.X.X.X.o.o.X.X.o.X.X.X.X.X.` X.X.o.X.X.X.X.X.X.X.X.X.X.X.X.X.O.X.X.X.X.X.O.X.X.O.X.X.X.X.X.X.X.X.X.X.X.X.X.X.X.X.X.X.X.H ` X.X.X.H ` ` X.X.H X.X.H X.H X.H H X.X.` X.X.X.H X.H ` X.X.X.X.V V X.X.X.X.V V V X.X.X.V X.` X.H ` X.X.V X.X.X.H H X.X. .( o.@.#.3.3.3.w.w.1.5.5.5.5.5.3.>.#.3.>.:.3.:.2.2.3.5.5.w.w.w.w.3.w.w.w.w.e.e.w.e.w.w.w.w.0.,.,.0.w.w.w.e.w.e.w.w.w.>.>.>.2.2.>.>.@.>.&.&.4.2.&.&.&.| :.:.:.3.:.:.>.<.2.>.>.2.3.>.>.2.2.&.&.%.+.X.N H V V G H G D G G H B H B H H B G H G G G G H J G G G G G G G G G G G G G B G G G G H B G G B B G G B G B G G B G G G G G B G V G V B B B G B B G B B B B B B G B G B G B B B B B B B B G c G B G B B G G B B G B G B G B B B B B G B B G B B B B B B B B B B B B B B k M B k G B c B B B c B B B B B c B B B B G c c B c B c c B c B c B G c B S c B c c G c B B c c B G c c B B c G c c c G c c c c G c B c c c S S c G c S c B S c S S S c S S c c G S c c S c S G S c S c S c c c c c c c M B c c c c c c c z c c c c c c c c c z c c c z c c x c S x c c c c c c k c x S A x S x S x A c S S S S S S A S S S C S S A S c c c A c A S S S c x c c x c c x c x c c c x z c x l c c c x c x c x c c c x c z x c x k S k A c x S x x S x x S x x c c l c c c c c l c l c x c x x z x c x c l c c x c x c x c x x x S x c x x x A x x x x x x x x x A k x c x x x x x x x c x x x x x c x c A x c x x k x x j x j x x x x x x x A x x x x x A x x x x x A x x x x x x x x x x A x x x x x A x x x x x x x x x x 8 8 x x x 8 x x A 8 x x x 8 A x 8 x 8 x x 8 x 8 x x 8 x 8 x 8 x x 8 8 x x 8 x x x x 8 x x 8 x 8 8 x x 8 8 x 8 8 A 8 x x x 8 A x x q 8 A 8 x 8 x x 8 x 8 l 6 x l 8 8 x 6 x 8 x 8 x 6 8 x x 8 8 x x 8 8 x 8 A q x j 2 k H +.+.%.*.*.*.&.&.&.&.&.&.&.2.&.2.&.&.&.2.&.&.2.&.&.&.&.2.2.2.2.2.2.&.2.2.2.&.&.2.4.&.&.&.&.&.&.&.#.*.&.&.&.=.=.#.&.*.#.*.&.&.&.&.&.&.&.&.&.*.&.&.&.&.&.&.&.=.&.&.&.&.$.2.&.&.&.&.$.&.&.=.#.=.&.#.=.=.&.$.&.&.=.&.&.&.&.&.&.&.&.$.&.&.&.&.=.=.=.#.=.=.=.#.&.&.&.&.&.&.2.2.&.&.$.&.&.2.&.2.&.&.&.2.2.&.&.2.&.&.&.$.&.&.&.&.&.=.*.&.&.*.&.&.2.&.2.2.$.2.&.$.$.&.&.#.@.&.&.#.&.&.&.*.*.*.*.=.*.*.%.*.*.+.*.o.+.O.O.O.O.X.H K n M h h h g @ g g g = 2 g g l g g g 6 2 6 6 2 7 6 6 6 6 8 8 7 7 7 7 7 7 < 7 7 7 7 7 5 7 7 7 7 < < 7 7 7 7 8 7 7 7 7 7 7 7 7 7 7 7 7 7 7 7 7 7 7 7 7 7 7 7 8 0 7 7 7 7 7 7 7 7 7 7 7 8 0 7 7 7 7 7 7 7 7 7 8 7 7 7 7 7 7 7 7 7 7 7 7 7 7 7 7 7 7 7 7 7 7 7 7 7 7 7 7 7 7 7 7 7 7 7 7 7 7 7 7 7 7 7 7 7 7 7 7 7 7 7 7 7 7 7 7 7 7 7 7 7 7 7 7 7 7 7 7 7 7 7 7 7 7 7 7 7 7 7 7 7 7 7 7 7 7 7 7 7 7 7 7 7 7 7 7 7 7 7 7 7 7 7 7 7 7 7 7 8 7 7 7 7 7 7 7 7 7 ",
"@.o.%...%.%.o.%.o.%.o.%.o.%.o.%.o.o.o.o.o.o.o.%.o.o.%.o.o.o.o.%.o.o.o.o.%.o.o.o.%.o.%.o.%.o.%.o.o.o.o.+.o.O.o.o.o. .o.o.o.o.o.o.O.o.o.o.o.` o.' X.o.` o.X.o.o.o.X.X.o.o.o.o.' o.X.' X.o.o.` o.o.o.X.o.o.X.X.o.o.o.' X.X.o.o.o.X.o.O.O.X.o.O.o.X.X.o.o.O.X.X.o.O.X.X.X.X.X.o.X.X.X.X.X.X.X.X.X.X.X.X.O.o.X.` X.X.X.X.X.X.X.X.` X.X.X.O.X.X.X.X.X.X.X.X.X.X.X.X.X.X.X.X.X.X.X.X.X.X.X.X.X.X.X.X.O.X. .X.X.H X.X.` X.X.X.X.` H X.X.X.X.X.X.X.X.X.X.X.X.X.X.V X.H X.X.X.H X.X.H H X.X.V H ` ` X.H ` X.X.X.X.V V X.H X.` H V X.X.H X.K H K H K H  .o.*.&.=.<.$.>.#.#.#.#.#.>.2.$.2.#.| #.&.#.2.&.2.2.2.2.3.2.2.2.3.>.3.2.3.5.w.w.w.w.5.1.,.>.>.>.>.1.5.5.w.w.w.1.3.>.<.3.2.2.2.2.&.&.&.&.&.&.&.&.&.&.&.:.&.2.2.2.2.2.2.2.>.$.#.2.&.&.#.&.&.=.%.o. .V V H B H B G G G G H H B H B B H G G H G G G H G J H H G G H G G B G G V G G G G G G G B G G B H B G G H G B H G G F G G B H B G B G B H V B B V B G B B B B B B B B B G B G B G B B G B B B B B B B G B G B B B G B G B B G B G B B G B B G B B B B B B B B G c B B B B B B B B c B c S B c G c c G c G S c S c c G c B c B S c c c c c B c c B c B c G c c B c S c B c B c c B G c B c B c c c G c c B c G c c c S S c S B c S c S S c c S G c c G S c c S S c S S c S c S S c c c c c c c c c c c B c c c c c z c c c c c c z c c c c z c c c c x c S c x c x c c c c c x x c x c c x c x c c c x c c c x c c c c c c c c c x c c c x c x c c c x x c c x x x x c x c x x c x x c l x c c x c c x x c x c c c c x x c c x c c x c c c x c l x c x c x c l c l x c x c l c x z x c l c x z x c x z l c x z x c x x x x x S c x x x x x x A x x x A x x x A x x x x x x x x A x x x x c x x x x x x x c x x x x A x x x x j C x x x x x x A x x x x x x x x x x x x x x x x x A x A x x x x x x x x A x x x x x x 8 x 8 x x 8 x 8 A x 8 x 8 x 8 x 8 A 8 x 8 x x 8 x 8 x 8 A 8 x x 8 x 8 x 8 x 8 x x 8 A 8 x 8 A x 8 x 8 A x 8 x 8 A 8 8 x 8 x 8 x 8 8 A x x 8 x 8 x 8 x l x l x x 8 8 x 8 x 8 x 8 8 x 8 8 8 x 8 8 x x 8 8 8 8 4 4 x j x M V X.o.%.+.%.%.%.*.&.*.&.&.&.*.&.&.*.*.&.=.=.*.=.=.@.=.=.&.&.&.&.4.&.&.&.&.&.&.&.&.&.&.&.&.&.&.&.=.&.=.=.=.=.#.&.<.=.&.&.#.&.&.2.&.&.&.&.&.#.#.&.&.&.$.&.$.$.=.2.@.$.#.&.4.&.&.4.2.&.2.$.&.$.$.2.$.$.&.&.$.&.&.&.&.&.<.$.&.&.$.$.2.$.$.=.=.#.=.&.=.=.$.&.&.2.2.2.&.2.2.&.2.&.2.&.4.&.&.&.&.&.&.&.#.&.@.&.&.&.&.&.&.&.&.&.&.&.*.&.&.&.} @.&.#.#.=.=.=.=.*.@.*.*.*.*.=.*.=.*.*.*.%.*.+.%.o.X.X.` V V M V k k h g r g g g g g g g 2 6 g 6 2 6 2 6 4 6 2 6 6 8 2 7 7 5 8 8 6 5 8 6 7 8 5 7 7 7 7 7 7 7 7 7 < 7 7 7 < 7 7 7 7 7 7 7 7 2 7 8 7 7 7 7 7 7 7 7 7 7 7 7 7 8 7 7 7 7 7 7 0 7 7 7 7 7 7 7 7 7 8 7 7 7 7 7 7 7 7 8 7 7 7 7 7 7 7 7 8 7 7 7 7 7 7 7 q 7 7 7 8 7 7 7 7 7 7 7 7 8 7 7 7 7 7 7 7 7 7 7 7 7 7 8 7 7 7 8 7 7 7 7 7 7 7 7 0 7 7 7 7 7 7 7 7 q 7 7 7 8 7 7 8 7 7 0 7 7 7 7 7 7 7 7 7 7 7 7 7 8 8 0 0 8 7 8 0 8 8 7 7 7 8 7 7 7 7 8 7 7 7 7 8 7 8 0 7 7 8 0 7 7 7 7 ",
"%.o.%.o.o.%.%.o.o.%.%.' o.o.%.' o.%.o.%.o.%.o.o.o.%.o.o.o.%.o.o.%.o.%.o.+.o.o.%.o.o.o.o.o.o.o.o.+.o.o.+.o.+.+.o.o.O.O.o.O.o.o.O.o.o.o.O.o.o.X.o.o.o.X.o.o.o.' X.o.o.X.' X.o.X.o.o.o.o.o.o.o.o.X.o.o.o.` o.' X.o.o.X.o.o.X.' o.O.X.X.o.o.X.X.O.O.o.X.X.O.o.O.X.X.o.X.o.X.X.X.o.X.o.o.X.o.X.o.X.o.o.X.X.X.X.X.o.` X.X.o.` ` X.X.X.X.X.X.X.X.X.O.X.X.X.o.X.O.X.X.X.X.X.X.X.X.X.X.X.X.O.X.X.X.X.X.X.X.X. .X.X.X.X.H X.X.X.X.` X.` X.X.H X.H H X.H X.H X.X.H X.X.X.X.X.H X.X.X.X.X.X.X.X.X.X.H H X.X.X.V V X.X.X.` X.H X.X.X.X.V X.H X.H K H H  .H ( %.@.=.&.&.&.=.4.&.=.&.@.&.&.=.&.&.&.&.&.&.&.&.&.&.$.@.&.$.$.&.$.#.2.2.2.3.2.2.2.2.$.@.$.>.#.>.#.>.2.2.4.<.2.#.>.#.@.@.$.@.&.&.*.&.&.&.*.*.&.%.&.&.&.&.&.&.&.&.&.$.&.=.&.&.&.&.&.&.&.&.*.+.X.H N V H V H G H J G G B H H B H H B H G G G G G G G G G G G G G H G G G G D G B G G B G G H G G B G H B G B G G B G G B G B B G B V B V B G B B B B B B G B G B G B G B B B B B B B B G B B B G B G B G B B B B B G B B B B B B B B B G B B B B G B G B G B B G B B B G k B B B B c B c G c S B S G S G G c c G G c c c B c B c B B c B G c c G B c c G B c c B c c B B c c c B c c c B c c c c G B B c c G B c c B S c c S c S S c G S c S S S c S S c S S S c S G S c S S G c c c B c c c c c c c c c c c M c c c c c c c x c c c z c c c c c c z c c c x c c S x x c x x c c S c c c c c c c c x c c x c c c c c c x x c c x c c x c c c c c c c x S x x x x c c x x x x c x c x c c c c c x c x z c c x c c x x x z c x c c x x x c x c c x c z x z l c x c x c c l c x c x c x z x c x c x c l c x c x c x c x c x c x x x x x x c x c x k x x x k c x k x x c x c x c c x x c c x x x x S k A c x x x j k x x x x C x x x x x A x x x x x x x x x x x A x x x x x A x x x x x x x x x x x x A x x x x x x x A x 8 8 x A 8 8 x x 8 8 x x x 8 x 8 x x x 8 x 8 A x 8 8 x x 8 x 8 8 x x x x 8 8 x x 8 x 8 x x x 8 x x 8 x 8 x x 8 x 8 x x x x 8 x 8 A 8 8 8 8 x 8 x 8 8 x x 6 x 6 6 x x 8 x 6 x 8 x x 6 x x x 8 x x 8 8 8 8 x 8 q 4 x j j k k z b m n n V V ` ` ` ` o.' o.+.+.%.*.*.+.%.*.*.*.*.=.*.*.*.*.*.*.*.*.&.&.&.*.*.&.&.*.=.=.*.&.&.*.&.=.@.#.=.=.&.$.=.&.&.&.&.&.&.4.&.4.=.&.&.=.&.=.<.=.2.4.2.&.4.4.2.=.#.$.&.#.#.$.$.&.&.#.2.&.2.&.$.=.#.=.&.$.&.#.&.=.2.2.2.2.2.=.2.4.=.&.=.=.&.&.4.&.&.2.&.&.&.&.2.&.&.&.&.&.&.&.&.&.&.&.&.&.&.&.&.&.&.=.=.=.=.&.*.*.*.%.*.*.*.*.*.%.=.=.*.*.*.%.%.%.*.+.+.o.O.O.X.X.` V V n n n v h h z h g g = g r g 2 g 4 4 8 g 8 2 8 6 8 8 7 8 6 6 6 7 6 7 7 8 8 7 7 5 8 7 7 7 7 8 6 5 8 7 5 8 6 7 7 8 7 7 7 7 7 7 0 7 7 7 7 7 7 7 7 7 7 4 7 2 8 8 7 7 7 7 7 7 7 7 7 7 7 7 7 7 7 7 7 7 7 8 7 7 7 7 7 7 7 7 7 7 7 7 7 7 7 7 7 7 0 7 7 7 7 7 7 7 7 7 7 7 7 7 7 7 7 7 7 7 7 7 7 7 7 7 8 7 7 7 7 7 7 7 7 7 7 7 7 8 7 7 7 7 7 7 7 7 7 7 7 7 7 7 7 7 7 8 7 7 7 7 7 7 7 7 7 7 7 7 7 7 7 7 7 7 7 8 7 7 7 7 7 7 7 8 7 8 7 7 7 7 7 7 7 7 7 7 7 7 7 0 8 7 7 8 7 8 0 8 7 7 8 7 7 7 7 7 7 7 7 7 7 7 q ",
"%.o.%.%.o.@.%.o.} o.o.%.} o.%.%.%.o.o.o.%.o.o.o.o.o.o.o.%.o.+.o.o.o.o.%.o.o.o.o.+.o.%.o.+.o.%.o.o.o.O.o.o.O.o.o.o.o.o.o.o. .+.o.o.o. .+.o.X.` o.X.o.o.o.o.X.o.o.X.' o.o.X.o.X.o.o.o.X.o.o.X.o.o.' o.o.o.X.o.o.' o.o.o.X.o.X.o.o.o.X.O.X.O.X.X.o.O.o.X.X.o.X.o.O.X.X.o.X.O.X.X.X.X.X.X.X.o.X.X.X.X.o.X.o.X.X.X.X.o.` X.X.o.X.X.o.X.X.X.X.X.X.X.O.X.X.X.X.X.X.X.X.X.X.X.O.X.O.X.X.O.X.X.X.X.X.X.X.X.X.H X.X.` X.X.V X.X.X.X.X.X.X.X.H X.X.X.X.H X.X.H X.X.X.H X.H X.X.X.X.X.X.X.X.V X.X.H X.X.X.H H V X.X.H ` H X.` H X.H X.H X.X.H H K H K K F O. .o.o.%.%.*.%.*.%.*.*.*.*.*.*.*.*.&.*.&.*.&.*.=.*.*.*.=.&.=.=.=.&.&.&.&.&.=.&.&.&.&.&.=.=.=.=.=.@.&.&.&.=.&.&.&.=.=.&.=.=.=.*.=.&.*.*.*.*.=.*.=.&.=.&.*.=.&.&.&.&.&.=.*.*.*.*.*.&.&.%.+.o.H V N V V V V H G G G G H H B H H H H G G H G G G J H H G G H G H G H G G G G G B G B F G G B G B D G H D G G G H D G B G G G B V B B B G B H B V B V B B B B B B B G B G B G B G B B B B B B G B B B B B B B G B G B B B G B B G B B B B B B B B B B B B B G B B B B B B M B B B B G B c B G S G c G G c B S G S c G B c G c c c B c B c c B c c c S B c c B B B c B c B c G G c c B c B c G G c G c c c B c c B B c c G S c S c S S c S S c c S S c c S S c c G S c S c S c S c S c c c c c B c c c c c c c c c c c c c c z c z c c c c c c c c c c c c c c c c c c S c c c c c c x c c c z c c c c c c c c c c c c c c c c c c z c c c z c c c c x c c c x c c c x c x c c x c c x c x l c x l c c x c c c x c l c c c c c l c c c c c x x c x x x c x c x c x c l l c x z x c x c x c l c x c x c x c x c x c l c x x x x x A x x k A x x c x x S x x x x x x x c x x x x x x x c c x x k x x x x x c x c x x x x x A x x x x x x x x x x x x x x A x x A x x A x A x x x A x x x x x A x A x x x x x x x x A x x 8 x 8 8 A x x 8 8 x x 8 8 A 8 8 x 8 8 x 8 x 8 x 8 x x 8 x x x x x x 8 A 8 A x 8 x 8 x 8 x 8 x x 8 x 8 8 x 8 x 8 8 x x 8 8 A 8 x A 8 A 8 x 8 x x 8 8 x 8 8 x l x x 8 8 x 8 8 x 6 8 x x 8 8 x 8 8 8 x 8 x 8 8 x 8 8 8 4 x l j k h g g k g l k z k z h z z c M k B D D D D F K F O.O.O.+.O.+.+.+.+.*.*.*.*.*.=.*.*.=.*.=.*.=.%.=.*.*.=.*.$.$.*.*.*.*.&.*.&.=.&.&.*.=.&.*.&.*.=.&.=.&.@.&.#.@.#.#.=.&.&.&.#.=.=.&.&.=.=.*.#.=.=.#.=.=.=.&.&.=.&.&.&.=.=.&.&.=.=.=.#.*.*.@.*.*.*.&.*.*.=.&.&.=.=.&.&.&.*.&.*.*.=.=.*.*.*.&.*.*.*.&.*.*.*.=.*.*.*.*.*.*.+.+.o.+.+.o.o.` X.X.` H V B B k c x k x k j j x g g g j g 2 2 4 j 4 8 6 7 6 7 6 4 8 7 7 4 8 8 7 7 7 7 7 7 7 7 7 8 7 7 7 8 8 7 7 7 7 7 7 7 7 7 5 6 6 6 6 7 6 7 6 7 6 7 6 7 8 5 7 7 7 3 7 7 7 8 7 7 7 6 6 4 7 4 7 7 7 7 8 7 7 7 7 7 8 7 7 7 7 7 7 8 7 7 7 7 7 7 7 7 7 7 8 7 0 7 7 7 7 7 7 7 7 7 7 7 7 7 7 7 7 7 7 7 7 7 7 7 7 7 7 7 7 7 7 7 7 7 7 7 7 7 7 7 7 7 7 8 7 7 7 7 7 7 7 7 7 7 7 7 7 7 7 8 7 7 7 7 8 7 7 7 7 7 8 7 7 7 7 7 7 7 7 7 7 7 7 7 7 7 7 7 7 7 7 7 0 8 7 7 7 7 0 8 7 8 8 7 7 7 7 8 0 8 7 7 q 7 7 0 7 7 7 0 8 7 7 7 7 7 7 7 7 7 7 7 7 7 ",
"o.%.%.o.o.%.o.%.o.o.%.' o.%.o.o.+.o.o.%.+.o.%.o.+.%.o.%.o.o.o.%.%.o.+.o.%.o.%.o.o.%.o.o.o.%.o.o.o.+.o.o.o.o.o.+.o.o.+.O.o.o.o.o.O.o.o.o.o.o.o.` o.o.` o.' o.X.o.o.o.o.X.o.' o.o.X.o.X.' ' o.X.X.X.o.X.o.o.o.X.o.X.o.' o.o.o.' X.O.o.o.X.O.o.O.o.X.O.O.o.O.O.o.X.o.X.X.X.X.o.X.o.o.X.X.o.X.X.X.o.X.X.X.X.o.X.X.` X.X.X.X.X.X.` X.O.X.X.X.X.X.X.X.X.O.X.X.X.X.X.X.X.X.X.X.X.X.X.X.X.X.X.X.X.X.O.X.X.X.X.X.H X.X.X.X.X.X.X.X.` ` H X.X.X.X.H X.X.X.X.X.X.X.X.X.X.X.X.X.H X.V X.X.H H X.V X.X.V X.V X.X.X.V X.X.H X.X.H X.` V X.` H H X.H H K H H  .V ( `  . . . . .o.o.o.o.o.o.o.o.+.o.o.o.o.o.%.+.%.%.%.%.%.%.%.%.%.+.&.%.*.%.*.*.%.+.%.%.*.*.%.%.%.*.*.*.*.*.*.*.%.*.*.%.*.%.*.*.%.*.%.%.*.%.%.%.+.+.%.%.%.%.+.+.+.o.%.+.+.o.+.o.o.o.X.` V V V H V V V H V G G G G G H B H B B H G G J H H G G H G G G G G G G J B G G B G H G F G B G G G G H B B G G G G B B G G H B G B G V H B V B G B V B B G B G B G B B B B B B B B B G B B G B G B B B G B G B G B B B B B G B B G c G B B G B G G B G B G B B B B G B G B B B B B B B c c B B c c c G c c B S c c G G c c B c B c B c c c G B c B B c B c B c c c S B c c c B c B c B S G c B c B c c c G c c B B c B S S c S S c S c G S c c S G c c S S c c S c S c S c G c S c S c c c c c c c c c c c c c c c c c B c c c c c c c c c c c z c z c c x c c S c x c c c c c S x c c c c c c c c c c c c c c c x c z c c c c k c c c c c c c c c c c c c x c x c x x c c c x c c c x c x c c c c c x c c x x c l c c c c x x c c x l c c x c c c c x z x c l c x z x c c x c x c l c l c x c x c l c l c l c l c l c x A k x c x k x c x x x c x x x x c x c x S x x x c x A k c x x x x x x A x c x c x x x x x x x k x j x x x x C x x x x A x x x A x x x x x x x x x x x x x x x x x x x x x x x x x A x x x x x x x 8 x x 8 8 x x x x 8 A x 8 x x 8 x x 8 A 8 x x x A 8 x 8 x 8 8 8 8 x 8 x 8 x x x x 8 x 8 A 8 8 A 8 x x 8 A 8 x x x 8 A x 8 x 8 x q 8 A 8 x 8 x x 8 8 x l l x 6 8 x 8 6 8 x 8 x x 8 8 8 x 8 x 8 8 8 x 8 x x x 8 8 8 q 4 x x z x x j 8 l g 6 2 g l l l l j g 8 g , y y k y j y y k k k Z k Z K B H H ` X.X.X.X.X.X.O.o.+.o.+.+.+.*.%.+.*.*.%.*.%.*.*.*.*.*.*.*.*.*.*.*.*.*.*.*.*.*.*.*.=.=.*.*.=.=.*.*.=.=.=.*.=.=.*.*.*.*.*.*.*.*.=.*.=.*.*.*.*.*.*.=.=.=.=.*.*.*.*.*.*.*.*.%.%.*.*.*.%.*.%.%.*.%.%.%.*.%.+.%.%.*.%.+.%.+.o.o.X.X.K V V V F V V m V v v v h v h z z l g l z g = g 2 2 2 6 6 8 7 2 6 4 7 4 8 8 8 4 7 7 0 7 8 7 4 7 8 7 5 7 7 7 7 7 < 7 7 7 < 7 7 7 7 7 7 7 7 7 7 7 7 7 7 7 7 7 7 8 6 6 7 6 6 6 6 5 8 7 6 8 5 6 7 7 7 7 7 7 7 7 7 8 7 4 8 7 6 7 6 7 7 7 8 7 7 7 7 7 7 7 7 7 0 7 7 7 7 7 7 7 7 7 7 8 7 7 7 7 7 7 7 7 7 7 8 7 7 8 7 7 8 7 7 8 7 7 7 7 7 7 7 7 7 7 8 7 7 7 7 7 7 7 7 0 7 7 7 7 7 7 7 7 7 7 7 7 7 7 7 7 7 7 8 7 7 7 7 7 7 7 7 7 8 0 7 7 7 7 7 7 7 7 7 7 7 7 7 7 7 7 7 7 7 7 7 7 7 7 7 7 7 7 7 7 7 7 7 7 7 7 7 7 7 7 7 7 7 7 7 7 7 7 7 7 7 7 7 7 7 7 7 7 7 7 7 7 8 7 8 7 7 7 7 ",
"..%.%.o.%.%.%.o.%.o.o.%.%.o.%.' %.o.%.o.o.o.%.o.o.%.o.%.o.o.o.%.o.o.o.o.o.%.o.%.o.o.o.o.o.%.o.o.o.o.o.+.+.+.o.o.o.O.o. .o.o.o.o.o.o.O.o.o.o.o.o.o.' o.' o.X.' X.o.o.o.' X.o.X.o.o.o.X.o.' X.' o.o.o.o.o.o.o.o.o.X.o.' o.o.o.o.o.o.X.O.X.O.X.O.X.O.o.o.X.X.X.O.o.o.X.X.X.o.X.o.X.X.o.X.X.X.X.o.X.X.o.X.o.X.X.o.` X.X.X.' X.X.X.` X.X.X.X.X.X.X.X.X.X.X.X.X.X.O.X.X.X.X.X.O.X.X.X.X.X.X.X.X.X.X.X.X.H X.X.X.X.X.` X.X.H X.X.X.X.X.X.X.X.X.X.X.X.X.X.X.X.X.X.X.X.X.X.H X.H X.H X.H X.X.V X.H X.` X.H ` X.X.H H X.X.X.X.V X.X.X.X.V X.H K H F H H K H  .X.`  .`  .m F `  .H  .` H ` X.` ` X.` ` ` X.X.`  .X.` X. .o.` ` ` X. .` o.'  . .X. . .o. . .o. .o.X.o.o.o.X.o. .X. .X.X. .X.X.o.X.X.o.X.o.X.X.X.X. .X.`  .` `  .X.V X.V H ` ` ` m V m V V H V V V V H G G G G H B H B H B B H G G G G G H G G H J G G G H G H G G G B G G B G G H B G H G G G G B B G G B G G G G G B V B B V G B H B B B B B B B B G B G B B B G B B B B G B B B B B B B B B B G B B B B B B B B B B B B B B B B B B G c G B B B B B G B G B B B B B B B B B c c G G c G S G c S G G c c G S B c B c B c G c B c c c B c G B c S B B c c B B c B c c c B c c c B c B c G B c B c B c c B c S c G c S B S c c c G c c G c S S B c S S B c c c S c S c J k c c c c c c c c c c c c c c c c c z c c c c c c z c c z c c c c c c x k x c c c c c k S x c c x c c c c z c c c k c c c c c z c c c c c c c c c c c z c c c c c c c k x c c k x c c x x c x x c c x c c x c c c x c x c c x c c x c x c c x c x x x c c x x c x c c l c l c x c x x x c l x c l c l c l c x z x c x c x c x c x c x x c x x x x x x x x S x c x c x x x x c x x x x x x x x c A x x x x c x x x x x k x c x x x x x x x C x C x x x x x x x x A x x x x A x x x x x x x x x x x x A x x x x x x x x x x x x x A x 8 8 x 8 x x 8 A 8 x 8 8 8 A x 8 A 8 x 8 x 8 x 8 8 x 8 x 8 x 8 A x 8 x 8 A 8 A 8 8 A 8 x 8 x 8 x x 8 x x x x 8 x 8 x 8 8 8 x A 8 8 8 x q 8 x 8 8 x 8 x 8 x x l x x 8 8 x 8 8 x 8 6 8 x 8 x 8 x x q 8 8 l x l x x x 8 q 8 4 8 x j 7 4 4 8 8 4 8 x x 8 8 j 8 x q q 4 4 4 4 4 4 4 4 , 4 2 , 2 , 2 r h j g k h h k h k k M k n k B n J N B V V B V V V V H V H X.X.` X.X.X.X.X.X.X.X.+.O.o.O.O.o.O.+.o.O.o.O.+.O.+.O.o.O.o.o.o.o.o.O.+.+.o.O.o.O.o.O.+.+.+.O.o.O.O.o.O.O.X.X.H X.V X.K H V V X.V V V B N V V H V B B k h z h h g t g h j h g g r g r r g 2 g = g g g j 6 6 x x 8 8 8 8 8 8 8 7 8 7 0 7 0 7 0 7 0 7 3 7 0 7 7 < 5 5 5 7 7 7 7 7 7 7 7 7 7 7 7 7 7 7 7 7 7 7 8 7 7 7 7 7 7 7 7 7 7 7 5 7 7 7 7 8 6 7 8 6 8 5 8 6 8 8 7 7 7 7 7 8 7 7 7 7 7 7 7 7 5 5 7 7 7 7 7 7 7 7 0 7 7 7 7 7 7 7 7 8 7 7 7 7 7 7 7 7 7 7 7 7 7 7 7 7 7 7 7 7 7 7 7 7 7 7 7 7 7 7 7 8 7 7 q 7 7 7 7 7 8 7 7 7 8 7 7 7 7 7 7 7 7 7 7 7 7 7 7 7 8 7 7 7 7 7 0 7 7 7 7 7 7 7 7 7 7 7 7 7 7 7 8 7 7 7 7 7 7 7 7 7 7 7 7 8 7 7 7 7 7 7 7 7 7 7 7 7 7 7 7 7 7 7 7 7 7 7 7 7 7 7 7 7 7 7 7 7 7 7 7 7 7 7 7 7 7 7 7 7 7 7 7 7 7 7 8 ",
"%.o.%.%.%.o.o.%.o.} %.o.' %.o.%.o.o.o.o.%.o.o.+.+.o.o.o.%.o.o.o.%.o.%.o.o.o.o.o.o.%.o.%.+.o.o.%.+.+.o.o.o.o.O.+.o.o.o.o.o.o.o.o.o.o.o.o.O. .` o.o.X.X.o.o.o.o.X.o.X.o.X.o.o.' o.X.' o.o.o.o.o.X.X.X.' X.' X.o.X.o.o.X.o.X.` o.X.X.o.O.o.o.X.o.X.X.X.O.O.o.O.X.X.X.X.X.o.X.X.X.X.X.X.o.X.o.X.X.X.X.X.X.X.X.X.X.X.` o.X.X.' X.X.o.X.X.X.X.X.X.X.X.X.X.X.X.X.O.X.X.X.X.X.X.X.X.X.X.X.X.O.X.X.X.X.X.X.` X.X.X.X.X.H ` X.X.X.` H ` ` V X.X.H H X.` H X.H X.X.X.H X.H X.X.X.X.X.X.X.X.V X.V X.X.V H X.X.X.H V X.` X.V V X.X.H V V X.X.X.X.H H H H H K X.X.X.X.X.H K H H V V H H V H X.V ` V V ` V ` ` ` V V V V ` V V V ` V V V H V V X.V V F H m ` V m ` V  .` ` ` ` V D F m m V V V V V  .V ` V V V V V ` V  .m ( m  .V F F V V V V H V V B B H G G H V V V H H G H H G H B H H H H G H J H G G G G G G H G H G G G G B B G G G G G G B G G G B G B G G H G B G G D B G B G B G G V B B B G B V B V G B B G B B c G B G B B B G B B G B G B B G B G B G B B G B G B B G B G B G G B B G B G B B B B G B G B B B B B k B B B B B B k B S G c c G G c c G G c c S G c B c c c c G B c c c G B B c c c c B B c c c B c c B c G G c c B c B B S c B c c c c B S c B c G S c c S c S c S S S c S S S S c c S S c c S S S S c S c c c c c c c c M c B c c B c c c c c c c c c c z z c c c c c c c c z c c c c S c c c x S x c c c c S c c c c c c c c c c c c c c c c c c c c c c c c c c c c c c c c c c c x S x x c c x x c c x c c c x c x x c x x z c x c c x c x x c x c c l c c c c c l c c c l c l x c x c x z x c z c x c c x c x c x c x c x c x c l c l z x c l x c x x c x c x c x x x x x x x S x x c x x c x c x A k x x k x x c x A c x x A x A x x x x x x C x x j x x x x x x x x x x x x x x x x A x x x x A x x x x A x x x x x x A x x x x A x x x x x x x 8 x x 8 x 8 x 8 x x x 8 x x 8 x 8 A x x 8 x x 8 x 8 8 x x 8 8 x 8 x 8 x 8 x x 8 x A x 8 x 8 x x 8 8 x 8 8 x x 8 x x x x 8 x 8 C x 8 x 8 x x 8 x 8 6 x 6 x 6 8 x x 8 x x 8 x x 8 8 x 8 x 8 8 4 8 8 x x l l l 8 A 8 0 8 8 8 8 7 8 8 8 8 q 8 8 6 6 6 8 8 8 7 8 8 8 8 4 4 q 8 7 8 4 8 x j 6 l x x j x x x l l x 2 j g 4 g g 2 g 2 g 2 g g g g g g g h j k g l z j h h k k h h k z k k z k k k z k B k B k B n B B B B B B B B B B k B M B M M c k k z h k k z z h k k k h g h g h j g j g l g l g 2 o g 2 g o r j j l j g j g 4 j 8 8 4 8 4 8 4 8 4 8 4 x x x 8 8 8 8 8 8 8 8 8 6 7 7 7 7 7 7 7 0 7 0 7 7 7 7 7 7 7 7 7 7 7 7 5 5 5 5 7 7 7 7 7 7 7 7 7 7 7 7 7 7 7 7 7 7 7 7 7 7 7 5 7 5 8 6 7 8 7 7 7 5 7 5 5 7 8 8 5 8 7 7 8 7 7 7 7 7 7 7 8 7 7 7 7 8 7 7 7 7 7 7 0 8 7 7 7 7 8 7 7 8 7 7 7 7 7 0 7 8 7 7 7 7 7 7 7 7 7 7 8 7 7 7 7 8 7 7 7 7 7 7 8 7 7 7 7 7 7 7 7 7 7 7 7 7 7 7 7 7 7 7 7 7 8 7 7 8 0 7 7 7 7 7 7 7 0 7 7 7 7 7 7 7 7 8 7 7 7 7 7 7 7 7 7 7 7 7 7 7 7 8 7 7 7 7 7 7 q 7 7 7 7 7 7 8 0 7 7 8 7 7 7 7 7 7 7 7 7 7 7 7 < 7 5 7 5 7 7 7 7 7 7 5 7 7 7 7 5 7 7 7 7 7 7 7 7 7 7 7 7 7 7 ",
"%.o.%.o.o.%.%.%.o.o.' %.o.%.o.o.o.o.%.o.o.o.o.%.o.%.o.o.o.%.o.%.o.o.o.%.o.%.%.o.o.%.o.%.%.o.o.+.O.o.o.o.o.o.o.o.o.o.O.o.O.o.X.o. .+.o.o.o.o.X.X.o.o.' o.X.' X.o.o.o.o.o.X.` o.o.o.o.o.o.o.o.` o.o.o.o.o.o.X.' X.X.o.X.o.o.o.X.o.o.O.X.o.o.O.X.O.o.O.o.X.O.X.o.O.o.X.o.X.X.X.X.o.X.X.X.X.X.X.X.o.X.o.X.X.o.X.X.` X.X.` o.X.X.X.X.X.X.X.X.X.X.X.X.X.O.X.X.X.X.X.X.X.X.X.X.X.X.X.O.X.o.X.X.X.X.O.X.X.X.X.X.V X.X.X.X.X.H X.X.X.X.X.H X.X.X.X.X.X.H H X.X.H X.X.X.X.H X.H ` X.H X.X.X.V X.X.X.X.V X.H X.X.X.H X.X.V V X.X.X.X.H V X.` X.H X.H X.H X.H X.V X.H K H J H H F H H X.H H H X.H X.X.H X.H H X.K H X.K K H X.H K H H H H H H H H H X.H H K H H H  .H H X.K G H K H H H J H F F G n V V V V V H H H H H F H H H H G H H H H H H H G G G G H V V V V B H G D B H H B H B G H G G G G G G J H H G G H J H G G G G H D B H B H G B G G G G G G G B G G H G B V H G G H B B B B H V G G G G B B B B G B G B G B B B B B B c G G B B B G B B B B B B B B B B G B G B B B B B B B G B B B B B G B B B B G B G B B B B B B B B B c c G c G G c c G G c c G G c c G c c B c B c c B G c G c c c B c c c c B B c S B B c c B c B G c B c c B c c c c B c B c c G c B c S G c S c S c c S S c S c S c S c S c S c c S S c S S c c c c c c c c c c c c c M c c c c c c c c c c c c c c c z c c c c x c c c x c k S S x c c c c k x S k x S x c S x c S c x k A S x c x c x c c k x k A c S c x k A c c c x c x c x c c c c z c c c c x c c x c c x c x x c c l c c x c x c x c c x x c c x x c c l x l z x c l c l c l z x c x x z l c l c x z l c l c x z x c x c x c x x x x x x x c k x x x k A c x x k x x c x k x x S x x x x x x x x x x x c x k x x x x x x k x x x x x x A j C x A x x x x x x x A x x x x x A x x x x x x x x x x x A x x x x x x x x x x x x 8 x 8 x A 8 8 x x x x 8 8 x x 8 x x 8 8 8 A 8 8 x 8 A x A 8 x x A x 8 x x x 8 8 8 8 x 8 x 8 A x 8 x 8 A x 8 x 8 x x x x 8 x x 8 A 8 8 A x x x x 8 x 8 x 6 x l x x 6 8 x 8 x 6 8 8 x x 6 8 8 8 q 8 q 8 x l l l l 8 8 q 7 8 q x x x 8 x x 8 8 6 6 j x 8 8 8 8 8 8 8 8 7 8 8 8 8 6 8 6 6 6 6 6 x 6 8 8 8 7 8 7 8 7 q 8 8 8 8 7 7 4 8 8 6 8 8 8 8 8 l x 8 l x x x l l 6 g 6 6 g l g l g l l j g l j 2 2 4 2 g g 2 2 g g g l 2 l l g l g 2 g 2 g 2 g 2 g 6 l 6 6 g l l l l g l l l l l 6 6 l l l 8 l l 8 j 8 8 8 8 8 5 4 7 4 6 7 8 7 0 7 8 7 0 7 7 0 8 7 7 < 7 7 5 1 5 5 5 7 1 6 8 5 8 8 8 8 8 8 q 8 8 7 0 8 8 8 0 8 6 5 6 6 6 1 6 5 5 1 7 5 7 7 8 8 7 7 8 7 7 5 8 5 4 7 7 7 7 7 7 7 8 8 8 6 8 6 6 6 7 7 7 7 7 7 7 7 7 7 7 7 5 7 7 7 7 8 7 7 7 7 7 7 7 7 7 7 7 < 7 7 7 7 7 7 7 7 7 7 7 7 7 7 7 7 7 7 7 7 7 7 7 7 7 7 7 7 7 7 7 7 7 7 7 0 8 7 7 7 7 7 7 7 7 7 7 7 7 7 7 7 7 7 7 7 7 7 7 7 7 7 7 7 7 7 7 7 7 7 7 7 7 7 7 7 7 7 7 7 7 7 8 7 7 7 7 7 7 7 7 7 0 8 7 7 7 7 7 7 7 7 0 7 7 7 7 7 7 8 7 7 7 7 7 7 7 7 7 7 7 7 7 7 7 7 7 5 5 5 5 7 7 7 5 7 7 5 7 5 5 7 5 7 7 7 7 5 5 7 7 7 7 7 7 7 7 7 7 7 7 7 7 7 7 7 ",
"o.%.%.o.%.o.@.o.%.o.%.o.%.o.%.%.o.%.o.o.%.o.o.o.o.o.%.o.o.o.+.o.%.o.o.+.o.o.o.o.+.o.o.o.o.o.o.+.o.o.O.o.+.+.o.o.o.+. .o.o.o.o.o.O.o.o.o.o.X.' o.o.X.X.o.o.o.o.o.` o.` o.o.o.o.X.o.X.' X.X.o.o.o.X.' X.o.' o.o.o.' o.o.o.` o.o.o.X.o.X.O.X.O.o.X.o.X.O.X.o.O.o.X.X.X.X.X.X.o.X.X.o.X.o.X.o.X.X.X.X.X.o.X.X.X.X.X.X.X.X.X.X.X.X.X.X.X.X.O.X.O.X.X.X.X.X.X.X.X.X.X.O.X.X.X.X.X.X.X.X.X.X.X.X.X.X.X.X.X.X.X.X.X.X.X.X.X.X.X.X.` X.` X.X.X.H H X.X.X.X.X.X.X.H X.H ` X.X.X.X.X.X.X.H X.X.X.V V X.X.X.H ` H ` X.V X.X.X.X.V V X.X.X.X.X.H X.X.H K H H X.X.V X.H X.H H J G H H K H H H H H H H V H X.H X.H H H H H H G H H H H H H H J H H H H H K H H H H H H H H H H G G J n F G F G H H H K F H F H F G F J H H H H B B m H H G G J V H H G G G H B G H V H V B G G H H B H B H G G H G G G H G G H G G G G G G H G G B H B G G G B D H G B G G V D G F B G G B B B D B G B V G H B B B B H B V B B B B B B B B B B B G B G B G B B B B B B G G c G G c G B G B B B B B B G B G B G B B B G B G B B G B B B B B S G M B B B B B B G B c S G c S G c S c G c S G S G B G c B c c G c B c c c B G c B G c B c c G c B c c G c B c c B c c B c G c B G c B c B c c B c S c S S c S S c G c S S c S c G S G c S S c S G c c k G c S c c c c B c c c c c c c c c c c c c c z c c c c z c c c c z c c c z c S k c c c k c c S k c c c c S c S x k k S x x S k S x c c k c S A k A c c S x c x c k S x c A k c c k k c x c l c c x c x c c l c c x c c c x c c x c x z c x c c x c l c c c x c c x c c x c x c x c x c x c x c c l c x c x c x c x c x c x c x c x z x c l x A k x S x x x A x x c x x x x x x A x x x A x x x x x c x c x x S x k x x x x x c x S j x x x x x x x x x x 8 x x x x A x x x x x x x x x x x x x x x A x x x x x x x x x x A x x x x x x A x x 8 x 8 x x 8 x 8 A 8 x x 8 x 8 x 8 x x x 8 x x 8 x 8 x 8 x x 8 8 x x 8 x 8 x x x x 8 x 8 x 8 x x 8 x 8 x x 8 A 8 x 8 8 x q x 8 8 A 8 8 8 x 8 8 x 8 x 8 x l x 6 8 x 8 8 x 6 x 8 x 8 x 8 x 8 x 8 8 8 x x l l l x 8 8 8 q 8 8 8 8 8 8 8 8 8 x l x 8 8 6 8 8 8 8 8 8 q 8 8 8 8 8 8 8 x 8 x l 6 6 6 7 7 7 0 7 q 8 8 7 8 7 8 8 8 8 8 8 8 8 8 8 8 8 8 8 8 8 8 6 6 8 6 x 8 8 x 6 8 x 8 8 8 6 x 8 7 8 8 8 8 8 4 8 8 8 x 8 x 8 x 8 l l x x x x 8 x 6 6 6 6 6 6 6 6 6 6 8 6 6 l 8 6 6 6 8 6 6 6 6 8 8 8 8 8 6 7 7 7 8 5 8 8 8 7 8 7 5 3 7 7 < 7 7 7 0 7 < 7 7 7 7 0 7 7 7 8 3 8 3 7 8 4 8 7 7 8 8 8 8 8 8 8 7 8 7 7 7 7 8 8 6 6 6 8 6 8 8 7 7 8 6 7 7 5 5 7 8 7 8 8 8 6 8 7 5 3 7 7 7 8 7 8 7 5 8 6 7 6 7 7 7 7 7 7 7 7 7 7 7 7 7 7 7 7 7 7 7 7 7 7 0 7 7 7 7 7 7 7 7 < 7 7 7 7 7 7 7 8 7 7 7 7 7 7 7 7 7 7 7 7 8 7 7 7 7 7 7 q 7 7 7 7 7 7 7 7 7 7 7 7 7 7 7 7 7 0 8 7 7 7 7 7 7 7 7 7 7 7 7 7 7 0 7 7 8 7 7 7 7 7 7 7 8 7 7 7 8 7 7 7 7 7 7 7 7 7 7 7 7 7 7 7 7 8 7 7 7 7 7 7 7 7 7 8 7 7 7 7 7 7 7 7 7 7 7 7 7 7 7 8 7 7 7 7 7 7 5 5 < 7 7 7 7 7 5 7 7 5 7 7 5 7 7 7 7 7 5 7 5 7 5 7 7 7 7 7 7 7 7 7 7 7 7 7 7 ",
"%.%.o.%.o.%.o...o.%.%.o.%.o.o.%.%.o.o.%.o.o.%.o.o.o.o.o.o.o.o.o.o.o.+.%.+.o.%.o.%.o.o.o.%.o.%.o.o.o.+.+.o.o.o.o.o.O.o.o.o.o.X.o.o.o.o.o.o.o.' o.o.o.' o.o.o.o.X.o.o.o.o.X.o.X.o.X.o.X.' o.o.o.o.o.o.X.o.o.o.' X.X.o.o.o.' X.X.o.o.o.O. .X.o.X.X.O.X.X.o.X.o.X.X.X.X.O.X.X.X.X.X.X.X.X.o.X.o.X.o.X.X.o.X.X.X.o.X.X.` X.X.` X.X.X.X.X.X.O.O.X.X.X.X.X.X.X.X.X.X.X.X.X.X.X.X.X.X.X.X.X.X.X.X.X.X.X.X.X.X.X.X.X.H X.X.` ` X.H X.X.X.X.H X.X.H X.X.X.X.X.X.X.X.H X.H X.X.H X.X.X.X.X.V X.X.H X.X.V X.X.H X.X.X.V X.V X.X.` H H X.V V X. .H H X.H H X.H H H X.H K H X.H H H H H H H X.V X.H H X.H H V H H H X.H H H H H H H H H H H H H X.H H H H H H H X.H H H H X.H H J G H G H K H D H H G J H H G G H H G H H H H H G G G G H H H H G B H G H G G G H G G H G H B H H B H H V G G G G H G G G G G H G G G G G G H G G G B H G B G G B B G G B H G G G G G G G J B G B G G B D B B V B B B V B B B G B G B G B G B B B B B B B B B G B G B G B B B B B G B B B B B B B G B G B B B B B B G B G B G c B G B G B B B B B B B B B k G B B S G c G c S G c G S S c G c c B G c B G c B c S B c B c G c c B c S c G c c B c G c c G c c c B c c B c B c S S c G G c S c S S c S S c S c c G c S S c c S c S S c G S c S c c c c B c c c M c c c c c c c c c c c c c c c c c c c c c c c c c c c c c c z c c k c x c c c c c x c c c c x c c c c c k S c c c k S c c x S c c x c S c c c c c k c S S x c x c c x c c z x c c x c x c z c x c c x c c x c c x c c x c c c x c c z x c c x c c x x c x c x z x c l c l c l c x c x c x c x A x x x x x k x x c x x A x x x x x x x c x c x x x x x x S c x x x x x k x x S x x k x c x c x x x x x x x x x c x c x x x x x x x x x x x A x x x x x x x A x x x x x x x x x A x x x x x x x j C x x x A x x x A x x x x l x 8 x x 8 x 8 x x x x 8 x 8 A 8 x 8 x 8 x 8 x A 8 x 8 x 8 x 8 x x 8 A 8 x 8 x 8 x 8 x x 8 x 8 x 8 x x 8 x 8 x 8 8 q x 4 q x x 4 q A 8 8 x 8 x 8 8 x x 8 8 6 x x l 8 x 8 8 8 8 x 8 x 8 x 8 8 q 8 x 8 8 A x 8 8 8 x 8 x 8 8 8 8 8 8 8 8 6 x 6 x 6 x 6 x 8 8 6 8 x 8 8 6 8 8 8 8 8 6 6 8 8 8 l 8 x 6 8 8 8 8 8 8 8 8 8 8 8 8 8 8 8 8 8 8 8 8 6 8 8 8 8 8 8 x 6 8 6 x 8 8 6 8 8 8 8 6 x 8 8 8 x 6 8 8 x 8 6 8 8 8 x 6 6 8 8 8 8 8 x 6 x 6 x 8 8 6 8 6 8 6 8 6 8 6 8 6 6 8 6 8 6 8 6 8 8 6 8 6 8 6 8 6 8 8 6 7 8 7 8 7 7 8 q 7 7 7 8 0 7 0 8 7 7 7 7 8 0 7 8 7 7 8 7 0 8 7 8 7 7 8 7 7 8 7 8 7 8 8 8 7 7 7 8 8 7 7 q 7 7 8 8 8 8 6 8 6 5 7 7 5 7 6 8 5 5 8 8 7 6 8 8 7 5 8 6 7 5 8 8 5 5 8 7 6 5 5 8 7 7 7 7 7 7 7 7 7 7 7 7 7 7 7 7 7 7 7 7 7 7 7 7 7 7 7 7 7 7 7 7 7 7 7 7 7 7 7 7 7 7 0 8 7 7 7 7 7 7 7 7 7 7 7 7 7 7 7 7 7 7 7 7 7 7 7 7 7 7 7 7 7 7 7 7 7 7 q 7 7 0 7 8 7 7 7 8 7 7 7 8 7 7 7 7 7 7 8 7 7 7 7 7 7 7 7 7 7 7 7 7 7 0 8 7 7 q 7 7 7 7 7 7 8 7 7 7 7 5 7 5 5 7 7 7 7 5 7 7 5 5 7 5 5 7 5 7 7 5 7 7 5 7 < 5 5 7 5 5 7 5 7 5 7 5 7 7 5 7 5 7 7 < 5 5 7 7 5 7 < 7 5 7 7 5 7 5 7 5 5 7 7 7 7 < 5 ",
"%.o...%.%.%.%.%.%.o.o.%.' %.} o.o.o.+.o.%.o.+.o.o.%.o.%.%.o.%.o.%.o.o.o.o.%.o.o.o.o.o.%.o.o.o.o.o.O.o.o.O.+.O.o.o.o.X.o.o.o.o.o.o.o.o.X.X.o.X.` X.o.X.o.o.X.' o.o.X.' X.o.' o.o.o.o.o.o.X.` o.X.X.o.' o.X.o.o.o.o.' X.o.o.o.o.o.X.o.o.X.O.o.O.o.O.o.X.O.X.X.X.o.o.X.X.o.X.o.o.X.o.X.X.X.X.X.X.X.o.X.X.X.X.X.X.` X.X.X.o.X.X.` o.X.X.X.X.X.X.X.X.X.o.X.X.X.X.X.X.O.X.X.X.X.X.X.O.X.X.O.X.X.o.X.X.X.X.X.X.X.X.X.X.X.X.X.X.X.X.X.X.X.X.X.X.X.X.H X.H X.X.H X.X.X.X.X.X.X.X.H X.H X.V X.X.V V X.V X.V X.X.V X.X.X.H X.H H X.X.X.X.X.H H H X.H X.X.H H X.H X.H X.H H V X.H X.X.H H H H H X.H H H H X.H H H H H H X.V H H X.H H H H H H H H H X.H H V H H H H H H V H H H H D H H D G H G H H H G H H H G H F J H H H G H H V H G G G V G H H H B B H G V V G G V B H H B B H B H G H G H J H G H G G J H G H H G G G G G G G B G G G G H G G G G B G B D G B B G B G G G G B H B B B B B V V B V B V B B B B B B B B B G B G G B G B B B B B B B B G B G B B B G B G B G B B B B G B G B B B B B B B G B B B B B B G B B G M B B B c c B B c c S G c S B c G G S c B G c c c c c c c B c c B B c c B B c c B B c c B B S c B B c c B B c S B c B c B S c c S c S c S S c G c c S c G S c S c c S S c S c c S S c S c c c c c c c c c c c c c c B c c M c c c c c c c c c z c z c c x z c z c z c c c x c c c c c c x c S c c A k c c k c c c x c c x x c S x x c c S c c c c k x x S c x c x S S c c c x x c c l c x x c x c c x x c c x c x c x l c c x l c x c x c l c x c c x x c x c c c x z c x x c x c x c x c x c l c x z l c k x x c x c x x A x c x k x x c x S x A x x x x c x c x x x x x k x c x A x x x c x A x x x x A x S x c c x c x x x x x z x x c A x x A x x x x x x A x x x x x x x A x x A x x x x x x x A x x x x x x x x x x x x x x x x x 6 8 x x 8 8 x x 8 8 x x 8 x 8 A 8 x 8 x x x 8 x x 8 A 8 x 8 x 8 8 x 8 x 8 x 8 x x x x 8 A 8 A 8 x x x x x A 8 x x x 8 x q 8 q A 8 8 x A 8 x 8 x 8 8 8 6 x x l x x 8 8 8 x x 8 8 q x 8 8 q x 8 8 8 8 A 8 8 8 x x q 8 8 x 8 x 8 x 8 l 8 8 8 8 6 8 8 8 8 8 6 8 8 6 8 8 x 6 8 x 8 6 x 8 6 x 8 8 8 6 8 8 8 8 6 8 8 8 8 8 8 8 8 8 x 8 8 8 x 6 8 x 8 8 8 8 l 8 6 8 8 8 6 8 8 x 6 x 8 8 8 6 8 l 8 8 8 8 6 8 6 x 8 8 8 8 8 x 8 8 l x 8 8 8 6 8 8 6 8 8 6 6 6 8 6 8 6 8 6 8 8 6 8 6 8 6 8 6 6 8 6 6 6 8 6 8 8 8 8 8 8 8 8 8 8 7 7 8 8 7 7 8 8 7 7 8 7 q 7 8 8 7 7 8 7 8 7 8 7 8 0 8 8 7 q 7 7 8 7 q 7 8 q 7 8 7 0 8 7 8 7 8 7 7 5 7 5 5 5 7 8 7 6 8 7 7 5 7 7 5 5 5 7 5 5 6 7 5 7 7 5 7 5 7 7 5 7 7 8 8 5 5 7 7 7 7 7 7 8 7 7 7 7 7 7 8 8 0 7 7 7 7 7 7 7 7 8 7 8 7 7 7 7 7 7 7 7 7 7 7 7 7 7 7 7 7 7 7 7 7 7 7 7 7 0 8 7 7 7 7 7 7 7 q 7 7 7 7 7 7 7 7 7 7 8 7 7 7 7 7 7 7 7 7 7 7 7 7 7 7 7 7 7 7 7 7 7 7 7 7 7 7 8 7 7 0 7 7 8 7 7 7 7 8 7 7 7 7 7 7 7 7 7 7 0 7 7 7 7 7 7 7 7 7 7 5 5 7 7 5 7 7 7 7 7 7 7 7 5 7 7 5 5 7 7 5 5 5 5 7 7 7 7 5 5 < 7 5 7 7 7 5 5 7 5 5 7 5 5 7 5 5 7 5 5 7 7 5 7 7 7 7 7 5 5 7 5 5 ",
"%.%.%.o.%.o...%.' %.o.o.%.o.o.%.o.%.o.o.o.o.o.o.%.o.o.o.%.o.o.%.o.%.o.%.o.o.o.o.%.o.%.+.+.o.%.o.o.+.o.+.o.o.+.+.o.X.o.o.X.o.o.o.X.o.o.o.o.o.o.o.o.' o.X.X.o.o.o.X.o.o.o.o.X.X.o.' o.o.X.o.o.o.o.o.X.o.o.o.o.o.X.X.o.X.' o.' X.X. .O.O.O.O.X.X.o.X.X.o.o.X.O.X.X.X.X.X.o.X.X.X.X.X.o.X.o.X.o.X.X.X.o.X.o.o.X.X.X.X.o.X.X.X.X.X.X.X.X.X.X.X.X.X.X.O.X.X.X.X.O.O.X.X.X.X.X.X.X.X.X.X.X.X.X.X.O.X.X.X.X.H X.X.X.H ` X.X.X.X.X.X.X.X.X.H H X.V X.X.X.` X.X.X.H X.H X.X.H V X.X.X.X.X.X.X.X.X.X.V X.X.V X.X.X.V V X.` X.V X.` X.V X.H  .H  .H K H X.H K X.H H H X.X.H H H H V V X.H X.H H V H X.V X.H H X.H H H H H H H H H H H H H H H H H H H H H X.H H H H H H H H H G G H H G G H H H H G H F F G H G H G H H J K H H H G G G G H G G H B V G H V H G B H G H B H H G H B G G G G G H G G H G H G G G G G G G H G G G G G B G B G B D V G G F G G S B B G G G B G G G D G B G B J G B B B B B B B B B G B B B c G G B B B c G B G B B G B B B B G B B B B B B B B B B B B B B B B G B B G B G B B B B G B c G B G B B c B B B B G B S G c G c S G c G G S B G G c c c G B c B G c c B B c c G c c c B B c c B B c c B c c c B B c G c B c c B c c S c S c c S c S B c S S c S S S S S G c S S c S c S S c S c S c B c c c c c c c c c c c c c c c c c c B c c c c c z c c c c c c c z c c c c z c c c c c S x c c c x x c c c x c A c c c c S c c c c x c c c c k c c c c c c c x S x k c c S c x c c x c x x c c x c c x c c c c c x c c c c c x x c c l c c l x c c x c c l c c x c c c c l c c c l c l z x c l z x c x c x c x x x x c x x x x x x x x x x x c x c x k x x c x x x x x x A x x A x x c x x x x x x c x x x k x x c x x x x x c x x c x x x l x x x x x x A x x x x x x x x x x x x x x x x x x x x x x x x x x x x x x x x x x x x x x x l x 6 x 8 x x x 8 8 x x 8 8 x x 8 x x x 8 A 8 8 x x 8 x x 8 x A 8 8 x x 8 x x x 8 A 8 8 x x 8 x x 8 x x x 8 x 8 x x 8 8 q x 8 A 8 4 q 8 q 8 8 8 x 8 8 x 8 8 x x x x 8 x 8 8 8 8 q 8 x 8 x 8 8 8 8 x 8 8 8 q 8 8 8 8 8 x 8 8 8 8 8 x 8 8 8 6 8 8 8 8 8 6 8 6 x x 6 6 8 8 8 6 8 6 8 8 8 8 8 6 8 8 8 8 8 8 8 6 x x 8 x 8 x 6 8 8 8 8 8 8 8 6 8 8 8 8 l 8 8 8 8 8 8 8 8 8 x 6 8 6 6 8 8 6 6 x 8 8 8 8 8 8 8 x 6 8 8 8 8 6 8 8 x 8 6 6 8 8 8 8 8 8 8 6 8 6 6 8 8 6 8 6 8 6 6 8 6 8 6 6 6 8 8 6 6 x 8 6 8 6 8 8 8 8 7 8 8 8 7 8 7 7 8 0 8 7 7 8 0 8 8 8 7 7 7 7 0 8 8 0 8 7 8 7 8 7 q 7 8 7 7 8 7 7 q 7 7 8 7 8 8 7 8 7 8 7 8 5 7 7 7 8 7 7 5 7 7 5 5 8 6 7 7 6 5 8 7 5 5 7 7 6 8 5 8 5 6 7 6 7 5 7 5 7 6 7 7 7 7 7 7 7 7 7 7 7 8 7 7 7 7 7 7 7 7 7 7 7 7 7 7 7 7 7 7 7 7 7 7 7 7 7 7 7 7 7 8 7 7 7 7 8 7 7 7 7 7 7 7 7 7 7 7 7 7 7 7 7 7 7 8 7 0 8 7 7 7 8 7 7 7 7 7 7 7 7 7 7 7 7 7 7 7 7 7 7 7 7 8 7 7 7 7 7 7 7 7 7 7 7 7 7 7 7 7 7 7 7 7 7 7 7 7 7 7 7 7 7 7 7 7 7 7 7 7 5 5 5 < 5 5 5 5 7 < 5 7 5 5 < 5 < 5 5 5 5 7 7 7 7 7 7 7 7 7 5 7 5 7 7 7 5 5 7 5 7 7 7 5 7 7 7 7 7 5 7 7 7 7 5 < 5 7 5 7 7 < 5 5 7 7 5 ",
"o.o.%.%.o.%.%.o.%.o.%.' ' %.o.o.o.o.%.o.o.%.o.%.o.o.o.%.o.o.+.o.o.o.o.o.o.%.o.%.o.o.o.o.o.o.%.o.o.+.o.o.o.o.o.o.o.o.o.o.o.o.o.X.o.o.o.o.o.` X.o.o.X.o.X.' o.X.' ` o.X.' o.o.' o.o.X.o.o.X.' ` o.' o.o.X.o.X.' o.o.o.o.o.X.o.o.o.O.o.X. .X.o.O.O.o.O.O.X.o.X.X.o.o.X.X.X.o.X.o.X.X.X.X.X.X.X.o.X.X.X.X.X.X.X.X.` ` X.X.o.o.` X.X.X.X.X.X.X.X.X.X.X.X.X.X.X.X.X.X.X.X.X.O.X.X.X.X.X.X.X.X.X.X.X.X.X.X.X.X.X.X.X.X.X.H X.X.X.X.V X.X.X.X.X.X.X.H X.H X.X.H X.X.X.X.X.X.X.X.X.H X.H X.V V X.X.X.X.V X.X.V V X.X.H X.X.X.X.H X.V X.` H H X.K X.H H X.X.H H X.X.H H X.H X.H X.H H H H X.H X.H H H H H H H H H X.H H H X.H H H H X.H H H V X.H H H H H H H X.H H X.H H G H H H G H H H H G G H H G H G J H G H H H H H H G B H G H H H H G B H G H G G B H H B H G H B G V G H H G V H G G G G G H J G G G H G G G J H B G G B D G H G G G G G B B G G G G G G G G G G G B B G G G G G G V V B B V B B B G B B B G G B B B B G B B B B B G B B G B B B B G B G G G c G B G B G G B G B B B G c B B G B B G B B G B B B B B B B B B B c c G c G c G G c G c G c S G S c c B c c G c B c c G c B B c c B B c B c c G c B B c c B c c c G c B c c B c G c S S c S S c S S c S S c S c S c c S c S c G S c G c c S c S c G c c c c c c c c c c B c c c c c c c c c M c c c c c c z c c z c c c c c c c c c c c c x k c c c c S k c c c c c c c c x c x c c c c c c c c c x x S k x c c c c c c c c c c c c l c c x c c c x c l c c x c x l x c c l x x c c c c x c x c c c x c c x x c c x c c x l x c x c x c x c x c x c x c l c x c l c c x x x A c x c c x c x c x x x x x x x x S x x A k x c k x x c x x x x c x c x c x x x x c x x x x x A k x x x c x x x x x x x x x x x x x x x x A x x x A x x x x x x x x x x x x A x x x x A x x A 8 x x x A x x A x x x x x 8 x x 8 8 x A 8 x 8 A 8 8 x x 8 8 x 8 x 8 x 8 x x 8 x 8 x x A 8 8 x 8 A 8 x 8 x A 8 x 8 x 8 x 8 x x 8 x x x 8 x A 8 8 x 8 8 A 8 x 8 A A x 8 x 8 6 6 x 8 8 l x x 8 q 8 x x 8 8 q q 8 8 x 8 x 8 q 8 x 8 x q x x 8 8 8 x 8 x 8 8 8 8 8 8 8 6 x 8 8 6 x 8 8 8 8 8 6 6 x x 8 6 8 8 8 6 x x 6 8 8 6 x 8 8 8 8 6 8 8 6 8 6 8 6 8 6 x 6 6 x 8 8 8 8 8 8 8 8 x 6 8 l 8 8 8 6 8 x 8 6 8 x 8 8 8 8 6 x 6 8 8 8 8 6 8 8 6 x 6 8 6 8 8 8 x 6 8 8 8 6 x 8 6 6 8 6 6 8 6 8 6 8 8 6 8 6 6 x 8 6 6 8 8 6 6 8 6 8 8 8 5 8 6 8 8 8 8 7 7 8 7 8 7 8 8 7 8 7 7 7 q 7 8 8 7 8 7 8 7 8 7 8 7 8 7 8 7 7 q 7 8 7 7 8 7 7 q 7 7 8 0 8 7 8 5 7 7 6 5 8 5 6 5 8 7 6 7 5 7 5 5 7 7 7 6 7 8 7 7 7 5 5 8 7 7 5 5 7 8 5 5 8 7 7 7 7 7 7 7 7 7 7 7 7 7 7 7 7 7 7 7 7 8 7 7 8 7 7 7 7 7 0 7 7 7 7 8 7 7 7 8 7 7 7 7 7 7 7 7 7 7 7 7 8 7 7 8 7 7 7 7 7 8 7 7 7 7 7 7 7 7 7 7 7 7 7 7 7 7 7 7 7 7 7 8 7 7 7 7 7 7 7 7 7 0 7 7 7 7 7 7 7 7 7 7 7 8 7 7 7 7 7 7 7 7 7 7 7 7 8 7 7 7 8 7 8 7 7 8 7 7 7 5 7 5 < 5 5 7 7 7 5 5 5 5 5 5 7 7 7 5 5 5 < 7 5 5 7 5 5 7 5 5 7 5 7 5 7 7 7 7 5 7 7 5 5 7 5 5 7 5 5 7 5 5 7 5 5 5 5 5 7 5 5 5 5 7 5 7 7 ",
"%.o.%.o.%.o.%.%.%.o.o.%.%.o.o.} +.%.o.%.o.+.o.o.+.o.%.o.o.%.o.o.o.%.o.o.o.%.o.o.o.o.o.o.%.o.%.o.o.+.o.o.o.O.+.o.o.o.o.X.o.o.o.o.o.o.o.o.` o.o.o.o.o.o.` X.o.o.o.o.` o.o.' X.o.o.o.o.' X.X.o.o.o.o.` X.o.X.' X.o.o.` o.X.o.X.o.X.o. . .X.O.O.O.X.O.X.X.o.X.o.X.X.o.X.X.X.o.X.o.X.X.o.X.X.o.X.X.o.X.X.X.X.X.X.X.` ` X.X.` X.X.X.` X.X.X.X.X.X.X.X.X.X.X.X.X.X.X.X.X.X.X.o.X.X.X.X.X.X.X.X.X.X.O.X.` X.X.X.X.X.X.X.H X.X.X.X.X.X.V H X.X.X.X.X.X.X.X.X.X.X.H X.V X.X.H H X.X.X.X.X.X.H V X.V X.X.V V X.X.X.V X.X.X.V X.H X.` H H X.H  .H H  .H H H H X.H H H K H X.H H X.H H X.V X.H H X.H H H X.V H H H H H H V H H H H V H H X.H H X.H H H H H H H H H H H H H H H H G H H G H G G G H G H H G H H G H H G H H K G G G H V G H G H G G H G V G G H B H H H B H H G V V G G H V G G G G G G H G G J H G G J G G G H D G G G B G G G G B G G G B H G G G G G G B G G B G G G G G G B B B V V B B V B B B B B B B B G B G B B G B G G B B B G B B B B B B B B G B B B B G B B B B B B B G B B B B G G B B B G B B B B B B B B B B k c G c c S B G c S c B c G G c B c G c B c c B c c B c c G c c G c G c c B c c c c c B c G c c G c B c G B c c G c G S S c S G c S c G c c c S c c S c c S c S S S G c S S S c G c c c B c c c c c c c c c c c c B c c c c c c c z c c c c x z c c c c c z c c c c c c c S c c c c x c c c c c c c c c c c k S c c c k c c c c x S c c c c x c c k c c c S c c k l c c c c c x c c x x c x c c c c c x c c z x c c x c c c x z c c l x c c c x c x c l c c x c x c l c l c x c x c x c x z x c l x x S x x x x x x x x x S x x x c x c x k x x c x x c x x x A x c x c x A x x x x S x x c x x x x x x x x c x k x x x x x x c x x x x x x x x x x x A x A x x x A x x x x A x A x x x x x A x x x x x C x x x x x x x x x x x l x 8 8 x x x 8 x A 8 x x x 8 8 x A x 8 x 8 A 8 x 8 8 A 8 x 8 x x x x 8 x 8 x 8 8 8 8 x 8 x 8 A x 8 x 8 x 8 x 8 x 8 A 8 8 x x 8 A 8 x 8 8 x 8 x 8 8 x x 8 l x x 8 x 8 8 x 8 8 x 8 8 x x 8 A x 8 q 8 q 8 8 8 8 q 8 8 8 8 8 6 x x 6 8 8 6 8 8 8 8 l 8 8 8 l 6 8 8 x 8 8 8 x 8 8 6 6 8 8 x 6 6 8 6 8 8 6 8 8 8 8 8 x 6 8 6 x 6 8 x 8 8 8 8 x 6 8 8 8 8 8 l 8 8 6 8 8 6 8 6 8 8 6 x 8 6 8 8 8 x 6 6 8 8 8 8 6 8 8 8 8 8 6 x 8 8 6 8 8 x 6 8 8 8 8 6 6 6 8 6 8 8 6 8 6 6 8 6 6 6 8 6 8 8 6 8 6 8 6 8 6 8 5 8 8 8 8 8 5 7 7 0 8 8 7 8 7 0 8 7 8 7 8 8 7 0 8 8 7 q 7 8 0 0 8 8 0 8 8 7 q 8 7 0 7 8 8 7 8 7 8 7 7 7 7 8 7 7 6 5 8 5 7 5 7 5 7 8 5 7 6 7 8 8 8 5 5 8 5 7 5 6 7 8 5 7 6 7 8 8 6 7 7 5 8 5 6 7 7 8 7 7 7 7 7 7 7 7 7 7 8 7 7 7 7 7 7 7 7 7 7 7 7 7 7 7 0 7 7 7 7 8 0 7 7 7 7 7 7 8 7 7 7 7 7 7 8 7 7 7 7 7 7 7 7 7 7 8 7 7 7 7 7 7 7 7 7 7 7 7 7 7 7 8 7 7 7 7 7 7 7 7 7 7 7 7 7 7 8 7 7 7 7 q 7 7 7 7 7 7 7 7 7 7 8 7 7 7 7 7 7 7 7 7 7 7 7 5 7 7 5 7 7 7 7 7 7 5 7 5 < 5 7 5 7 5 5 5 5 5 7 7 5 5 7 5 5 7 5 5 5 7 7 5 7 5 5 7 5 5 < < 5 5 7 5 7 < 5 5 5 < 7 7 5 7 5 7 7 < 5 5 7 7 7 7 7 5 7 5 5 5 5 ",
"%.%.%.o.@.%.o.%.' o.%.o.o.%.%.o.o.o.o.o.%.o.%.o.o.%.o.o.+.o.%.o.o.o.%.o.o.o.%.o.%.o.%.o.o.o.%.o.o.+.o.O.o.o.o.o.X.o.o.o.o.o.o.o.o.X.o.o.o.o.o.` o.X.o.o.' o.X.o.o.o.o.X.o.o.o.X.X.o.o.o.o.o.` o.o.o.o.o.o.o.X.o.o.X.o.o.o.o.o.o.o.O.O.o.X.X.o.X.X.o.O.O.X.X.o.X.X.X.o.X.X.X.X.X.X.X.X.o.X.X.X.o.X.o.X.o.o.X.X.X.o.X.X.X.' X.X.o.O.X.X.X.X.X.X.O.X.X.X.X.X.X.X.X.X.X.X.X.O.X.X.X.X.O.X.X.X.X.X.X.X.H V X.X.X.X.X.X.` X.X.X.X.X.X.X.X.X.H X.H X.H H X.X.H X.X.X.X.X.X.X.X.H ` X.X.` X.X.X.X.H X.X.X.H V X.X.X.V H V X.X.X.H X.X.V H K H O.X.H X.H H H X.X.H X.X.H H X.H H H H H H V X.H H V X.H H H H X.H H H X.H H H H X.H H H H H H H H X.H H H X.H H H H H V X.F G H G H H G H H H H H G H H G H F H G H H H H H H H G H B G H G V G G H G G H H B B H H H B B H G G H V G G G J H G G G G G G G H G H H H G G H B G B G F B G B G G H G G G G G B B G B G G G G G S G G B B G B H B B B B B B B G B G G B G B B B B B B B B B B B B G B B G B B G B G B B G B B G B B G B G B B G B B B G B B B B B G B B G B B B B k B B B G B c G S B S c G c B c S G S B B c c B c c B c G B c G c c B c c c c G c G c G c B G c B c B B c c B B c c B c c S c c S S c c S S S c S G S c S B S S S c S c c c c S c S c S c c c c c c c c c c c c c c M B c c c c c c c c c c c c c c c c c z c c c c c c l c x c c x c x c c c c c x c c x c c x S c x c x c c A c c c c c c c c c c c S x A c c x c x c x c x x c x x c c x c c c l c x c x x c c x c c x x c c x c c x x c c c x c x x c c x c x l c l c x c x c x c l c x c l c x c x c x k x x x c x A k x x c x x c x x x x x A x x x x c x x c x c x x x A x k x c x x x x x x A x c k A x c x x x x l x l x l x x x x x A x x x x A x x x x x x x x x x x x x 8 x x x x x A x x x x C x x j x A x x x x A x x x x 6 8 x x 8 8 x A 8 8 x x 8 8 x x 8 8 x x 8 x x x 8 x x 8 x 8 x 8 x x 8 A 8 x 8 x x x x x x 8 x 8 x x 8 x 8 8 x A 8 8 8 A A 8 q 8 8 A 8 q x x x 8 8 x 8 8 x 8 l l x x 8 8 x x q 8 8 8 q 8 8 8 8 x 8 x 8 x 8 x x 8 x 8 8 8 6 8 6 8 8 x 6 8 8 6 x 8 8 8 8 8 8 x 8 8 8 6 8 8 6 8 6 8 x 8 6 8 8 x 8 8 8 8 x 8 6 8 6 8 6 x 8 8 8 8 8 6 8 6 x 8 8 8 6 6 x 8 8 8 8 8 x 8 6 x 8 8 8 8 8 6 8 x 8 8 8 6 8 x 8 l 8 8 x l 8 x 8 8 8 6 8 6 x 8 8 6 8 6 x 8 6 8 6 8 6 8 6 6 8 6 8 8 6 6 8 8 6 8 6 6 8 6 8 6 8 6 8 8 8 5 8 5 8 8 8 8 8 8 7 7 8 8 0 8 7 8 7 q 7 7 q 7 8 7 8 8 7 7 8 7 8 7 8 7 7 8 7 7 8 8 8 7 7 8 0 8 7 7 q 8 q 7 8 7 7 7 7 7 6 8 5 8 5 8 5 7 6 7 5 5 7 5 8 5 7 8 5 7 5 6 7 5 8 7 5 5 7 7 6 7 6 7 7 7 7 7 7 7 7 7 8 7 7 7 7 7 7 7 7 7 7 7 7 0 7 7 7 7 7 8 7 7 7 7 7 7 7 7 7 7 7 7 7 7 7 7 7 7 7 7 7 7 0 7 7 7 7 7 7 7 7 7 7 7 7 7 7 7 7 7 7 7 7 7 7 7 7 7 7 7 7 7 7 7 7 7 7 7 7 7 7 7 7 7 7 7 7 8 7 7 7 7 7 7 7 7 7 7 7 7 0 7 7 7 7 7 7 7 7 7 7 7 7 7 5 7 7 7 7 7 7 5 7 7 5 5 7 7 7 5 7 < 7 7 7 7 5 5 7 7 5 7 7 7 7 5 5 5 7 7 7 5 5 7 5 5 7 5 5 7 5 7 5 5 5 7 5 5 5 7 7 5 5 7 5 5 7 7 7 5 5 5 7 7 5 5 < 7 7 ",
"o.o.%.%.o.%.o.o.%.o.o.} %.' o.o.o.%.o.o.o.o.o.%.o.o.o.o.o.o.o.o.o.+.o.o.%.o.%.o.o.o.o.%.+.o.o.o.o.o.+.o.+.o.o.+.o.o.o.o.o.o.o.X.` o.X.o.o.X.o.X.o.X.o.X.X.o.o.' o.X.o.' o.X.' o.o.o.o.X.` o.o.o.o.X.X.o.o.o.o.o.o.o.o.o.' X.o.X.X.O. .o.o.o.O.O.o.X.O.X.X.X.X.X.o.X.o.X.X.X.o.X.o.X.o.X.o.X.o.X.o.X.X.X.X.` X.` X.X.o.X.X.X.X.X.X.X.X.X.X.X.X.X.X.X.O.X.X.O.X.X.X.X.X.X.X.X.X.X.O.X.X.X.X.X.X.O.X.X.X.X.X.V X.X.X.X.X.X.X.X.X.X.X.X.X.H H X.X.X.X.H X.X.X.X.X.X.X.X.X.X.X.H X.H H X.` H V X.V X.X.X.V X.H X.X.` X.` H V X.X.X.X.X. .H H H K X.X.X.H X.H H H H H H H H H H X.H H H H H V H H H H H H H H H H H H X.H H H H H H H H H H H H H H X.V H H X.X.H H H G H H G H D G H H G K D H G H G H G G H H H H H H H G G G H H H G H G V B H V G B H H B B H B H G B H G G G V H H G G H H G H G G G G G G G G H B G G G G G G H H G G B H B B G G G G D G G G G G G B D G G G G B V B B B B B V B B B B B B B G B B G B B G G B G B G B G B B B G B B B B B B B B B B G B B B G B B B B B B B B G B G B G B G B B B B B B B B c B G G c c G S c G B c G c S c c B c B c B S c B B c B S c B c B B c c B c c G B c G c c c B c c B c c B G c c B c S S c c S S c c S S c c S S c c S c S S c c G S c c S S c S c B c c c c c c c c B c c c c c c c c c B c c c c c c c c c c c c c c c c c c c c c c x c x c c c x S S x c c k S c c x k S x c c x c S x x k c c c c c A c x c S c c c c c x c c c c c c c c c x c c c x c c x x c c c x x c c x x c c x x c x c x c c c c c c x c c l c c x c l c x c l z x c x z x c l z x c l x x x x c x x k A x c x x x x x x x A x x c x c x x A x x x x c x x c x x x x c x c k A x x x c c x x x x c x x x x x x x x x x x x x x A x x x x x x x x x A x x x A x x x x x x A x x x x x x x x x A x x x x A x x x x 8 x x x 8 8 A x 8 8 x x 8 8 x A 8 8 x x 8 8 x x 8 x x 8 x x 8 8 x 8 x x 8 8 x 8 A x 8 8 x 8 x x 8 8 A 8 8 x x x x 8 x A 8 x 8 8 x A 8 A 8 x 8 8 x x 6 8 x 6 8 x 8 l 8 8 8 x q 8 x 8 8 8 x x 8 x 8 8 8 x 8 x 8 8 q 8 8 x 8 8 x 8 8 l 8 x 8 x 6 6 8 x 8 6 8 8 8 8 6 x 8 8 8 8 8 8 x 6 x 8 8 8 8 8 8 6 8 8 6 x 6 8 8 8 8 8 8 8 8 x 6 6 8 8 8 6 8 8 6 8 8 x 6 8 8 6 8 8 x 8 8 8 6 x 6 8 8 6 8 8 6 8 x 6 6 8 8 8 6 x 8 6 8 6 8 8 8 8 8 x 6 6 x 8 8 8 6 8 6 6 x 6 8 6 6 8 6 8 6 8 6 6 8 6 8 6 8 6 8 8 6 8 6 8 5 8 8 8 8 8 8 7 8 8 7 0 8 8 7 7 8 q 7 7 8 8 7 8 8 7 7 7 q 7 7 8 q 7 7 8 7 q 8 8 7 8 7 7 8 7 8 7 q 8 7 7 8 7 7 6 5 8 6 7 5 7 7 8 5 5 7 5 7 7 6 8 5 7 7 7 6 5 5 6 7 7 7 7 5 5 8 7 6 7 5 7 7 5 8 7 0 7 7 7 7 7 7 8 7 7 7 7 7 7 7 7 7 7 7 8 7 7 7 7 7 7 7 7 7 8 7 7 7 7 7 8 7 7 7 7 7 7 7 7 7 7 8 7 7 7 7 7 7 7 7 7 7 7 7 7 7 7 7 7 7 7 7 7 7 7 7 0 7 7 7 7 7 7 7 7 7 7 7 7 7 7 7 7 7 7 7 7 7 7 7 7 7 7 7 7 7 7 7 7 7 7 7 7 7 7 7 7 7 7 7 7 7 7 7 5 7 < 7 7 5 5 7 7 5 7 5 5 5 7 5 7 7 5 5 5 7 7 7 7 7 5 5 7 5 5 7 7 < 5 7 7 5 7 < 5 7 7 5 5 7 5 7 7 7 5 7 7 5 5 7 5 5 7 5 7 5 7 7 5 7 5 7 5 5 7 5 5 7 7 7 ",
"@.+.%.o.%.o.%.%.o.%.o.%.o.%.o.%.o.o.%.o.%.o.o.o.o.%.o.%.o.%.o.%.%.o.%.o.o.o.o.+.%.o.o.o.%.o.%.o.o.o.O.o.+.o.o.o.o.o.X.o.X.o.o.o.o.o.X.o.o.o.o.o.o.o.' o.o.o.X.o.o.o.o.X.o.X.o.X.o.X.' o.o.o.X.` ' o.' o.X.o.X.' o.X.' X.o.o.o.X.o.o.O.X.O.X.X.o.O.o.o.X.o.X.o.X.X.X.X.X.X.o.X.X.X.X.X.X.X.X.X.X.X.X.X.o.X.o.X.X.X.X.` X.X.X.X.X.X.O.X.X.X.X.O.X.X.X.X.X.X.X.X.X.X.X.X.O.X.X.X.X.X.X.X.X.X.X.X.X.X.X.X.X.X.X.X.X.X.X.X.X.V X.X.X.H X.X.` X.X.X.X.X.X.X.X.H X.H X.H X.X.H X.X.X.X.X.H X.H X.X.V X.V X.X.X.H ` H X.H X.X.X.` H V X.H H H X.X.H H H X.H K H X.X.H X.V X.H X.H V X.H H X.H X.H X.H X.X.V H H X.H H H H H H H H X.H H H V X.H H H H H H H H H H H H H H H G H G H H G H H G H H D K H H H G H J H H H G H B H G H G H H B H B H G H G H H B H H B H H G H V G G H G G G H G G G H J G G G H G G H G H G G B H B G G B B G G B D G G G G G B B S G B G G G B G G G B G B B B V V M B B G B G B G B B B B G B B B B B B B B B B c G G B B B B B G B G B B G B c G B B B B G B G B G B G B B B B B B B B M B B B B B B B c G c S G c G c S c B c S B B c c G c B c c B c c B c c B c B c c G B c B c c c c c G c B c c G c B S c B c c G S c c G G c c S S c S c S c G S S c S c S G S c c S S G c S c S c c c c c M c c c c c c c c c c c c c c c c z c c z c c c z c z c c c z c z c c x c S k S c c c c c k c c c S x S x c c c c c c c c c c c S S x x c c k c c c k x c S c c c k x x c x x c l x z c x l c c x c c c l l c c c x c c l c c x c c c c x x c x x z c x c c x c l x c x z x c x c l c x c x c x c x c x c A c x x x x x x x x k A c x x S k x x x x x x c x x k x x x x c x x c x x x x x x x c x x x x x x c x x c c l x l x c x x l x x x x x x x x x x A x x x x x x x x x x A x x x x x x x A x x x x x x x x x x x x x x x x x l 8 A x x 8 x 8 x x 8 x 8 x x x A 8 A 8 x 8 x 8 8 A 8 x x A 8 x x x x 8 x x x 8 x x 8 A 8 x 8 x 8 x x 8 x 8 x x 8 C 8 8 q x q 4 x 8 x 8 8 x 8 8 8 x 8 8 x l x x 8 x 8 8 8 8 8 q x q 8 q 8 8 8 A 8 8 q 8 8 x 8 8 x 8 8 8 8 8 8 8 8 6 6 8 8 8 8 6 8 8 6 x 8 8 8 6 8 8 6 x 6 8 6 8 8 8 8 l 8 8 6 x 8 6 x 8 8 8 6 x 6 8 8 l 8 8 8 8 6 8 8 x 6 8 x 8 6 8 8 8 6 x 8 8 6 8 6 x 8 8 8 8 l 8 8 6 x 8 8 8 8 8 8 8 8 6 8 8 6 x 8 6 6 x 8 8 6 8 8 6 8 8 8 6 6 6 6 8 6 6 x 6 8 6 8 6 8 8 6 8 6 8 6 8 6 6 8 6 8 8 8 8 8 8 8 5 8 q 7 7 8 8 7 7 8 7 8 7 8 7 7 7 7 7 7 q 7 8 7 7 8 7 7 8 7 7 8 7 7 8 0 7 7 q 7 8 7 7 8 7 q 7 7 q 7 7 7 5 7 5 8 6 7 5 7 6 7 8 5 7 7 5 7 7 6 7 5 8 8 7 5 8 5 7 6 7 5 7 7 5 8 5 8 5 7 8 7 7 7 7 7 7 7 0 7 7 7 7 7 7 7 7 7 7 8 7 7 7 7 7 7 7 7 7 7 7 7 7 7 7 7 7 7 7 7 7 7 7 7 7 7 7 0 7 7 7 7 8 7 7 7 7 7 8 7 7 0 7 7 7 8 7 7 7 8 7 7 7 7 7 8 7 7 7 7 8 7 7 7 q 7 7 7 7 7 7 7 7 7 7 7 7 7 7 7 7 7 7 8 7 7 8 7 7 7 7 7 7 7 7 7 7 7 7 7 7 5 5 7 5 7 7 5 7 5 7 7 5 7 5 7 7 5 7 7 7 5 5 7 7 5 5 < 7 7 5 7 5 7 7 7 5 7 5 7 7 5 7 5 7 7 5 7 5 7 7 5 7 7 7 7 7 7 < 5 5 7 7 5 5 7 7 5 5 < 7 7 7 7 5 5 ",
"%.%.%.o.o.o.o.%.%.' o.o.%.' %.o.o.o.%.o.%.o.o.%.o.%.o.%.o.%.o.%.o.%.o.%.o.%.o.%.o.+.o.%.o.o.+.o.O.o.o.+.o.o.+.O.o.o.X.o.X.o.o.o.o.o.o.X.o.X.o.o.o.o.' o.o.X.o.X.o.` ' X.o.X.o.o.X.o.o.o.o.X.o.o.o.o.X.o.' X.o.X.o.o.o.o.X.o.' o.o.O.O.o.o.X.o.O.X.O.X.o.X.o.X.X.X.o.X.o.X.X.o.X.X.o.X.o.X.o.X.o.o.X.o.X.X.o.` ` X.X.o.` X.X.X.X.X.X.X.X.X.X.X.X.X.X.X.X.O.X.X.X.X.X.X.X.X.X.X.X.O.X.X.X.X.X.X.X.X.X.X.X.X.X.V X.X.X.H X.X.X.X.` X.X.X.X.X.X.X.H X.X.X.X.H X.X.H X.X.X.X.X.H X.H ` H ` H X.X.X.H X.V X.X.X.V ` H X.X.X.V H X.X.X. .H H H X.H H H K X.H X.H H H X.V H H H H X.H H X.H X.H H H H H H H H H H H H H H H H H H H X.H H X.H H H H H H X.H H H X.H H H D H H H G G H G G H G G H G G H D G H G H H H H H G B H G H G B V H G V G G V G G H G G B H H B B H H G B H H B G G H G G H G G G G G G G G G B G G G G G G B G G G G G G D V G G B G G B D V G B G S B D G G G B B B B B B B B B B B B G B G B G B B B B B G B B B B B B B B B G B B B G B B G G B B B B B B G B B B G B B B B B B B B B B B c B B B B n B k G c B c G S B c G G c S G c B c B c B c G c c B B c B c c B c B c B c c B c c G c B c B c G B c B c B c c B c B c G c S c S c S c c c S c c S S c S c S S G c S S S S c G c S S c c c c B c c c c c c c B c B c c c c c c c c c c c c c c c c c c c c c c z c c c S x c c c x c c c k S c x c c c c A c c c c c c k S c c c x c S c c S k c c S k c c c c x x c c c c x x c x x c c x l c c x x c x x c x c c l c c x c c l c x x c x c c x c x l c l c x c x c x x c l c x c x c c l z x c l c x x x x x x S x c c x A k x x x x x x A x c x x x x x x x k A x c k x x x x x x k x x c x c x x x x x x c x x x x x x x c l x c x A x x x x x A x x x x A x x x x x x x A x x x x x x A x x x x x x x x x x x x A x x x x x x 8 x x x 8 x 8 A 8 x x 8 x 8 x 8 x 8 x x x x 8 A 8 x x 8 x 8 x 8 x 8 8 x 8 A 8 x 8 x A 8 x 8 x x x x 8 A A 8 x 8 8 A 8 x 8 x x 8 x x A 8 8 A 8 8 8 x x 8 8 x x l l x 8 8 8 x x 8 8 q x 8 8 x 8 8 q 8 8 A 8 8 8 q 8 q 8 8 8 8 8 8 8 8 8 8 6 8 8 6 8 8 6 8 8 x 6 8 8 6 8 8 x 6 8 8 6 x 6 8 8 x 6 8 8 8 8 8 8 l 8 6 8 x 6 6 8 x 6 8 8 x l 8 8 8 6 8 x 8 6 8 8 x 6 8 8 8 8 8 x 6 8 8 8 8 8 8 6 x 8 6 8 6 8 8 6 8 6 x 6 8 8 8 8 8 8 x 6 8 8 6 6 8 6 8 6 6 6 8 6 6 8 6 8 6 8 6 8 6 x 6 8 6 6 8 6 8 6 8 8 6 6 8 8 8 8 8 7 8 7 7 7 7 8 7 q 7 7 8 7 7 8 7 7 8 7 7 q 7 8 7 0 7 8 7 7 8 7 8 7 7 8 7 7 q 7 7 8 7 0 8 8 8 7 8 7 8 7 5 5 8 5 7 7 5 7 7 7 5 8 6 7 7 5 7 6 5 8 5 5 7 7 5 7 5 8 6 7 7 8 5 7 7 5 8 8 5 7 7 7 7 7 7 7 7 7 7 7 7 8 7 7 7 8 7 7 7 8 7 7 7 7 7 7 7 7 7 7 7 7 8 7 7 7 7 7 7 7 7 7 7 7 7 7 7 7 7 7 7 7 7 7 7 8 7 7 0 8 7 7 7 7 7 7 7 7 7 7 8 7 7 7 7 7 7 7 7 7 7 q 7 7 7 7 7 7 7 7 7 7 7 7 7 7 7 7 7 7 7 7 7 7 7 7 7 7 7 7 7 5 5 < 5 5 5 < 5 7 5 5 7 7 5 7 7 7 5 7 7 5 7 5 7 7 5 5 5 7 7 5 7 7 5 7 < 5 7 7 7 5 7 < 5 7 7 5 5 7 7 5 7 7 5 7 7 5 5 7 5 5 7 5 5 5 < 7 5 5 7 5 5 7 < 7 7 5 7 7 5 7 5 7 7 ",
"o.o.%.%.%.o.@.' o.%.%.' o.%.o.%.o.%.o.o.%.o.o.%.o.o.o.o.o.o.o.o.o.o.o.o.+.o.o.o.%.o.o.o.o.%.%.o.+.o.o.o.o.+.o.o.o.o.o.o.o.o.o.X.o.o.o.` o.' o.o.X.o.X.o.o.o.o.o.o.o.o.X.o.o.o.` o.o.` o.' o.o.X.X.o.o.' o.o.o.o.' X.o.X.o.o.X.o.X.o. .X.O.O.X.X.X.o.O.o.X.X.o.X.X.X.X.X.o.X.X.X.X.X.X.X.X.X.X.X.X.X.X.X.X.X.X.X.X.X.X.X.X.X.o.` X.X.X.X.X.X.X.O.X.X.X.X.X.X.X.X.X.X.X.X.O.X.X.X.X.X.X.X.X.X.X.X.H X.X.X.X.X.X.X.X.X.X.X.X.X.X.X.H X.` H X.H X.X.H X.H X.X.X.X.X.H X.H X.X.X.X.X.X.X.X.H X.V ` X.X.H X.V H X.X.H V V X.X.X.X.V V H H O. .H H X.X.X.H X.H H X.H H X.H X.H H V X.H H H V H X.V X.H H H H X.H H H X.H H V X.H H H H H H H H X.H H V H H H H H H H H G H D H H H G H H H H H H H H G G H G H H G H J H G V G H G H B G G G G H G G H V G B H G H B H H G G V H H B H H G G G G G G G G H H G G G B D G B G G B G G H D V G G B G G G G G G G B B G G G G G G B G G B V B B V V B B B G B B G B B B B B B B G B G B B B G B B G B G B B B B G c G B B B B B G B G B B B G B c G B G B B B B B B B B B c B B B B B B c B S G c G c G S c G c c c c B c B c c c G c c S B c c B c c c G c c G c G B c c c B c B c c G c B c G c c B c B c S c S S S c G G S c S S c c G c S G c c S c S c S S c G c c S c c c c c c c M c c c c c c c c c c c c c c c c c c z c z c c c c z c x c c c c k S c c c c c c c x x c c c c c c k c c c c x c S x x c c c c k c c x S c c x S c c c c c k x c x c c c c c c c x c c c c z c x c c c c x c c x x c c x c c c c x c c l c c c c x c l c l c x z z x c x c l c l x c x c x c l c c x c x x x x x x x x x x c x A x k c x x x x c x S k x x x x x A x c x c x x A A k x x x x A k x S x x x x x j l c x x x x x x x x x x x x x x x x x x A x x x x x x x x x x A x x x x x x A x x x x C x x x x x x x x l x x l x 8 8 x x x x 8 8 x 8 A x 8 8 x x 8 8 x x 8 x 8 x 8 8 A x x 8 x A 8 x x x 8 8 x 8 x 8 x x 8 8 x q 8 8 x q A 8 8 8 x x 8 8 x x 8 8 x A 8 8 x x 8 8 8 x 8 6 x 8 8 x x 8 8 8 8 x 8 8 8 q 8 8 x 8 x 8 8 8 x 8 x x 8 x x 8 x 8 8 l 8 8 8 8 6 8 x 8 6 x 8 6 8 8 8 6 x 8 l 8 8 8 8 8 6 x 8 8 8 8 6 6 x 8 8 8 8 6 x 8 8 8 8 8 6 x 6 8 8 8 8 8 6 8 8 6 8 6 x 8 8 8 6 6 x 8 8 6 8 x 8 8 8 8 6 8 8 8 x 8 8 x 6 x 8 8 8 8 8 8 l 8 8 8 6 8 8 8 8 6 6 8 8 8 6 8 6 8 6 6 8 6 8 6 8 6 8 6 6 6 8 8 6 8 6 8 6 6 8 8 8 7 8 8 8 8 8 7 8 q 7 7 8 8 7 8 7 q 7 7 8 q 7 8 8 7 8 7 8 8 8 7 7 8 8 0 7 8 q 7 8 8 7 7 8 7 q 8 7 7 7 q 7 8 7 7 8 5 7 8 7 6 8 7 6 7 6 5 7 8 5 8 5 7 7 6 7 8 5 5 8 7 6 5 7 7 6 5 7 6 7 7 5 5 5 7 7 7 7 7 8 7 7 7 7 8 7 7 7 7 7 7 7 7 7 7 7 7 7 7 7 7 7 7 7 7 7 7 7 7 7 7 7 7 7 7 7 7 7 7 7 7 7 7 7 7 7 7 7 7 7 7 7 7 7 7 7 7 7 7 7 7 7 7 7 7 7 8 7 7 7 7 7 7 7 7 7 7 7 7 7 7 7 7 7 7 7 8 7 8 7 7 7 7 7 7 7 7 7 7 7 7 7 7 7 7 7 5 5 5 7 5 5 5 7 5 7 7 7 5 7 7 5 7 5 5 7 5 7 7 7 7 7 7 5 5 5 7 7 5 7 5 5 7 5 5 7 7 5 5 5 5 7 7 7 5 7 7 5 7 5 5 7 7 7 7 7 7 7 7 7 5 7 5 7 7 5 5 < 5 5 5 7 7 5 < 7 5 7 7 5 ",
"%.%.%...o.@.o.%.o.%.o.%.%.o.o.} +.o.o.o.o.o.%.o.o.%.o.o.o.%.o.o.+.%.o.o.o.%.%.o.o.%.o.%.%.o.o.o.+.o.o.o.o.o.+.+.X.o.o.o.o.o.o.o.X.o.o.o.X.o.o.o.` o.` o.` X.o.X.X.' X.o.o.X.o.o.X.o.o.o.o.o.X.o.' o.X.o.o.X.' o.o.X.' o.` o.o.o.o. . .O.X.o.X.o.O.O.X.X.X.X.X.X.X.o.X.X.X.o.X.o.o.X.X.X.X.o.X.X.X.X.o.X.o.X.X.` X.X.X.X.o.` X.` X.X.X.O.X.X.X.X.X.X.X.X.X.X.X.O.X.X.X.X.X.X.X.X.X.X.X.X.X.X.X.X.X.X.X.X.X.X.X.X.H X.X.X.X.X.H X.X.X.X.X.X.X.X.H X.X.X.H X.X.X.X.X.X.H X.X.X.X.X.V V X.X.X.H H X.X.` ` X.X.X.X.X.X.H V X.V X.X.X.H H H H X.K X.H H H X.H X.H X.H H H H X.H H H H H H X.H H H H X.H X.H H X.V H H X.H H H H V H H H H H H H H H X.H H X.V H H X.H H H J H H H H H H G H G D G H H H H G G F G H H H G B H G H G V G H H G G V G V V G H V G G G G V G H G B H B H G G H H G G H G J H H G H G G B G B V G H G G B B G G B B H G B G B B G B B G G G G G G G G G G B B V B B B V B B G c B B B G B c G B G B B B B G B B G B B B G G B G B B G B G G B G B B B B G G B B G B B B G G B B B B B G B B B B B B B B G B B S G c c G c S G c G B c c B c B B c c B G c c B B c c B S c B c c B c c c B S B c c S c c c G c B c S B c c S S c S c S c S c S S c c S c S S c c S S c c S G c c S c S S c c c c c c c B c c c c c c c c c c c c c c c c c c z c z c c c c c c c c c c c z c c c x x S S x c c S c c c k S c c c x x c c A x c c c c c c c c c c x c x c x c c k c x c k c c l x c l c c x c c c x x c c c c x l c c x c x x c z x c x x c x c c x c x x c c x c x c x c x x c l c x z x c c x c x c x c x x x x c x A x c x x x x S x x k x x x x k A c x x x A x c x c x x x x x c x x x x x x x c x c x x A x c x x k x x x x c x c l x x x A x x x x x A x x x x x x x x x x x A x x x x x x x x x x x C x x x x A x x x x 8 x x x x x x 8 x 8 x 8 x x x x x x 8 x x 8 8 A 8 8 8 x x 8 8 x A 8 8 x x 8 8 x x 8 8 x x 8 8 x x 8 8 x x 8 x 8 x 8 8 x 8 x x x 8 A x x 8 A q 8 8 8 x 8 8 x x 6 8 x x l 8 x 8 8 8 q q 8 8 x x 8 x x 8 x 8 x 8 x 8 8 8 8 q 8 8 8 8 8 8 x 8 8 8 8 8 x 8 8 x 6 8 8 x 8 8 8 8 8 8 8 x 6 6 8 8 8 8 6 x 8 8 6 8 8 6 8 8 8 8 8 x 6 8 6 8 8 8 8 x 8 8 8 6 x 8 x 8 8 8 8 6 8 8 6 8 8 x 6 8 8 6 6 8 8 x 6 8 8 8 8 x 6 x 6 6 8 6 8 6 8 x 8 x 6 6 8 8 8 8 6 6 8 6 8 6 6 6 8 6 8 8 6 8 6 8 6 8 6 8 6 8 6 6 8 6 8 6 8 6 6 7 8 8 8 7 8 8 8 8 7 7 8 7 8 7 8 q 7 8 7 0 7 8 7 7 q 7 7 7 8 8 7 q 7 8 0 8 8 8 7 7 8 8 8 7 q 7 8 7 8 8 8 7 7 8 7 6 7 8 5 5 7 7 5 7 5 7 7 8 5 5 7 7 7 8 5 7 8 5 5 7 7 5 7 7 6 7 5 6 7 5 7 6 5 8 8 7 7 7 7 7 7 7 7 7 7 7 7 7 7 7 7 7 7 7 7 7 7 7 7 7 q 7 7 7 7 8 7 7 7 7 7 7 7 7 q 7 7 8 7 7 7 7 7 7 7 8 7 7 7 7 8 7 7 7 7 7 7 7 7 7 7 0 7 7 7 7 7 7 7 7 7 7 7 q 7 7 7 7 7 7 7 7 7 7 7 7 7 7 7 7 0 7 7 7 7 7 7 7 7 7 7 7 7 7 7 7 7 5 7 7 5 5 7 7 5 7 5 7 5 7 7 < 5 5 7 5 < 7 5 5 5 5 7 < 5 7 7 7 5 7 7 5 5 7 7 5 5 5 7 5 7 7 5 5 7 7 5 7 < 5 5 5 7 5 7 < 5 7 5 5 < 5 5 5 7 7 5 7 7 5 7 5 7 5 7 5 5 5 7 < 7 ",
"%.o.o.%.o.o.%.o.%.' %.o.o.o.%.o.o.%.o.%.o.+.o.o.+.o.%.o.+.o.%.o.o.o.%.o.o.o.o.o.o.o.o.o.o.o.%.o.o.o.+.O.O.o.o.o.o.o.o.X.o.o.o.o.o.o.X.o.o.o.o.X.o.o.o.o.o.o.o.' o.o.o.o.o.o.o.` ' o.X.o.X.o.o.' X.o.X.o.o.X.o.X.o.o.o.X.o.o.X.X.o.O.O.o.X.O.O.o.o.X.o.O.o.X.o.X.X.X.o.o.X.X.X.X.X.X.o.X.X.X.o.X.o.X.o.X.X.X.X.X.X.` o.X.X.X.X.X.o.X.X.X.X.X.X.X.X.O.X.X.X.X.X.X.X.O.X.X.X.O.X.X.X.X.X.X.X.O.X.X.X.X.H ` X.X.X.X.X.X.` X.X.X.X.X.H X.X.H X.H X.X.` X.X.X.X.H H X.X.X.X.X.X.V H X.X.X.X.V X.` X.H H X.H H ` H V X.X.X.X.X.V X.H ` K  .X.H X.H H H X.H K X.K H X.H X.H H H X.H X.V H X.H V X.H H H H H H H H H H H H H H H H X.H H H V X.H H H H H H H H H H H H H H G H H H D H G F H J H H H G H H G H F G H G H H G V B B H H B H G G V G H G G G H G G V G H V H G B H B H H B G G G J H G H J G G G G G G G G G H D G G B G B H G G G G G G G G G G G J G G c B G G B G G B G V B B B B B B M B B G B B G B B G B B B B G B G B B B B G B B B B B B B B B B B B B B B B G B B B B B B G B B B B B B B B B G k B B B B B B B c c G c c G S c G G c B B c B c B B S c B B c c B B c c G B c B B c G c G c B c G B c B c B B c B c B c c B c B c S c S c G c S c S c S G B S S c c S S c S c S c c S c S S c S S c c c c c c c c c c c c c c c c M c c c c c c z c c c c c c c z c z c z c c c c c c c c c c k c c x c c c x S x x c c c c c c k k c c c x c c c c x c c c c c c x c S x k c c x c x c c c x x c c x x c c x x c c c x c c x c c c c x c x c c x c c x c c l c c l c l c l c x z c x c x c x c x l c l c x z x c c x x x x k x x x c c x x x x x c x c x x x x x x c x x x x x x c x c x x x x c x x S x x x x x x k x x x x x x x x x l x x x x x x x x x A x x x x x x x x x A x A x x x x x x x A x x x x x x x x x x x x x x x x x x x x x l x x 8 A 8 x 8 8 8 8 x 8 A 8 x x x 8 x x A x 8 x x x 8 x x 8 8 A x 8 8 x x x 8 A x 8 x x A 8 8 x 8 x q 8 C 8 q x 8 x x 8 8 8 x 8 x 8 A A 8 x x 8 8 x x 8 6 x l x 8 A x 8 8 x 8 8 8 q 8 8 8 8 q 8 q 8 x x 8 x x 8 x 8 x 8 8 6 6 x l 8 8 8 l 8 8 8 6 8 6 8 8 l 8 8 8 8 6 8 8 6 x 8 8 8 6 8 8 x 8 6 8 6 x 8 8 8 6 8 8 x 6 8 8 8 6 6 8 8 8 8 8 6 6 x 8 8 x 6 8 x 6 8 6 8 8 6 8 8 x 6 8 8 8 6 x 6 8 8 6 8 8 8 x 8 8 8 6 6 8 8 x 8 8 8 l 8 6 8 8 8 8 6 8 6 8 6 6 8 6 8 6 8 6 8 6 8 6 8 8 6 8 6 8 6 6 8 8 8 7 6 8 8 7 8 7 q 8 7 8 0 8 7 7 8 7 8 8 8 7 8 8 7 8 7 q 7 7 7 8 7 7 7 8 7 7 8 8 0 7 7 7 7 8 7 7 8 7 4 7 8 7 q 8 5 5 7 7 6 7 6 6 7 8 5 5 7 7 6 6 7 5 7 7 5 7 8 6 7 8 5 7 7 5 8 7 5 8 7 7 7 5 7 8 7 7 7 7 7 7 7 7 7 0 7 7 7 7 8 7 7 7 7 7 7 7 8 7 7 7 7 7 7 7 7 7 7 7 7 7 7 7 7 7 7 7 7 7 7 q 7 7 7 7 7 7 7 7 7 7 7 7 8 7 7 7 7 7 7 8 7 7 7 7 7 7 7 7 7 7 7 7 7 7 7 7 7 7 7 7 7 7 8 7 7 7 7 7 7 7 7 8 7 7 7 7 7 8 7 7 7 7 7 7 7 7 5 7 5 7 5 7 5 < 5 5 7 5 5 5 5 7 5 5 7 < 5 5 7 7 5 7 5 7 5 5 5 5 5 7 7 5 7 5 5 7 7 5 7 7 5 7 5 5 5 5 5 5 < 7 7 7 5 5 5 5 5 5 7 7 7 7 7 5 7 5 7 5 7 7 5 7 7 5 5 5 5 5 5 ",
"%.%.o.%.%.' %...%.' %.o.%.o.%.o.o.o.%.o.o.o.o.%.o.o.o.%.o.o.+.o.o.o.o.%.%.o.o.o.%.o.%.+.o.o.o.+.+.o.o.o.o.+.+.o.o.o.o.o.o.o.o.o.o.o.` o.o.o.o.o.' X.o.X.o.X.o.X.X.o.o.' o.o.X.o.o.X.o.X.o.X.o.X.o.o.X.o.o.X.o.o.' X.' o.X.o.o.o.X.O. .O.X.O.X.X.X.O.O.o.X.o.X.X.X.X.o.X.X.X.X.X.o.X.o.X.o.X.X.X.X.X.X.X.o.X.o.` X.X.X.X.` o.X.o.X.O.X.X.X.X.X.X.X.X.X.X.O.X.X.X.X.X.X.X.X.X.X.X.X.X.X.O.X.X.X.X.` X.X.H X.X.V X.X.X.X.X.X.H X.X.X.X.H X.H X.H X.H X.H X.X.X.` X.H X.H X.X.X.H X.X.V V X.V V X.H H X.X.X.X.H ` X.V V X.X.X.X.V X.H H X.H X.H K X.H X.H K X.X.H H H H H H X.H X.H H V H H H X.V X.H H H X.H H X.H H H H V H H X.H H X.H H X.H H H H H H H X.V H H G H D H G H H G H H G H G F J H G H J H H H G H H B V H G G H G B H G V G H G H G H V G H G B H G G H G H B H H H H G G G G H G G G H G H B F B G G G G G G G D G B G B H G H G G S G B G G G G G B B G B G G B B B B B B B B B B G B B G B G B B B B B B B B B G B G B B G B G G B G B B B B G c G B B B G B G G B G B B G B G G B G B B B B B B B M B B B B k B B S G c G G c c S G c B c B c c B c G c c B c c G c c B c B c c G c c c c B c c B B c c B c c G c B G G c B c c G S c G S c S c S c G c S c S S c c S c S c G S c S c S c G c B c c c c c c c M c c c c c c c c c c c z c c c c z c c c c c c c c z c c c c c x S c c x S c c c c c x S c c c c c c c x k c c S c x k S c k A c c x S c c x c c c c x c c k x x c c x x c c x x x c c l c x x x c c x c z c l x c c c x c c c l c c c x c c x c x c x c x c x l c l c l c x z x c x c c x c l x x x x x x x x x x x x x c x c x x x x S x c x c x x x x S c x x x x x x x x x x c x c c x x k x c x x k x x x x x x x c x x x x A x x x x x x x x x A x x x x x x x x x A x x A x x x A x x x x x x C x x x x x x x x l x x x 8 x 8 x 8 A 8 A x 8 A 8 x 8 x 8 x 8 A 8 8 x 8 x 8 x x 8 8 A x 8 8 x x 8 8 x x 8 x 8 x 8 8 x x 8 C 8 A 8 8 A 8 8 x 8 x 8 x 8 x x 8 x 8 8 x 8 8 x 8 x 8 x 6 x l 8 x x 8 8 8 8 x x x q x 8 x 8 x 8 8 8 x 8 x 8 8 8 8 8 8 8 x 6 8 6 8 6 8 8 8 8 8 x 8 8 l 8 8 6 8 8 8 6 6 x 8 6 8 8 8 8 x 6 6 x 8 6 8 8 8 l 8 8 8 8 8 8 6 x 6 8 8 8 x 8 6 8 6 8 8 6 8 8 x 6 8 l 8 8 6 8 8 x 8 8 x 8 6 6 8 8 8 6 x 8 8 8 8 6 8 x x 6 8 8 6 8 8 8 8 l 8 8 6 8 6 8 6 6 6 8 6 8 6 x 6 8 6 8 6 8 8 6 8 6 6 8 6 8 6 8 6 8 8 8 8 8 8 7 8 8 8 7 8 7 7 7 q 7 8 7 8 7 7 8 7 8 7 7 q 7 7 8 7 q 7 q 7 7 8 0 8 7 7 7 8 7 8 7 8 0 7 7 7 7 7 5 7 7 5 5 5 8 8 5 7 7 7 6 8 5 7 7 5 8 5 8 5 7 8 5 6 7 5 5 5 8 5 7 6 7 7 5 8 6 5 7 7 7 7 7 8 7 7 7 7 7 7 8 7 7 8 7 7 0 7 7 7 7 7 7 7 0 7 7 7 7 7 7 7 7 q 7 7 7 7 7 7 7 7 7 7 7 7 7 7 7 7 7 7 0 7 8 7 7 7 7 7 7 7 7 7 7 7 7 7 7 7 7 7 8 7 7 7 7 7 7 7 7 7 7 7 7 8 7 7 7 7 7 7 7 7 7 7 7 7 7 7 5 7 7 7 5 7 7 7 5 7 < 5 7 7 7 5 7 5 5 5 7 5 7 7 5 7 7 5 7 5 7 7 5 7 5 7 7 7 7 5 7 5 7 7 5 7 5 7 5 7 7 7 < 5 7 5 7 7 5 5 5 7 7 < 5 5 5 7 5 7 5 5 5 5 5 5 7 5 5 7 5 7 7 5 5 7 5 5 7 5 5 7 5 7 5 7 7 ",
"%.o.%...o.%.o.%.o.%.o.%.' %.%.' o.%.o.o.o.%.o.o.%.o.o.o.%.o.o.%.%.o.o.o.o.+.o.%.o.o.o.o.o.%.o.%.o.o.+.o.O.o.o.o.o.X.o.o.X.o.o.X.X.o.o.o.` o.o.X.o.o.o.o.' o.o.' o.o.X.o.` o.' o.o.X.o.' o.' o.o.X.o.o.' o.o.X.o.o.o.o.X.X.o.o.X.o.o.O. .o.O.o.O.O.o.X.X.X.X.o.X.X.o.X.X.X.o.X.o.X.X.X.X.X.X.o.X.X.O.X.o.X.` X.X.` o.X.X.X.X.X.X.X.X.X.X.X.O.X.X.O.X.X.X.X.X.X.X.X.X.X.X.X.X.X.X.X.X.X.X.X.O.X.X.X.X.X.X.X.X.X.X.X.X.H X.X.` X.X.X.H X.X.X.X.X.X.X.X.X.X.X.H H X.X.X.X.X.X.H X.X.X.X.X.X.X.X.` X.` X.V X.` X.H H X.X.X.V H ` X.H  .H K  .H H X.H X.H X.X.H H X.H X.H X.V H H H H H X.H X.H H H H H H H V H H V H H H H X.H H H H H H H H H H H H H X.H H H H H H H H H G H G G H H D H G H H H H H H F H H G G H H G G G H H G V H B G H G G G V V G G H V G H G V G G V H B B H G J G H G G G G G H G G G G G B B G F B G B B H G G G G G B B G D B G G G G G G G G D G G G B J V B V B V B B B B B B G B B B B G B G B B G B G B B B B B G B B B B B B G B B B G B B G B B B B B B B B B B B B B B B B B B B M B B B B B B B G c B B c G c S G G c c G c B c B c c B c c B c B c c B c c B c c B c c B G c c B B S c B B c c B c c c c c B c B S c c S c S S c S c S c S c S S c G S B S c S S S S c S G S c S c c c B c c c c c c c c c c c M c M c c c c c z c c c c c c z c c c c c c c z c c k c c S k c c A k c c c k c c S k c S c S c S S x c c x c c c c c S k c c c c x c c S x c c c z c x c c x c c c z c x c c c c c x x c c x c x x c x c c l l c x c x c c x x c x c l c x z x c c x c x c x c x c z x c l c x c x S k A k x c x x c x S x x x x k x x c x x x x x x c x x x x x x A k x x S x k x x x x x x A x x x x k x x x x c x x x x x x x x x x x x A x x x x x x x x x x x x x A x x x x x x x x x x x x C x x j x x A x x x x x x x 8 x x 8 x x x 8 x 8 8 A 8 x 8 x 8 x x x 8 x x 8 8 x x 8 8 x x 8 x x x x 8 x x 8 8 A x 8 8 A x 8 x x 8 q 8 x 8 A 8 C x x 8 x 8 A x 8 x q A 8 8 6 x 8 x 8 x 6 x l x 8 8 8 A 8 8 x 8 q 8 8 8 8 8 q 8 8 x 8 8 q 8 8 x 8 8 x 8 x 8 8 8 8 6 x 8 8 8 8 8 6 8 8 8 8 6 x 8 8 x 8 8 8 8 x 8 6 8 8 6 8 8 8 8 8 6 x 8 8 8 8 8 6 6 x 8 8 8 8 6 x 6 8 6 x x 8 8 8 8 8 6 8 8 8 8 8 x 8 6 8 6 8 6 8 8 x 8 8 8 8 6 8 8 8 8 6 8 6 8 8 8 8 8 6 6 x 8 8 8 6 6 6 8 8 6 6 8 6 8 6 6 6 8 6 8 6 8 6 6 8 6 8 8 6 8 6 8 6 8 8 8 5 8 8 8 8 8 8 0 8 7 8 8 7 7 8 7 7 0 8 8 7 8 0 7 8 7 8 7 q 8 7 8 7 7 8 7 8 7 8 q 8 7 q 7 8 7 8 7 7 7 8 7 8 7 8 7 8 7 5 5 7 6 7 7 7 5 7 6 7 7 5 7 7 7 6 5 7 7 5 8 8 7 5 8 5 5 7 7 6 5 7 8 7 6 5 7 7 7 7 7 7 7 7 7 7 7 7 7 7 7 7 7 7 8 0 7 7 7 7 7 7 7 7 7 7 7 7 7 7 7 7 8 7 7 7 8 7 7 0 7 7 7 7 7 7 7 7 7 7 7 7 7 7 7 7 7 7 7 7 7 7 7 7 7 7 7 7 8 7 7 7 7 7 7 7 7 7 7 7 7 7 7 7 7 7 7 7 7 7 7 7 7 7 5 7 7 5 7 5 7 7 5 7 5 7 7 5 5 7 7 5 < 7 5 7 7 7 5 7 5 7 5 7 7 5 5 7 7 7 5 5 5 7 7 5 7 5 < 5 7 7 5 5 7 5 7 5 5 7 7 5 7 7 < 7 7 5 7 5 7 5 5 7 5 7 < 7 7 7 7 5 7 7 7 7 5 7 7 7 5 7 7 5 7 7 7 7 7 5 5 7 ",
"%.o.o.%.o.o.o.%.o.%.%.' o.%.o.%.o.o.o.o.%.o.+.o.o.o.o.%.o.o.%.o.o.%.o.%.%.o.%.o.o.o.%.o.%.o.o.o.O.o.+.o.o.o.o.o.X.o.X.o.o.o.o.o.o.o.o.X.' o.o.o.o.X.o.o.o.X.X.o.o.' o.X.' o.X.o.o.' o.X.o.X.X.o.o.X.o.o.' o.o.' o.' X.o.o.X.o.o.X.o.X.o.O.X.o.X.o.X.o.O.X.X.X.X.X.X.X.X.o.X.X.X.X.o.o.X.o.X.o.X.o.X.o.X.o.X.X.X.X.X.X.X.X.X.o.` X.X.X.X.X.O.X.X.X.X.o.X.X.X.X.X.X.X.X.O.X.X.O.X.X.X.X.X.X.X.X.o.X.` X.X.X.X.X.H X.X.` X.X.H X.X.X.X.X.X.X.X.X.X.X.H X.H X.X.X.X.X.H V X.X.X.X.X.V X.X.V V X.H X.X.H V X.H X.X.X.H X.X.V H X.X.H H H H X.H X.X.H H X.H H H H H H X.V X.H H H X.V X.H H H H X.H H H X.H H H H H H X.H H H H H H H H H H H H H X.H H H H H H H X.H G H H H H G H H G H H G G H H G H H H G G H G F H G V B B H G B G H G G H V G G G G H B G G V G B H G H B H G H G G G G G G G H H J G H G G G B G G G G G G G G G F G G G B H G G G G G B G J G G G G G G B B B B B B B B B B B B G B B B B G B B B B G B G B B B B G B G c G B B B G B G B B G B B B G B G B B B B G B B G G B B B G B B B B B B B B B B B B c B S G c c G B c c G G c c c c B B c G B B B c c B c S B G B c G c B B c c B B c c B c c c B B c c B B c c B B c c S S c S c S S S c S S S c S c S S c S c c S c c S c c c S c S c c c c c B c c c c c c c c c c c c c c c c c c c x c c c z c c c c c c c z c z x c c c x c c x c c x c x c c c x c c x c c c x c c x c S c c c c c x c x c x c c c c k c c x c c x x c c l c x c x x c c x x c c x c c x x c c c c x x c c x c c c x l c c l c z x c x c l c l l c x z l c x z l c x l l c c x x x x x A x x c x x x x x c x x A x c x x x x x c x k x x x x x c x x c x x A x k A c x x x x x x c x x x x x j x l c x x x x x x x x x x x x A x x x x x x A x x x x x x x A x x x x x x x A x x x x x x x x x x x x x x x x x x 8 A 8 x 8 x x x x 8 x x x 8 x 8 x 8 x 8 x x 8 x x x 8 8 x x 8 8 A x 8 8 x x 8 8 x x 8 x 8 8 q q 4 9 8 A 8 8 x 8 x 8 x x x x x x 8 8 8 x 8 8 x x 8 8 8 8 x l 8 x 8 8 8 8 q 8 x 8 x 8 A q 8 A 8 8 q 8 A 8 A 8 x 8 8 8 x 8 6 8 8 8 8 x 6 8 8 6 8 6 8 8 8 8 8 x 6 6 8 8 8 6 8 x 6 l 8 8 8 8 6 x 6 8 6 x 8 8 8 6 x 8 8 8 8 8 8 8 8 6 x 8 8 8 6 8 8 x 6 8 8 8 8 8 x 8 8 8 8 x 6 8 6 8 8 6 x 6 8 8 8 x 6 8 x 8 6 x 8 6 8 8 x 8 8 x 8 8 6 6 8 6 8 8 6 6 8 6 8 6 8 6 8 6 8 6 8 8 6 8 6 6 8 8 6 6 8 8 8 5 8 5 8 7 8 8 8 8 7 8 0 7 8 8 7 8 8 7 8 7 0 7 8 7 8 7 8 8 7 7 q 7 8 8 7 7 7 8 7 7 8 7 7 7 q 8 7 4 7 7 8 7 7 7 7 5 8 7 6 6 7 5 7 5 8 6 7 7 5 6 7 7 6 7 7 7 6 5 8 5 7 6 7 8 5 8 5 7 7 8 5 5 7 5 8 7 7 7 7 0 7 8 7 7 7 7 7 7 7 7 7 7 7 7 7 7 7 7 8 7 7 7 7 7 7 8 7 7 7 7 7 7 7 7 7 7 7 7 7 7 7 7 8 7 7 8 7 7 7 7 7 7 7 7 7 7 7 7 7 7 7 7 7 7 7 7 7 7 7 7 7 7 7 7 7 7 7 7 7 7 7 7 7 7 7 7 7 7 7 7 7 7 7 5 5 < 7 5 7 7 7 5 7 7 7 5 7 5 7 7 < 7 5 7 7 7 5 5 7 5 5 7 5 7 7 5 7 < 5 5 7 7 7 < 5 7 7 7 7 5 7 7 5 5 5 7 7 7 7 < 5 5 7 7 5 5 5 7 7 7 5 7 7 7 7 7 5 5 5 7 7 7 5 5 7 7 5 5 5 7 7 7 7 5 5 5 7 7 7 7 5 ",
"%.%.%.o.%.' %.o.%.' o.o.%.' %.o.o.%.+.%.o.o.o.%.o.%.o.o.%.o.o.o.o.+.o.o.o.o.o.o.o.%.o.o.o.o.o.%.+.o.o.o.+.o.o.o.o.o.o.o.o.o.X.o.o.o.o.o.X.X.o.o.o.X.' X.o.o.o.o.o.X.o.o.X.X.o.o.o.X.o.o.' o.' o.' o.o.X.X.o.X.o.X.o.o.o.o.' o.X.o.O. .O.o.X.O.O.o.X.X.O.o.X.o.X.X.o.X.o.X.X.o.X.X.X.O.X.X.X.X.X.X.X.X.X.X.X.X.` X.X.o.` X.` X.X.X.X.X.X.X.X.X.X.X.X.X.X.X.X.X.X.O.X.X.X.X.X.X.X.X.X.O.X.X.X.X.X.H X.X.X.X.X.X.X.` X.X.X.X.X.X.X.X.X.V X.H X.H X.X.X.X.X.X.H X.X.X.X.X.X.X.X.H X.V X.H X.X.X.V X.V X.X.X.V X.H ` X.V X.X.X.X.H X.X. .H H X.H H K X.H X.H X.X.H X.H H H H V X.H H H H V X.H V X.H H H H H H X.H H H H H H H X.H H H V X.H H H H H H H V X.H H H H H G H H J H H D H G H H G H G H H G G H H H G G H G G H G H H B V G G V B H G H G H B H H G G H H B H G H H B G H G G G H G H J G G G G G G H B B G G B H B G G G B G B G G D B B G G B G G M G G B B G G D B B V M B V B B B B B B B G B G B B G B B B B B B G B G B B B B B B B G B B B B B B G B B B B B G B B G B B B B B B B G B B B B B k B B B B c B B G c G c G c S S B S c G S B c B c c B c c c S B c c B B c c c B c c c B S c G c B c c G c B c c G G c c c G c c c G S c S c S c c c G c S c S c G S c S c G S c S S c G S S c S c c c c c c c c c c c B c c c B c c c c c c z c c c c z c c c c z c c c z c c c c S c c x c c c c c c c c S c x c c c c c x c c c c c c c c c x c x c c c S k S c c c c c x x c k x c c x c c c l c c x c c x c c l c c x c c c x c l c c x c c x c x c c x c c x x c l c x c x c c x c x c x c x c x c x c x c z x c x c x x x x c x A k x x c A x x x x k A x c x x A x c x k A x x x x c x c x x x x x x c S x x x x c x x k x x x x x x x x x x x x A x x x x x A x x x x x x A x x x x x x x x x A x x x x x x x x A x x x x A x x x l x x 8 8 x 8 x 8 x 8 x 8 x x 8 x 8 A 8 x 8 x 8 x x 8 A 8 A 8 x 8 x 8 x x 8 A 8 x 8 x x x x 8 A 8 x x x x A 8 9 8 8 A 8 x 8 x 8 x x x 8 x 8 x x 8 x 8 x 6 x 8 x l x x 8 8 8 A 8 x 8 8 q 8 8 8 8 x 8 x 8 x 8 8 8 8 8 8 x 8 x 8 8 8 6 x 8 x 8 8 6 8 6 x 8 x 8 6 6 x 8 6 8 8 8 8 6 x 8 8 8 8 8 8 6 x 8 8 8 8 8 6 8 x 6 8 8 8 6 x 6 8 l 8 8 8 6 8 8 8 6 x 8 6 8 8 6 x 6 8 6 8 8 l 8 8 8 8 6 x 8 8 6 x 8 6 6 6 8 8 8 8 8 6 8 x 6 8 8 8 6 6 8 8 6 6 8 6 8 8 6 8 6 8 6 8 6 8 6 8 6 6 8 6 8 6 8 8 6 6 8 6 8 8 8 8 8 8 8 8 8 8 8 7 8 7 8 7 7 q 7 0 8 7 7 8 8 8 7 8 0 8 7 7 8 7 7 8 7 7 q 8 8 0 8 7 7 8 7 8 7 7 8 8 7 7 7 7 7 7 8 7 5 7 7 7 5 8 7 7 5 7 7 6 8 5 7 5 8 5 6 7 7 7 7 6 7 7 7 5 5 8 7 6 7 5 7 7 6 5 8 7 7 7 7 7 7 7 7 7 7 7 7 7 7 7 7 7 7 7 7 7 7 7 7 7 7 8 7 7 7 0 7 7 7 7 7 7 7 7 7 7 7 8 7 7 7 7 7 7 7 7 7 7 7 7 7 7 7 7 8 7 7 q 7 7 8 7 8 0 7 7 7 7 0 7 8 7 7 7 8 7 7 7 7 q 7 7 7 7 7 7 7 7 7 7 7 7 7 7 7 7 5 7 5 7 7 7 5 5 7 7 5 7 7 5 5 7 7 7 7 5 7 7 5 5 < 7 7 5 7 7 5 5 5 7 7 5 5 5 5 5 7 5 5 7 5 5 < 7 7 7 5 7 5 5 5 7 5 5 7 7 7 5 7 5 7 7 5 7 5 5 7 7 7 5 7 < 7 7 5 7 5 5 < 7 5 5 7 5 5 < 7 5 7 5 5 ",
"%.o.o.%.o.%.%.o.%.' %.o.o.%.} o.o.+.%.o.o.o.+.o.%.o.o.o.o.o.%.o.o.o.o.+.o.o.o.+.o.O.o.o.o.+.o.o.O.o.o.o.o.o.o.O.o.X.o.o.o.X.o.o.o.o.o.X.X.o.o.X.o.o.o.o.o.o.X.o.' o.X.X.o.' o.o.o.o.` o.o.X.o.o.' o.o.o.o.X.o.X.X.o.X.o.' o.o.o.o.X.o.O.o.O.X.X.X.o.X.X.o.X.o.X.X.X.o.X.o.X.X.o.X.o.X.X.o.X.X.X.X.X.X.X.X.X.X.X.X.X.X.o.X.X.` X.X.X.O.X.X.X.X.X.X.O.X.X.X.X.X.X.O.X.X.X.X.X.X.X.O.X.X.X.X.X.X.X.X.X.X.X.X.H X.X.H X.X.X.X.` ` H X.X.X.X.H X.X.H X.X.X.X.X.X.X.H X.H X.X.H X.H X.X.X.H X.X.V X.H X.H H H X.H H X.X.H H K X.H H X.H K H X.H H X.H X.H H X.H H H X.V H H X.H X.V H H X.H X.V H H X.H H V H H H H X.H H H H H H X.V H H X.V H H H H H H X.X.K H H H H G H F H G H H G H H G H H G H H G H F H H D H H H G H G G H V B H G H H G G V G V B H B H H B G H G G V G G V G G G G G G G G H G G G G G G G G G G G G B F B B G G G F B G G G G G H G B H B G B G G G B B B B B B B B B B B B B B B B G G B B B B B B B G B G c B B B B B G B B B B B G B B B G G B B c G B c G B B B B G B G B B B k B B B B B B B B B c G c G c G c c G c c B B B c M c B c B S c c c B c S c c G G c S S B c B c B c B B c B c B c c B c G c c B c S c c S G c S S S c G S S c S S B S c c S G c c S S c c S S c c S S c c c c c c c B c c c c c c c c c c c c z c c c c c c c c c c c x c c c c c z c c S k c x A k c S c c c c c c x c k c c c k c c c c c c c c c x c S S c c c c c k c c x k S c c x x c x x c c l c c c x c x c z x x c c c x c c x c x x c c x c c c x c c x c c l x c l c x c x c x c x c l c x c x c x c x c x c x x x x x c S x x c x x S x x k c x c x x S x c c x k x x c x A c x S x x x k x c x A x x x x x x x A S x x x x x x x A x x x x x x x A x x x x x x x x x x x x x x x x x x A x x x x x x x x x x x x x x x x x x x x 8 x l x l 8 x x 8 x 8 x 8 x 8 8 A x A 8 x 8 8 x 8 x 8 x 8 x 8 x 8 x x 8 A x 8 x x 8 x 8 A 8 8 x 8 x 8 A 8 8 8 x 8 C A 8 x x 8 A 8 x x x x 8 8 8 j 8 8 x 8 8 x 8 x 6 8 8 x 8 x 8 q x 8 A 8 q x 8 x 8 q 8 q 8 8 A 8 8 8 A x 6 8 6 8 x 6 6 8 6 6 8 x 6 8 8 x 6 8 8 8 8 l 8 8 8 6 8 6 8 8 6 8 8 6 8 8 8 6 x 8 8 6 x 8 6 x 8 8 6 8 x 8 6 x 8 8 8 x 6 8 8 6 8 8 8 8 8 8 8 8 8 8 6 x 6 8 8 x x 6 8 8 8 l 8 6 8 x 6 x 8 8 8 8 x 8 8 8 8 8 8 6 6 8 8 6 8 6 6 8 6 8 6 8 8 6 8 6 8 6 8 6 8 6 8 8 8 5 8 8 8 5 8 7 8 7 7 8 8 7 8 7 8 7 7 8 7 7 8 0 8 7 8 7 8 7 7 8 8 7 7 8 7 7 q 7 7 8 7 q 8 7 8 8 8 7 8 7 7 8 5 7 8 5 7 6 5 8 5 7 7 5 6 7 5 5 7 6 7 6 8 8 5 7 5 8 5 7 7 5 5 8 5 6 7 5 8 5 7 7 5 8 7 6 7 8 5 7 6 7 5 7 7 7 7 7 7 0 7 7 7 8 7 7 8 7 7 7 7 8 7 7 7 8 7 7 7 7 7 7 7 7 8 7 7 7 7 7 8 7 7 8 7 7 7 7 7 7 7 7 7 7 7 7 7 7 7 7 7 7 7 7 7 7 7 7 7 7 7 7 7 7 7 7 8 7 7 8 7 7 7 7 7 7 7 7 7 7 7 7 7 7 7 7 7 7 5 7 7 7 7 5 5 7 7 5 7 5 5 5 7 7 5 7 7 7 5 7 7 5 7 < 5 5 5 7 7 < 5 5 7 5 7 7 5 7 5 7 7 5 7 7 5 5 5 7 7 7 5 7 5 5 7 5 7 5 7 7 5 < 5 7 5 7 7 7 7 5 5 7 5 7 7 5 5 7 7 5 5 5 7 7 5 7 < 5 5 7 7 5 7 5 5 7 5 7 7 5 ",
"%.%.%.o.%.' %.%.o.%.o.%.%.' o.%.o.%.o.o.%.o.o.%.+.o.o.%.o.%.o.o.o.+.o.+.O.o.o.o.o.+.o.+.o.o.o.+.o.+.o.o.o.+.o.o.o.o.o.o.o.o.X.o.X.o.o.o.' o.o.o.` o.X.o.` o.' o.o.X.o.o.X.o.` o.X.o.o.o.' o.o.X.X.X.o.X.' o.o.' o.' o.o.X.o.X.X.X.O.o.X.X.O.o.O.X.X.o.X.X.X.X.X.X.o.X.X.X.X.X.X.X.X.o.X.X.X.X.o.X.X.o.o.o.o.X.X.X.X.` X.X.X.o.X.X.X.X.X.X.X.X.X.X.X.X.O.X.X.O.X.X.X.X.X.X.X.X.X.X.X.X.X.O.X.X.X.X.X.` X.X.X.X.X.X.X.X.X.X.X.X.X.H X.X.H X.X.X.X.H X.X.H X.V X.X.X.X.X.X.X.X.H ` V X.X.V X.X.V X.X.H X.H H X.H H H X.X.H H X.X.H H X.H X.X.K X.H H X.X.K H X.X.H H H H V H H X.H V X.H H X.H H V H H X.H H H H H H H H X.H H H H H H H H H H H X.H H H H X.H H H G H H G H G G F H G H H G H H G G H H J H G H G G G H B H G B H H H B G B G H G H G H B H H B H V G G V G H H G G G G H H G J H G G G G G G G G G G G G G G G G G H B G G G G B G G B B G G G G G G G G V B V G V B V B B V V B G B G B B B B B B G B G B G B B B G G B G B B B G B G B B B G B B B B B B G B G G B B G B G B B B B B B B B B B M B B B B B G G B c B S G S c G B B c B B c B c B c B B B G c B c S S c c S c c c B c G c B c c G c B c S B c B c B B c c B G c S c S c c S S c c c S c c S c S S S c S G S c S S G c S S S c G c c c c c c c c c c c B c c c B c c c c c c c c c c z c z c c c z c c c c c c c x c c c c c c x k S x c x c S c S c x c A c c x c c x c c c c c c c c x x S x c S x c c x c c k c c c c c l c x x c c x c c x c c c x x c x c z x c c x c c x x c c x x c c x c z x c x c l c z c l c l c x c l z x c l z x c l c x c x x x x x x x k x x x x x x x x x x x x x x x A x x x x k x x x x x c A x x x k x x c x c x C x x A x C x x x x x A x x x x x x x x x x x x A x x x x A x x x x x x x x x x x A x x x x A A x x x x A x x x x x x x x x x x x 8 x x x 8 A 8 x x 8 8 8 x 8 A x 8 x x 8 8 A x x 8 x x 8 x 8 8 A x 8 8 x x 8 x x 8 x x 8 8 x 8 A q 8 8 8 8 q x 8 8 x x 8 8 x x x 8 8 x 8 8 x x 8 x 8 8 x x 6 q 8 8 x 8 8 x 8 8 x 8 8 8 x x 8 x 8 8 8 A 8 8 q x 8 8 8 8 8 x 6 8 8 8 6 x 6 8 8 6 8 6 x 8 8 8 8 6 x 8 x 8 8 8 6 8 x 8 6 8 8 6 8 8 8 6 8 8 8 6 6 8 8 6 8 8 6 8 8 8 8 8 6 8 6 x 6 6 8 6 8 x 6 x 6 8 8 8 8 8 6 8 6 8 8 8 8 6 x 8 8 8 8 6 6 8 8 6 6 8 6 x x 8 x 8 6 6 8 6 8 8 6 8 6 8 6 6 8 6 8 6 8 6 8 6 8 8 8 8 8 8 8 8 8 8 7 7 q 8 7 0 8 7 8 7 q q 7 7 8 8 8 7 8 8 0 7 8 8 0 8 7 q 7 7 8 7 8 8 7 7 7 7 8 7 0 7 8 5 8 8 7 6 7 5 7 7 7 7 7 7 6 5 8 7 7 7 8 7 7 5 8 5 5 6 7 7 7 7 6 5 8 5 8 7 7 5 8 5 5 7 6 7 5 5 8 7 5 7 6 7 7 8 5 8 7 7 7 8 7 7 7 7 7 7 7 7 7 7 7 7 7 7 7 7 7 7 7 7 7 7 7 7 7 7 7 7 7 7 7 7 7 7 7 7 7 7 0 7 7 7 7 7 7 7 7 7 7 7 8 7 7 7 7 7 7 7 7 7 7 7 7 7 7 0 7 7 7 7 7 7 7 7 7 7 7 7 7 7 7 7 7 7 7 7 7 5 7 7 5 5 5 7 7 7 7 5 7 7 7 7 5 5 5 7 7 7 5 5 7 7 5 5 7 5 5 7 7 5 7 5 5 5 5 7 5 5 7 5 5 5 7 7 5 < 7 5 7 5 5 7 7 5 5 < 7 7 7 5 5 5 7 7 7 7 7 5 5 5 7 7 5 7 5 7 7 7 7 5 7 5 5 7 5 7 7 5 5 7 5 5 7 < 5 7 5 7 7 < 5 ",
"%.%.o.%.%.o.o.%.' o.o.%.o.%.' o.o.o.o.o.o.%.o.o.%.o.%.o.o.o.o.+.o.o.o.o.o.o.+.o.o.o.o.o.+.o.o.o.o.o.+.+.o.o.o.o.o.o.o.o.o.X.o.o.X.o.' X.X.o.o.o.o.o.o.o.' o.X.o.o.o.o.X.o.` o.o.' o.` o.o.X.' o.o.o.o.' o.X.X.o.o.X.` o.o.o.X.o.X.o.O.X.o.X.O.X.X.X.X.X.X.X.o.X.X.X.X.X.o.X.o.o.X.X.X.X.o.X.o.X.X.o.X.X.X.` X.` o.` X.X.` X.X.X.X.X.X.X.X.X.X.X.X.X.X.X.X.X.X.X.o.X.X.X.X.X.X.X.X.X.X.X.X.X.X.X.X.X.X.X.H X.X.X.X.X.X.X.X.X.X.X.X.H X.X.V X.X.H X.X.X.X.X.X.X.H X.X.X.X.X.H X.H H X.X.V V V X.X.H H X.X.H X.X.H H H H K H X.H H X.X.H H X.H H X.H H H K X.H H H X.H X.X.H H H H H H H V H X.H X.H H H H H X.H H X.V H H H H H H H H H H H H H H H H H H H H H X.H G G H G H H G G J H D G H H D G H G F G G H H G H B H G V V G B H V G H V H G G G H H B H B H V H H G G G H G G J H G G G H G G G G G G G G H G G G G B G G G G G B G G B H G B H D G G G B G G V B G H B V B B B V B B B B B B B B G B G B B G B B B B B B B B B B B B G B G B B B G B B B B B B B B B B B B B B B G B B B B B B B B B c B B B B B B k B B k c c S G c G G S B c B B B c B B c B B c c B c c B c c S S c c S c G c B c S c c c c B c c G c B B c c B B c c B G c c S G c S S G c G S S c S c c S S c c S S c c S S c c G S c B c c c c c c c c c c c c c c c c c c c c c c M c z c z c c c c z c z c c c c x S c c c c c c c A c c c k S c c x S c c c c c c k A S c x k c c S k c c S k c c c x c c c c x c c x x c x x c c x c c l c x x c x c l c c x x c c z c c x c x c x c l c x c x c x c z c x l c x x c x c x c x c x c l c l c x c x x A k x x x x x x A x c x c x x x c x x k x x x x x x x c x x x c k x x x x x c x S x k x x x c x x A x x x x A x x x x x x A x A x x A x x A x x x x x x x x x x A x x x x x A x x x A x x x x x x x x x x x x 6 x l l 8 l x 8 A x 8 8 x x 8 x 8 8 x x 8 x x 8 A x x 8 x A 8 8 x x 8 x 8 x 8 x 8 8 x A 8 x x 8 x x x 8 x x 8 x 8 q x 8 A x 8 8 x x 8 8 A x 8 8 x 8 x 8 x x 8 x 6 x 8 x 8 8 x 8 8 8 8 8 8 8 8 8 8 8 8 8 8 q 8 8 x 8 8 8 A x 8 8 8 6 8 6 6 8 8 8 6 8 8 8 8 x 8 8 6 8 6 8 6 8 x 8 8 l 8 6 8 8 x 6 8 x 6 6 8 8 8 8 x 8 8 8 8 8 x x 6 6 8 8 8 x 6 6 8 8 8 8 x 8 6 x 8 8 6 l 8 6 8 8 8 6 8 6 8 x 8 6 8 8 8 8 8 x 8 8 8 8 x x 6 8 8 8 8 8 8 8 x 6 8 6 8 8 6 6 8 6 8 6 6 8 6 x 6 8 6 8 6 8 6 7 8 6 8 8 8 8 8 8 7 8 7 7 8 7 7 7 q 7 8 8 7 q 7 7 7 8 7 8 7 8 8 8 7 7 8 8 7 q 7 7 8 0 8 8 7 8 7 7 8 7 q 8 7 8 7 7 5 7 7 6 5 8 6 5 8 7 6 7 6 5 7 5 7 6 5 6 7 7 5 7 6 5 8 7 7 5 7 7 5 7 8 7 8 5 8 7 7 6 7 7 6 7 5 8 5 7 5 7 7 7 7 7 7 8 7 7 7 7 7 7 7 7 7 7 7 7 7 7 7 7 7 0 7 7 7 7 7 7 7 7 7 7 8 7 7 7 7 7 7 7 8 7 7 8 7 7 7 7 8 7 7 7 0 0 8 7 7 7 7 7 7 7 8 7 7 8 7 7 7 7 7 7 7 7 7 7 7 7 7 7 7 8 7 7 7 7 5 5 7 5 7 5 5 7 5 5 5 7 5 5 7 5 7 < 5 7 7 7 5 7 7 7 7 7 7 7 7 7 7 7 5 7 7 7 5 5 5 5 7 7 7 5 5 5 7 7 5 7 5 5 7 7 < 7 5 7 7 7 5 5 7 5 7 5 5 7 5 5 7 5 7 7 7 7 7 7 5 5 5 5 7 5 7 5 7 5 7 7 5 5 7 7 7 5 7 7 5 5 7 7 5 5 7 ",
"%.o.%.o.' o.%.o.%.o.%.' %.o.%.o.o.%.o.%.o.o.o.%.o.o.o.o.o.%.%.o.+.o.o.o.o.O.+.o.+.o.o.O.O.o.+.o.+.o.O.+.+.o.o.O.X.o.o.o.o.o.o.o.o.o.o.o.o.o.X.o.o.X.' X.X.X.o.o.o.` o.o.o.o.o.X.X.o.X.o.o.o.X.o.X.o.o.X.o.o.o.o.' o.o.o.X.o.o.o.o.O.X.o.O.X.o.O.o.X.o.X.X.o.X.X.X.o.X.o.X.X.X.X.X.o.X.O.X.X.X.X.X.X.X.o.X.X.X.X.X.X.` X.X.o.` o.O.X.X.X.O.X.X.X.X.X.X.X.X.X.X.X.X.X.X.X.O.X.X.X.X.X.O.X.X.X.X.X.X.X.H X.X.X.X.` ` X.X.H H X.X.X.X.X.X.X.X.X.X.X.H X.X.H X.H X.X.X.H X.H X.X.` X.` X.H X.X.X.X.V X.H H K X.H K X.X.H X.X.X.H H X.H H H X.H X.H H X.H X.X.H H X.H H H H H X.V X.H H X.H X.H H H H X.H H H H H H H H H H H H X.H H H X.H H X.H H H H H X.H H H H H J H H G H G H H H H H H H G H H H G H H H H G H G G V G G H G H B H G H G G G V G V B H B H H B G B H G V H B G H G G G G H G G H G G G G G G G G G G G G H B G V D G G G G B G G G B G H B H D G D G G B B G B B B B B B V B B G B B B G c B G B B B G B G B G G B G B B B B B G B B B G B G B G B G B G B G B G B B B B G B G G B B B B M B B B B c B B B B B B G B c S c G c B B c c c B c M B c c c G c B c c B S c S S S c c c B c B c B G c B c G c c B c c c G c c B B c c S c S c S c c c S c S c S S c G c c S S c c G S c c S S c c S c c M c c c c c c c c c c c M c c c c c z c c c c c c c c c c z c c c c z c c c c c c c x c c c c c c x c c c c c c c x c c c S c c x c c S S x c x c c x c c c c c c c x x k c l c c x c c x c c x c c x c c l x z c c x c c x c x x c l c z c x z c c x c c x c x x x c c x c c x z x z x c l c x c x c x c l c x x x k A x c x c x x x x x x A k x x A x c x x c S x x x x c x x x A x c x c x x x x A x x c x A x x x x x j x x x x x x x x x x x x x x x x x x x x A x x x x x x x x x A x x x x x x x x x x x x A x x x A x x x x x x x x x 8 x 8 A 8 x 8 x x x x 8 x 8 x x 8 x 8 x x 8 x x 8 8 A x x 8 x 8 x x 8 8 x 8 x x 8 A 8 x 8 x A 8 A x 8 A 8 8 A x 8 x A x 8 8 x x 8 8 8 x 8 8 x 8 x 8 8 8 x x 8 x 8 A 8 x 8 x q 8 x q x 8 x x 8 8 8 8 A 8 8 8 A 8 6 x 8 8 x 8 8 8 x 6 8 8 8 6 6 8 x 8 8 x 8 8 6 8 8 8 8 x 6 8 8 x 8 8 8 x 8 6 6 8 6 6 x 6 8 8 8 8 8 8 6 x 8 8 6 8 8 6 x 8 8 6 x 6 8 8 x 8 8 8 8 6 x 8 8 8 8 6 8 8 6 x 8 8 8 6 6 6 8 8 8 6 8 8 6 8 l 6 8 8 6 8 6 8 6 8 6 8 6 8 6 8 6 6 8 6 8 6 8 6 8 6 8 8 8 8 7 8 7 6 8 7 q 7 7 8 7 7 8 7 7 8 7 7 8 7 7 7 8 0 8 7 8 7 0 7 7 q 7 7 8 7 7 8 7 8 7 7 8 0 8 7 7 8 7 7 8 7 7 5 8 7 6 7 7 5 7 7 5 7 7 7 5 8 6 8 5 7 7 7 7 5 8 7 6 7 5 6 7 8 5 7 8 5 5 5 8 5 7 6 7 7 5 7 7 5 8 5 5 8 8 7 7 7 7 7 7 7 7 7 7 7 7 7 7 7 7 7 7 7 7 7 7 7 7 8 7 7 7 7 7 7 7 7 7 7 0 7 7 7 7 7 7 7 7 7 7 7 7 7 7 7 7 7 7 7 7 7 7 8 7 7 7 8 7 7 7 7 7 7 7 7 7 7 7 7 7 8 7 7 7 7 7 7 7 7 7 7 7 5 7 5 7 7 5 7 5 7 7 5 5 < 7 7 5 7 5 7 5 7 5 5 5 5 5 7 5 5 7 5 5 7 5 5 7 5 5 7 7 < 7 7 5 5 7 7 < < 7 5 7 5 7 7 7 5 5 5 7 7 5 7 5 5 < 7 7 5 7 5 7 5 7 5 5 5 < 5 7 7 7 5 5 < 7 7 7 7 7 5 7 7 5 7 7 5 7 7 5 7 7 5 7 5 7 7 7 ",
"o.%.%.o.%.o.} o.%.o.o.%.o.%.%.o.o.%.o.%.o.o.o.%.%.o.o.o.o.o.o.+.o.o.o.+.o.o.+.o.o.o.+.+.o.o.o.+.o.o.o.+.o.o.O.o.o.o.o.X.o.o.o.o.o.o.o.o.` o.o.o.o.o.o.o.o.X.o.o.X.o.' o.o.o.' o.o.o.o.o.o.X.o.X.o.X.o.o.X.o.o.o.o.o.X.o.o.o.` X.o.O.X.o.O.X.X.o.X.X.X.X.o.X.o.X.X.X.o.X.X.o.X.o.o.X.X.o.X.X.X.o.o.X.o.X.X.X.X.` X.o.` X.` X.X.X.X.X.X.O.X.X.X.X.X.X.X.X.X.O.X.X.O.X.X.X.X.X.X.X.X.X.X.X.X.X.O.X.X.X.X.X.X.X.X.X.X.X.X.X.X.X.X.X.X.X.X.X.X.X.X.X.X.X.H X.H X.H X.X.X.X.X.X.X.V X.X.V X.X.H ` X.V K X.H H H H H X.H X.H H H X.X.H H H X.H K H X.H X.H H H X.H X.H H H H H H X.H H H H X.H H H H H H H V X.H H H X.H H H H H H X.H H H H H H H H H H H H X.H H H H H H H H G H H F H G H G H G H H G H H G G H H H V G G G H G H B H H B H G V G G H H B H H B H H G H G G H G G H G G H J G G G G G G G G B G G H G G G G G B B G G G B G B H B G B G D V G G B B G G G B V G B H B V B V M B B B B B B B B B B B B B B G B B B B B B G B B B B B B B G B B B B B B B B B B G B B B B B B B G B B G B M B B c B B G B B B B B B c c S G c G c G S B B B B c B c B B c B c c B c B B B c B S c S G B c c c B c B c B c c B B c G c B c G B B c c G S S S c S c c S S S c S S S c G S c S c c S c S c c S c S B c S c c c c B c c c c M c c c c c c c c z c c c c c c z c c c c c c c c c c z c c c x c c c k S c c c c c c x c k x c c c c x k S x c x c c c c x c c x c c x c x c c c c c c c c c x c c c c c x c c x x c x c c c c c x c c x c c c x c c x c x x c c x c l c c c l c l c c l c l l c l c x c x c l c l c x z x c x x S x x x x x c x x x x c A x x c x x x x k x x x x x x x c x x c c x x x x x x x x x x c x x x x c x x x x x x x x A x x x x x x x x x A x x x x x x x x x x A x x x x x x x x x x x x x x x x x x x x x A x l x 8 x x x x 8 x 8 x 8 x 8 x x 8 x 8 x 8 x x 8 x 8 x 8 x 8 x 8 x 8 x 8 8 x 8 x x 8 A x x 8 8 A x 8 x 8 x 8 x 8 8 A A 4 8 8 8 A 8 x x 8 8 A 8 x x 8 x 8 8 8 x 8 8 x 8 x 8 x x 8 8 8 q 8 8 8 8 8 8 8 8 8 8 q 8 8 8 x x 8 8 q 8 x 8 8 x 8 6 x 8 8 8 8 6 x 6 8 8 8 6 x 8 8 6 8 8 6 6 x 6 8 8 6 8 8 6 8 8 8 8 6 8 x 8 x 6 8 8 8 x 6 8 l 8 8 8 8 x 8 x 6 6 8 6 8 8 8 6 8 8 8 8 8 x 6 8 8 8 6 8 8 8 6 8 8 8 l 8 8 8 8 x 8 8 8 6 8 6 x 8 8 x 6 6 8 6 8 6 8 6 8 6 8 6 8 8 6 8 6 6 6 8 6 8 6 8 6 6 8 8 8 8 7 6 8 7 8 7 8 7 8 8 7 8 7 0 8 7 q 7 8 8 7 7 q 7 8 7 8 8 7 7 8 0 8 7 8 7 8 7 7 8 0 7 8 8 8 7 7 7 8 7 8 8 7 5 7 5 5 5 8 6 5 8 5 5 5 8 7 5 8 7 6 7 6 7 6 7 7 7 7 7 7 5 8 6 5 8 5 6 7 7 5 5 8 7 6 5 8 6 7 7 5 7 5 7 7 7 7 7 7 7 7 7 8 7 7 7 0 8 7 7 7 8 7 7 7 7 7 7 7 7 7 7 7 8 7 7 7 7 7 7 7 7 7 7 7 7 7 7 7 7 7 7 7 7 7 7 7 7 7 7 7 7 7 7 7 7 7 7 7 7 7 7 7 7 7 7 7 7 7 7 7 0 7 7 5 7 5 5 < 7 5 7 7 5 7 5 7 < 5 5 5 7 < 7 < 5 7 7 5 7 7 5 7 7 5 7 7 7 7 5 7 5 7 5 7 7 5 7 7 5 7 5 7 7 7 5 7 7 7 5 5 7 5 7 5 7 5 5 7 5 7 7 5 7 7 5 7 7 5 7 7 5 7 7 < 5 5 < 5 5 7 5 7 < 5 7 < 5 5 5 7 5 7 7 5 7 5 7 5 5 7 5 5 7 5 5 5 5 5 ",
"%.%.' %.o.%.%.o.' %.%.o.%.o.' %.o.o.+.o.%.o.+.o.o.+.o.%.%.o.%.o.O.+.o.o.+.o.o.O.+.o.o.o.+.+.o.o.+.+.o.o.o.+.o.o.X.o.o.o.o.X.o.o.o.o.o.X.X.o.X.o.o.X.' X.o.o.o.` o.o.X.o.X.o.X.X.X.o.X.' ' o.o.X.' o.o.X.o.o.' X.X.o.' o.o.X.o.o.o.X.O.o.O.o.O.o.o.X.o.X.X.X.X.X.o.X.X.X.X.X.X.X.o.X.X.X.o.X.X.X.X.X.X.X.` o.X.o.X.X.X.X.o.X.X.X.X.X.X.X.X.X.X.X.X.X.o.X.X.X.X.X.X.X.X.X.X.X.X.X.X.X.X.X.X.O.X.X.X.X.` X.X.X.X.` X.X.X.X.X.` X.X.X.V X.H X.H X.H X.X.X.X.X.X.X.X.V H X.H H X.X.V X.H X.V X.X.H X.H H X.X.H X.X.H H X.X.H X.H H H X.X.H H X.H H X.H X.X.H V H H H X.V X.H H H X.H H X.H H H X.H X.H H H H H H H V H H H X.H H H H H H X.H H H X.H X.H H H H H V B H F G H H D J H H H G F G H H G H G G H H G H D G H V G G V B H B H H B H B H G G G G V H B B H V G V G B H V G G G H G H G J H G H G G G G G J H B G B G H G G G G G G D H G G G G G G G G H G G B G G B B B G B B B M V B B V G B G B B G B G G B B B G B G c G G c B G B B G B G c G G B G B G B G B B B G B G B G B B B B G B G B B M G B B k B B B B B B G B G c B c G G c c B c B B c B M c B B B B c B c c S B c c S c S G c G c c B c c c c G c c B B c c c c c c B c c S c c S S G B S c S G c c S S c c S c S S c S c S G c S c S S c c c B c c c c c c c c B c c c c c c c c c z c c c c c c c c z c c c c c c c z c c c c x x c c x x c c c c c S c x c c c c c c c c c c c c c k S c c c S c c c c c x c c k x k x c x x c l x c c x c c c l c x c x c x c c l x c x c c x c c c c x c c x c x x c c x c x x c x c c x c x c l c l c x c x c x c x x c x x c x c x x x A k x x k x x x c x x c A x x c x c x x x x x x x x x c x A x c x c x x c x A x x A A x C j x x x x x x x x x x x A x x x x A x x x x x x A x x x x x A x x x A x x x x A x x A x x x x x x x x l x x l l x 8 x x A 8 A x 8 A 8 8 x x 8 8 A 8 x x 8 8 x 8 x 8 A 8 x A 8 8 x 8 x 8 x 8 x x 8 8 x x 8 8 A 8 x x 8 8 x 8 C x 8 x 8 8 x x 8 x x 8 x 6 8 x 8 6 x x 8 x 6 x 8 8 x x x 8 x q x 8 x x 8 A 8 x 8 x x q 8 8 q x 8 8 8 6 8 6 8 8 8 6 6 6 x 8 8 8 8 6 x 8 8 6 6 8 8 6 x 8 8 8 8 8 x 6 8 8 8 6 x 6 x 8 8 8 6 8 8 8 8 6 8 8 8 8 8 8 8 6 8 8 8 x 8 x 8 8 8 8 6 x 8 8 8 6 8 6 x 8 x x 8 6 x 6 x 8 8 8 8 8 6 6 8 6 x x 8 8 8 8 8 6 6 8 6 8 6 8 6 8 6 8 6 8 6 6 8 6 8 6 8 6 8 6 6 6 8 7 8 8 5 8 8 8 7 7 7 q 7 q 7 7 q 7 8 7 8 7 8 8 7 7 8 7 7 8 0 8 7 7 q 8 7 8 7 8 7 q 7 8 q 8 7 8 7 0 8 7 8 8 7 8 7 5 5 8 7 8 8 7 5 7 7 6 7 8 7 5 7 7 5 7 7 5 7 5 8 8 5 6 7 5 6 7 5 7 7 6 7 7 5 5 8 7 5 7 7 7 5 7 7 5 8 7 6 7 7 7 7 7 7 7 7 7 0 7 7 7 7 7 7 7 8 0 7 7 7 7 8 7 7 7 7 7 7 7 7 7 7 7 7 7 7 8 7 7 7 7 7 7 7 0 7 7 8 7 7 8 7 7 7 7 7 7 7 7 7 7 7 7 7 7 7 7 7 7 7 7 8 7 7 7 7 7 7 7 5 < 5 5 7 5 7 7 5 5 5 5 7 7 7 7 7 5 5 5 7 5 5 5 7 5 < 7 5 < 5 7 5 5 7 7 5 5 5 7 7 5 7 5 7 7 5 7 5 5 7 7 7 5 5 7 5 7 5 7 7 5 7 5 7 7 5 7 5 5 7 5 5 5 7 5 7 7 5 5 7 7 5 7 5 5 5 7 5 5 5 5 7 5 5 < 7 7 5 7 7 7 5 < 7 7 7 7 7 < 7 < 7 5 7 ",
"%.o.o.o.o.o.o.%.%.o.o.%.o.%.%.o.o.%.o.o.o.%.o.%.%.o.%.o.o.o.%.o.o.o.o.o.o.+.o.o.O.o.o.o.O.o.o.o.o.o.o.+.o.o.o.o.o.o.o.o.o.o.X.o.X.o.o.o.o.X.o.o.X.o.o.o.o.X.o.o.X.o.X.o.o.o.o.o.o.o.o.o.o.o.X.' o.X.o.' o.X.o.o.' o.X.o.o.o.o.X.X.X.o.X.X.X.X.X.X.X.X.o.X.X.o.X.X.X.X.o.X.o.X.X.X.o.X.o.X.o.X.o.o.X.X.X.X.X.` X.X.X.X.X.X.X.' X.X.X.X.X.X.X.X.X.X.O.X.X.O.X.X.X.X.X.X.X.X.X.X.O.X.O.X.X.X.X.X.X.H X.H X.X.X.H X.H X.X.X.H X.H X.X.H X.X.X.X.X.X.X.H X.X.X.X.X.X.X.X.X.X.X.H V X.X.` ` X.X.V V X.X.H X.H H H H K X.H K H H H K X.H H H X.X.H H X.X.H X.H H H X.H H H H X.H H V H H H H H X.V H H H X.H H H X.H H X.H H H H H H H H H H H H H V H H H V X.H H H V G H G G H H G G G H G H J H D H H H F J G H G H G H V H G V G G B H H B B H G G H G G H B H G G G G V H H G V G H G G G G G H G G G B G G G G H D G B G B V G G G G G B G B B G G G G G G B G G G B H G H V G V B B B B B B B B B B B B G B B B B G B G B G B G B B G B G B B B B B B B B B B G B B B G B B B B B B B G B G B B B B B B k B B B B B B B B B B c B c G S B S c G c B B B M c B c B B c M B c c B G c c c c B B c c c G c G B c G G c c B B c c B c G G c G c c B c G c c c S c c S c c S S c S S c S S S G S S c c G S S c c c c c c c c c c c c c c c c c c B c M c c c c c c c c c c c x c c c z c c c c z c c c c k S c c c c c x x c S c c c c S x k c c c c x S c x c c c S c k c x c c S c k S x c k x c x c z c c c x c x c c c x c c x x x c c x c c c c x c x c c x x c l c c x c c c c l c x z z x c l l c x c x z x c x c x c x c l c x x x x x x x c c x S x x x x x x x x x x x x x x x x x x S x x x x x x x x x k c x x x x x x x A x x x x x x x x A x x x x A x x x x x x x A x x x x A x x x x x x x x x x x x x x x x x x x x x x x x x x x x l x x x x x x x x x 8 x x 8 8 x x 8 x 8 8 x A 8 x x 8 A A x 8 x x x 8 x x 8 x 8 x 8 8 A x 8 8 x x x 8 x x x 8 x 8 q q 8 8 8 8 q 8 x x 8 8 x x 8 x 8 x 6 8 x x 8 x 8 x 8 6 x x 6 8 q 8 8 8 x q x 8 q x 8 8 8 q 8 8 x x 8 A 8 8 x x 6 8 6 8 8 8 x 8 8 x 8 8 8 6 8 8 8 8 x 8 6 8 8 6 8 8 6 8 8 6 8 8 8 8 8 8 8 8 8 8 8 8 8 x 6 8 8 8 8 8 x l 8 8 8 8 l 8 8 6 8 6 6 8 8 6 8 8 8 8 8 8 6 6 x 6 8 8 8 8 8 x 8 8 8 6 x 8 6 8 6 8 8 8 8 8 8 8 6 6 8 8 6 6 8 6 8 6 6 6 8 8 6 8 6 8 6 8 6 6 8 6 8 8 8 8 8 8 7 8 8 8 7 8 8 7 8 8 7 7 q 8 7 8 7 7 8 q 7 7 8 7 8 7 8 8 7 7 q 7 8 q 7 7 7 8 7 7 8 q 7 8 7 8 0 8 7 8 7 5 8 7 6 5 7 7 7 8 5 7 7 8 5 7 5 6 7 8 5 7 7 6 5 5 7 7 5 8 5 7 7 6 7 7 7 5 8 7 5 6 7 8 5 6 5 8 6 7 7 5 7 7 7 7 7 7 7 8 7 7 7 7 7 7 7 7 7 7 7 7 7 7 7 7 7 7 8 7 7 7 8 7 7 7 8 7 7 7 7 7 7 7 7 7 7 7 7 8 7 7 7 7 7 7 7 7 7 7 7 7 7 8 7 7 7 7 8 7 7 7 8 7 7 7 7 7 7 7 7 8 7 7 7 7 7 5 7 5 7 5 7 5 < 7 7 5 5 5 7 5 5 7 5 7 5 7 7 5 5 7 7 5 7 < 5 5 7 7 5 7 5 < 5 5 7 7 5 < 5 7 7 5 < 5 7 5 7 5 5 7 7 < 5 5 7 5 7 7 5 5 7 < 7 7 5 7 7 5 5 7 7 7 5 5 7 5 7 7 7 5 7 5 7 7 5 7 5 5 5 7 7 5 7 < 5 5 5 7 5 5 7 5 5 7 5 7 5 ",
"o.%.%.o.} ' %.o.o.%.' o.%.' ' %.o.o.%.o.o.o.o.o.o.o.o.o.o.%.o.o.o.+.O.+.o.o.o.+.o.o.+.+.o.o.O.o.O.+.O.o.+.O.o.o.o.o.X.o.o.X.o.o.o.o.` o.o.' o.o.X.' ` o.o.o.o.` ' o.o.o.X.' o.X.o.` o.X.X.o.o.o.o.o.o.X.' o.X.o.X.X.o.o.X.' o.o.o.O.X.O.o.O.o.O.o.X.X.X.o.X.o.X.o.X.X.X.X.X.o.X.X.X.X.X.X.X.X.X.X.X.` o.X.X.X.o.X.` o.X.X.X.X.X.X.X.X.o.X.X.X.O.X.X.X.X.X.X.X.X.X.X.X.X.O.X.X.X.X.X.X.X.X.X.X.X.X.X.X.X.X.X.X.X.X.` X.X.X.X.X.X.X.X.X.X.H X.H X.X.X.H X.H ` H X.X.V V X.X.` X.V H X.H H X.X.X.X.X.H H H X.X.H X.H H X.X.H X.X.H K X.X.K H H X.H H H V H H X.H V X.H H V X.H X.H V X.H X.H H V X.H H H H H H H H H H H H V X.H H X.H H H X.H H H H H H H H H V V H G H H H G H H H G H H H H G H G H H H G H H H H B G G H G G H H H B H H G H V G G V G H G H V G H G G B H G H G G H G G H G G G H G H B G G G B G H G G D G G G B G H G G G H B G G B G H B B G G G B B B B B B V B V B B V B G B B G B B G c B B B B B B B B G B B B B B B G B G B B G B B B G B B B G B G B G B B B B B B G B G B B B B B B M J M B B B B B c G c G c B S c B B c B c B c B c c B c B c B c c B c B B c c c B c c B c c B c B c c B c B S c c B c c B c c G S c S S S c S S c S S c c G c c S c G c c S c S S c S c B c c B c c c c c c c c c c c c c c c c c c c c c c c c z c c c c z c z c c c z c c c c c S x c c S x c c S k c x c c c c x c S c c x c S k c c x c c x c x c c k A c c S x c c c c c c x c x x c c x c z x x c x c c c c l c c x c x x c c l c l c c x c c x c x c x x c x c x x c x c c x z x c x c x z x z x c l c x x c x A k x x A x x x x c x c x x x S x x c x A k x x S x x k x c x k A x S x x x x x A k x S x x x A C x x x x x x x x x x x x A x x x x x x x x x x x A x x x x x A x x x x A x x x A x x x x x x x x A x x x 8 x l x x 6 l x 8 8 x 8 8 x x 8 x A 8 x x x 8 x 8 x x 8 8 x x 8 x 8 x 8 x A 8 x x 8 x 8 x x x x 8 A x 8 x 8 x 8 8 x x 8 A A 8 x A 8 x x 8 x 8 x 8 x 6 6 x 8 8 x 6 x 8 x 8 8 8 x x 8 x 8 q 8 8 8 x 8 8 q 8 x 8 x 8 8 8 8 8 8 8 8 8 8 8 x 6 8 8 8 6 8 6 8 x 6 8 8 8 8 8 8 6 x 8 8 x 8 8 8 6 x x 8 x 6 6 8 8 8 l 8 8 8 8 l 8 6 8 6 x 6 8 6 8 8 8 6 8 8 8 8 8 8 8 x 6 x x 6 8 8 6 x 8 8 8 8 6 8 8 8 8 6 6 8 x 6 8 8 8 x 8 8 8 8 l 8 8 8 6 6 6 6 6 8 8 6 8 6 x 6 8 6 6 8 6 8 6 8 6 8 8 6 8 6 8 8 8 8 6 8 8 8 7 8 7 7 7 7 7 7 8 7 7 8 7 q 7 7 8 7 8 7 7 7 7 q 7 8 7 7 8 7 7 8 7 8 7 8 8 7 7 8 7 8 7 8 7 8 7 8 7 5 5 8 6 7 6 7 5 7 7 6 5 5 8 8 5 7 5 7 8 5 7 7 7 6 5 8 6 7 6 7 7 5 8 5 7 7 6 8 5 7 5 7 7 7 5 7 6 7 8 5 7 7 7 8 7 7 7 7 7 7 7 7 7 7 7 8 7 7 7 7 7 7 7 7 7 7 7 7 7 7 0 7 7 7 7 7 7 7 7 7 7 7 8 7 7 7 7 7 7 8 7 0 7 7 7 7 7 7 7 8 0 7 7 7 7 0 7 7 7 7 7 7 7 7 7 7 7 7 7 7 5 7 5 5 7 5 7 5 7 5 7 7 7 5 7 7 7 7 5 7 7 5 7 7 5 5 7 5 5 7 7 5 5 5 7 5 5 7 7 < 5 5 7 7 5 7 5 5 5 5 5 7 5 7 7 5 7 7 5 7 5 5 7 5 7 5 7 7 5 5 5 7 5 7 7 5 5 < 5 5 5 7 7 5 7 7 5 5 7 7 5 7 7 5 7 7 5 5 5 7 7 5 5 5 5 5 5 7 7 7 5 5 7 5 7 7 ",
"%.%.' %.' o.%.' %.o.o.%.o.%.' o.o.o.o.%.o.o.%.o.%.o.%.o.o.%.o.%.o.o.+.O.o.+.o.+.o.O.o.o.o.o.+.+.o.+.o.o.o.+.o.O.o.o.o.o.o.o.X.o.o.o.o.o.o.X.o.o.o.o.X.o.o.o.' X.X.o.o.o.' o.o.' o.X.X.o.o.o.' o.' X.o.X.o.X.o.o.o.X.o.` o.o.o.X.X.O.O.o.O.X.X.O.X.X.o.X.X.X.X.X.o.X.X.X.X.X.o.X.X.X.X.X.X.X.X.X.o.O.X.X.X.o.` X.X.X.X.X.X.X.X.X.X.X.X.X.X.X.X.X.X.X.X.X.X.X.O.X.X.X.X.X.X.X.X.X.X.X.X.O.O.X.X.X.X.` X.X.V X.X.X.X.X.V X.X.` X.X.X.X.X.H X.H X.H X.V X.X.X.X.X.X.X.X.X.X.X.V ` V X.X.H X.X.` H V H H X.H X.H H H X.H K X.H H X.H X.X.H X.H H X.X.H X.V H X.V H H H V H H X.V H H H H H X.H H X.H H H H X.H H H H H H H H H H H V V H H H H H H X.V H H H V H H H G H H H G H G F H G J H F H H G G H G G H G H G V G G V H G G V B H H B H H B H H B H H B H G G H B H H B H H B G H G G G G G J G J V G G B H G G B G G G G B G G B B G G B F G G B H H B G D H G H G G B H G V B B B B B B B B B G B G B B B G B G B G B B B B B G B B B B B B B B B G B G B G B G c G B B B G B B B B B B G B c B B B B B B B k B B B B B B B B G c G c S B c B c B B c M c c B M B c M B c B B c B B c B B c G c c G G c B c c B G c c G c c c B c c B c B c S c S S S c S S G c S c S c S S c S c c S c c S c S c S G S c c c c c c c c c B c c B c c c c c c c c z c c c c c c c c c c c c c z x c z c c c x c c c c c c c c c c c c c S x c c S c c x c c c c c A c c k S x c c S x c c c c x x k c k x c c c x c c x l c c x l c c l x c c x x c x x c z c l c c x c c c c x x c x x c x c l c l c x c x c l c l c x c x c x c x c x c x x x x x x x k x x c x c x c x c k A x x c x k A c x x A x x A c A x x x k x c x k A x x x x x x S x x C x x j A x x x x x x x A x x x x A x x x x A x x x x x x x A x x x x x x x A x x x x x x x x A x x x A x l x l x l x l x x 8 x 8 A x 8 x 8 A 8 x x 8 x 8 x 8 8 x x x 8 x 8 x 8 A 8 8 x 8 x 8 x 8 x 8 x 8 x 8 A 8 A 8 x x A A 8 x A 8 8 A 8 x 8 x 8 x 8 x x 8 8 x 8 x 8 8 x 8 x 8 6 x 8 8 8 8 q 8 q 8 x x 8 x 8 8 8 q 8 8 x 8 x 8 8 8 8 8 8 8 8 8 8 8 x 6 8 8 8 8 x 6 8 8 l 8 8 8 8 x 6 8 8 8 8 6 8 8 8 6 8 8 8 6 x 8 8 6 x 6 6 8 8 x 6 8 8 6 x 8 8 8 6 x 8 8 6 x 8 6 8 8 8 8 8 8 8 8 8 6 8 l 8 8 8 x x 6 x 8 8 8 8 8 8 8 8 8 8 8 x 8 6 8 6 8 6 8 6 8 8 6 8 6 8 6 8 6 6 8 8 6 6 8 6 8 6 8 6 8 6 8 8 8 8 7 8 8 7 8 7 8 7 8 8 7 8 7 q 7 7 8 7 7 8 7 8 7 8 7 q 7 8 7 8 7 7 q 7 7 8 7 7 8 7 7 7 8 7 8 7 8 7 7 7 7 7 8 5 7 6 5 7 5 7 7 8 5 7 7 5 7 6 7 5 8 5 7 5 8 8 5 7 5 7 7 7 7 7 7 5 7 6 7 8 5 7 7 5 8 6 7 7 6 8 7 7 7 7 5 0 7 7 7 7 7 8 7 7 7 7 7 7 8 7 7 7 7 7 7 0 7 8 7 7 7 7 7 7 7 7 7 7 7 7 7 7 7 7 7 7 7 7 7 7 7 7 7 7 7 7 7 7 7 7 7 7 7 7 7 7 7 7 7 7 7 7 7 7 7 7 7 0 8 8 7 7 7 7 7 5 7 5 5 7 7 7 7 7 7 7 5 5 7 7 5 7 5 7 5 7 7 5 7 5 7 7 5 7 7 7 7 7 7 5 5 5 7 7 5 5 7 7 7 5 5 5 5 5 7 5 7 7 5 5 5 5 < 7 7 7 5 5 < 7 < 7 5 7 7 5 7 5 7 7 < 5 5 5 7 7 7 7 7 5 5 7 5 7 5 7 7 7 5 7 5 5 7 5 5 7 5 5 7 7 5 7 < 5 5 7 5 5 7 5 5 ",
"o.o.%.o.%.o.o.%.o.%.%.' %.o.%.o.%.o.o.o.o.%.o.+.o.o.o.o.o.o.o.o.+.o.o.o.O.o.o.o.o.+.+.o.o.o.o.o.o.o.o.+.o.O.o.o.o.o. .o.o.o.o.o.o.o.X.X.' o.o.X.X.o.' o.o.X.o.o.' o.o.X.o.X.o.X.o.o.o.' X.o.X.o.o.o.o.` o.' o.X.' o.o.o.o.X.o.o.o.o.X.X.o.O.o.o.o.X.X.X.X.o.X.o.X.X.X.o.X.o.X.X.o.o.X.o.X.o.X.o.X.X.o.` X.X.X.X.X.` X.' X.X.X.` X.X.O.X.X.X.X.X.X.X.X.X.X.X.X.X.X.X.O.X.X.X.X.X.X.X.X.X.X.X.X. .X.X.X.H X.X.X.X.X.X.X.X.X.X.X.X.H X.X.X.X.X.X.X.X.X.X.X.H X.H X.X.H H X.X.X.H X.X.V H ` H X.X.X.X.H H X.H X.X.H H X.X.H X.H H X.H H H H X.H K H H H H X.H H X.H H X.H X.H H X.H X.V H H V X.H H H H H H H H X.H H H H X.H H H X.H H X.H H H H H H H X.H H H V H H G H D H G H H D H H G H G G H H G H H H H G H G G H G B H G G B H B H H B B H B H H B B H H G H H B B H B H H G G G H H G G H G G G G G H G G G G G V B G G H D H G H G G B G G G D B G G B G G B G G B B B B V B V B B V V B B B B B G B B B B B B B B G B G B B G B G B G B G B B B B B B B B B B B G B G c B G B G B G B B B B B B B B B B B B B B B B B k B c S c G c S B B B B c B B B B B B c B B c B c B c c c B c c B c c B c c B c c G c c c B c c B B c G c c B c B c G c c c S c c S S c S c S c B B S S S c G S c c S S c S S S c c c c M c c c c c c c c M c c c c c c c c c c c c z c z c c c c c c c c c c c z c c S x x c k c S x k A x c k c c x x c c c c c c x c k c c c c c c c x S c c x c c c c x c c c x c c x l c c c x c c c c c c x c c c c c c c x c x x c x c x c x c c c c c c c x c x c l c l c x c x c l c l c l c z x l c x z c x k A x c x x x x x x x x x x x x x c x x x x x x x k c x x x c x c x A x x x x x S x k A x c x A x x x x x x x x A x x x x x x x x x x x x x x x x x x x A x x x x x x A x x x x x x x A x x x x x x x x x x x x x x 8 x x x 8 x 8 x 8 x x 8 x 8 x 8 8 x x 8 8 x x 8 8 8 A 8 8 x x 8 x x 8 x x 8 8 A x x 8 x x x 8 x 8 x 8 8 8 8 8 q 8 x A 8 x 8 8 x x 8 A 8 8 x x 8 x 6 8 x 6 x x 8 x 8 x 8 8 x 8 x 8 x 8 8 q 8 8 x x 8 x 8 8 q 8 8 x 8 8 4 8 x 8 8 8 8 6 8 6 6 x 8 6 8 8 6 8 8 6 x 6 8 8 8 8 6 6 x 8 8 8 6 8 6 x 8 6 8 8 x 6 8 x 6 8 8 8 6 8 8 6 8 6 x 8 8 x 8 8 8 6 x 8 8 8 6 8 6 x 6 8 8 8 8 8 8 8 6 6 8 6 8 8 l 6 6 x 8 x 6 8 6 6 8 6 x 8 6 8 6 8 6 6 6 6 8 6 8 6 6 8 6 6 8 8 6 8 6 8 6 8 6 8 6 6 8 6 8 7 8 8 8 8 7 8 0 7 q 8 7 7 8 8 7 q 7 7 8 7 7 7 q 7 8 q 7 7 q 8 7 7 8 7 q 8 7 q 7 0 8 7 7 8 7 7 q 8 7 5 7 8 5 7 7 5 8 7 6 5 7 6 7 8 5 5 7 7 7 7 6 5 7 5 7 6 8 5 6 8 5 6 7 8 5 5 7 5 7 6 7 7 5 7 5 7 7 5 5 5 6 7 8 7 7 7 7 7 7 7 7 7 7 7 7 7 7 7 7 7 7 7 7 7 7 7 7 7 7 7 8 0 7 7 8 7 7 7 8 7 7 7 7 0 7 7 7 7 7 7 7 7 7 7 7 7 7 7 7 7 8 7 7 7 7 7 7 7 7 8 7 7 7 8 7 7 7 7 7 7 7 7 7 7 7 7 7 7 5 5 7 5 5 7 5 7 7 5 7 5 7 5 5 5 7 7 5 7 7 5 7 7 5 5 7 5 5 5 < 7 5 7 7 5 7 5 7 7 < 7 5 5 5 7 5 7 7 5 < 5 7 5 5 7 5 5 7 5 5 7 5 7 5 5 < 7 5 5 7 5 5 7 7 7 5 5 7 7 7 7 7 5 7 7 5 5 7 7 5 7 7 5 5 7 7 7 5 7 7 7 5 5 5 5 7 7 5 7 7 ",
"%.o.o.%.o.%.o.%.o.%.o.%.' %.%.o.o.%.%.o.o.o.o.o.o.o.%.o.o.%.+.o.o.+.o.o.+.o.o.o.O.+.o.o.+.O.o.o.o.o.o.+.O.o.o.o.o.X.O.o.X.o.o.o.o.o.o.' o.X.o.o.o.X.o.o.o.X.o.X.X.o.' o.o.o.' o.' X.X.o.o.' o.X.o.o.` o.o.X.o.o.o.X.' o.o.o.o.X.o.X.o.O.X.O.o.X.X.o.X.X.o.X.X.X.o.X.o.X.X.X.X.X.X.X.X.X.o.X.X.X.o.O.X.X.X.X.X.X.X.o.X.X.o.X.X.o.X.X.X.X.O.X.X.X.X.X.X.X.X.X.X.X.X.X.X.O.X.X.O.X.X.X.X.X.X.O.X.X.X.X.X.X.X.X.X.X.` X.X.X.X.H X.X.H X.X.X.H X.H X.X.X.H X.X.X.X.X.X.X.X.X.X.H X.H X.V X.X.` H X.V X.H K X.K H H H H X.H H X.H H X.H X.X.H H X.X.H X.H H H X.H X.H X.H H H X.H X.H H X.H X.H H V X.V X.H H V H H H X.H H H X.H H H H H H H H X.H H H H H H V H H H H G G H H G H G H G H H G H H G H F H H J H G H H G H G H B G H H H B H B H H B B H H B H G H V B H B H H B H B G H G G G H H G G H G G B G G G G G G D H G G B B G G B G G G G B G G G G G B G B G G B V G B G B B M B B B B B B G B B B G B G B G B B G B B B B B B B B B B G B G B G B G B B B B G B B B B G B B B B B B B B B B B B B M B B B B B B B B c G c S G c c G G c B c B c B c M B B B M B B c M c c B B c c c B c c B B c c B c G c c c B c B B c G c B c S B c c S c c S G c c G c S c G c S S c c S c S S S c G S c G S c S c c c c c c c c c c c c c c c c c c c B c c c c c c c c c z z c c c c c c c c c c c c x k c c x A c c c x c c c c c c c x c c c k A c c c c x c c x c c k S c c c k c k c x c c x k c l c x c c c x c c c x x c c c x c c x c x x c x c c c c z x c c c x x c x l c z x c l c x z x c x c x c x c l c x l x c x c x x x x c x x x x x S A x x c x x c x c x x c x c c x A k x c x c x x x c x x c x x x x x c x x x x x x C x C x x x x x x x x x x x A x x x x x A x x x x A x x x x x x x x x x x x x x x x x x x x x x x x x x x 8 x x 6 x x x 8 A x 8 x x 8 8 x x x x x A x 8 x x x 8 A x 8 8 x A 8 x x 8 x x x 8 x A 8 8 x x 8 8 x 8 x x x 8 x 8 A x 8 q 8 8 8 8 A x 8 x x x x x 8 8 x 8 x x 8 x 8 8 x 8 x x 8 8 x 8 x 8 8 8 x 8 x q 8 8 8 x 8 q 8 A 8 8 8 4 8 8 8 x 8 x 6 8 8 8 x 8 6 8 8 8 x 8 6 8 8 8 8 8 x 8 x 6 x x 6 8 x 8 8 6 8 8 6 8 6 8 6 8 8 6 8 8 8 6 8 8 8 8 8 8 8 6 8 8 6 8 8 l 8 x 8 8 x x 6 x 6 8 8 8 8 6 x 6 8 8 6 8 8 8 x 8 6 6 8 8 8 6 x 8 8 6 8 6 8 6 8 6 8 8 6 8 6 8 6 x 6 6 8 6 8 6 8 6 x 6 8 6 8 7 8 8 8 8 8 8 8 7 q 7 8 7 8 7 8 8 7 7 8 7 8 q 7 7 q 7 8 8 7 7 8 8 7 7 8 7 q 7 8 8 7 7 7 7 7 8 7 7 q 8 7 7 5 7 8 7 7 8 5 5 8 7 6 6 7 5 7 8 5 8 5 7 6 7 7 8 5 6 7 7 7 5 7 5 7 7 5 8 5 8 5 6 7 8 5 6 6 7 8 5 8 6 7 8 5 7 5 8 7 7 7 7 7 7 7 8 7 7 7 7 7 7 7 7 7 7 7 7 7 7 7 7 7 7 7 7 7 7 7 7 7 7 7 7 7 7 7 8 7 7 7 7 8 7 7 7 7 7 8 7 7 7 7 7 7 7 7 7 7 8 7 7 7 7 7 7 7 7 7 7 7 7 7 7 7 7 7 7 5 5 5 < 5 5 7 7 5 5 5 7 5 5 7 7 7 5 5 < 7 7 5 5 5 7 5 5 < 5 5 7 5 5 7 7 5 5 5 7 7 5 7 5 7 5 7 < 5 7 7 5 7 7 7 5 5 7 7 5 7 7 5 5 5 7 7 7 5 5 5 7 7 5 7 7 7 5 5 7 < 5 5 5 5 5 7 5 7 < 7 7 5 5 7 5 7 7 < 5 7 5 7 5 5 7 7 7 5 7 7 5 5 7 5 ",
"o.o.%.' %.' %.o.o.' %.o.%.o.o.%.o.o.o.+.o.%.o.%.%.o.%.o.o.o.%.o.o.o.o.+.o.o.+.o.o.o.o.+.o.o.+.+.+.o.o.O.o.o.o.o.o.o.o.o.o.o.o.X.o.X.o.X.o.o.o.o.' o.o.X.o.o.' o.o.o.X.o.X.o.X.o.o.o.o.o.o.X.o.` X.o.o.o.o.o.o.` o.X.o.X.` o.X.o.o.X.X.O.o.X.X.O.X.X.X.o.X.X.X.o.X.X.X.X.X.o.X.o.o.X.X.o.X.X.X.o.X.o.X.X.X.X.` o.X.X.X.` ` X.X.X.X.X.X.X.X.X.O.X.X.X.O.X.O.X.X.X.X.X.X.X.X.X.X.X.X.X.X.X.X.X.X.X.X.X.X.X.X.X.X.X.H X.X.X.X.X.X.X.X.X.X.H X.X.X.X.X.H X.X.X.V X.H H X.H X.X.X.V ` X.X.X.V X.H X.X.H X.H H X.H X.X.X.H H X.H X.K H K H X.H H X.H H H H V X.H H V H H H V X.H H H H H H H V H X.H H H H H H X.H H H V H H H H H H H X.H H H H H H H X.H H H H H V V J H H H G H H H H H G H F G H H G H G G F H H G H G G V G H G V B H H B H B H H H B H H G V G G H B H H B H G G J H G G G G G G G G G G G G H G H B G G B G D B H B G G G B G G G H B G B H G G V D G H B B V B B B V B B N B B B B G B B B B B B B G B B B G c G B G B G B B B B B B B B B G B B G B B G B B B G B B G G c G B k M B B B B B B k B B B B B B G B G c G S G c G B B B B c B c c c B B c B B c B M c B B B c c B G c c G c c B c c B G c B c c G c B c c B c c B S S S c S S S c S c S c G S c S S c S c c S S c c S c S S G S S c c c c c c B c c c c c c c c B c c z c c c c c c c c c c c c z c z c z c c c c c c S c c c c c c c c c c c x c c c k S x c c c c S x S c c c c c c c x c c c c c x x k x c x c c x c c c x x c c x x c c x x c c x l c c c x c c c x x x c c x c x c z c c x c x c x c x c x c x z x z x c x c x c c c l c l c c x x x x c x S x x k x x x A k x x x x x x x x x x x x x x x x k x x x c x x x c x c x x x x c x A x j x x x x A x x x x A x x x x x x x x x x x x A x x x x x x x x A x x x x x x x A x x A x x A x x A x x x l x x x l x l x x 8 x 8 8 A 8 x 8 x 8 8 8 x x 8 A 8 x 8 x x x x 8 x 8 x x 8 A 8 x x 8 x x 8 8 A x 8 x 8 x 8 x 8 A 8 8 C x 8 C A x 8 x x 8 x 8 8 8 8 x 6 8 x 8 x 8 8 x 6 8 x 8 x 8 8 q 8 x 8 q 8 q 8 8 x x q 8 8 x 8 x 8 x 8 8 8 x 8 8 8 8 6 8 6 8 6 6 x 8 8 8 6 8 x 6 8 8 6 8 6 8 6 8 8 6 8 8 8 8 l x 8 8 8 8 8 8 x 8 8 8 8 6 x x 8 6 6 8 6 x 6 8 6 8 8 6 x 8 8 6 8 8 6 6 8 8 8 6 x 6 8 8 8 8 8 8 8 8 8 8 6 6 x 8 8 x 6 8 6 8 8 8 6 8 6 8 6 8 6 6 8 6 8 6 8 6 8 8 6 8 6 8 6 6 6 8 6 8 6 8 8 7 8 8 8 8 8 7 7 8 7 8 7 8 0 7 7 q 7 8 7 8 7 8 7 8 7 0 7 8 7 7 7 8 8 7 7 8 7 8 0 8 8 8 8 7 q 7 8 7 8 8 8 5 5 6 7 5 7 7 7 5 7 7 5 8 7 5 5 8 7 5 8 5 6 8 7 7 5 8 5 8 5 7 6 5 8 5 5 8 7 7 7 5 5 7 7 7 5 7 5 7 7 6 7 6 7 7 7 7 7 7 7 7 7 0 7 7 7 7 7 7 7 8 7 7 8 7 7 7 7 7 7 7 7 7 7 7 7 7 7 7 7 7 7 0 8 7 7 7 7 7 7 7 7 7 7 7 7 7 7 8 7 7 7 7 7 7 7 7 7 7 7 7 7 7 7 7 7 7 7 7 7 7 7 7 7 7 5 7 5 5 5 7 5 7 7 < 7 5 7 7 5 7 5 7 < 5 5 7 7 5 5 < 7 7 7 5 5 7 7 7 7 5 7 5 5 5 7 7 5 7 7 5 7 7 7 5 5 7 5 5 7 5 7 5 7 5 7 5 7 5 7 7 5 7 7 7 5 5 7 7 5 7 5 7 7 5 7 5 5 5 5 < 7 5 5 5 5 7 < 5 5 5 7 5 7 7 5 5 5 7 7 5 7 5 7 7 5 < 7 5 7 ",
"} o.} o.%.o.%.o.%.o.o.o.} o.} o.o.%.o.o.%.o.o.o.o.+.o.%.o.o.o.%.O.o.+.o.o.+.O.o.o.o.o.+.o.o.o.o.o.o.+.o.O.o.o.O.o.o.X.o.o.o.o.o.o.o.` o.o.o.o.o.o.X.` o.X.' X.o.' o.X.X.X.o.X.' o.' X.o.o.o.X.o.o.o.' o.' o.o.X.o.o.` o.o.o.o.o.o.o.O.X.o.O.X.X.o.X.o.X.X.X.X.X.X.o.X.o.o.X.X.X.X.o.X.X.X.X.X.X.o.X.X.X.X.X.X.X.X.X.X.o.o.X.X.X.X.O.X.X.X.X.X.X.X.X.O.X.X.X.X.X.X.X.X.X.X.X.X.X.O.X.X.X.O.X.X.X.` H X.X.` X.X.H X.X.` X.X.X.X.X.X.X.X.X.H X.X.X.X.H H X.X.X.X.X.X.X.X.X.X.V X.V V X.X.` H X.H X.H X.X.H X.H H H H H H X.H H H X.X.H K X.H H K X.H H X.V H H X.H H H X.V H H X.V H X.V H H X.H H H H H H H H H H H H X.H H H X.H H H H X.H H H X.H H H X.V H H H H G H H H H G J D H H G H G H G H G H H D H H G B G G H H V G G G V B H G H V G B H B B G G B H H B H H H G G H G G G H G G J H H G G G G G H G G G G G G G G G G G G G G G B G G G G G G G G G G G G B B V B B V B B V B B B B B G B G G B c G B B B G B G B G B B B B G B G B B G G B B B B G G B B B B G B B B B B G B B B G G G B B M B B c B B k G B B B c B c B c G c c S c B B B c B c B B c B M M B c B c B c c c B B c c c B c B c c B c G c B c c B c S B c B B c c B c S c S S c S S S c S c c S S c S c S S G c S S c S G c S S c c c c c c c c c c c c c c c c c c c c z c c z c c c c z c c c c c c c c z c c c c x c k x c c x c c c c S c c c x c c x c c c c x c c c k c c c c x c c x c c c c c c c x k c c k x c x x x c c x x x c x c z x x x c c x x l c x c x c c c x c c l c c c x c c l c x c x z x c l c l c x c x c x c x c x c x z x x A x x x x x x x A x x x S x x c x c x A x x x x x S x x A x x x A c x x A x x x c x A x A x x A x x x j x x x x x x x x x x x x x x x x x x x A x x x x A x x x x x x x x x A x x x A x x A x x A x x x x x x x l x 8 8 x x x x 8 8 x x x 8 x 8 x 8 x x 8 A 8 8 x 8 x x 8 A 8 8 x 8 x x 8 x 8 8 x 8 8 8 A x 8 8 x x 8 x 8 x A 8 8 4 A 8 8 x 8 8 x 8 x 8 x 8 A x 8 x 8 x 8 x 6 x 8 8 8 x 8 6 8 8 A q x 8 8 x 8 8 x 8 8 A 8 x 8 8 8 8 8 8 8 8 8 6 8 8 8 8 8 8 x 8 6 x 6 8 8 8 8 x 8 6 8 x 8 6 8 6 x 6 8 8 6 8 8 8 8 x 6 8 6 8 8 x 6 8 6 x 8 8 8 8 6 8 x 8 8 6 x 8 6 8 8 8 x 6 8 8 6 8 8 8 8 8 l 6 8 8 6 x 8 8 6 x 8 8 6 x 6 8 8 8 8 8 8 8 x 6 8 6 8 6 8 6 8 6 8 8 6 8 6 8 6 8 6 6 8 6 8 6 8 6 8 8 6 8 8 6 8 8 8 8 8 8 8 8 7 q 7 7 8 7 8 7 7 7 8 0 8 7 q 7 8 0 8 8 8 8 7 q 7 7 0 8 7 8 7 8 7 8 7 7 q 7 q 7 7 8 0 5 5 7 7 5 8 6 7 6 7 6 7 7 5 7 6 7 8 7 6 7 7 5 7 5 5 7 7 6 7 7 7 5 8 7 6 7 5 8 5 7 5 8 8 5 8 7 6 6 5 8 5 8 7 5 7 7 7 7 7 7 8 7 7 7 7 7 7 7 7 7 7 7 7 7 7 7 7 7 7 7 7 7 q 7 7 7 7 7 7 7 7 7 7 7 8 7 7 7 7 7 7 7 7 7 7 7 7 0 7 8 7 7 7 7 8 7 7 7 7 7 7 7 7 7 7 7 7 7 7 7 7 5 7 5 7 7 7 5 5 < 7 5 7 5 7 7 < 7 7 < 5 5 7 5 5 5 7 5 7 7 7 5 7 7 5 5 7 5 5 7 5 7 7 5 < 7 5 5 7 5 5 7 7 7 5 7 7 7 7 7 5 7 7 7 5 7 5 7 7 7 7 5 7 5 7 7 5 < 5 5 7 5 5 < 7 7 5 7 5 7 5 7 7 7 5 7 7 5 7 7 5 7 7 5 7 7 5 7 5 5 < 7 5 7 7 < 5 7 5 7 7 ",
"o.%.o.o.%.o.o.} o.} %.o.o.%.o.o.o.o.%.o.o.o.o.%.o.o.o.o.%.+.o.o.o.+.o.o.o.o.+.o.+.o.o.+.O.+.O.o.o.+.o.o.o.o.o.o.X.o.o.o.o.o.o.o.o.o.X.o.X.' o.X.o.o.o.o.o.o.X.o.o.X.o.o.o.o.o.o.X.o.o.o.` o.o.o.X.o.X.o.X.o.' o.X.o.o.o.X.o.X.X.X.O.o.X.X.O.O.o.X.X.X.X.O.o.X.o.O.X.X.X.X.X.o.X.X.X.o.X.o.X.o.X.X.o.X.o.' X.o.X.` o.X.X.X.` X.X.X.X.X.X.X.X.o.X.X.X.X.X.X.X.X.X.X.X.X.X.X.X.O.X.X.X.X.X.X.X.X.X.X.X.X.X.X.X.` X.X.X.X.X.H X.H X.V X.X.H X.X.H X.X.X.X.X.X.H X.X.X.X.H X.X.X.V X.X.H H X.V X.` X.X.H H H X.H X.H H X.H X.K X.H X.H X.X.H H X.H X.H X.H H H X.H H V X.H H H X.H H H H X.H H H X.H H H X.H H H X.H H H H H H H H H H H H H H H H H H H H H V H V H F H H G D H H H H H G H G H H H H F H G H G H H H V V G B H G H H G H B H B H G H H H H H V H G B H H B G V V G G H G J G H G G G G G G G G G G B G H B G B B H G G B H B H G G V D G B G G B F G G G G B V B V B B B B V B B V B B B B B B G B G B B B B B B B G B B B B B c G B B B B B G B B B B G B B B G B G B B B G B B B B B B B B B B B B B B B B B G k c G S B S G G c c B c B B c B c B B B c c B c B B c M B B B c c c B c G c B B c c c B c G c c G c B B c c B c c G c S c c G S c c S c S S c c S c S c G c S c c S c S S S G S c c c c M c c c c B c c c c c c c c c c c c c c c x c c c c c z c c c c c c c c z S c S c c c k c c S x k c c c c x S k c c c c c c c c x c c x c k S c c c c c x c k x k c x c x z c c c c x c c c z c c x c c c c c x c c c c c x c c l c c l x c c x x c x c c x z l c x c x c x c l c l c x z l c l c x c x c x k c x x c x A x k c x x x x x x x x x x c x c x c x x x k x x x x x x k x x c x x x k x k c x x x x x 4 x x x x x x x x x A x A x x x A x x x x x x x x x x x x A x x x x x x x x x x x x x x x x x x x x x x x x x x x l l x 8 x x 8 x 8 A 8 x x A 8 x x 8 x x 8 8 x x 8 8 x x 8 x A 8 x x A x 8 x x x 8 x x A 8 8 x 8 x x 8 8 A 8 x 8 A q 8 x 8 x 8 8 x x 8 6 x 8 6 8 x 8 8 6 x x 6 8 x x 8 8 8 8 x x 8 8 q 8 8 8 x x 8 q 8 x 8 x q 8 x 8 8 8 6 6 x l 8 8 6 8 8 8 8 8 8 x 6 6 8 8 6 6 8 6 x 8 8 8 8 8 6 x 8 8 8 6 8 8 6 x 6 6 8 8 x 6 8 x 6 6 x 8 8 x 6 8 8 8 x 8 6 6 8 8 8 8 x 6 8 8 8 8 8 8 6 8 x 6 6 8 x 6 8 x 8 6 8 8 8 8 8 l 8 8 8 6 8 8 6 8 6 8 6 8 6 6 8 6 8 6 8 6 8 8 6 8 6 8 6 8 6 6 8 6 6 8 8 7 8 7 8 8 7 7 7 7 8 8 0 8 8 7 q 7 8 8 7 7 8 8 7 8 7 7 7 7 8 8 7 8 7 7 8 0 8 7 8 7 q 7 7 8 7 7 8 7 8 5 8 6 7 7 5 7 5 7 5 7 5 5 8 7 6 5 5 7 5 8 5 8 5 5 8 7 6 7 5 6 7 7 5 7 7 8 5 7 7 6 7 5 7 7 5 7 7 7 7 6 7 7 7 8 5 7 7 7 7 7 7 0 7 7 8 7 7 7 8 7 7 7 7 7 7 7 7 7 7 7 7 7 7 7 7 7 8 7 7 7 8 7 7 7 7 7 7 7 8 7 7 8 7 7 7 7 8 7 7 7 7 7 7 7 0 7 7 7 7 7 7 7 8 7 7 7 7 7 7 7 7 7 5 5 7 5 7 7 < 5 5 7 7 7 5 5 5 5 7 5 5 7 5 7 5 5 5 5 7 5 7 7 5 5 7 7 7 7 7 7 7 5 7 7 7 < 7 7 5 7 7 5 < 5 7 7 5 5 5 7 7 7 5 5 7 5 7 7 5 5 5 7 7 7 5 7 7 7 7 5 5 7 5 5 5 7 7 5 5 5 7 7 5 7 5 5 7 7 7 5 7 7 5 < 7 7 5 7 < 5 5 7 7 7 5 5 5 5 7 7 5 ",
"o.%.' %.o.%.o.o.%.%.o.%.o.%.' %.%.o.%.+.%.o.%.+.%.%.o.%.o.%.o.%.o.o.o.o.O.+.o.o.o.o.O.o.o.+.o.+.O.o.o.o.o.o.o.o.o.o.X.o.X.o.o.o.o.o.o.o.X.o.X.o.' X.` o.o.o.o.o.o.o.o.X.o.` X.o.o.o.X.o.o.o.X.o.o.' o.X.o.o.o.X.o.o.X.o.o.o.o.o.X.o.O.X.X.o.O.o.X.X.o.X.o.X.X.X.o.X.o.X.X.X.X.o.X.X.X.X.X.X.X.o.X.o.X.X.o.X.` X.X.X.X.o.X.X.` o.O.X.X.X.X.X.O.X.X.X.X.X.X.X.X.X.O.X.X.X.X.X.X.X.X.X.X.X.X.O.X.X.X.X.X.H X.X.X.X.X.X.X.X.X.X.X.` X.H X.X.H X.X.X.X.X.X.X.X.H X.H H X.V X.H H ` H ` X.H H X.X.X.H H K H X.H H X.X.X.X.H H X.X.H H H H X.H H X.H H H V H H H V H H H H H H H V H H H H H H H H H H H H H H H H H H H H H H H V H H H X.V H H X.V H H X.V H H H H H H G G H H G G H H G G H H H J H H J G H H H H G H H G G G G G G G G G H V G G V G B V G G V H G G H B H G G G G G H H G G H H G G G G G G G G G G G D B G G G G B F G B B G D V G G H B B G G B B G G G B B V B B B B B M B B B G B G B B B B B B G B G B G B B B G B G G B G B B B B B B c G G B B B B B B B B B G B G B G B G c B B B B B B B B B M B B B c B B G c S B c S G B B B B B c B B M B B B M B M B B B B c c B B B c G c B c S c c B c c B B S c B B c c B G c c B S c S c S c c S S G c G c S G c S c c S S c c S c S S c S G S c c c c c c B c B c M c c c c c c c c c c c c c c c c c c c z c c c c c c c c c c c c c c x c S x c x c x x c c c S c c c c c k S c x x S c x c c c S c c c x c x x c x c c x c x c x x c c l x c c x x c c x x c x c x c c x x c x c c x x c c c x c x c c x x c c x c x c x c x c x c x c x c x c x z x c l c l x x x x c x x k x x x x x c x x x x c x c x x x x x x x c x x S x x c x x x x c x c x x x x x x C x x 4 x x 4 A x x A x x x x x x x x A x x x x x x x A x x x x x x x x A x x x x x x x x x x x x x A x x x x x x 8 l x x x 8 x x x 8 A x 8 8 x x 8 8 A 8 x 8 x 8 x x 8 8 x x 8 x 8 x 8 x x 8 x x x x 8 8 x x 8 8 A x x 8 x 8 x 8 x 8 q x 8 q x x 8 A x x 8 x x 8 x 8 x 8 x 8 x x x 8 x x x 8 x x q x 8 8 8 8 8 8 8 x q 8 x 8 x 8 8 8 8 q 8 8 4 8 6 8 8 8 8 8 8 6 8 8 8 8 l 8 6 8 8 8 x 6 x 8 8 8 8 6 8 8 8 6 8 8 8 8 8 8 x 8 l 8 8 8 8 6 x 6 8 8 8 x 6 6 8 8 8 6 8 x 6 6 8 8 6 8 8 6 8 8 8 8 8 8 x 6 x 8 8 8 8 6 x 6 8 8 8 8 6 8 x 8 8 8 8 8 8 6 8 8 6 6 x 6 8 6 6 8 6 8 6 8 6 6 8 6 8 6 8 6 8 8 6 6 6 7 8 8 8 8 8 8 8 7 8 7 7 7 8 7 0 8 7 7 8 7 7 q 7 7 7 8 8 8 0 8 7 7 0 8 8 8 7 8 7 7 8 7 7 8 7 q 8 8 0 8 7 7 7 7 5 6 6 7 8 8 6 7 8 7 7 5 7 8 7 6 8 5 7 7 7 7 6 5 8 5 8 7 5 6 7 8 5 8 7 6 7 5 7 8 7 8 5 8 5 6 7 7 7 8 7 8 7 8 7 7 7 7 8 7 7 7 7 7 7 7 7 7 7 0 7 7 7 8 7 7 7 7 7 7 7 7 7 7 7 7 7 0 7 7 7 7 7 7 7 7 7 7 0 7 7 7 7 7 7 7 7 7 7 7 7 7 7 7 7 7 7 7 7 7 7 7 7 7 7 7 7 5 7 < 7 7 5 5 7 7 5 5 5 7 5 5 7 5 5 7 5 7 5 7 5 < 5 7 7 7 7 7 5 5 5 7 7 7 5 5 5 5 7 7 5 5 7 5 5 7 7 5 7 5 5 5 7 < 7 7 5 7 5 5 < 7 7 5 7 5 5 7 5 7 5 5 5 5 7 7 5 5 7 7 5 7 7 5 7 < 5 5 7 7 5 7 7 7 7 < 5 5 7 7 5 5 5 5 7 7 7 5 7 5 7 7 5 5 7 5 7 5 5 ",
"%.o.%.o.%.' %.o.o.o.%.' %.o.%.o.o.o.o.o.o.o.o.o.o.o.o.o.o.o.o.o.o.+.+.O.o.o.o.+.o.+.o.o.o.o.o.o.o.o.O.o.o.o.O. .o.o.o.o.o.o.o.X.o.o.o.X.o.o.o.o.o.o.o.o.X.o.X.' o.X.' o.o.o.o.o.` o.` o.` o.o.o.o.X.o.X.' X.o.o.X.' o.o.o.` X.o.o.X.O.o.O.o.X.X.X.o.X.X.X.X.X.o.X.X.X.X.X.o.X.X.o.X.o.X.o.X.X.X.X.O.X.X.` X.X.X.X.X.` X.X.` X.X.X.X.X.X.X.X.X.X.X.X.X.X.X.X.O.X.X.X.X.o.X.X.X.X.X.O.X.X.X.X.X.X.X.X.X.X.H X.X.X.X.X.H X.X.X.X.X.X.X.X.X.X.X.V X.H X.X.V X.X.X.X.X.X.X.X.X.X.H ` H X.X.` X.V V X.H X.X.H K X.H H K H H X.H H X.H X.H H X.X.H H X.H X.H X.H X.H X.H X.H X.H X.H X.X.V X.H X.V X.H X.H H H X.V H H H X.H H H X.H H H H H H H H H H H H H H H V V H G H H G H G H H G H H G H D H H G H H G H G H H B B G H H G V H G V H G G H G G H G G H G G G V G G V G H G H H G G G G G G G G H G B G G G H G G G B H H B G G B G G G G G G G G B G G G G G G G G H B V B B B V B B V B B V B B B B B B G G B B B B B B B G B B B B B B B B B G B B G B G B B G B G B G B G B B B B B B B B B B B B B k G B B B B B B B B B B B c G c c G G c B c B c c B c M B c B c B B B c c M c B B c c B c c B c B c B G c B c B c c B c c c G c B c B c S G c S S c S c S c S c S S c S S c G c S S B S c S c S c S S c c c c c c c c c c c c c B c c c c c c z c c M c c z c c c c z c c c z c k c c c x c c c c c c S c c c c S k c c c c c c x c S x c c S k c c A k c x c c c k c c c c k x c c k c c x c c x c c l c c x c c x c c l c z c x c c x c c l c c x x c x c c c l c c x x c l c l c l c x z x c l c x z x c x c x c x c x c x c A x x x c x c x x x c x A k x x x A x k x c x c x x x x x c x x S x x x x x x x S x c x x x x x x x x x x x x x x A x x x x x x x x x A x x x x x x x A x x 8 A x x x x x A x x x A x x x x x x x x x x x l x x x x x x A 8 x 8 x x 8 x 8 x x 8 x 8 x 8 x x 8 A x 8 x A 8 x 8 x 8 8 x 8 8 A 8 x x 8 x 8 x 8 x 8 x 8 A 8 A 8 A 8 8 A x 8 8 x 8 x 8 A x 8 x 8 x 8 x 6 x 8 8 8 x 8 6 8 x 8 8 8 8 8 q x 8 x A 8 8 8 8 q 8 8 q x 8 x 8 x 8 8 8 x 8 6 8 8 x 6 8 8 6 x 8 8 8 x 6 8 8 8 8 6 8 8 6 x 8 8 6 x x 8 6 8 6 x 8 8 8 8 8 8 6 8 8 8 8 8 8 8 6 8 8 8 8 6 x 8 8 8 x 8 8 8 6 x x 8 6 6 x 8 8 8 8 6 8 8 8 6 8 8 8 8 8 6 x 8 8 6 6 x 6 8 6 x 6 8 6 8 6 6 8 6 8 8 6 8 6 8 6 6 8 6 8 6 8 6 8 6 6 8 8 8 8 8 7 6 8 7 8 8 q 7 8 8 8 7 8 7 7 8 8 0 8 7 7 8 7 q 7 7 7 8 7 8 8 7 8 7 0 8 7 8 q 7 8 7 7 8 7 7 7 8 7 8 7 6 5 8 7 7 7 5 5 7 7 5 6 7 8 5 5 7 7 5 7 6 6 7 7 7 7 5 7 7 6 8 5 7 7 5 5 5 8 5 8 5 5 5 8 5 5 7 7 5 8 5 7 7 7 7 7 7 7 7 7 7 7 7 7 7 7 7 7 7 7 7 8 7 7 7 7 7 7 7 7 7 7 7 7 7 7 7 7 7 8 7 7 7 7 7 7 7 7 7 7 7 8 7 7 7 7 7 7 7 7 7 7 7 7 7 8 7 7 8 7 7 7 0 7 7 7 7 7 7 7 5 7 5 7 5 7 5 7 7 5 7 5 7 7 7 5 7 7 5 7 7 7 7 7 7 5 5 7 5 7 5 7 5 5 < 5 7 7 5 5 < 7 5 7 7 5 5 5 7 7 5 7 5 5 5 5 5 7 7 5 5 5 7 7 5 7 5 7 5 < 7 7 5 7 5 5 < 7 5 7 7 5 7 5 7 7 5 7 5 7 7 5 7 5 7 5 5 5 5 7 5 7 7 5 5 7 7 5 5 7 5 7 5 7 7 5 7 7 5 5 < ",
"o.o.o.+.o.o.o.+.o.o.o.o.o.o.o.o.o.o.o.o.+.o.o.o.o.%.+.o.o.%.+.o.+.o.o.o.O.+.+.o.+.o.O.o.o.o.o.+.O.+.o.+.o.o.o.o.o.o.o.o.O.o.o.o.` X.o.' X.o.o.o.' X.o.` o.` o.o.X.o.' o.o.X.o.o.X.X.o.o.o.o.o.o.` o.X.o.o.o.o.o.o.o.X.o.X.o.o.X.o.O.X.o.X.o.O.O.X.X.o.X.X.X.X.X.o.X.X.X.X.o.X.X.X.X.X.o.X.X.o.X.X.o.X.o.` X.X.X.X.X.X.X.X.o.X.o.X.X.X.X.X.O.X.X.X.X.X.X.X.X.X.O.X.X.O.X.X.X.X.X.X.O.X.X.O.X.X.X.V X.X.X.X.X.X.X.X.X.H ` X.X.X.X.X.X.X.X.X.H X.H X.H X.X.X.X.X.X.X.X.X.X.X.H X.H X.H V X.X.X.X.V H X.X.K H X.K H X.H H X.H K X.H H X.X.H H X.H H H H H H H V H X.H H V X.H H H X.H H V X.H H H H H H H H H H H H H H H H H H H H H X.H H H X.H H H X.H H V H H H F H G H H G H H G H J H H H H G H J H G H G H G G V G G V G H V G H G H G G H G V G G V G G G V G G H G G H G G H G G G H G G H G B G G B F B H G G G D G G B G D V B G G B H D G G B G B G B G H G G G G G G B B B B B B B B B B B B B B G B B B B B G B G B G B G B B G B G B B G B G B B B B G B G B G B c G B B B B B B B B B B B B B B k B B B B B B B B S B c c B B S B S c B c c c B c c c c B c c c B c B c G c c B c G B c B B c B c B c c B c G c c c G c c B c c B c c G S c S c S c G S c S S c G S c S S c G c S S S B c c c c S c c c c c M c c c c c c c B c c c c c c c c c c c z c x c z c c c c z c c c z c c c x S x c c k S x c c c c x S A x c c c S c c x c c c c c c k c c c c c c c x c c x c c x c x x c x x c c x c c x c c x c c c x c z x c c x c c x c c x c c x c x c c c l x c x c x c l x c l c x z x z x c l c x x k x S x A x x x x x c x x x x x x c x c x x k A x x x x k A x c x x x c x c c x x x x x x S x c x c x x x x x x A x x x x x A x x x x x x x x x x x A x x x x x x x x x x x x x x A x x x x x x x x x x A x x x x 8 x x x 8 8 x 8 8 A 8 x 8 x x 8 x x 8 x x 8 A 8 A 8 8 x 8 8 A 8 x x 8 x 8 x 8 x x x 8 x A 8 x 8 x 8 x x 8 8 x x 8 x x x x 8 A A 8 x q 8 A x 8 x 8 8 6 x 8 x 8 x 8 q 8 8 8 8 x 8 x x q 8 8 x q 8 8 8 8 8 A x 8 x 8 q 8 8 8 x 8 8 x 8 8 x 8 6 8 x 8 8 l 8 8 x 8 8 8 8 l 8 8 8 x x 6 8 8 x 6 x 6 8 8 x 6 6 8 6 8 x 6 8 8 8 6 8 8 8 6 8 8 8 8 8 8 x 6 8 8 8 8 l 8 8 8 x 6 8 6 x 6 6 8 6 x 6 8 6 8 8 6 x 6 6 8 8 x 6 8 8 8 8 8 6 8 x 8 x x 8 8 8 6 8 8 6 8 8 6 8 6 8 6 6 8 6 8 6 8 8 6 8 6 8 6 8 7 8 8 7 8 8 7 7 8 7 7 7 7 8 7 8 0 7 8 q 7 7 8 7 7 8 8 8 7 7 q 8 7 7 8 7 7 8 7 7 7 8 7 7 8 7 8 8 7 8 5 5 5 7 7 8 5 6 7 7 7 5 8 5 8 6 7 5 8 8 5 5 8 7 6 7 5 7 5 5 8 6 7 7 5 7 6 7 7 7 7 8 7 7 8 7 7 7 7 7 0 7 7 7 8 7 7 8 7 7 7 7 7 7 7 7 7 7 7 7 7 7 7 7 7 7 7 7 7 7 7 7 7 0 8 7 7 7 7 7 7 8 7 7 7 7 7 7 7 7 7 7 7 7 7 7 7 7 7 7 7 7 7 7 8 7 7 7 7 7 7 7 7 7 8 < 5 5 7 5 7 7 < 5 5 7 7 5 7 5 5 5 5 7 7 5 5 5 5 7 7 5 7 7 5 7 5 5 7 7 5 7 7 5 5 7 5 7 5 7 7 7 5 5 7 5 5 7 < 7 7 5 7 7 < 5 7 5 5 7 5 7 5 7 7 7 5 5 5 5 7 7 5 5 5 5 7 5 7 5 7 < 5 5 7 5 7 < 5 5 7 7 7 5 7 7 5 7 5 7 7 5 7 5 7 5 7 7 5 5 5 7 7 5 7 5 7 5 5 7 < 7 7 5 7 7 < ",
"%.o.%.o.%.o.%.o.o.%.o.%.o.%.o.%.%.o.%.o.o.o.%.%.o.o.o.%.o.o.o.%.o.o.+.O.o.o.o.o.o.o.o.+.+.+.o.o.o.o.o.o.o.O.o.o.o.X.o.o.o.o.o.o.o.o.X.o.' o.X.o.o.o.o.X.o.o.o.X.o.o.o.X.o.o.o.X.o.' X.o.` o.X.o.o.o.o.o.' X.o.X.o.X.o.' X.o.o.X.o.X.X.O.O.o.X.o.o.X.X.X.X.o.X.o.X.X.X.o.X.X.o.X.o.X.X.X.X.o.X.X.X.X.X.X.X.X.` o.o.` X.` ` X.X.X.X.X.X.X.X.X.X.X.X.X.X.X.X.X.X.X.X.X.X.X.X.X.X.X.X.X.X.X.X.X.X.` X.X.X.H X.X.X.H X.X.X.X.V X.X.X.H X.H X.X.X.X.X.X.X.X.H X.X.H X.H X.V V H ` X.X.` X.X.X.V V X.X.X.H H X.H H X.X.H X.K H X.X.H H H H H X.H H X.X.H X.H X.H X.H H H H H H H H H H H H H H H H H X.X.H H V X.H H V X.H H V X.H H V H H H H H H H H H H H H H H V V H G H G G H H G G H H H H D H H H H H H F H H D H G G H G G G G G G G V V G G V G H H G G H H B G G G G G H G G G G G G G G H J H B G G G G G G B G G V H B G G G G G H G G H B B H H G G G G H G G G G G H G G V B V B B V V B B G G B B B G B G B B B B B B B B c G B B B B B B B B B B G B G B B B B B B G B B G B G G B G B B M B B B B G B B B B B B B B G B B c S c G S G B c B B G c B G B c c B G c c B c B c c B c c c c c c S B c B c G c c B c B B c c B B c G c c B S c c S S S c S c S S c c S S c S c S c c S S c c S S S c S c S c B c c c c c c c c c c c c c c c c z c z c c c c c z c c c c c c c z c c c c c c c k S c c S x c c c x c c c k c c A k x c c c c c c c x S S x c A x c c c c c x c c x c c c c c c c x l c c x c x x c c x c x x c x c c l x c c x x c c l x c c x x c l c x z l c x c c l c x c x c x c x c x x c x x x x k x x c x c x x x c x S x x x x k x x x x c x c x x x x S x x x x x x x c x c x x x x x x x S x x c x x x x x A x x x x x x x A x x x x x x x x x x A x x x x x x A x x x x x x x x x x A x x x x x x x x x x x x l x 8 x x 8 x 8 x 8 x A 8 8 x x 8 x 8 x 8 x x 8 x x x x 8 8 x x 8 8 A x 8 8 x x 8 x 8 x x x 8 8 A A 8 8 x x 8 8 x A 8 8 x 8 8 x 8 8 x 8 x x x 8 6 8 q 8 8 x x 8 x 8 8 q 8 8 8 x 8 8 8 x 8 q x 8 8 8 q 8 8 x x 8 x x x 8 8 6 8 6 8 8 8 6 8 8 8 8 8 6 8 x 6 8 8 8 8 8 6 8 6 8 8 8 6 8 8 6 8 8 8 x 8 8 8 8 8 8 6 6 x 8 8 8 6 x 6 6 8 8 8 6 8 x 8 8 8 8 8 6 x 8 8 8 8 8 8 x 8 8 8 8 8 x 8 8 8 8 8 x 8 8 6 8 8 8 6 x 6 6 8 8 8 8 8 8 6 6 8 6 6 8 6 6 8 6 8 8 6 8 6 8 6 6 6 6 8 6 8 8 8 8 7 8 7 8 0 7 8 q 7 7 8 8 7 7 q 8 8 7 7 7 7 8 7 8 8 7 0 7 8 7 7 7 8 7 8 q 8 7 q 8 q 7 8 8 8 0 7 7 8 5 5 5 8 5 6 5 7 7 5 5 6 7 5 7 5 7 7 5 7 5 7 7 5 7 7 8 5 8 8 7 5 7 5 5 8 7 7 7 7 7 0 7 7 7 7 7 7 7 7 7 7 7 7 7 7 7 7 7 7 7 7 7 7 7 7 7 7 7 7 7 7 7 8 7 8 7 7 7 7 7 7 7 7 7 7 7 7 7 7 7 7 7 7 7 7 8 7 7 7 7 7 7 7 7 7 7 8 7 7 7 q 7 7 7 7 7 7 7 7 7 7 7 7 7 7 7 7 5 5 5 7 5 7 5 5 7 5 7 7 7 < 7 5 5 7 7 < 7 5 5 7 7 5 5 7 7 5 7 5 < 7 5 7 7 7 7 7 5 7 7 5 5 7 7 7 7 7 5 5 5 7 7 5 5 5 7 7 7 7 7 7 5 7 7 5 5 7 5 < 7 5 5 7 < 7 5 7 5 7 7 5 5 5 5 7 7 7 5 5 7 5 5 7 7 5 7 7 5 5 7 5 5 7 5 5 7 5 5 7 5 5 5 7 5 7 7 7 7 7 5 5 5 7 7 5 5 5 ",
"o.o.o.%.o.o.o.%.%.o.o.o.%.o.o.o.o.+.o.%.%.o.o.o.%.o.o.o.o.%.o.o.o.+.+.o.o.o.o.+.o.+.o.o.O.o.o.o.o.o.+.o.o.o.O. .o.o.X.o.o.o.o.o.X.o.o.o.X.o.X.' o.' X.o.o.X.o.o.X.o.X.o.' o.X.' X.o.o.o.X.o.o.o.` X.o.` o.X.' X.o.' o.X.o.X.o.o.o.X.o.O.O.X.X.O.X.o.X.X.o.X.X.X.o.X.o.X.X.X.X.X.X.o.O.X.X.X.X.X.` X.o.X.` o.X.X.X.X.o.X.X.X.o.X.X.O.X.X.X.X.X.X.X.X.X.X.X.X.X.X.X.X.X.O.X.O.X.X.X.X.X.X.X.X.X. .X.` X.` X.X.X.X.X.X.X.X.X.X.X.X.X.X.H X.X.X.X.X.X.H X.X.V X.X.H X.X.X.X.X.` X.X.H X.` H X.X.H X.H H H H X.H H H H X.H X.H X.H X.X.K H H X.H X.H X.V H H X.H V H H X.H H H X.H H H X.H H H X.H H H H H X.H H H X.H H H X.H H H X.H H V H H H H H H H H H H V H H H D H J F G H H H H H G H G G H H G H H G H G H G V V G G H H G V G G H B H G H G G H G B B H H G G J H G J G G G H G H G G G G G G H B B G G G G G G G G G G H G G G B H B B G B D G G G G B B H B G G G G H B B B V B B B B B G B B B B B B B B G B G B G B B G B B G B B G B B G B B G B B B B B G B B B B B G B B B B B B G B B B B B B B B B M B B B B B k c B c G G S G S c B c c c c B c B c B c c B G c B c c B c c B c c G G c c c B c c B S B B c c B c c B c c B G c c S B S c S c S c S c S S c c G c B c S S S c G c S c G c c c k c B c c c c c c c c c c c c c c c z c z c c c c z c c c c x c c c z c c c c c z c c c c c c c c S x c c c c c c c c c c S c c c k c c x c c c c c k c x x k S c x c c x z x x c l x c c x z c x c z x c c x c c x c c x c c c c z x c c c c c c c c c c c l c x c x c x x c x c x c x c x z l c x A x x x x x x x x x x A x x c x x A c x x A x x x x c x x x x x x x x k A c x k x x x c x x k k A c x x x k x x x x x x x x x x x x x x x x x x A x x x x A x x x x x x x x x x x x x x x A x x x x x x x x x x 8 x x x x x l x x x 8 x x 8 A x 8 8 x A 8 8 x x 8 x x 8 x A 8 x 8 x x x x 8 x x 8 8 x 8 x 8 x 8 8 x 8 8 x x 8 8 x x 8 8 A 8 8 8 8 q 8 C 8 A 8 x 8 6 8 8 x 8 x 8 x x 8 8 8 8 q x 8 x 8 8 8 q x 8 8 q x x 8 8 8 8 x 8 x 8 8 8 q 8 8 8 8 x 6 8 6 x 6 6 8 8 8 x 6 6 x 6 8 8 8 6 8 6 x 6 8 8 8 8 8 8 8 8 8 8 x 6 8 8 8 6 8 8 x 6 x x 6 8 x x 8 x 6 x 6 8 8 6 6 8 8 8 6 8 6 6 8 8 8 8 l 8 8 8 8 8 6 8 6 8 8 8 6 8 8 8 8 8 8 6 x 8 6 8 x 8 x 8 x 8 8 8 6 8 6 6 6 8 6 6 8 6 8 6 8 6 6 8 6 8 6 8 6 6 8 8 7 8 7 7 8 7 7 7 8 q 7 7 q 8 7 7 7 7 8 8 7 0 8 7 q 8 7 0 8 7 8 q 7 8 0 7 8 7 7 7 8 7 7 7 7 7 8 7 8 7 8 5 8 5 7 7 6 5 8 8 5 7 7 7 6 8 5 8 5 6 7 6 7 5 7 5 7 5 5 6 6 7 8 7 7 5 8 8 7 7 7 7 7 7 7 7 7 7 7 7 8 7 7 7 7 7 7 7 7 7 7 7 7 7 7 7 8 7 7 7 7 7 0 7 7 7 7 7 7 8 7 7 7 7 7 7 7 7 7 8 7 0 7 7 7 7 7 7 8 7 7 7 7 7 7 7 7 7 7 7 7 7 7 7 7 7 7 7 7 7 8 7 7 7 7 7 5 5 7 7 7 5 5 5 7 7 5 7 5 5 7 7 7 5 7 5 7 5 7 5 7 < 7 7 5 5 7 5 7 5 5 7 5 5 < 5 5 5 7 5 5 7 7 7 5 5 7 5 7 5 5 5 7 5 5 7 5 5 5 < 5 5 7 5 7 7 < 7 7 7 7 7 7 7 5 5 7 7 5 7 7 5 7 7 7 5 5 5 7 7 5 5 5 7 7 5 7 7 5 < 7 7 7 7 < 7 7 7 7 7 < 7 7 7 5 7 5 5 7 5 7 5 5 5 7 5 5 ",
"%.o.o.o.%.o.o.o.+.o.o.%.o.+.%.o.%.o.o.%.o.o.o.%.o.o.o.%.o.o.%.o.o.O.o.o.o.+.o.O.o.o.+.o.o.o.O.+.o.+.O.+. .o.o.o.o.o.o.o.o.o.o.O.o.' o.X.o.o.o.o.X.o.o.o.o.o.o.` ' o.o.o.X.o.o.o.o.o.X.' o.o.` o.o.o.o.o.' o.o.o.o.X.o.' o.' o.X.X.O.o.X.X.o.O.o.X.X.X.o.X.X.X.o.X.X.X.X.o.X.o.X.X.X.X.o.X.o.X.o.X.X.X.` X.X.X.X.X.X.` X.X.X.` X.X.X.X.X.X.X.X.X.X.o.X.O.X.X.X.X.X.X.X.X.X.X.X.X.X.X.X.X.X.X.H X.X.H X.X.X.X.X.X.X.X.X.X.X.X.H X.X.X.X.X.X.H H ` X.X.X.H X.X.X.X.H X.V X.X.H H X.X.H X.H X.V X.V H X.X.H H X.X.H H H H X.H H H X.H X.X.H X.K H K H H V X.H H X.H H H H H H H H H H H H H H H H H H H H H H H H H H H H H H H H H H H X.H H H X.H H H H H H H H V H H H H H G H J D H G H G H H G H H D G H G H G G G H G G V G G G H H B H B H G V H B G H H B H H G G H G H G G H J G G G G H G G G B D G G B G G G B G G G B B G B G G G G G G G H B G B H D G G G G G G H D B B B B B B V B B c G B G G B G B B B B B B B G B B B B B G B B B B B B G B B B G B G B B B G G B B B G c G B B B B B B c B B M B B B B k B B B B B c c G c B S G G c B c c B c B c B c B B c c B c B G c B G c B B c c B c B c G c c B c c c G c G c c G S c B c S c S c G c S c S c S B c S S c S S S c c c S c S c S c c S c S c c c c c c c c B c c c c M c c c c c c c c z c c c c c c c z c c c c c c c c c x c c c c x c c k c c c c x c c c x c c k x c c A c c c c c x c c c c c c c x S c c x c c x c c c c x c c c x c x c c x l c c x c x c c x c x x x c c x l x c x x c l x x c x c l x c z c l c x c l c l c x c x x c x c c x c x k x x S k x x x x k x x x c x x S x x x x c x c x c x x x x x x A x c x x x A x x x x x x x A x x A x x x x x x x x A x x x x A x x x x x x x x x x x A A x x x x A x x x x x x x A x x x A x x x x x x l x x 8 8 A 8 x x 8 x 8 8 x 8 x 8 x x 8 8 x 8 x x 8 x x 8 x 8 8 8 A x 8 8 x x 8 x 8 A 8 x x 8 A x 8 x x x 8 x A x 8 x x 8 C x 8 A 8 8 x 8 x x 8 x 8 x 8 q 8 q 8 x 8 8 x 8 q 8 q 8 x 8 x 8 x 8 x 8 8 x q q 8 q 8 x 8 x 8 8 x x 8 8 8 8 8 8 8 8 6 x 8 8 6 8 8 8 8 6 x 8 8 8 8 8 8 6 6 x 8 8 l 8 8 6 8 8 8 8 8 6 x 8 6 8 8 6 8 8 8 6 8 8 8 6 8 8 6 8 8 x 6 8 x 8 8 8 6 x 8 8 8 8 8 8 8 6 x 8 6 x 8 8 x 6 8 8 8 8 l 8 8 8 x 6 8 6 8 8 8 8 6 6 8 6 8 x 6 6 8 8 6 8 6 8 6 8 x 6 8 6 8 6 8 6 8 8 8 0 8 8 7 7 q 8 7 7 8 7 8 7 8 7 8 q 7 7 8 8 7 8 7 7 8 7 8 8 7 8 7 7 8 7 7 8 7 q 7 8 8 0 8 8 8 8 7 5 8 5 5 8 5 7 7 7 7 6 7 6 7 7 7 5 5 8 7 7 5 5 7 8 5 7 6 8 7 7 7 7 5 5 6 7 5 7 7 7 7 7 7 7 7 8 7 7 7 7 7 7 7 7 7 7 7 0 7 7 7 q 7 7 7 7 7 7 7 7 7 7 7 7 7 7 7 7 7 7 7 7 7 7 7 8 7 7 7 7 7 7 7 7 7 7 7 7 0 7 7 7 7 8 7 7 7 7 7 7 7 7 7 7 7 7 7 7 7 7 0 7 7 7 7 5 7 7 7 5 7 7 7 7 7 5 7 7 5 7 7 5 7 7 5 7 7 5 7 5 5 5 5 7 < 5 5 7 7 5 5 5 5 5 7 7 < 5 5 7 5 5 < 5 7 7 5 5 7 7 7 7 7 5 7 7 5 5 < 5 5 7 5 7 5 5 5 5 7 5 5 7 5 5 7 7 5 7 7 5 7 7 5 7 5 7 7 7 5 7 7 5 5 < 5 7 5 < 5 5 5 7 5 5 7 5 5 7 5 5 7 5 5 7 7 5 7 7 5 5 7 7 7 7 7 5 7 ",
"o.%.o.o.o.%.o.%.%.o.%.o.o.o.%.o.o.%.o.o.+.o.%.o.%.o.%.o.o.o.o.o.o.+.o.o.+.o.o.o.+.o.o.o.o.o.o.o.o.o.O.o.o.o.o.o.o.o.o.o.O.o.o.o.o.X.o.o.X.o.o.X.o.o.' o.' o.o.X.o.X.o.X.o.` X.o.o.' o.o.` o.o.X.X.o.o.' o.o.X.o.` o.o.o.o.o.o.X.o.O.O.X.o.O.o.X.X.o.X.o.X.X.X.X.o.X.X.X.X.X.X.X.X.o.X.X.X.o.X.X.X.o.X.X.X.X.' X.X.o.` X.X.X.o.X.X.X.X.X.X.X.X.O.X.X.X.X.O.X.X.X.X.X.X.X.O.X.X.X.X.X.X.X.X.X.X.V X.X.X.X.X.X.X.X.H X.X.` X.X.X.X.H X.V X.X.X.H X.X.X.X.X.H X.X.X.X.X.H X.X.X.X.X.` X.V X.V X.X.X.H X.H K X.H X.X.X.H H X.K X.H H H X.H H X.H X.X.X.H X.V H H H H H H H X.H H H H H H H X.H H X.H H X.H H H X.H H H X.H H H X.H H H H H H V H H H H H H H V H H H H G G H G H H H H G H H H H G H H H H H G H H D H G G H G G G V G G H G G H G G H G G H G G H G G G G H G G G H G G H H H G G H G G G H G G G H B H G G G B D G D G B G B G G B B H G G G H G B B G B D H G G B V B B V M B B B B G B B B B B B B G G c G B B G G B G B G B B B B G B B B B G B B G B B B B B B G B G B B G B G B B B B B B B B c B B B B B B B c c G c c G c c c c c B c B c c c B B c B c c c c B c c c c B c c G c c G c c c B c B c B c G c B c c B B c B c S S c S S c S c c S c S c S c S S c S S S c G c S c S S c S c S c c c c c c c B c c c c c c c c z c c c c z c c c c c c z c c c z c c c z c c c x S k c x c c c c c x k S c k A c c c c c c x c c c c c c k S c c c x c S k x c x c c c x c c x x c c x x x c c c l c c c x x c c l x c c x x c c l x c c c x c c x c c x c x c c x x c x z x z x z x c x c x c x x c x k x x S A x x c x x x x A k x c c x S x x x x x x x x x k A x x x S c x x x x x x x x x c x x x x c x c x x A x x x x A x x x x x A x x x x x x x x x x x x x x x x x x A x x x A x x x x x A x A x x x x x x x x 8 x x 8 x 8 x 8 x x 8 x x A 8 x x x x 8 x x 8 x 8 x 8 x x 8 A x 8 x 8 A 8 x 8 x x x x 8 A x 8 8 8 x 8 8 x x 8 8 x A 8 8 x q 8 8 C 8 q x 8 x 8 8 x 6 8 8 8 x 8 8 8 8 8 x x 8 q 8 q x 8 q 8 8 x x 8 8 8 8 8 x 8 8 8 q 8 8 8 8 8 x 6 8 x 8 l 8 8 8 8 x 8 6 8 8 8 8 l x 6 8 6 8 6 8 8 8 8 8 6 8 8 x 6 8 8 6 x x 6 8 8 8 8 8 6 8 8 8 8 x 6 6 8 8 x 8 8 x 8 8 6 8 8 x 6 6 8 x 8 8 6 x 6 8 8 8 8 x 6 6 x 8 8 x 6 6 8 8 8 6 8 8 8 6 x 8 8 8 6 8 6 8 6 8 6 6 8 6 8 6 8 6 8 8 6 8 6 8 6 8 6 8 8 8 8 7 7 8 7 7 q 0 8 8 7 q 7 0 8 8 7 7 8 0 8 7 8 7 7 q 7 7 8 0 8 7 q 7 7 8 7 7 8 7 7 8 7 7 8 7 0 7 8 5 7 5 8 5 7 5 7 6 7 5 8 5 7 6 7 8 5 7 6 7 8 8 6 7 7 6 7 7 5 8 5 7 5 8 6 7 7 7 7 7 7 7 7 7 7 7 7 7 7 7 7 7 7 7 8 7 7 8 7 7 7 7 7 7 7 7 7 8 7 8 7 7 8 7 7 8 7 7 7 7 7 7 7 7 7 7 7 7 7 7 7 7 7 7 7 8 7 7 7 7 7 7 7 7 7 7 8 7 7 7 7 7 7 7 7 7 7 7 7 5 7 7 7 7 7 5 7 7 5 5 7 7 5 7 5 7 5 7 5 7 5 7 5 5 7 5 5 7 7 7 5 7 7 5 7 7 5 5 7 5 5 5 5 5 7 7 5 5 7 5 5 7 5 7 7 < 5 5 5 5 7 5 7 5 7 7 5 5 7 7 5 5 7 5 5 7 5 7 5 7 7 5 7 7 5 7 5 7 5 7 7 7 7 7 5 7 7 7 5 7 < 7 5 7 7 7 7 7 5 5 5 7 7 5 7 5 7 7 5 < 7 7 5 5 5 7 7 < 5 5 5 < 7 5 7 5 7 ",
"o.o.o.%.o.%.o.o.o.o.o.o.o.%.o.+.o.o.%.o.o.%.o.o.o.o.+.o.%.o.%.o.o.o.o.+.o.o.+.o.O.o.o.+.o.O.+.o.+.o.+.o.o.o.O.o.o.O.o.X.o.o.o.o.o.o.X.o.' o.o.o.X.o.X.o.X.o.' o.o.X.o.' o.o.o.o.o.X.X.o.o.o.' o.o.o.X.o.X.o.' o.o.o.X.o.o.` o.o.o.X.o.X.o.X.X.O.X.X.X.X.X.o.X.o.X.X.X.o.o.X.o.X.X.X.o.X.X.X.X.o.X.` X.X.X.X.X.X.X.X.X.X.X.X.` X.X.X.X.X.X.X.X.X.X.X.O.X.X.X.X.X.X.X.X.X.X.X.X.X.X.X.X.X.X.X.X.X.` H X.X.X.X.X.X.X.X.X.X.X.X.X.` X.X.X.X.X.H X.X.X.H X.V X.X.X.H X.X.X.V V X.H X.H X.V X.X.X.V X.X.H H X.H H H H H X.X.H X.H H X.X.H H X.H H H H H H H H X.H X.H H H H V H H X.V H H H V H H V H H H H H H H H H H H H H H H H H H X.H H X.H H H X.V H H H H V H G H H H G H G H H H G G F G H G H J H G H G H H B H V G G V H G H V G G V G G V G V V G H V G G G G G G G G G G H G G J G G H J B G G B D G B B G G G B G H B G V G G H G G G F G G G B G B G D D B B G G G D V B B B M V B B V B B B B G B G B B B B B B G B B B B B B B B B G G c B G B G B B B B G B G B G B B B B B B B B B k B B B B B B B B B B B B B B c B B c G G c G S G c c c B S B c B c c B c B B c G c B G G c c B B c c B c c B G c B c c B S c B c c G c c B B c c G S c S S c G G c S G S c S S c G c c c S S S c S c S k c c c c c c c c c c c c c c c c c B c c c c c c c c c c c c c c c c z c c c z c c c z c c S x S c c c S x c c x c c c x c x c c c c c c x c c c x x c S k S c x c c c x c x z c x x c c l c c c c c x c x x c x c c c c c z c x c c c x c c c x c c x c x x c c l c x l c c l c x c x c x c l c l c l x A x x A x x x c x x x S x c x x x x x x x x x A k c x x A k x x x c x x x x x x x S x x c x c x x x c x x x x x x x x x x x x x x x A x x x x x x x A x x x A x A x x x x x A 8 x x x x x x x x x x x x x x x x x 6 x x l x l x x x 8 x x 8 x A 8 8 x x 8 8 x x 8 x x 8 x 8 A 8 x x 8 8 A 8 x x x 8 x x 8 8 x x 8 x x A x 8 x x 8 8 x x 8 x x A 8 8 x 8 A x 8 x 8 8 x x 8 x 6 x 8 8 q x q A 8 8 8 x 8 x 8 8 8 8 x q 8 q 8 x 8 x 8 8 q x 8 x 8 x 8 8 x 8 8 6 8 8 8 8 8 8 6 6 8 8 8 8 8 8 8 8 8 x 8 8 x x 6 6 8 8 6 x 6 6 8 8 6 8 6 8 8 6 8 8 8 8 x 8 6 8 6 8 8 x 8 6 8 6 8 6 8 x 8 8 6 8 8 x 6 6 8 8 x 6 8 x 8 8 8 6 8 8 8 8 6 6 8 x 6 x 8 8 8 8 8 8 8 x 6 8 8 6 8 6 8 6 6 8 6 8 6 8 6 8 6 6 8 6 8 6 8 6 8 6 8 8 0 7 8 7 8 7 7 8 7 7 8 8 7 7 8 7 q 8 7 8 7 8 7 7 8 8 7 8 7 8 7 8 7 7 8 7 8 q 7 7 8 7 q 8 7 8 7 8 7 5 7 5 5 8 5 8 5 6 7 7 7 7 6 7 5 6 7 5 8 7 5 5 7 7 6 7 5 5 8 5 5 8 8 5 7 8 5 7 7 7 7 7 8 0 7 7 7 7 7 7 7 7 7 7 7 7 7 7 7 7 7 7 7 7 7 7 7 7 7 7 7 7 7 7 7 0 7 0 7 7 7 8 7 7 7 7 7 7 7 7 7 7 8 7 7 7 7 7 7 8 7 8 7 7 0 7 7 7 7 8 7 7 7 7 8 7 8 < 5 7 5 7 7 7 7 5 5 5 7 7 7 5 5 < 7 7 5 7 7 5 5 5 7 7 5 7 7 5 < 7 5 7 5 7 5 7 7 5 7 < 7 7 7 7 7 5 7 7 7 7 7 7 7 5 7 5 5 5 < 7 7 5 7 5 5 7 7 7 5 5 7 7 7 7 7 7 7 7 5 5 7 7 7 5 7 < 7 7 5 7 5 5 7 < 7 5 5 5 7 5 5 5 7 7 5 5 5 7 7 7 5 5 7 5 < 7 7 5 5 5 5 < 5 5 7 5 7 5 5 7 5 5 7 5 7 5 5 ",
"o.o.+.o.o.o.+.o.o.o.%.o.o.o.o.%.+.o.o.o.o.o.o.o.o.o.%.o.o.o.o.%.o.o.o.O.o.o.o.+.+.o.o.+.o.+.o.+.O.+.o.o.o.o.o.o.o.o.o.o.o.o.o.o.' o.o.' X.X.o.X.o.' o.X.' o.X.o.' o.o.o.o.X.X.o.o.o.' o.X.o.X.X.o.' o.X.' o.X.o.X.o.o.o.X.o.o.X.o.O.X.O.O.o.X.o.X.o.X.X.X.o.X.o.o.X.X.X.X.X.X.o.X.X.X.X.X.X.o.X.X.X.o.` X.X.X.X.X.X.X.X.X.X.X.X.X.X.O.X.O.X.X.X.X.X.X.X.X.X.X.X.X.X.X.X.X.X.O.X.X.X.X.X.X.X.X.X.X.X.X.X.X.X.` X.X.X.X.X.X.H ` X.X.H H X.X.X.X.X.X.X.X.X.X.X.X.H X.H X.V V X.X.X.` X.X.X.X.V X.V X.H X.H K X.X.H H X.K H X.H H X.X.K H X.H X.X.H H H X.H V H H X.H X.H H H H H H H X.H H H H H H H H H H H H H H H H H H H H X.H H H H H H H H X.H H H X.H V H H H H G D H H G H G H G H J H H G H H G H H G H G H H B H H H B G G B H V G H H G H G H G G V G V H J H G H J H G G G G G G G G G B H G B V G G G B G G G G G G H G G G B B G G B H B H B B G B H H B V G G G B B B B B B B B B B B G B B B B B G B B B B B G B G B B G B G B G B G B B B B B B B B B B B B B B G B G B G B G B B B B B B c B G k B M B B k G B B B G S B G S B S B B B c B c c G c B c c B B c B c c B c c B S B c B c B B c B c G B c G c B c c B c c B B c c B S c S S c G S c S c S c S c G c S c c S B S c S S c c S S S c c c c B c B c c c c M B c c c c c c c z c c c z c z c c c c c c c c c c c c z c c c c c c c k c x c x c c S c x c c S x c x c x c c c k A c c S c c x c c S c c c c c x c c x c c c x x c c x x c x c c c c c c x x c c x c c x l c c c x x c c x x c c c l c x z c x z c x c x c x c x c x c x c x k x x x x x x x c x c x x k x x x x x x c k x x x x x c x x S x x x x x x x x k A x c x x x x A x x S x c x x x x x x x x x x x A x x x x x x A x x x x A x x x x x A A x x x x x A x x x x A x x x x x x A x x x x x x x x 6 A 8 x x 8 A 8 x 8 x x 8 8 8 x 8 x 8 A 8 x x x x x 8 x x x x 8 x 8 x 8 x 8 A 8 8 8 x x 8 8 A x x 8 x A 8 8 x x 8 q x A 8 A 8 8 x 8 x 8 x x 8 x 6 8 q x 8 8 8 A 8 x 8 8 8 8 8 8 x q 8 8 x x 8 8 8 8 q x 8 A 8 x 8 x 6 8 8 8 8 8 8 8 8 8 x 6 8 8 8 x 8 6 6 8 x 6 8 6 8 8 8 x 8 x 6 8 x 8 6 8 8 8 x 8 x 6 8 x 8 8 l 6 8 6 8 8 8 8 8 8 8 8 8 x 6 8 6 6 8 8 8 6 6 8 8 8 6 8 6 6 x 6 8 x 6 8 8 6 8 6 x 8 6 8 8 6 8 8 6 x 6 8 6 8 6 x 6 8 6 8 6 8 6 6 8 6 8 6 8 6 8 6 6 8 6 8 6 8 6 6 8 8 7 8 7 8 0 7 8 7 8 7 7 7 q 7 7 8 7 7 q 7 8 q 7 8 7 7 8 8 7 7 7 7 8 8 7 8 7 8 7 7 q 7 8 0 8 7 7 7 8 8 5 5 8 8 5 6 7 7 7 7 6 5 7 6 7 7 7 7 5 5 8 7 6 7 5 5 8 7 5 7 7 5 5 8 5 5 7 8 7 7 7 7 7 7 7 7 7 8 7 7 7 8 7 7 7 7 7 7 7 7 7 8 7 7 7 7 7 7 7 7 7 7 7 7 7 7 7 8 7 7 7 7 7 7 7 7 7 7 7 7 7 7 7 7 7 7 7 7 7 7 7 7 7 7 7 7 7 7 7 7 7 7 7 7 7 7 7 5 7 5 7 7 5 5 7 < 5 7 5 5 7 5 5 5 5 7 7 5 7 7 5 < 5 7 7 5 7 5 5 5 7 7 5 7 < 5 7 7 7 5 5 5 7 7 5 7 7 5 5 7 5 5 7 7 5 7 5 5 7 7 5 7 7 5 5 5 7 7 7 7 7 7 5 5 < 5 7 5 5 5 7 7 5 5 5 5 5 7 7 5 < 5 5 5 5 7 7 7 7 5 7 5 7 5 5 7 5 7 5 7 7 5 7 5 7 5 5 7 5 5 7 7 5 7 7 7 5 7 5 5 7 7 5 7 7 5 5 ",
"%.o.%.o.o.%.o.o.%.%.o.o.%.o.o.o.%.o.%.o.o.%.o.%.o.%.o.o.%.o.+.o.+.+.o.o.O.+.o.o.o.o.O.o.o.+.o.o.o.o.o.+.o.o.O.o.o.X.o.o.o.o.o.o.X.o.X.o.o.o.o.' o.X.o.X.o.X.o.o.o.X.o.X.' o.' o.o.X.X.o.o.' o.o.o.X.o.o.X.X.o.o.o.o.` o.` o.o.o.X.o.X.o.X.O.O.X.X.X.o.X.X.X.X.X.X.X.o.X.o.X.X.X.o.X.o.X.o.X.X.X.X.` X.X.X.X.` o.` o.X.X.X.' X.' X.X.X.X.X.X.X.X.X.X.X.X.X.O.X.X.O.X.X.X.X.X.X.X.X.O.X.X.X.X.X. .` H X.` X.H X.X.X.X.X.H X.X.X.X.X.X.X.X.X.X.H X.H X.H X.H X.X.X.X.X.X.X.X.H X.X.H H X.V X.V X.X.H H X.H H X.H H X.H H X.H H X.H H H X.H X.H H X.H X.H H X.H H H H H H H X.H H H H H H H H X.H H H V X.H H H X.H H V X.H H H H H H H V X.H H H H H H H H H H V V H G H H G H H D H D H H F H G H H D H H G H G V B H H B G G H V H H B H G G V G B H B H G G H G G G G H G G G H G G G H G G H G G G G G G G G G G G B F B G G B G G G G G G G G D B G G G G G G B B G G G G B B V B B V B B V B B B G B G B B B G B B G B B B B B G B B B B B B B B B G B G B G G B G B G B B B B B B B B B G B B B B B B B G B B B B B B B B G c c B S c G c B c c B c c B c c B c B c c c B c c B c B c c B c c G c c G c c B c c B c B c c B B S c G c c G c c S c c S c S c c S c S c S c S S S S c S c S c G c S S c c S c c c c c c c c c c c c c c c c c c z c c z c c c c c c z c z c c c c c c c c c x c x c c x S c c c c c c c c c c c k S c k S S c x c c c c x c c c c c x c c c c x c c x x c c l x c c x c c l c c c x x c l x z c x x c c x c c c x x c c x z c z c x x c x c x c x c x c l c l c l c l c x z x x x c x c x c x x x x x x x A x x c c x x x x A x c x c x x x x c x c x k A x c x x x x c x A k k x x x x x A k A x x x x A x x x x x x x A x x x x x x x x x x x x x x x x x x x x x x x x x x x x A x x x x x x x x x 8 l x x 8 x 8 8 x 8 x 8 x 8 8 x x x 8 A 8 A 8 x 8 8 x 8 8 A 8 8 x 8 x 8 x 8 A 8 x 8 x x 8 x 8 x x 8 x 8 x x 8 x 8 x 8 x 8 8 A 8 8 8 x 8 x 6 x 8 8 x 8 8 x 8 x 8 x 8 8 8 8 q 8 x x q 8 8 8 x 8 8 8 8 A 8 x 8 x 8 8 8 8 q 6 8 8 8 6 x 6 8 x 6 8 6 x 8 8 6 6 8 8 x 8 8 8 6 8 8 6 8 6 8 8 8 8 8 6 x 8 8 6 8 8 8 8 6 6 8 8 8 6 x x 8 8 6 x 6 8 8 l 8 8 8 8 6 8 8 x 6 8 x 8 8 8 8 8 8 8 8 6 8 8 6 8 6 x 8 8 8 8 x 8 8 8 6 8 x 8 6 6 8 6 6 8 8 6 8 6 8 6 8 8 6 8 6 8 6 8 6 8 6 6 8 6 8 6 8 6 8 8 8 7 8 7 8 7 8 8 7 q 7 8 7 7 8 7 8 7 7 8 7 7 8 7 7 q 7 8 0 8 8 8 7 7 q 0 8 7 8 7 7 8 7 8 7 8 8 8 7 6 7 5 7 5 7 7 5 8 5 7 5 8 6 7 5 8 5 7 6 7 5 7 7 5 8 7 7 6 8 7 6 8 7 5 7 7 6 7 7 7 7 7 7 7 7 0 7 7 7 7 7 7 7 7 7 7 7 7 7 7 8 7 7 7 7 7 7 0 7 7 7 7 7 7 7 7 7 7 7 8 7 7 7 7 7 7 7 q 7 7 7 7 7 7 7 7 7 7 7 7 7 7 7 7 7 7 7 7 7 7 7 7 7 7 0 7 7 5 7 7 7 5 7 5 7 7 5 7 7 5 7 < 7 5 5 5 7 7 5 < 5 5 5 5 7 7 5 7 5 7 7 5 5 5 5 7 5 7 5 7 7 7 5 5 7 7 5 5 5 < 7 5 7 7 5 7 7 5 7 5 7 7 5 7 < 7 5 5 7 7 5 5 5 5 7 5 7 5 < 7 7 5 7 5 5 5 5 7 5 7 7 5 5 5 5 5 7 5 5 7 5 7 7 5 5 < 7 7 5 5 7 7 5 5 5 7 7 7 7 7 7 5 7 7 5 7 5 7 7 5 7 5 7 7 5 7 < ",
"o.o.%.o.o.o.o.o.o.o.o.o.o.%.o.o.o.o.%.o.o.%.o.o.o.o.o.o.+.o.o.o.o.o.O.o.+.+.o.o.o.o.+.+.o.o.o.o.o.o.o.o.o.o.o.O.o.X.o.o.o.o.o.o.' o.o.o.o.X.X.o.o.o.o.o.X.' X.o.o.o.o.' X.o.X.o.o.o.o.X.o.X.` o.o.o.' X.o.o.` X.o.X.o.o.o.o.o.X.o.X.o.X.X.o.o.X.X.o.X.X.o.X.o.X.X.X.o.X.o.X.X.o.X.o.X.o.o.X.o.X.o.` X.X.` X.X.X.o.X.X.X.` X.X.X.X.X.X.X.X.X.O.X.X.X.O.X.X.X.X.X.X.O.X.X.X.X.X.X.X.X.X.X.X.X.X. .H X.X.X.X.X.X.X.X.X.X.X.X.X.X.X.X.H ` H X.H X.X.X.H X.H X.X.X.X.X.H H X.` X.H X.` H X.X.X.V X.H X.H H H X.H K X.H K X.H H X.X.H X.H H H X.X.H X.V H H H H X.V H H H V H H H H X.H H X.H H H H H H H H H H X.V H X.H H H H H H H H H H H H H H H H H H X.V H H H J H H G H H G H H G D H H G H H H J H G H H H G G V G G G H G H B H H B V G G V G G H B G H B G J H G G J H G G H G H G G H J H G G G G B G G B G G D G G H G B B G G B B G G B H B G G B H G G B H G H B G V D B B V B B V B B G B B c G B B G B B B B B B B B G B B B G B G B B G B G B B B B B B B B G B G B G B B B B B B G k B B B k B B B c B B B B B B c B c S c G c S G c B c c c B c B G c c G B S c B B c G c c B c G B c S B c B c c c c B c B c B S c c B c c S B c S c G c c S c S S S c G S c c S c G S S c S c G c S c c c c c c c c c c c c c c c c c c c c c c c c c c c c z c c c z c z c c c z c c c c z c c c c c k c c A c x c c c S x c c c x c c c c c c S c c c x S x c k S c S c c c x c x c c x c c x c c z x c x c c x x c x c c x c c c c x c c x c x c c c l x c x c x c c l c l c l c c z x c x c x c x c l c x c x c x x x x x x x x x x x x S x x x x x c x c x x x x x x x x c x k x S x A x x c x c x x x c x c x c x x x c x x x x A x x x x x x A x x x x x A x x x x x x x x x x A x x x x A x x x x x A x x x x A x x x x x x x x x l x x x 8 x x x x 8 A 8 A x 8 8 x x 8 x 8 x 8 x x 8 A x 8 x x 8 A x x 8 A x 8 8 x x 8 x 8 A 8 x 8 x x 8 x 8 x 8 A 8 x x 4 8 A 8 8 x 8 8 x 6 x 8 x 6 x 8 8 8 8 8 8 x 8 q 8 x x 8 q A 8 x 8 x 8 8 8 8 x 8 q 8 8 x 8 x 8 8 8 8 6 8 8 8 8 8 6 x 8 8 8 6 x 8 6 6 8 8 8 6 x 8 x x 6 8 8 6 x x 6 8 6 x 6 6 8 6 x 8 8 8 8 x 8 8 8 8 l 8 6 8 x 6 6 8 x 6 8 8 x 8 6 8 8 8 8 6 6 x 6 6 8 6 8 x 6 6 8 8 x 6 6 8 8 8 6 8 8 8 6 6 x 8 6 8 8 8 6 6 8 6 8 8 6 8 6 x 8 6 8 6 8 6 8 6 8 8 6 6 8 6 8 6 8 8 7 8 8 8 7 q 7 7 8 0 8 7 7 q 7 q 7 8 0 8 7 8 7 7 8 0 8 7 8 8 7 7 q 7 7 q 7 8 7 8 7 8 q 7 8 0 8 7 5 7 7 5 7 6 7 5 7 6 5 8 5 7 7 7 5 7 5 8 6 7 7 7 6 7 8 5 7 7 5 5 7 8 5 7 5 8 8 7 7 7 7 7 7 7 7 7 7 7 7 7 7 7 8 7 7 7 7 7 7 7 7 7 7 7 7 7 7 7 7 7 7 7 7 7 7 7 7 7 7 7 7 7 7 7 7 7 7 7 7 7 7 7 7 7 0 8 7 7 7 7 7 7 7 7 7 8 7 7 7 7 7 7 7 7 5 5 7 7 5 5 5 7 7 5 7 7 < 5 5 7 5 5 7 7 5 7 7 5 < 5 7 7 7 5 7 < 5 5 7 7 5 7 7 5 5 5 7 7 5 5 7 5 5 7 5 5 7 5 7 7 7 5 7 7 5 7 7 5 7 5 7 7 5 5 7 7 7 5 7 7 < 5 5 5 7 7 7 < 5 5 7 7 7 5 < 5 7 5 5 5 7 7 7 7 7 7 < 5 5 7 5 5 7 7 5 7 7 5 7 5 5 7 5 5 7 5 5 5 5 7 5 5 7 5 5 7 7 5 7 7 5 7 7 7 5 5 7 ",
"o.%.o.o.o.%.o.%.%.+.%.o.o.o.%.o.%.o.o.o.+.o.%.o.%.o.%.o.o.%.%.o.O.+.o.o.o.o.o.+.o.O.o.o.O.+.o.O.+.o.o.O.o.o.o.o.o.o.' X.o.o.o.X.o.X.o.X.' o.o.' o.X.X.' o.o.o.o.X.' X.o.o.o.o.o.' X.o.o.o.o.o.o.X.o.o.o.o.X.o.o.o.' o.X.X.' X.o.o.X.O.O.O.X.O.O.X.X.X.o.X.X.X.X.X.o.X.X.X.X.X.X.X.X.X.X.X.X.X.X.X.X.o.X.o.X.X.X.` X.o.X.o.X.X.X.X.X.X.X.X.X.X.X.O.X.X.X.X.X.X.X.X.X.X.X.O.X.X.X.X.X.X.X.X.X.X.X.` X.X.X.X.X.X.X.X.H X.X.H ` H X.X.X.X.X.X.X.H X.X.X.X.X.X.X.H ` X.X.X.X.H X.X.X.X.H X.V H X.X.V X.H X.H H X.H H X.H H X.H H H X.X.H X.K H H H H X.H X.H H H X.H H H X.H H H H H H H H H H H H X.X.H H H H H H H H H H H H X.H H H X.H H H X.H H H V H H V H V H H G H H G G H G H H K H G H H G H H H H F G H D G G H V G G V B H B B H G H H G G H B H G H H V H G G H H G G H H J H J H G H G G B B H G G G H G G V B G B G D G G G H G G G G G G G G G G B G G D B B B B B B B B B B B B B B B B B G G B B B B G B G B G B G B B B G B B B B B B B B G B G c G B G c B B B B B B B G B G B B B B B B G B B B B B B B B M B S c G G c c G G c G c c G B c c G c B c c c c B c B S c B B c c c c B B c c c G c B G c B c B c c B c c B B c c B c S S S S G S c c c S c c S S c S c c G S c S c G c S S c S S S c B c c c c c c c c c c c c c c c c c c c c c c c c c c c c c z c c c z c c c c c c x S S x k c S c c c k c c c c c c x c x c c c k c c S k c c x c c x x c c c c c x x c c x c c x x c c x c x c z c c x c c x x x z c l x c c x c x c c c c c l c c x c x c x c x x x c x z x c l z x c x c l x x c x c x c x x c x c k x x x x c x A x x x x S x x c A k x x A x x x x k x c x x x x x A x x x x x x x x x x x x x x x x x A x x x x x x A x x x x x A x x A x x x x x x x A x x x x x x x x x x x x A x x x x x 8 x 8 x x x 8 x x 8 8 x x 8 x 8 x x x x 8 x 8 x 8 x 8 x x 8 8 x 8 x x 8 8 A x 8 x x x x 8 x 8 x x x 8 x 8 x A 8 8 x x x x 8 8 A 8 A x q 8 C 8 x x 8 8 8 x 8 8 x x 8 A 8 q 8 8 x 8 8 x 8 8 8 x 8 8 q 8 A 8 8 x 8 x 8 8 q 8 8 8 8 8 6 x 6 6 8 8 8 6 8 6 x 8 8 8 x 8 8 6 8 8 8 8 6 8 6 8 8 8 6 8 8 8 8 8 8 x 8 8 8 6 6 8 8 6 6 8 8 8 8 6 x 8 8 8 8 8 6 x 6 8 8 8 x 6 8 x 8 8 x 8 8 x 8 8 8 8 8 x 8 8 8 8 8 6 x 6 x 8 8 8 8 8 8 8 x 6 8 6 8 8 6 8 l 6 8 6 8 6 6 8 6 8 6 8 6 8 6 6 8 6 8 8 6 8 8 8 7 7 0 7 8 7 8 8 7 8 7 8 8 7 8 8 7 7 8 7 8 q 7 8 7 8 7 8 7 7 q 7 7 8 7 7 8 q 7 7 q 7 7 8 7 8 7 8 7 6 7 8 5 5 7 8 5 7 7 8 7 5 8 5 8 7 6 5 7 8 5 5 8 7 5 7 6 7 6 8 5 8 5 7 6 5 7 7 7 7 7 7 7 8 7 7 7 7 8 7 7 7 0 7 7 7 7 7 8 7 7 7 7 8 7 7 7 8 7 8 7 7 7 7 7 7 7 7 7 7 7 7 7 7 7 7 8 7 7 7 7 7 7 7 7 7 7 7 8 7 7 7 7 8 7 7 7 7 7 7 7 7 7 5 7 7 7 5 7 < 7 7 5 5 7 7 5 5 5 7 7 7 5 7 7 5 5 5 7 7 7 7 5 5 7 7 5 5 5 5 7 7 5 < 7 5 7 5 7 7 7 5 < 7 7 5 7 7 5 5 7 7 5 7 5 5 7 5 < 7 7 7 7 7 5 5 5 7 7 5 7 5 5 7 5 5 7 5 5 7 5 5 7 7 7 7 5 7 5 7 7 5 5 7 5 5 7 5 5 7 7 5 5 5 7 7 5 5 5 5 5 < 7 7 5 7 5 7 7 7 7 7 7 7 7 7 5 5 7 5 7 7 5 7 7 7 5 ",
"o.o.o.%.%.o.o.+.o.o.o.%.o.o.o.+.o.%.o.%.%.o.o.o.%.o.%.o.o.o.o.o.o.+.o.+.o.o.O.o.o.+.o.+.o.o.+.+.o.o.O.o.o.o.+.o.X.o.o.X.o.o.O.o.X.o.o.' o.X.X.o.' o.o.o.o.o.X.o.o.o.X.o.X.` o.` X.o.o.' ' X.X.o.o.X.o.X.' o.o.X.o.X.o.o.o.o.` o.X.o.X.o.X.o.X.o.o.X.o.X.X.X.o.X.X.X.X.X.o.o.X.o.X.o.o.X.X.X.o.X.o.X.X.` X.X.o.X.o.X.` X.X.X.o.X.X.O.X.X.X.X.X.X.X.X.X.X.X.X.X.O.X.X.X.X.X.X.X.O.X.X.X.X.X.X.X.H H ` X.H X.X.V X.X.X.X.X.X.X.X.X.X.X.X.X.X.X.X.X.X.H V X.H X.H X.X.X.` V ` X.X.V H X.X.X.X.X.X.X.K H X.X.H X.X.H H X.H X.X.H H K H H X.X.H X.X.H H H V X.H H H H H H H H H X.H H H H H H X.H H H H H H X.H H H H H H X.H H H H V H H H V H H H H H X.H H H H H H H H D H H G H F G H H G G H G H H G H G G H H H H G H G H B B H H H H H G G H G G H H H V G G V G G G G G G G G H G H G H H G G G G G G G G B B G G H G B G B H H B B G G G G G G G B F G G G G G B G G B F B B V B M B B V V B G B B G B G B G G B B B G B B B G B G B B G B G G B G B B G B G B G B G B B G B c G B G B B B B B B B B B B B B B B B G B B B G B G S G G c c G B c c B c c B c c B c B B c G c c B c c c B B c c c c B B c G B c B c c c B c B c B B c c B B c c S c S S c S S S c c S G c S B c c S c S c S c c S S c c c c k c c c c c B c c c c B c c B c c c c c z z c c c z c c c c c c c c c c c c x c z x c c c c x c c k S c x S x x c c c k S c c k A x c c c c c c c c c c c c c c c l c x c x c x c c c c c l c c x c x x c c x c x c x c x c c c x c c x x c l x c x c c x x c x c x c x c l c l c x c x c x c x c x x x x x x A k k A x x A x c x x x x k x A c x x x x A x c x c x x x x x c x x x x c x x k x x x c k A x S x x x x x x A x x x x x x x x x x x x x A x x x x x x x x x A x x x x x A x x x x x A x x x x x x x x x x x l x x x x 8 8 x x 8 8 x 8 x x 8 8 A 8 x x x 8 x x 8 8 x 8 x 8 x 8 8 x 8 8 x x 8 8 A x 8 x 8 8 x 8 x 8 x x 8 x 8 x 8 x x 8 x q 8 A 8 8 A x 8 8 x x 8 x 8 q 8 8 q q 8 x 8 8 8 8 x 8 8 q 8 8 x 8 8 8 x q x x 8 x 8 x x 8 x 8 8 8 x x 8 x 6 6 8 8 8 8 8 x 8 8 8 x 6 x 6 8 6 6 8 x 8 6 8 8 8 8 6 8 8 8 l 8 8 8 8 8 x x 6 8 8 6 8 8 8 8 8 x 8 8 6 8 8 8 8 x 8 8 8 6 8 6 8 8 8 8 x 6 8 8 8 6 8 8 6 x 8 8 6 8 8 8 8 x 6 x 6 8 8 8 8 8 x 8 6 8 6 6 8 8 6 8 6 8 6 6 8 6 8 6 8 6 8 8 6 8 6 8 6 6 8 7 8 q 7 7 q 7 7 7 8 7 8 7 8 7 7 7 q 7 7 q 7 7 8 7 8 8 7 7 8 7 7 8 7 7 8 q 7 7 8 7 7 7 8 7 7 8 8 5 7 7 5 5 7 8 5 7 7 8 5 5 5 7 5 7 7 5 7 7 6 5 7 7 5 5 8 7 5 7 7 5 7 5 7 5 7 7 6 7 7 7 7 7 7 7 7 7 7 7 7 7 7 7 7 7 8 7 7 7 7 7 7 7 7 7 7 7 7 7 7 7 7 7 7 8 7 7 7 7 7 7 7 7 7 7 7 7 7 7 0 7 7 7 7 7 7 7 7 7 7 7 7 7 7 7 7 7 0 7 7 7 7 7 7 7 7 7 5 7 7 5 7 5 7 7 7 5 7 7 7 5 7 7 7 5 7 7 7 5 5 7 5 7 7 7 5 7 7 7 7 < 7 7 5 7 5 5 7 7 < 7 5 5 7 7 5 7 5 5 7 7 5 7 < 5 7 7 5 5 7 7 5 5 7 5 5 7 7 7 5 7 7 7 5 7 7 5 7 5 7 5 7 7 5 5 7 7 5 < 5 5 7 5 7 7 5 7 7 7 5 5 7 < 5 7 5 7 5 7 5 7 7 5 7 7 5 < 5 5 5 5 7 5 5 7 5 7 5 7 < 5 7 < 7 5 7 7 7 ",
"o.%.+.o.o.o.o.%.%.o.o.o.%.o.%.o.o.o.o.o.o.o.o.%.o.o.o.+.%.o.%.o.o.o.o.o.+.+.o.o.o.+.o.o.o.o.o.o.o.+.o.o.o.o.o.O.o.o.o.o.o.o.o.o.X.o.o.X.o.o.o.o.o.X.X.o.X.X.o.' X.o.o.' o.o.o.o.X.o.X.o.o.o.o.o.o.o.' o.o.X.o.o.o.o.o.` X.o.o.o.o.O.O.o.X.O.O.X.X.X.X.X.X.o.X.X.X.o.X.o.X.X.X.X.X.X.X.X.X.o.X.X.` X.X.X.X.` X.X.` X.X.X.X.X.` X.X.X.O.X.X.X.X.X.X.X.X.X.X.X.X.X.X.X.X.X.X.X.X.X.X.X.X.X.X.X.X.X.X.X.X.X.X.X.X.X.` X.X.X.X.X.X.X.X.H X.H X.H X.X.X.X.X.X.X.X.X.X.H X.H X.H H X.X.` X.H V ` H V X.X.H H H X.H H X.H X.H H H X.X.H H X.H H H K H X.X.H H H X.V X.H X.H H H H H H H H X.H H V H H H H H H H H H X.H H H V H H H H X.H H H X.H H H X.H H H H H V V H D H H G H H G H H G G H H H D H H H D H H G G G B H G G V H H H B B H B V H B H V B H B G G H G H G G G H G G G G G G G G J H G F B G G B H D G G B B G G G G G D G G G V D G B G G B G B G G V G H G G B B G B B B V B B M B B B B B B B B B B B B B G B B B G B B B B B B B B B B B B B B B B B B B B B G B B G B B B B G B G B B M B B B B c B B B k B B B k B c B c c G S c c G c c G c c B B c B c c B c B B c c B B S c B G c B c c B c c S c G c B c B c B c c G c G c B G c S c c S c c c S S S c S S c S S c S c S c S S S c B c S c G c c c c c c B c c c c c c c c c c c c c c c c c c c c z c c c c c z c c c c c c c c c x c c c c c x c c c c c c c c c S x c c c S c x c c c c x c c x c c c k A x c c c x z c l x x c x c c x c c c x c c l c c c c c x c x x c l c c c x c c x c c x c z x c l c l c l c x c x c l c x z x c l k x c x c x x x x x x c x x x x x S x x x k x x c x x k x x x x x c c x x x x c x c x x x x S x x x x x x x c x x A x x x x x x x A x x x x x x x x x x x x x x x A x x x x x x x x x x x A x x x x x x x x x A x x x x x x x l 8 x x 8 x 8 A 8 x 8 x 8 x 8 x 8 x 8 A 8 8 x 8 x A 8 x x x x 8 x 8 x 8 x x 8 A 8 8 x x 8 A 8 x x x A 8 x 8 x 8 8 A 8 8 x 8 8 A 8 8 x 8 8 6 x 8 x 8 x x 8 x x 8 8 x 8 q 8 8 x 8 x q 8 8 x q 8 8 8 8 q 8 8 8 8 q 8 l 8 8 8 6 8 8 8 x 8 6 6 8 6 6 8 x 6 8 8 8 8 8 6 8 8 6 8 8 6 x 8 8 6 x 8 8 8 8 8 6 8 8 8 6 8 8 6 8 6 x 8 8 8 6 6 8 x 6 8 8 8 6 6 6 x x 8 6 8 8 8 8 6 8 8 8 8 6 x 8 8 6 8 8 x 8 6 x 8 6 8 8 8 8 8 l 8 8 6 6 8 6 8 8 6 8 6 6 8 6 6 8 6 8 6 8 6 8 6 6 8 6 8 6 8 6 8 8 8 7 8 8 7 8 7 0 7 8 7 8 0 8 7 8 7 7 8 7 7 8 7 7 q 7 8 0 8 8 7 7 8 q 7 7 7 8 7 8 7 8 7 7 q 7 7 7 6 5 8 8 7 6 7 6 7 5 7 5 8 8 5 6 7 8 5 7 7 7 6 7 6 7 5 5 8 6 7 8 7 6 7 8 5 7 7 8 7 7 7 7 7 7 7 7 7 7 7 7 7 7 7 7 0 7 7 7 7 7 7 7 7 7 7 7 7 7 7 7 7 7 7 7 7 7 7 7 7 7 8 7 7 8 7 7 8 7 7 7 8 7 7 8 7 7 7 7 7 7 7 7 7 7 7 7 7 7 8 7 7 7 5 5 < 5 7 7 5 7 5 7 5 7 5 7 7 5 5 7 5 5 7 5 < 5 7 5 7 5 7 5 5 7 7 5 7 5 5 5 7 5 7 7 5 7 7 5 5 5 7 7 5 7 5 < 5 5 7 5 5 5 5 7 7 5 5 5 5 5 7 7 5 5 < 7 5 5 7 5 5 7 7 5 7 7 5 7 7 5 7 7 5 7 7 7 7 7 7 5 7 5 5 5 7 7 5 7 7 5 7 7 5 7 7 5 7 7 < 7 5 7 5 7 7 7 7 7 5 5 < 5 5 < 7 7 5 5 5 5 5 5 5 5 < 5 7 ",
"o.%.%.o.o.o.o.o.%.o.o.o.%.o.o.%.%.o.%.o.o.%.o.o.%.o.o.o.%.o.%.o.o.o.o.o.o.O.o.o.o.+.o.o.o.O.+.o.o.o.o.o.o.o.o.O.o.o.X.o.o.o.o.o.' o.' X.o.o.o.o.o.o.o.` o.X.o.o.X.o.o.o.o.o.o.` o.X.o.o.o.X.o.X.X.o.o.X.o.' o.' ' X.o.` o.o.o.X.X.X.O.o.X.O.o.o.O.X.X.X.o.o.X.X.X.X.o.X.X.X.X.X.X.X.X.o.o.X.X.X.X.X.X.X.X.X.X.` X.X.X.X.` X.X.X.X.X.X.X.O.X.X.X.X.X.X.X.X.o.X.X.X.X.X.O.X.X.X.X.X.X.X.X.X.X.X. .H ` X.X.X.X.X.X.X.X.X.X.H X.X.X.X.X.H X.H X.X.H X.X.X.X.X.X.X.X.X.H H ` X.X.X.X.H X.` X.X.H ` X.H X.H H H K H X.X.H X.X.X.H H X.X.K H H X.H H X.X.V H H X.H X.H H H X.H H H H X.H H X.H H H H H H H H H H H X.H X.H H H X.H H H X.H H H H V H H H H H X.H H H H H H G H J H H G H G F G H G H G J H H H H H H D H H B H B H H B H B B H B H H B G H G H G V H G G G H G J H G H G G G G H H H G G B H B H B G G G B H G B H G G B H G B F G H G B H G B H G G D G G G G B B n V B B V B B B B B B B B B B G B G G B B G B B G B G B G B B G B B G B B B G B c G B G B G G B G B B B B B B G B G B M B B M B B B B M B B B B B c B c S G S B c G B c B c c B S c c c B c c G c c G c c c c c B c B c B c B c c B B c B c B c B c c G B c c G c c S c c S c S c G G S c S c S c S c S S c G S c S S c S S k B c c c M c c c c c c c c c M c c B c z z c z c c c c c z c c c c z x c z c c c c c c c c x S c c c x c c x c c k S c x S x c c c x c c c x c x S x c c k c c c c c c c c x c x c c c c c l c c x x c l c c x c c c x x c c l c x c c c x c c c c c x c c l c c l c l c c c x x c x c l c l c x c x c x x x k A x x x c x c x c x x x x c x c c x c x x x c x x x x x x x x x x x c x k A c x x x x c x c c x x x k A x x x x x A x x A x x x A x x x x x x x x x x x x x x x x A x x x A x x x x x x x x x A x x x x x x x x x x x x x x x x 8 x 8 x x 8 A 8 x x 8 A x 8 x x A x 8 x x 8 x 8 x x 8 x x 8 A 8 x x 8 x A 8 A 8 x 8 x 8 8 x 8 x 8 x 8 A x q 8 A 8 x 8 A 8 x 8 x 8 8 x 8 q 8 8 x 8 x 8 q x 8 q 8 8 8 8 8 8 x x 8 x 8 x 8 8 x 8 8 8 A 8 x 8 6 8 8 8 8 8 x 8 6 8 x 8 8 6 x 6 8 8 x 8 6 8 x 8 8 6 x 8 6 8 8 8 8 6 8 6 x 8 8 x 8 8 8 6 8 6 x 8 8 8 l 8 8 8 8 8 8 6 x 6 8 8 8 8 8 x 6 8 8 6 6 8 8 8 6 8 8 8 8 8 8 x 6 6 x 8 6 6 6 8 x 8 8 8 l 8 8 8 8 6 6 8 6 6 8 6 8 6 8 6 8 6 6 6 8 8 6 8 8 8 6 8 6 8 6 8 8 8 7 7 7 8 7 7 8 8 8 7 7 8 7 7 q 7 8 q 7 8 8 7 q 7 8 7 7 8 7 0 8 8 7 7 8 8 8 7 8 7 8 7 8 7 7 7 7 5 8 8 7 5 7 7 5 5 8 5 7 8 5 6 7 5 5 5 8 5 7 6 7 8 5 7 7 7 5 7 6 5 7 7 5 8 5 8 5 7 7 8 7 7 7 8 7 7 8 7 7 7 8 7 7 7 7 7 7 7 7 7 7 0 7 7 7 7 7 7 7 7 0 7 8 7 7 7 7 7 7 7 7 7 7 7 7 7 7 7 7 7 7 7 0 7 7 7 8 7 7 7 7 0 8 7 7 7 8 7 7 7 8 7 7 < 5 5 7 7 7 5 5 < 5 7 5 5 5 7 7 7 7 5 5 5 7 7 5 7 5 7 7 7 < 7 5 7 7 7 7 5 5 5 7 7 5 7 5 5 7 5 7 7 5 7 7 5 7 7 5 7 7 5 7 5 7 7 5 5 < 7 7 7 7 < 5 < 5 5 7 7 5 7 5 7 7 5 5 5 7 5 7 7 5 5 5 5 7 7 5 7 7 5 5 5 5 5 7 5 7 < 5 7 7 5 5 7 5 5 7 5 5 7 7 5 7 5 5 7 5 < 5 5 5 5 7 5 7 5 5 5 5 7 7 5 7 5 7 ",
"o.o.o.o.o.%.o.%.o.+.%.o.o.o.+.o.o.o.o.+.+.o.o.%.o.o.%.o.o.o.o.o.o.O.+.o.o.+.o.o.o.+.o.O.o.o.o.o.+.O.o.o.O.o.+.o.o.o.o.o.o.o.X.o.o.X.o.o.` o.o.X.' X.o.o.o.' o.X.' o.o.X.o.X.o.o.o.' X.o.o.` o.' ' o.o.o.o.X.X.o.o.o.o.X.` o.o.X.o.O.X.X.O.o.X.O.o.X.o.X.X.X.o.X.o.X.X.X.X.o.X.o.o.X.X.X.X.X.X.o.X.X.` o.o.X.X.X.X.X.o.X.X.X.X.` X.X.X.X.X.X.X.X.X.X.X.O.X.X.X.X.X.X.X.X.X.O.X.X.X.X.X.X.X.X.X.H X.X.X.H X.X.X.X.X.` X.H X.` X.X.H X.X.X.X.X.X.X.H X.X.H X.V X.X.X.X.X.X.X.H X.V X.V H X.X.X.H H H H X.X.H X.X.H H H K H H H X.H H H X.X.H X.X.H H H H X.H H V H H H H H H H H V H H V H H H H X.H H H X.H H H H H H H H V H H H V H H H H X.H H H H H H V H V V H G G H H G H H H H G H G H H H H H H G G G H H B H H B H B B H H H H H B H B H G G G V G G G G G G G G H G G G H H G G G J H G G G G G G G G B G G G B G G B G G B G G B G B G G G D B G B G G B G H B B B D B V B B B B V V B G B G B B B B B B B B B B G B B B B B B G c B G B B B G B B G B B B B B B B B B G B G B B B B B B J M B B B B B B B B B B B B G B G c c B S G c c c c G B c B B G c G c B c c B c c B G B c c B c c c G c c G c c B B c c c c G c c c G c c G c c S S c c S S c S c S c S G S c S S c G S c S c c S S c c c c c c c c c c c c c B c c c B c c c z c c c c c c c c c c c c c c c c c c c z c z c c c S k x c c c c c c c c c x c S k c c c S c c x c S c S k c c c c x S x c c x x c c x c x x c c l c x c c c c c x l c c x c x c x x c x c c l c c l x c x x c x c c x x c x c x l z x z x c l c x c x c l c l c x x x x x x S x x x x x x x c x x x A x x x x x c x x x x S x x c x c x c x x x x x x A k x x x x x x x c x x x x x A x x x x x x x x x x x x A x x x x A x x x x x A x x x x x x x x x A x x x x x x x x x x x x x 8 x x x x x 8 8 A x 8 x x 8 x x x 8 x x 8 8 A 8 8 x 8 x 8 x 8 8 x 8 8 x x 8 x x x 8 x x 8 8 x 8 x x x 8 x x 8 x x 8 x x 8 8 8 x 8 A 8 q 8 8 x x 8 x x 8 x 8 x 8 8 8 8 8 x 8 8 8 x 8 x q x q 8 8 q 8 8 x q 8 8 q x 8 8 8 8 6 x 8 8 6 8 8 6 6 x 8 8 x 6 8 8 8 8 8 6 6 x 8 8 x 6 8 8 8 x 6 8 8 8 x 6 8 8 8 6 6 8 6 x x 8 8 8 6 x 8 8 8 8 8 6 6 x 8 8 8 8 6 x 6 8 8 8 8 6 8 x l 8 8 x l 8 x 8 8 8 6 8 8 8 8 8 8 8 8 6 8 l 8 8 8 8 6 x 6 8 6 8 8 6 8 6 8 6 8 6 x 6 8 6 6 8 6 6 6 8 6 8 6 8 6 8 8 q 8 7 7 7 q 7 8 7 7 q 7 q 8 7 8 7 7 8 7 7 8 7 8 7 q 7 7 8 8 7 7 7 q 7 7 7 8 0 7 8 7 7 7 7 7 8 7 5 5 5 7 6 5 8 7 7 7 6 5 7 7 5 8 8 7 5 8 5 5 7 7 5 6 7 7 8 5 7 7 6 7 6 6 7 5 7 7 7 7 7 7 7 7 7 7 7 7 7 7 7 7 7 8 7 7 7 7 8 7 7 7 7 7 8 7 7 7 8 7 7 7 7 7 7 0 8 7 7 7 7 8 0 7 7 7 7 7 7 7 7 7 7 7 7 7 7 7 7 7 7 7 7 7 7 7 7 7 7 7 7 7 7 7 5 5 5 5 5 5 < 5 5 7 7 5 5 7 5 5 5 7 5 5 5 5 7 5 7 7 5 5 5 5 7 7 5 5 7 7 5 7 5 7 7 7 5 5 7 5 7 7 5 7 5 7 5 7 7 7 5 5 7 7 7 < 5 5 7 5 5 5 7 5 5 7 5 5 5 7 7 5 7 7 5 5 < 5 7 7 5 7 7 5 5 7 5 < 7 5 7 7 < 5 < 7 7 7 5 5 5 5 7 7 7 5 7 7 5 7 7 7 5 7 7 7 7 5 7 7 7 7 5 7 5 7 5 < 7 5 7 5 7 5 5 5 7 ",
"o.%.%.o.%.o.o.o.o.o.o.%.o.o.%.o.o.o.%.o.%.o.o.o.%.o.%.o.o.+.%.o.+.o.o.+.o.O.+.o.o.o.+.o.+.o.o.+.o.o.o.+.o.o.o.o.o.o.o.o.o.X.o.X.o.` ` o.o.o.o.o.X.o.o.o.X.o.o.' o.X.' o.` o.o.o.X.o.o.' o.o.o.X.X.X.o.X.o.o.o.o.o.' X.o.o.o.o.o.o.X.o.O.O.X.o.X.X.X.X.o.X.X.X.X.X.O.X.X.o.X.X.X.X.o.X.o.o.X.X.X.X.X.X.X.` X.X.o.` X.X.X.o.X.X.o.X.O.o.X.X.X.X.X.X.X.X.X.X.X.O.X.X.X.X.X.X.X.X.X.X.O.X.X.X.X.X.` X.` ` X.X.X.H X.X.X.X.X.X.X.X.X.X.X.H X.X.H X.H X.X.X.X.H X.X.H X.X.X.H X.V X.X.X.X.V X.V X.X.X.X.H X.H H H H H H X.X.H K X.X.H X.H X.H H X.H H X.H X.H H H X.H H H H H H X.H H H H H H X.V H H X.V H H H V H H H H X.H H H X.H H H X.H H H H H H X.H H H H H H D H H G G H H G G H H H G H G H H H G H H G H G V G G V H H H H B H H B H H B H V G G H H G G V G G J H G G G G J H J H H G G G B G G V G B G G G G G G G G F B G B H G G G B G B G G G G B H B G H G B V B B B B B B B B B B B B B B G B G B B B G B G B B B B B B G B G B B B G B G B B B B B B G B B B G G B B B B G B G B B B B B B B B B B B B B k B B B B c G c G G c S c c G G c c c B c B c c B c B B c B c B c c G G c c G G c c G c B B c c B c G c c B G c c B c c B S c S S G c S S S c c S S c S c c G S c c S S c S c c S S c c c B c c c B c c c c c c c c c c c c c c c c c c c c c c z z c c c c c c z c z c c c c c c S k c c x S c c c x c c c c c c c x x c c c S k c c c c c x c x k c c c x c c l c c c c x x c c x c c x c x c c x x c c c x c c x c c x x c x c c c c z x c c x c x c x c x c x x c x c l c x c x z x c x c x c c x c x A k S x A x x c x c x x x c c x x x x x k A x c x x x x A x x x x x x x x c x c x x x A x x x x x x x x x x A x x x x x x x A x x x x x x x x x x x x x x x A x x x x x x x x A x x x x x x A x x x x x 8 x x x 8 x x 8 8 8 A 8 x x 8 x x 8 8 x x x 8 x x 8 x 8 8 A x 8 x 8 x 8 x 8 8 x A 8 8 x x x 8 8 8 x x 8 x 8 A 8 A 8 x x A 8 A 8 8 x x 8 x 8 8 x 8 x 8 8 x 8 8 q x 8 8 8 x 8 8 8 x 8 8 8 8 x x 8 8 q 8 8 q x 8 8 8 x x 8 8 8 l 8 8 8 8 8 8 8 x 6 6 8 8 8 8 6 6 8 8 8 x 6 6 8 8 8 8 8 x 6 x 6 8 6 6 8 6 x 8 6 8 6 8 8 8 8 8 8 x 8 8 8 6 x 8 8 x 8 8 8 6 8 8 8 8 6 8 x 6 x 8 8 6 8 x 8 6 8 l 8 8 8 8 6 x 6 8 8 8 8 8 8 x 8 8 6 6 8 8 6 8 6 6 8 6 8 6 8 6 8 6 8 6 8 8 6 8 6 8 6 8 6 8 6 6 8 8 7 7 8 8 7 7 8 0 8 8 7 7 7 7 8 7 q 8 7 8 0 7 7 q 7 8 7 7 8 8 7 8 7 7 8 0 8 8 7 7 3 7 7 7 4 7 7 7 6 5 8 5 8 7 6 7 6 5 8 7 6 5 8 5 7 6 7 8 5 8 5 6 7 7 5 6 7 5 7 7 5 7 7 7 8 5 7 7 7 7 7 7 7 7 7 7 8 7 7 7 7 7 7 7 7 7 7 8 0 7 7 7 7 7 7 7 7 7 7 7 7 7 7 7 7 7 7 7 7 7 7 7 7 7 7 7 7 7 8 7 7 7 8 7 7 7 7 7 7 7 7 7 7 7 7 7 7 7 7 7 7 7 7 7 7 7 7 7 7 5 7 7 5 5 7 7 < 5 7 7 5 < 5 7 7 7 7 5 5 7 7 5 5 7 7 7 5 5 5 5 5 7 7 < 5 5 7 7 7 7 5 5 7 < 7 7 5 5 7 < 7 7 7 7 5 5 7 5 5 5 7 7 7 5 7 7 7 7 7 5 7 < 5 5 5 7 7 7 5 5 7 5 7 7 < 5 7 5 5 5 7 7 5 5 7 7 5 5 7 7 5 7 5 5 < 7 7 7 7 5 5 5 7 7 5 5 5 7 7 5 5 5 7 7 7 7 7 5 7 7 7 5 5 7 7 7 7 ",
"+.o.o.o.o.+.o.%.%.o.o.o.o.%.o.o.o.%.o.o.o.o.o.%.o.o.o.o.o.%.o.o.+.o.o.+.o.o.+.o.o.o.O.o.+.o.O.o.o.+.O. .o.o.o.+.o.o.X.o.o.o.o.o.' o.X.o.X.o.o.o.X.o.` o.o.o.o.X.o.o.X.o.X.o.` o.o.o.o.X.o.` o.o.o.o.o.' o.X.` o.X.o.o.o.o.X.o.X.o.O.o.X.o.X.O.X.o.X.X.X.o.X.o.X.X.o.X.o.X.X.X.o.X.X.X.X.X.X.o.X.o.` X.X.X.X.` X.o.X.X.` ` X.X.X.X.X.X.X.X.X.X.X.O.X.X.X.X.X.X.X.X.O.X.X.X.X.X.X.X.X.X.X.X.X.X.X.X.H X.X.X.X.X.X.X.H X.X.X.X.X.X.H X.` X.X.X.X.X.H X.X.H X.X.X.X.X.H X.V X.X.X.H V X.X.X.V X.H X.X.H K H X.X.H X.H X.H H X.H H X.X.H H H X.H K X.H H H H V X.H H V X.H H H H H H H X.H H H H H H H H H H H X.H H H H H H H H H H H H H H H H H X.H H H H H V V H H G H H F H G H H G H J H H H D H D H H G H G H G G H G B H B B H B B H B H H B G H H B G V H G G G H G G H G G H G H G G H H J G G G D G G G G B F B G B G G G G G G B G G G G G G B H G G G G B B G D B V B V B B V M B V B B G B B B B B G B B B B B B G B B B G B B B B B G B B B B B G G B B B G B B B B B G B B B B B B B B k B B B B k B B B B B B B c G B c G c S G c G B c c B c B c B c G c c c G c c G c c B c c B c B c c c B c c G c c G c B c B B c c B c c G B c c S G c c S S c c S c G c S c S S c c S S c B S G c S S c c c c c c c c c c c c c c c c c c c c c z l c c c c c z c c c c c c z c c c c c c c c x c c c x S c c c k S x c c c x c c c x c S k c c c x c c c x c c c c c c c c c c x c c x c x x c c x c c x l c x c c x c c l c x c c x c l c c c x c c x x c x c x c c x z l c x z x c c l c l c x z x c x c x x x x x x x x x x x x x k x x x x x k x x x A x x c x c x x x x c x A k x x k x c x S x x x x x S x x k x c x c A x x x x x x x x x A x x x x x x x x A x x x x A x x x x x x x x x x A x x x x x A x x x x x x x x x x x x x x x 8 8 x x x 8 x 8 8 x 8 x 8 A 8 x 8 x 8 x A 8 x x 8 x x 8 A 8 A 8 x x 8 8 x x 8 x 8 x x x 8 8 A 8 x 8 x 8 x 8 x C 8 8 x q 8 A 4 8 x 8 8 x 8 x 8 x 8 x 8 8 q 8 x q 8 x 8 x q A 8 8 8 8 8 x 8 x 8 8 x 8 x q 8 8 8 6 x 8 8 8 6 x 6 8 8 6 8 8 8 8 8 8 x 8 8 8 8 6 8 8 8 8 8 l 8 8 8 8 6 8 x 8 8 8 8 8 x 8 8 8 8 l 8 8 6 6 8 x 6 8 8 6 8 6 8 x 6 8 8 8 6 x 8 8 6 8 8 8 8 8 8 6 8 8 6 8 8 8 6 x 8 8 8 8 l 8 8 8 8 6 8 8 x 8 8 6 8 6 8 8 6 8 6 8 6 8 6 8 6 8 6 6 8 6 8 6 8 6 8 6 8 6 8 8 7 8 7 7 q 7 8 8 7 7 8 8 7 8 8 7 7 7 8 7 8 7 8 7 8 7 7 q 7 7 8 8 0 8 7 8 7 8 7 5 8 7 8 7 8 7 8 5 7 5 8 7 5 7 7 7 6 7 5 7 7 7 7 6 7 7 7 5 5 8 7 7 5 8 7 6 7 8 5 5 8 6 7 7 5 7 6 7 7 7 7 7 7 7 7 7 7 0 7 7 7 7 7 7 7 7 7 7 7 7 7 7 8 7 7 7 7 7 7 7 7 7 7 7 7 8 7 7 7 8 7 7 7 7 7 7 7 7 7 7 7 7 7 7 7 7 7 7 7 0 8 7 7 7 7 7 7 7 7 7 7 7 7 5 7 5 5 7 5 7 5 7 7 7 5 5 7 7 5 7 7 7 7 5 5 7 5 5 5 < 5 5 7 7 5 < 5 5 7 7 7 5 7 5 5 7 5 5 5 7 7 5 5 5 5 7 7 5 5 5 5 7 5 5 7 7 5 7 7 7 7 5 5 7 5 5 7 5 5 7 5 5 5 7 7 7 5 < 5 5 7 7 5 5 7 7 7 5 5 7 5 7 7 5 7 5 7 7 7 5 7 5 5 5 7 7 5 5 7 5 5 < 7 5 7 7 5 7 5 7 7 7 5 5 7 5 7 7 5 7 5 7 7 5 5 7 5 ",
"o.o.%.o.o.%.o.o.o.%.o.o.o.%.o.o.+.+.o.o.o.o.%.o.o.o.%.o.+.o.%.o.o.O.o.o.o.+.o.o.+.o.o.+.O.o.o.o.o.o.X.o.o.o.o.o.o.o.O.o.o.o.X.o.X.o.o.o.X.o.o.` o.o.o.X.o.' o.X.o.o.X.o.o.' X.o.o.X.o.o.' X.o.o.o.o.o.X.o.o.` o.o.o.` o.o.X.o.o.X.O.X.o.O.X.o.O.X.X.o.X.X.X.o.X.o.X.X.o.X.X.X.o.X.X.X.o.X.X.X.o.X.X.X.X.X.` o.X.X.X.X.` X.X.X.X.X.X.X.X.X.X.X.O.X.X.X.X.X.X.X.X.X.X.O.X.X.X.X.X.X.X.X.X.X.X.X.X.X.X.X.X.X.X.X.` H X.X.X.X.X.X.X.X.H X.X.X.X.H X.X.X.H X.X.X.X.H X.X.V X.H X.X.X.V X.` H X.X.V X.X.H H X.H X.H H X.H X.H H X.K H H X.H H X.H H X.H H H X.H H H X.H H H H X.V H H H H H H X.H H H H H H H X.H H H H H H H X.H H H H H H H H H H H H H X.H H H V H H H G H G H G H H G H G H K D H H H G H G H H G G H G B H H B H V G G H G V G G H G H G G H G H H G G G G H G G H J H G G H G G D B H G B G G G G B H G B G G G G G B G G G G B G G G G B G G G G G G G B B V B B B B V B B B B B B B V B B B B B B B B B B B G B B G B B B G B B B G B B B G B B B B B G B B B B B B G G B G B B B B B B B B B B B B B B k B B B c G c G c G S c B c c B c B c c G c c B c B c G c c B c B c G c c B c G c c B c B c S B c B c c B c B c B c B S c S c S S c G S c S S c G c S c S S c S c S c c B c c c c c c c c c B c c c c c c c c c c c c c c z c c c c c c c x c c c c z c c c c c z c c c c c c x c c c c c x c k c c c x S k S x c c c c c c x c c c c c x S k S x c c x c c x c c x c c x c l c c x c c x c x c c x c c c l c x c c x c x c c x c z x c c x c x c l c x c x z x c x c x c x x k x c c x x x x S x x x x x c x x x c x x x c x x x k A x x x c x x x c x x A c x x x c k x x x x S x x x c x x x S x x x x x x x x x x A x x x x x x x x A x x x x x x x x A x x x x x x x x x x x x A x x x x x x x A x x x x x x x x A 8 x 8 x x 8 x A 8 x 8 x x 8 x 8 x 8 A 8 x x 8 8 x 8 x 8 x x 8 x 8 A 8 x x 8 x x x 8 x 8 x 8 x x 8 x 8 x x 8 8 8 x x 8 x 8 x 8 x 8 x 8 8 x 8 x q 8 x 8 8 8 A 8 8 x 8 8 q x 8 8 x 8 q 8 x 8 8 x 8 q 8 x 8 8 x 8 8 8 x 6 8 8 8 6 x 6 8 8 8 8 8 l 6 8 x 6 8 8 8 8 8 l 8 8 8 8 8 x 6 8 6 8 8 8 x 6 8 8 6 8 x 6 8 8 8 6 8 6 x 8 8 8 8 6 x 6 8 8 8 8 8 x 6 8 6 8 8 8 x 6 8 8 6 8 x 6 8 8 8 6 8 8 8 8 8 l 8 8 8 x 8 8 8 6 8 6 8 6 8 6 8 6 8 8 8 8 8 8 6 8 6 8 6 8 6 8 6 8 6 6 8 6 8 8 8 8 8 7 8 7 8 7 7 8 7 8 7 8 7 0 8 7 8 7 q 7 7 8 7 8 7 0 8 8 7 8 8 7 8 7 8 7 7 8 7 8 7 8 7 7 7 7 8 5 7 8 5 5 8 5 7 7 6 7 7 5 8 5 7 5 7 5 7 7 5 7 8 5 5 8 5 7 8 5 7 7 7 8 7 7 7 8 7 7 7 7 7 7 7 7 7 7 7 7 7 7 7 7 7 7 7 7 8 7 7 7 7 7 7 8 7 7 7 7 7 7 7 7 7 7 7 7 7 7 7 7 7 7 7 7 7 7 7 8 7 7 7 7 7 7 7 7 7 7 7 7 7 7 7 7 7 7 7 7 8 7 7 7 7 7 7 7 7 7 7 5 7 7 5 7 7 < 5 5 7 7 5 7 5 7 7 5 7 5 7 7 5 7 5 7 5 7 7 5 7 5 7 7 7 7 7 7 7 < 5 5 5 5 7 5 7 7 5 7 7 5 7 5 7 7 5 7 5 7 < 5 5 5 7 5 7 5 7 7 7 5 7 7 5 7 5 7 7 5 7 5 7 7 5 7 5 7 7 5 7 5 7 7 5 7 7 < 5 5 5 5 7 5 7 7 5 7 5 7 7 5 7 7 5 7 < 5 5 7 7 5 7 7 5 7 5 7 7 5 7 7 7 7 7 5 7 7 "
};
