/* XPM */
static char *comp_towerr[] = {
/* columns rows colors chars-per-pixel */
"256 512 233 2 ",
"   c #000000",
".  c #0E0D0B",
"X  c #070908",
"o  c #110F0B",
"O  c #1A0B09",
"+  c #13110D",
"@  c #19150F",
"#  c #161411",
"$  c #191612",
"%  c #1C1915",
"&  c #1D1B1A",
"*  c #181718",
"=  c #0F1111",
"-  c #211D16",
";  c #211E1B",
":  c #261C15",
">  c #331713",
",  c #24211C",
"<  c #2A251E",
"1  c #282219",
"2  c #35291D",
"3  c #372A1D",
"4  c #252322",
"5  c #292724",
"6  c #2C2925",
"7  c #26282A",
"8  c #2D2B2A",
"9  c #262729",
"0  c #322D25",
"q  c #3A2E21",
"w  c #312E2B",
"e  c #363026",
"r  c #3B3226",
"t  c #34312C",
"y  c #3B342B",
"u  c #3F382E",
"i  c #353331",
"p  c #3A3633",
"a  c #3C3934",
"s  c #3E3C3A",
"d  c #2C2E30",
"f  c #20201F",
"g  c #461B15",
"h  c #4C140B",
"j  c #5B2118",
"k  c #4D2018",
"l  c #433524",
"z  c #493624",
"x  c #4C3926",
"c  c #40372A",
"v  c #433B2D",
"b  c #493E2D",
"n  c #413827",
"m  c #513C27",
"M  c #533E29",
"N  c #433C33",
"B  c #493F32",
"V  c #413E3B",
"C  c #522824",
"Z  c #64241C",
"A  c #3B423F",
"S  c #4B402F",
"D  c #56412B",
"F  c #5B442D",
"G  c #5F482F",
"H  c #464036",
"J  c #4B4234",
"K  c #44413D",
"L  c #4B453B",
"P  c #4E483B",
"I  c #514634",
"U  c #534935",
"Y  c #50473B",
"T  c #534B3C",
"R  c #594E3B",
"E  c #5E4730",
"W  c #5D513D",
"Q  c #60482F",
"!  c #60462E",
"~  c #624A31",
"^  c #61533F",
"/  c #464441",
"(  c #494643",
")  c #4B4945",
"_  c #4E4C49",
"`  c #434D49",
"'  c #554D42",
"]  c #594F42",
"[  c #514E4B",
"{  c #575043",
"}  c #5C5244",
"|  c #54514C",
" . c #5D554A",
".. c #5E584B",
"X. c #555451",
"o. c #5D5952",
"O. c #5C5953",
"+. c #625543",
"@. c #665945",
"#. c #685A46",
"$. c #615749",
"%. c #645A4C",
"&. c #6B5D4A",
"*. c #645D52",
"=. c #695E51",
"-. c #645F59",
";. c #71504F",
":. c #6C604E",
">. c #67604F",
",. c #666155",
"<. c #6B6254",
"1. c #666359",
"2. c #6B665B",
"3. c #6E695D",
"4. c #6F6857",
"5. c #716556",
"6. c #726659",
"7. c #716B5E",
"8. c #7A6D5D",
"9. c #746857",
"0. c #7C705F",
"q. c #70634F",
"w. c #6E6B61",
"e. c #696764",
"r. c #726D61",
"t. c #7A6F62",
"y. c #706B66",
"u. c #757165",
"i. c #7B7365",
"p. c #7E7967",
"a. c #76726A",
"s. c #7C756A",
"d. c #7E796C",
"f. c #7A7975",
"g. c #827565",
"h. c #837967",
"j. c #837B6C",
"k. c #8A7D6C",
"l. c #81776A",
"z. c #837E71",
"x. c #857F75",
"c. c #885555",
"v. c #E54C52",
"b. c #86806E",
"n. c #8A816F",
"m. c #868273",
"M. c #8A8474",
"N. c #8D8976",
"B. c #8C8679",
"V. c #8E8A7A",
"C. c #84827D",
"Z. c #938573",
"A. c #928976",
"S. c #938D7D",
"D. c #9A8D7B",
"F. c #92877A",
"G. c #96917F",
"H. c #99927F",
"J. c #91826F",
"K. c #A2927E",
"L. c #8B8985",
"P. c #948E81",
"I. c #988F81",
"U. c #918E8A",
"Y. c #969281",
"T. c #9B9583",
"R. c #9E9885",
"E. c #94928B",
"W. c #9C9689",
"Q. c #9E9A89",
"!. c #9A9893",
"~. c #A29684",
"^. c #A09B87",
"/. c #A39D8A",
"(. c #A99E8D",
"). c #A49887",
"_. c #A59E90",
"`. c #A99F90",
"'. c #A29E9A",
"]. c #A7A08C",
"[. c #A8A28D",
"{. c #B1A28D",
"}. c #A6A291",
"|. c #ABA393",
" X c #ACA69A",
".X c #A9A699",
"XX c #B1A695",
"oX c #B3A996",
"OX c #B1A798",
"+X c #B4AA99",
"@X c #B9AE9C",
"#X c #B9AC96",
"$X c #BDB19E",
"%X c #AAA9A3",
"&X c #B6ADA3",
"*X c #BEB3A2",
"=X c #BCB3A9",
"-X c #B7B4AB",
";X c #BCB8B0",
":X c #C2B39E",
">X c #C0AD95",
",X c #C2B6A3",
"<X c #C5B9A6",
"1X c #C9BBA7",
"2X c #C6BAA9",
"3X c #CABEAA",
"4X c #C1B7AA",
"5X c #C8BEB3",
"6X c #D2BEA6",
"7X c #CEC1AD",
"8X c #D1C3AE",
"9X c #D8C8AE",
"0X c #CEC2B2",
"qX c #CBC3B9",
"wX c #D2C6B1",
"eX c #D5C9B5",
"rX c #D9CBB6",
"tX c #D5CBBB",
"yX c #DACEBA",
"uX c #D2C6BB",
"iX c #DDD1BD",
"pX c #E2D2BB",
"aX c #DED3C3",
"sX c #DDD3CB",
"dX c #D7CDC3",
"fX c #E1D5C3",
"gX c #E1D6CE",
"hX c #E4DACD",
"jX c #E6DAC6",
"kX c #E4DAD2",
"lX c #E8DED5",
"zX c #E1D7D0",
"xX c #EBE1D8",
/* pixels */
"4 4 4 f 4 4 4 4 4 4 6 4 4 4 4 4 6 6 4 4 4 6 4 4 6 5 5 9 5 5 9 5 9 5 9 5 5 9 9 6 5 8 5 5 6 6 9 5 5 8 9 6 8 8 5 8 6 8 6 7 6 8 8 8 5 6 6 9 6 6 6 6 6 6 8 7 6 6 8 6 7 8 6 6 7 6 8 6 8 6 9 8 6 9 6 5 9 8 6 9 6 8 5 5 9 6 5 5 9 8 6 5 5 5 5 5 5 4 9 5 5 4 5 5 4 5 4 5 4 5 4 4 5 4 4 4 4 4 4 4 4 ; f 4 ; 4 f , 4 4 , f 4 ; 4 4 ;                                                                                                                                                                                                       ",
"4 4 4 4 4 4 4 4 4 4 4 4 4 4 4 6 4 4 4 6 4 6 6 4 5 5 4 5 5 4 5 9 5 5 5 6 9 6 5 9 9 6 5 9 9 8 6 8 8 5 5 8 8 6 8 5 7 6 8 6 8 6 6 6 6 8 6 8 6 6 8 8 8 6 6 8 8 6 6 7 6 8 6 8 8 6 9 8 6 6 6 6 9 8 6 d 9 5 9 6 6 5 5 d 5 9 9 5 5 5 9 5 5 5 5 9 5 5 5 4 4 5 5 5 4 4 4 9 5 4 4 4 4 4 4 4 4 4 4 4 4 4 4 4 f 4 f 4 f f f 4 f ; f f ; X                                                                                                                                                                                                     ",
", 4 4 4 4 4 4 4 4 4 6 4 6 4 4 4 5 6 4 6 6 4 4 4 5 5 4 5 5 9 5 5 5 5 5 6 6 9 6 6 8 6 6 6 9 5 5 5 5 6 8 5 8 6 8 5 7 6 6 6 6 7 6 8 8 6 8 6 8 8 8 6 8 8 6 8 6 6 8 6 8 6 8 6 9 8 6 5 6 8 6 6 8 6 6 6 6 9 6 6 8 5 5 5 9 6 9 6 6 5 9 5 5 5 5 9 5 5 4 5 9 5 9 4 4 5 4 4 4 5 4 4 4 4 4 4 4 4 4 4 4 4 f 4 4 4 f , 4 4 , 4 f 4 f f f X                                                                                                                                                                                                     ",
"4 ; f f ; 4 4 ; 4 4 4 4 4 4 6 4 4 4 4 4 4 6 4 4 4 5 9 5 5 6 6 9 6 7 5 7 6 6 6 9 6 6 9 6 8 5 8 8 8 9 6 8 8 8 5 8 6 6 8 8 8 6 8 8 8 6 8 8 8 8 6 8 6 6 8 8 8 9 8 8 8 6 6 8 6 8 5 8 8 6 9 8 6 6 6 6 6 6 8 6 5 9 5 8 6 5 6 6 9 6 6 5 5 5 4 5 5 5 6 6 5 5 4 5 5 4 6 4 4 4 5 5 4 4 9 4 4 4 4 4 4 4 4 , ; 4 , 4 4 , f f 4 ; 4 4 f                                                                                                                                                                                                       ",
"4 X   X X X X   X   X     X X   X X X X   X X X X X X X X f 6 6 4 6 5 5 6 8 4 6 9 6 9 6 6 6 8 5 6 6 9 9 5 5 8 5 8 8 6 6 8 8 6 6 6 8 8 8 6 6 8 8 8 8 8 6 8 8 6 8 8 6 8 6 6 6 8 6 6 6 6 6 8 6 6 6 5 8 6 5 8 8 5 8 6 5 5 9 9 5 6 5 9 5 5 5 9 5 6 4 5 5 5 4 5 4 5 4 4 4 5 4 4 4 4 4 4 4 4 4 4 4 ; 4 4 f f f f f f f f 4 f ; ;                                                                                                                                                                                                       ",
"4 4 4 4 4 4 4 4 6 4 4 5 5 4 5 6 4 4 4 6 4 6 6 4 4 6 4 6 5 5 5 5 6 6 5 5 9 6 6 6 8 6 5 5 6 8 9 5 6 9 d 9 8 8 8 8 8 6 8 8 8 8 8 8 8 6 8 8 8 8 8 8 8 8 8 6 8 8 8 6 8 6 6 8 8 8 6 6 8 8 8 6 6 8 8 8 8 6 8 6 6 9 6 8 8 8 8 6 8 8 8 6 8 8 8 8 8 8 8 8 8 6 8 6 6 8 6 6 5 8 6 6 6 5 6 5 6 4 4 4 4 4 6 4 5 5 5 f 4 4 4 , ; f 4 f f X                                                                                                                                                                                                     ",
"4 4 4 4 6 w w w w w w w w 0 w t w 0 t w 0 t y y w w w e t t i p p t y y i p y p N N i N N N N c N N N C c N N c N a N a a a v N V N N N N N N N N N N c N N p p a a y p p p v u p p p p p y p y c N N i i N N c N c N c N N B N V B B B B B B B V Y Y B V B V B B B H H H H v a N c N N N c N N N N c N p i 5 , 4 ; ; 4 f                                                                                                                                                                                                       ",
"4 4 4 6 V B Y Y Y Y Y Y ' R T ' ' Y ] R ' ] } ] ^ ] ] } } +.$.} +.] ] } ] } ] +.] ] ] ] ] ] ' ] ] ] ] ] ' ] ' ' ] R ' R R W ^ ^ ] ] ' R ' ] R ] ] ] ] R Y Y Y Y T T R R R W ^ ^ ' R Y E ' R Y R Y Y ] E ' E ' ' R ' R Y R R R ^ ;.+.@.@.@.$.@.$.+.#.#.+.^ ^ ^ } R W W W W W E R R R R ] ^ R R ] ] R R R B C w 4 4 4 f f ; X                                                                                                                                                                                                     ",
"4 4 , 8 ' ] ] $.@.%.&.@.+.+.+.+.} ] +.} +.+.+.#.+.@.@.+.@.#.#.+.+.} ^ +.+.@.+.#.^ &.&.^ ^ &.&.^ ;.+.+.^ } +.^ ^ +.^ +.+.^ ^ &.#.@.^ ^ @.+.+.^ +.+.+.+.^ ^ R +.^ ^ ^ ^ #.^ ^ ^ ^ +.^ W W W W W W ;.^ +.^ ^ ^ ^ ^ ^ ~ R R R R ^ ^ #.#.^ #.#.^ ^ #.+.@.^ ^ ^ ^ ^ ^ ^ W ^ ^ ^ ^ W W ^ ^ ^ ^ ^ ] +.+.+.+.~ R I b q 4 4 4 4 ; f                                                                                                                                                                                                       ",
"4 4 4 w ] } +.} ;.&.:.@.^ +.+.+.^ ^ R ^ } ^ +.^ +.+.^ ^ ^ +.+.^ W W W W +.+.+.+.#.^ ^ ^ &.^ ^ ^ ] ] +.^ ^ +.+.@.+.+.^ @.^ &.^ ^ ^ @.^ ^ @.+.^ +.+.+.^ ^ R ^ R ^ ^ ^ ^ ^ ^ ^ ^ ^ ^ W R W R R R W R ] R ^ ^ ^ ^ R R R U R R U R ^ ^ ~ #.^ ^ #.^ ^ ^ ^ ^ ^ ^ ^ ^ ~ ^ ^ ^ ^ ^ ^ ^ ^ R ^ ^ ^ ^ +.&.+.+.^ ] Y Y B t 4 ; 4 4 4 4                                                                                                                                                                                                       ",
"4 4 , i ] ] } $.&.q.&.#.+.+.@.#.+.} +.+.+.+.#.#.@.#.@.@.@.@.@.+.+.+.+.+.+.+.&.#.#.#.^ &.&.^ ^ &.+.@.@.@.+.@.@.#.@.@.#.@.^ ^ &.^ @.@.@.^ @.@.@.^ +.^ +.+.^ ^ ^ ^ ^ ^ ^ ^ :.^ ^ ^ +.+.^ W W W W ^ ^ @.+.+.^ ^ ^ ^ +.^ +.^ ^ ^ ^ ^ #.#.~ q.#.#.#.^ #.#.^ ^ @.+.^ ^ ^ #.@.^ ^ ^ ^ ^ +.^ +.^ +.+.&.#.+.^ ^ R Y M t 4 4 4 ; 4 4                                                                                                                                                                                                       ",
"5 4 , i ' ] +.@.&.q.&.#.#.&.&.&.#.@.#.#.&.&.&.;.;.&.&.&.;.&.&.#.%.@.@.@.@.#.#.&.&.&.&.&.&.q.&.&.&.;.#.@.@.@.#.&.#.#.#.#.&.&.&.^ #.@.#.@.#.@.@.+.;.+.#.#.#.+.+.$.^ #.q.#.&.&.q.&.&.#.@.^ @.@.#.#.#.@.@.;.#.#.&.#.@.+.+.+.+.^ @.@.#.#.q.^ q.#.#.#.#.#.&.#.#.#.^ +.^ @.@.@.^ @.#.@.@.@.@.+.+.+.&.+.+.^ ^ ] ^ I q 4 f 4 f ; 4                                                                                                                                                                                                       ",
"4 5 4 t ] ] } %.&.q.&.#.#.&.&.&.#.&.%.#.&.&.&.q.&.&.&.q.&.&.&.&.@.@.%.@.#.#.#.c.&.q.&.q.q.&.&.&.&.&.&.&.^ &.#.&.#.#.#.&.&.&.&.&.&.@.@.@.#.@.@.+.@.@.@.#.#.#.+.#.#.#.q.#.&.&.&.#.#.&.+.@.+.@.#.#.&.#.&.#.@.#.#.#.#.@.+.+.^ +.+.@.#.#.#.#.q.^ q.^ &.^ ^ &.@.^ @.^ ^ @.@.@.^ #.#.#.@.^ #.^ +.+.#.+.^ ^ +.+.^ F c 4 ; 4 f 4 ; X                                                                                                                                                                                                     ",
"4 4 4 p  .] } ;.&.&.&.#.;.&.q.&.;.&.&.&.#.q.q.&.&.&.&.&.q.&.&.&.+.#.@.@.#.q.#.^ &.&.&.#.&.&.&.&.&.q.#.&.#.#.#.#.;.#.@.#.&.&.&.#.#.@.@.#.@.+.+.@.@.@.@.#.#.+.+.@.&.^ ^ q.&.#.#.#.#.#.@.@.@.+.^ #.#.#.#.#.^ #.#.#.@.@.+.^ ^ ^ +.#.^ #.#.#.^ q.^ q.^ &.&.&.@.@.@.@.@.@.^ ^ ^ ^ ^ ^ #.@.@.@.+.+.&.+.^ +.^ ^ } I r 4 f 4 4 f ; X                                                                                                                                                                                                     ",
"4 5 4 p  .] } @.&.q.&.@.&.&.:.&.:.&.&.@.&.&.q.&.&.&.&.&.&.&.&.#.#.+.^ :.:.^ q.q.&.q.&.&.&.&.:.&.&.&.&.&.#.@.#.#.@.@.@.@.#.&.#.&.#.+.#.#.#.@.@.+.@.@.+.#.#.+.#.#.#.q.#.#.&.^ &.#.@.&.@.@.@.#.#.#.#.@.#.#.#.@.@.#.@.^ @.^ +.W +.+.^ #.#.#.q.^ #.#.&.&.#.^ ^ @.^ @.@.^ ^ ^ ^ #.@.@.^ @.^ ^ } +.%.$.^ ^ ^ ^ U J c 4 4 4 ; f f                                                                                                                                                                                                       ",
"5 4 4 N  .;.+.@.&.q.q.#.@.:.q.&.q.&.&.&.&.q.&.&.&.&.&.&.&.#.&.#.#.:.^ ^ #.&.^ &.q.&.&.&.&.&.&.&.&.#.&.#.#.#.#.#.@.@.@.#.#.&.#.#.#.#.+.@.#.@.@.@.$.@.@.#.#.#.#.#.&.#.&.&.&.q.&.#.#.&.#.#.#.#.@.#.#.@.@.^ #.#.@.^ @.@.^ @.+.W +.+.#.#.#.#.^ q.^ #.#.^ #.#.#.@.@.^ #.^ +.@.^ ^ @.^ #.@.^ ^ +.+.#.@.+.+.} Y I M c 4 4 ; 4 4 ; X                                                                                                                                                                                                     ",
"5 4 4 a  .+.$.@.&.q.:.:.^ :.:.#.&.&.&.q.&.&.&.&.&.#.&.&.&.&.&.&.@.@.@.+.@.@.#.>.^ ^ &.&.&.@.%.#.#.:.>.+.>.@.@.>.@.@.@.#.#.#.>.@.+.+.@.;.+.@.@.@.>.^ :.^ :.#.#.&.#.#.#.#.&.#.#.#.:.#.^ :.#.^ @.@.#.#.@.^ @.@.+.>.@.@.@.@.@.W @.W ^ #.#.#.@.@.@.@.^ #.#.^ W +.} ^ +.W +.^ ^ W ^ +.+.+.^ W +.+.#.@.^ +.+.U J b z 5 4 ; f 4 ;                                                                                                                                                                                                       ",
"4 4 4 N } } +.%.:.&.#.#.#.:.:.:.&.&.&.&.&.&.&.#.%.;.&.&.&.&.&.#.@.>.>.@.>.@.#.:.:.:.^ :.@.@.@.#.^ ^ W ..W @.^ +.@.@.W @.@.@.+.@.+.+.+.@.+.@.@.+.^ >.^ :.^ #.@.@.#.#.@.#.@.@.#.@.^ >.#.^ ^ #.+.#.@.^ @.>.@.@.@.@.@.@.+.@.@.+.@.@.^ #.#.^ @.^ @.^ ^ @.+.W W W W +.W W W } ^ } } } W ^ +.W R +.@.+.^ +.+.U I b c 5 4 4 4 4 4 X                                                                                                                                                                                                     ",
"5 4 4 V $.$.+.@.#.&.:.^ #.&.>.>.#.#.#.+.@.@.@.@.@.@.%.+.@.#.#.+.>.@.@.@.^ >.^ :.#.@.#.#.$.+.+.+.+.W W W @.W W } ..^ ..+.@.@.@.@.+.] } +.+.+.+.+...W @.@.#.^ #.@.@.$.@.+.+.$.+.+...W W +.#.^ ^ W ^ ^ W ^ W @.^ +.^ +.^ } ^ ^ W +.^ @.^ #.W >.+.+.^ W ^ W R R W W W W W R W W W W R R W U U ] $.+.^ +.^ Y I B c 5 4 ; 4 4 f                                                                                                                                                                                                       ",
"5 5 4 N +.$.$.@.&.&.:.^ ^ ^ +...] +.+.] +.] ] R } W } +.] ^ ] +.} W } W W W W +.^ W W ^ R } R R R T T R W W R T W W W +.W W { W R R Y R ' T T U T T W W ^ W W W W W W W R R R U R R R U R U R U U U U U U U T T W U U T R T T T R W ~ ~ R W W T W R R U J I U R U P P U U T I I J J J H J J T ] R ^ ] U I B c 5 4 4 4 f ; X                                                                                                                                                                                                     ",
"5 4 4 V ..$.+.$.@.$.} I S J H N N B B N N N N N N N N N B N B N H v A v N v v H B N v u u u u v u y u u u u u u v v N N H S A n v u a v v c c y u u u N u u v v u u v v c u y t e y y e y y y y r r y e e e e e r y e y e y e y r r y y y y y y y y e e 0 e e e t t r y y t t 0 0 0 0 0 0 0 u B Y Y U U I B v 4 4 4 4 ; f                                                                                                                                                                                                       ",
"4 5 4 V $.} W } ^ W Y N 6 , , , ; 4 , ; ; 1 1 ; : ; ; ; ; , , 4 , , - - - - f 1 - & & & & & - , - & , & - , , , , , , , , , - - ; ; ; ; ; ; - - % % % % % % $ - - - - ; % % % $ % % % % $ % % % % - % $ % $ $ % % $ $ % % $ - % $ % $ % $ $ % % # % # # $ $ # * % $ % % % % $ $ @ $ % % % % 1 r B I U T Y M v 6 f 4 4 4 4                                                                                                                                                                                                       ",
"4 5 5 V $.W W W W R U y % # $ $ $ $ $ $ % $ # + + + + $ $ $ $ + @ + + @ = + + + + + + + + + + + + + + + @ # $ $ $ = + @ @ = @ # $ $ $ $ * $ $ $ @ + + + + + + + + # + + + @ @ + + $ # @ @ @ $ $ # @ # + + + # @ + + + + + + + + @ + o + o + o o + + + + + + + @ @ @ @ @ $ @ @ + + + $ $ $ $ ; r J U R R U I c 6 4 4 f 5 4                                                                                                                                                                                                       ",
"5 5 4 L $.} W W R R P p % @ # $ $ $ $ $ $ $ $ + $ + + + + + # + + + + + + + + = + @ + + + + + + + + + + @ $ @ $ # @ @ + @ @ # # $ $ $ $ % $ $ $ @ + + + + + + + + + $ + # + $ + + # # # @ $ $ $ % # + + + + + + + + + + + + + + + + + o + o + + + + + + o o + + + # # @ + + + + @ + $ $ $ $ ; e J U U R R U N 6 f 4 4 4 f X                                                                                                                                                                                                     ",
"5 4 4 K $.} W W W U P u % # $ # # $ $ $ % % # + + + + @ + + + + + + + + + + + @ + + + @ # + + + o + o # + @ # + + + + + + + + @ $ $ $ $ $ $ $ $ @ + + o + + = + + + + $ @ + + @ + # @ + $ $ $ $ # @ + + + + + + + + + + + + + + + + + o + + + + + + + + + + + # # # + + + o o + + + # # $ @ - r J U U W W U x 5 4 4 4 4 4                                                                                                                                                                                                       ",
"5 4 4 L $.+.^ W T U J y % # $ + @ $ $ % # # @ @ @ + + + # + + + + $ @ = + + = @ + + + # @ @ + + + + + # # + $ + + + + + + + @ + $ $ @ $ $ $ $ @ + = o + o + + + # + + $ # @ @ + # @ + @ + @ @ @ $ @ + + + + + + + + + + + + o + + + + + o + + # + + + + + + # # @ + + + + + + + # + + $ @ @ 1 r H U U R R U S 6 4 4 4 4 4                                                                                                                                                                                                       ",
"5 5 4 K %.} W W R U H e % # $ @ $ # @ # $ % # + @ + + # + + $ $ $ $ $ = + + + @ + + + + + # @ + @ # @ # @ @ + + + + + + + + + + @ $ $ # @ @ $ + + + + + = + + + + + @ $ $ # @ + @ @ + # + $ # @ # + + # + + + + = + @ + + + + o o + + o + o o + + # + @ # # # # # + # # + + + + + + @ # @ $ , r J U W W U U v 6 4 5 4 4 f                                                                                                                                                                                                       ",
"5 5 5 K @.+.W W R U N 0 % $ $ $ @ # # @ # @ @ # # + + + + + + # $ % % + + + + + + @ + + + + @ $ @ @ @ @ # + + + + + + . + + + + # $ $ % $ @ $ $ + o + o + + + + $ $ # @ # # + @ # # @ + + + + + + # + @ # o + + + + @ + + + + = o + + + o + + + + # @ # @ @ @ @ + + o o o + o + + + + # # $ , r J U R W R I S 6 4 4 4 4 4                                                                                                                                                                                                       ",
"4 5 4 K $.} W W R U S 0 $ $ @ @ # # # + @ + + + + # + + + + + # # @ + + @ + + + + + = + + + # $ $ $ $ $ @ + = + + + + + + + + + @ # $ # # @ $ + + = + o + o + + + @ @ # @ @ @ # # + + + + + + + + + + + + o + o + + + + + + + . + + + o + o + o + # $ @ @ $ $ @ + o + + + o + o + + + + # $ % t U U R R U I S 2 4 4 4 4 4                                                                                                                                                                                                       ",
"7 5 5 L @.} W W T U H 6 % $ $ $ $ @ @ + + + + # # + + + + @ @ # + @ @ $ % + + + + + + + . + # # $ @ $ $ @ + o + . + + + + + + + @ $ @ @ + # + # + + + o + + + + + + @ # @ # + + + + # + + # + + + + + # + + o + + + + + + + + + + + + + o o o + + + @ $ # # @ # # o + o o + o + + = + + + $ % y I U R W R U S 6 4 4 4 4 4                                                                                                                                                                                                       ",
"5 5 7 L ..W W R R U N 0 % $ $ $ $ $ @ # + @ + + @ + + + + + + + + + # + + @ + + + o = o + + + @ $ # $ # + o + o . + + + + + + + # @ # @ + + # + + o # + o + = + + + + + @ + @ + + + + @ + + + o + + + + + o + o o + + + = + + + + o o o + o o + + o + $ # @ # # # + + + + + = o o + + + + + 1 n I R R W U U n 6 4 5 5 4 ,                                                                                                                                                                                                       ",
"5 5 5 H ..W R R U P S w % % % $ $ $ $ + @ # # @ # # @ # # @ + @ + @ + + + + + + + + o o + + + + + @ $ + + # o o + + . + + + + + + # # + + o + o o + + + + + @ # @ + + # # + # + + @ # + @ + + # # + + + + + o + + + + + = + + + + + o o o o o o + + + + # @ % % - $ # + + + + o + + + + + + 1 r U U W W R U S 6 4 4 4 5 4                                                                                                                                                                                                       ",
"9 5 9 H ..W R R U U H 6 % $ $ % $ $ @ # # @ @ % 1 2 2 1 - @ @ $ + # + + + + + + + + + o + + + + + + + + + + . + + + . + + + + + @ + + @ + . + . + + + + + + + + + + + + = + @ @ = + + + + + + + + + # + o + o + + + + + + + @ = + + + + o + o = + + + + @ 1 3 r l 2 : @ + + + o + o + + + + - e U R W W U U x 6 4 4 9 4 ,                                                                                                                                                                                                       ",
"5 5 9 L ..} W W T U v 6 % $ $ % $ @ # + # @ % 3 S z x S l < @ + @ o o $ + + + + @ + + o . o + . + + + . + + + + . + . + + + + = + # # + + + + + + + + + + + + . + + + + + + + + + + + + + + + + # o o + + + o + + + + + + + + + + + + . o + + o + o + @ < n D D M x l 1 $ + o + o + o + o # & r U R R W R U S 6 4 4 4 5 4                                                                                                                                                                                                       ",
"9 5 5 L @.W W W W U J 0 % $ % % $ @ # + # % q x x z D D D z < $ $ + @ # + + + o + + + o + o o o + + + + + + + . . + + + = + + + + # + + + + + . + + . + + + + + + + + + + + + + + + + + + + + + o + o o + + + . + + + + + = + + + + . + o o + + o + + 1 x G Q G D D m 3 : + + o + o # o o + - e U R W R U U S 5 4 5 4 4 6 X                                                                                                                                                                                                     ",
"5 5 5 K ^ >.W W W U H 6 % $ % % $ @ # # # < S m x z D D F D l - $ $ + + $ + + + o + + # o o + o + + + + + + + + + + + + @ @ + + @ @ + + + + + . . + + + + + + + + + + + + + + + + + + + + + . + o o o + o . + o + = + + + + + + + + + . o o + X + + % n D Q ~ Q D m z z 2 @ + + o + o + + + % e I R W W R U S 6 5 4 5 4 4                                                                                                                                                                                                       ",
"9 5 6 K @.} W ^ W T S 6 % $ % % $ $ @ # % q D x z x D G Q G x < $ % $ + + @ + o + o o # # # + + + + + + + + + o + . + + + + + % # + + + + + + + + + + + + + + + + + + + = + + + + + + @ + + + + . + = + + o o o + . + + + + + + + + + . + . + + + + 1 x D D Q Q ! m z z l : # o + o + o + # % y I W R W R U S < 4 4 5 5 5                                                                                                                                                                                                       ",
"6 5 9 L %.+.^ W W U H 0 % $ % $ $ $ @ # , z x z z D F G ~ F M 2 - $ $ + + # + o + o o + # # + o + + X + + + X + . + + + + + + # $ @ @ = . + . + + + + + + + + o + + + . + + + + + @ + = + + . + + + + + o + + + + + + + # @ + @ + + . . . + . + + @ 3 x m D F G ! m z z z < + o o # + + + + - q I R W W R U S e 4 5 4 9 4                                                                                                                                                                                                       ",
"9 6 9 H @...W ^ W W S 6 % $ % $ $ # + @ 1 z x x x D G G ! F D q - @ @ + + + + + o o o o + @ + + + + o + + + + o + . + + + + + + + + + = + . + + . + + . + + + + + . + . + + + + + + + + + + . + + + + + + . + + + + + + @ + + + + + . + + + . + + $ 3 S x m D D F m M m M 3 @ o o = + + o o - e I W R W R U S 6 4 5 4 5 f                                                                                                                                                                                                       ",
"5 6 6 K $.+.W W W R S 0 % $ % $ @ @ @ @ 2 x D D D D F G F F D l - + $ + + $ + + o + o o o o + # + X + + + + o o . + + + + + + + + + + + + . + . + + + . X + + + + + + + + + + + @ @ @ + + . + + + + + + + + + = + + + @ # + + + + + + . + . + . + % 3 x x m m D M M F M M 3 @ o o o o + o # % y I W R R R I S 0 4 5 5 9 6                                                                                                                                                                                                       ",
"6 6 8 A >.+.+.W W R J 6 % $ % $ $ + @ $ < D D F G G G G G D m 3 - $ # @ # + # + + . o + . o + + + + + + o o o o + + + + + + + + + + + . + + . + . + + X + + o + + + + . + + + + + + + + + + + + + + + + + + + . + + + + + @ + + + o o o o o o + + @ q D z x D D M D F M M 3 @ o + o o o . + % r I R W W R U S 0 , 4 6 4 5                                                                                                                                                                                                       ",
"6 6 6 H ..+.W W W R S 6 % $ $ @ # + # @ 1 S G F G G G G F D m 3 % # $ @ + + + + + + . + + o o + + + + + + o o o . . . + + + + = + + + + + . + . + . + + o + + o + + + . . + + + + + + + + + + + + + + + + + + + + + + + + + @ + o o + o o o o o + $ 3 m z S D D F F M M m 2 + + o o o + o + , y U W W W R U S 6 < 4 6 4 5 X                                                                                                                                                                                                     ",
"6 7 7 H W +.W W R R S 0 % $ $ # # + # @ % x F F D D F G F D x 3 % @ # # + + + # + . + + + o o o . + + . X o o + + . + + + + @ @ @ + + + . + . . + + . + + o o + . + . + + + + + + + . + . . + + + + + = + + + + . + + + + + + + o o o o o o + o o + 2 z m m D D F F m m z : + o o o o + o + - y U R U W R U S 0 7 4 4 4 7                                                                                                                                                                                                       ",
"6 6 6 H ..+.+.W W R S 8 % # # @ + + + # @ q D D m z D F D D l 1 @ @ + + + + o + + + o + + + . + + + . + + + o + + + + + + + + + + + + + + + . + . + . + o o o o + . + . + + + + + + + + + + + . o + o + + + + + + + + + + + + . o + + o + + + o + @ 1 r D D F D ! F z z l @ o + o o o o + + % r U R W W R U v 8 6 4 4 6 8                                                                                                                                                                                                       ",
"7 7 6 A @.W W W W R S 6 % @ # + + o + + @ 1 z D m D D F D m 3 - + + @ + + + + # + o + + o + o o . + + . . . . . + + + + + + + + $ $ + . + + + . . . + . . . . . + + + . . + + + + + . . . + . + o + + o + + + + + + + + + + + + o o o o o + o + + + @ 3 m F D F F D x l 1 # o # + o o o o + % r U R W R R U n 0 7 < 4 4 6 X                                                                                                                                                                                                     ",
"6 6 6 J @.+.W W W R J 6 $ # + + o # + + + @ 2 l z D F D m n 1 @ @ + + + + o . + o + . o + + + + + + . + + + + + + + + + + + + $ , 1 $ + . . . + + + + . + + + + . . . + + . + + + + + + + . + + + + + + + o + + + + + + + + + + o o o . o o o + + + @ % q D D F D m z 2 @ o o o o o + o o o % t U R W R U U S 6 6 7 4 6 < X                                                                                                                                                                                                     ",
"6 6 6 A ..^ W W W R J < # # @ + + o + + + + % 2 q x D z r 1 % @ @ + + + . + o o o o + + . + o o + . + . + . + + + + . + = + @ - < < $ . . + + + . . + . + + + + + + + + + + + + + + . + + . + . o + o + o o + + + + + + + + + . o . o o o o o o + o + + : q z m x l 2 $ o o o o o o o o o + % r U R W W R U n 0 4 6 4 4 5                                                                                                                                                                                                       ",
"6 6 8 H ..@.W W W U J 6 % + @ + o + o o + + @ @ 1 2 3 1 1 % @ @ + # + + # o o + o o . + + + o o . . + + + + + + + + . + @ + = % , , + + + . + . + . + + + + + + + + + + + @ + + + + . . + . . + X + o o o o o + + + + + + + + . o o o . o o + + + o o o + @ : : : - + + o o o . + # o o o + - r U R W R U U S 6 4 7 4 6 4 X                                                                                                                                                                                                     ",
"6 7 6 K } W ^ W R T S 0 % @ @ + + + o o o + + # @ @ @ # # @ + + + + + + + o + o o + o + + + o + o o = + + + + + + + + @ @ + @ # $ @ @ # + + . . + . + + . . + + + + + + @ $ @ @ @ = + + + . + . o o o + o o o o o o + + + o o + o o o o o o + + + o = o o + + # @ + + + + + o o # + o o o + , y U R W W R I N 0 4 5 4 5 5                                                                                                                                                                                                       ",
"6 6 8 H ..W W W R U N 6 % $ $ $ + o o o + o o + + + + + + + + + + # + + + + o o o o + + + + . + + + + + + + + + + + + + + + + @ + + + = + . . + . + . + + + + + + + + + @ + @ @ = @ + + . + . . o o o o o . o o o o + + + + + + o o o . o + + + + o o + + + o # + + o # # o o + o + + = o + 1 S U R W R R I v 0 5 5 9 5 5 X                                                                                                                                                                                                     ",
"7 6 8 K +...W W W R S 6 % # + + + + + o o o o + + + + + = = + + @ + + # + + + + + o + # @ + o o + + + @ @ + + + + + + + + + + # + + + + + . + . + + + + + + + + + o + + + + + + + + + + + . . . o o o o o o o . . o o + o + + + + + o + o + + + + o o + + + # + + + o # + + o + # + + o o + f S R R R W R F v 0 6 9 4 5 5                                                                                                                                                                                                       ",
"8 7 8 H >.+.W W W T J 0 $ + + + + + + o o o o + + o o o + + o + + + o + + @ # + + + + o + + + . + + @ # + + @ + + + + + + + # # + + + . + + . . + . + + + + + + + + o + + . + + . + + + + + . + o o . o o . o . o o . . . + # + + + + + + + + o + o o + @ + # + # + + o + + + o o + o o o o < J R R W W R I v 0 6 4 6 4 4 X                                                                                                                                                                                                     ",
"6 8 8 K +.W W W W R S 6 @ + + o + + + + + o o o o o o + + o o + + o + + + + + @ $ + + + + + o + = @ @ $ # @ + + + + + + + + + + # + = + + + + + + . + + + + . + o o o X + + o o + . + + + + + . o o o o . o . o . o . o o o + o + + + + + + + o o o o + + @ @ # + + + + + + o + o o + o o # < J U U R I I I v 0 9 5 5 5 9                                                                                                                                                                                                       ",
"6 5 8 L >.W ^ W W R J 5 + + + + + + + = + o + o o o o + + o o + o = o + + + + + + + + + + o o o + + @ # # @ + + + = . + + + + + $ # + + + + . + . + + + + + + + + o + o o + o . . + . + + . + . o o o o o . . o o o . o o o o + = + + + + # # o o o o o # @ $ @ # + + o + + + + o + + + o + < H r q u e I I b 0 4 5 5 5 8                                                                                                                                                                                                       ",
"6 6 8 H >.W ^ W W R S 6 @ o + + + + + o + o o o = o o o o o o o o o + o + + + + + # # + + o o o + + # % @ @ + = + + + = + + + + + @ + + + + . + + + + + . + + + o o + o o + o o . + . . + + . . o . o o . o . o . o o o o o o o o + o + + o # o o o o o # @ $ # + + + + + + = + + + + o + + 5 S J e 2 u I I v 8 4 5 9 5 5                                                                                                                                                                                                       ",
"6 6 8 H +.>.@.W W T S < + + + o + + + + + = o o o o + + o o o o o o o . + + # + + @ + + # o o o + + @ # # + + + + . + + + + + + + + + + + + + . + + + + + . + . o o o o o o o o . + . + + . + + o o o . o . o o o o . o o o o o o + + + + # o # o o o + o + @ # # + + o + + + + = + + + o # < J r 2 y e I I v w 5 4 9 5 8                                                                                                                                                                                                       ",
"7 6 8 L >.W W W W R S < @ o + + o = + + + + + o o o o + o o o o o o o o o + @ + + # + + + + o + @ @ # $ + + + + + + + + + + + = o + + + o + o o + + + + + + + . . o o o + o o . o o o o + + + + o o o . o o . o o o . o . o o o + + + + # + + + o o + # o + # + # + + + o + + + + + + + o + < J S 0 e v J U S 6 9 5 5 5 5 X                                                                                                                                                                                                     ",
"8 8 8 K >.^ W W W R J 2 + + o + + + + + + @ = . o o o o o o + o o o + o + @ @ # @ @ # # + + + + + + + + + + + + + + + + + + + + + + + + o o o + + + . + + . + + + . o o o o o . o o o o + + + + o o o o o . o . o . o o . o o o + + # @ @ + + + + o + o # + + + + + o + + + + + + + + o + # < H r 0 y r U U S 0 5 5 5 5 9                                                                                                                                                                                                       ",
"8 8 8 L W @.^ W W R J < + + + + + + + + @ + + . o o o o + o o o o + o o + + + + + # # + + + + + + + + + + + + + + + + + + @ + + + . o o o o + + + + . + + . . + = + + + o . o o o o o o + + + + + o o o o . . o o o o . o . o o + + + + + + + + + + + # + o o o + + + o # # + + + + # + o + 1 v J t t n U U v w 5 5 9 6 5 X                                                                                                                                                                                                     ",
"8 8 7 L >.>.W W W U J 6 + + o o + @ + + @ + . + o o o + + o o + o o o + + # @ # + + @ @ + + + # + + + = + o + o + + @ @ + # @ + + + o o o o o o + + + . . + . . . . + + o o . o o o o + + + + + o o o o o . o . . o o o o o o o + + o + + # @ + + o # + + o o o o o o o + + + + # + + + + o , v n e y r P U v 0 9 5 5 4 5                                                                                                                                                                                                       ",
"8 6 8 L ....^ W W U J 6 + + o + + + = @ @ + = . o + o + o + + + o o o o + # + + + + + @ @ + + + + o o o + o o o + + @ + + @ # + + + . + o o o o + + + + . . + . . o + + + . o o . o o o + + + @ + o . o o o o o o o o o o o o + + + + + + @ + # + + # o o o o o o o o o + + + + + # + # o o - v S t e n U U S 0 9 5 6 9 5 X                                                                                                                                                                                                     ",
"8 8 7 L >.^ W W W U S < + o + o + + @ + @ + + + + o o o o + + + + o o o o + + + + # # # # + + + + o o o o o o + + + + + @ # @ # + + + X o o o o X + X . . + + . . + + + + + o . o o o + + @ + + + + + o o o o . o o o o . o o o + + + + + + # + + + + o o o . o o o o = + # + + # # + o + o & n n 0 e t I U S w 6 5 5 6 5                                                                                                                                                                                                       ",
"8 6 8 L +.W W W W U J 6 @ o + + + + + + + = @ + o + + o o + + + o o + o o + # + + # # @ # + + # + + + + o o o o + @ + @ @ @ + + + o + o X o o o + o . + . . + + . o + + + + + o o o + + + + + + + + o + + o o o + + + o o o + o + + + + @ + + + + + # + o o o . o o + + + @ + @ + # + o o o % y v e e n I U S 0 6 9 6 6 5                                                                                                                                                                                                       ",
"8 8 8 L >.W ^ W W R H 6 # o + o + + @ + + + + + + + + + + + + @ # o + + + o + # # # + + + o + @ + + + X o o o o + + @ + # # + + o + + X o o o o o o . + . . + . + . o + = . + . o o + + + + + + + + + + + + + + # + + + o + o o o + + # + + + + o + @ + + + o . o o o o + + + @ # + # o o + , n n e e e I U H 6 6 6 9 9 6                                                                                                                                                                                                       ",
"6 6 8 J >.W W W W R J < + + . + = + + + @ + $ + + + + + + + # @ = + = @ + + + @ + + + + + + + + + + + + + + + . + + + # $ # + + o o + o X + o o o o X + o o o o o o o + o o o o o + + o + + + + + + + + + + + + + @ + = + + + + + + + + + + + o o + @ @ + + = = o o . o o # @ # @ + o o o o - u S e e r P U S e 5 7 5 5 5 X                                                                                                                                                                                                     ",
"8 6 8 ` @.@.W W W U J 6 + . + + + + + + # $ @ + + + @ + @ @ # + + @ @ = + + + + + + + + + + + + + @ + + + . . . + + + $ $ + + + o o + + + o o o o o o o o o o o o o o o o o + o o o + + . + + + + + + + + @ + = + + + + + + + + + + = + + + + + + + + + + @ + o o o o o o + @ # # + + o o + % y u e t e U U S 0 9 5 5 6 6                                                                                                                                                                                                       ",
"6 7 e P @.+.@.W W R J 6 + + . + + + = + # $ @ + $ + + @ # $ @ # $ $ # @ @ + + + + + + + + + + + + + + + + + + . + + @ + + @ + + + + + + + + + o o o o o o X o o o o o o o o o o o o + + + + + + @ + @ = = + + + + + + + + + @ + + + + + + + + + + + + + + + + + o + + + + + + + + # # o o + % r u r e r P U S 6 6 9 6 6 5 X                                                                                                                                                                                                     ",
"8 8 < ` >.+.W W W U J 6 + + + + + + + + + @ $ # @ # $ + + @ # + $ $ @ @ @ + + + + + + + + o + o + + + + + + . . + + + @ + + + + + + + + + + + + o o o o o o o o o o o X o o o X o + X + + + + + + $ @ + + @ + + + + + + + + + + + + + + o + o o + o + + + + + + + + + o # + + # + o # o + # % r u r e e I U S 6 6 5 9 6 9                                                                                                                                                                                                       ",
"8 8 8 P @.W W W W R J 0 + + + + + @ + @ + $ $ $ # @ $ + + # # @ $ $ $ + + + + $ + + + + + + o + + + + + + + + . + + + + + + + + + + + + $ + + o o o + X o o o o o o o o + X . + o o o + + + + + = # @ @ + + + = + + + + + + + + = + + + = o o = + + + + + + @ + + + + o + + + + + + # + + + % r u e e e U U S 0 6 6 9 4 6 X                                                                                                                                                                                                     ",
"8 8 0 ` >.@.W W W R J 0 + + . + + @ + = + $ @ + + # # @ @ # # @ + $ $ + + + @ + + + + + o o + o + + + + + + . + + + + + + + + + + + @ + + + + o + o + o + o o o o o o o + + . . o o o + + + + + @ @ # @ $ @ + + + + + + + = + o o o + o o o o o + @ + + @ + = + + + + + + + + + + + + + + # - r u r e y U U S 0 9 6 6 9 6                                                                                                                                                                                                       ",
"8 8 0 A ..W W W W R U e @ + + + + + + + + + $ + @ + + + + @ @ + + $ + + + + + + + + + + o o o o + . + + + + + + + + + + + + + + + + + + + + + + o o + + o + o o o o o + o o + . o o X + o + + + + @ $ @ @ @ + + + + + + + + o o o + + + + + o + + @ + + o = + + + + + # + + + = o o o + + + ; r u r r r I U v w 8 5 5 6 5                                                                                                                                                                                                       ",
"8 7 w T >.@.W W W U P y + = . + + + + + + + + $ + + + $ # @ + @ + + + + + + + + + + + + + o + o . + . + + + + + + + + + + + + + + + + $ + + + + + + + + + o o o + X o + X + + . o o o o + o o + + = + + = + @ + + + + o + o + o + + + + + + + o + + + o o + + o + + # + + # + + + # + o + + - y v r r u U P v 0 5 9 6 9 8                                                                                                                                                                                                       ",
"6 8 8 P ..@.W W W U T u # + + + + + + + + + + + + + + @ @ @ # + + + + + + + + + + + + o + = o o . . . + + + + + + + + + + + + + + $ + + + + = @ + + + @ + + + + . + . + . + + + + + + X X + + o + + + + + + + + + + + + + + + + = o o o o + o + + + + o o o o o o # # + + # + + + @ # + + + 1 r u t r u I I n 8 7 7 5 5 5                                                                                                                                                                                                       ",
"8 8 d P ..W W W W R U e $ = + + + = + + . + + + + + + @ + + # + + @ + + @ = + + + + + + o o = o . + + . . + + + + + + + + + + + + + + + + + + + + + + + + + + + + + + . + + + + + + + + + + + o + + + + + + + + + + + + + + = o o o o o o o + = + + + + o o o o o + # + + + + + + + + # + # % r n y r u I I v 6 6 6 7 6 5 X                                                                                                                                                                                                     ",
"6 8 8 H @.@.W W W R J 0 $ + + + + + + + . . + + + + + + + # @ + + # + + + + + . o o o o o o o o + . . . . . + + + + + + + + + + + + + + + $ + + + + + + @ + + + + + + . . . + + + + + + + + o o . + + + + + + + + + + + + o + o o o o o o o o o + o + o o = . . o o = o o + + # + + + + + + % y y y r y J I v w 7 6 5 5 9                                                                                                                                                                                                       ",
"w 6 8 P +.W W W W R J 6 $ + @ + + + . + + + . + + + + + + + @ + + + + + + + . + o o + o o o o o . + . + + + . . o + + + + + + + + + + + + + + + + + + + + + + + + . + + + + + + + + + o + + o o . . . + + + + + + + + + o o o + o o o o o + o o + o o o + o o . o o + . o o o o o + o + + o @ e n y y v J I v 6 6 6 6 6 6 X                                                                                                                                                                                                     ",
"8 8 8 P ..W W W W R J 0 % @ @ @ + + o + . + X + + o + + + + @ + + + + . + + . + + o + o o o o o o o o o X o X + o o o o o + o o + . . + + + @ + + + + + + @ + + + + + + + + + @ + + @ + . + X o + . + + + . + o + + + + X + + o + o o o o o o o o o o + o o o o o + + o . o o o o o + o o o % e y y y y J J v 6 7 8 6 6 5                                                                                                                                                                                                       ",
"8 8 8 P ..W W W R R J 0 % # + % + + o X + . o + o o o + + + + + + + + + . + + . o o o o o o o o o + o o + + o o . o o o o o o o + + . . + + @ + + + + + + + + + . + + . = + + + + + @ + + o + + + . . . + + + o + + + + o + X o o o o o o + o o o + o o o o o o . o o o . . . . o o o + o o @ e v t e u P I v 6 7 6 7 5 8                                                                                                                                                                                                       ",
"8 8 8 A @.+.W W W R S 6 % @ @ @ + + + o + X + + o + + + + = + + . + + + . + + . o o o o o o o o o o o o o o o o o o o o o o o o + . + . + @ $ + + + + + + + + + + . + + + $ @ @ $ @ + + + o o + + . + + X + + o + + . + o o o + o o o o o o o o + = + + o . o o o o o o o . o . o o o + o . % e r e y y S I n 0 7 5 6 8 7                                                                                                                                                                                                       ",
"8 8 8 P ..W W W W U J 6 $ # @ + + + o + o + o + o o + + + o + + + + + . + + + . o o + o o + + o o o o X o o o o o o o o + X o o . . + . + @ + $ @ + + + + + X + + + + + + + @ + @ + + + + o o + + . . + + + + + + + + X + o o o o o . o o o o o + + = o . . . . o + o o o . . . o o o o o o % e v y e n I S S 6 5 8 7 6 6                                                                                                                                                                                                       ",
"8 8 8 P +.W W W W R J < @ + # + + + + + + + . + . . . + + + + X . + X + + o + o + o + o o o o o o o o + o o o o o o . o o o X o . + + + + + + @ + + + . + + + . + . + + + + + + + + + = + + X + + + # . . o # o o + . o o . . . . o o = o o o o o o o o o o o . o o o o + o . o . . . o o o % r y e y y J D v 6 6 6 7 5 6                                                                                                                                                                                                       ",
"8 8 6 P >.W W W W R J < @ # + @ @ + + + + + + + + + + + o + + o + + o + + X o + + + + + o o o o o o o X o o o o . o . o o o + o . + X + + + + + + + + + . + . + + + + + . + + + @ + @ + + + + + o o . o + . . o o o o o . . + . o o o + + o o + o o o + o o o o o . . o + o . o o o . o o o % r v e e v J I v 8 9 9 6 6 6 X                                                                                                                                                                                                     ",
"6 6 d P ..W W R R R J < # = @ $ + + + + + . + + + + . + o + o o + X . + + + + + + + + + + o + + + o o o o o o o o o o . o o o o . + . + + + + + + + . + + + . . + + + + + + + + + $ @ + + + + o . o + o o o o . o o . + + . . + o + o + + o o o + o + + o o o o o o o o o o o o o . o o o o % r y e u y J I c 8 6 6 5 7 9                                                                                                                                                                                                       ",
"8 d 7 P ..W R R R U H < + # @ @ + + + + . + . + . . + . o o + o + + + o o + + o + + + X o o o + o o o o o o . o o . o o o o o o . + + + + + + + + + + + + + + + + + + + + + + + + @ @ + = o + o o . . o o . o o o o . . # . o o o o + = o o o o o = o + . o o o . . . o o o o o o o o . o o % r v y e v U I c 0 6 6 6 6 5 X                                                                                                                                                                                                     ",
"8 d 8 P ..W T R U U S 6 $ + @ @ @ + + + + . + + + . . . + + + + + + + + + + + + + + + o o o o + + o o + o o o o o . o o + o o o o + + + X + o + + + + + + . + + @ + @ + + @ + + + + @ + o o + + o o o . o . o . o o o # + o o o o o + + o + = . o + + o o o o o o . . o o . o + o o o . o o % r r e y e I U v 8 9 6 6 7 6                                                                                                                                                                                                       ",
"6 w 7 P @.} W R R P N , @ # # # + + + + + + . . + + + . X + + X + + + + + X o + + + + o o o o o o o o o o o o + o o o o + + o o o + X + + + . o + . . + + + + + + + @ + + @ + + + + + @ + o o o o o . o o o o o o . . + + + # . o o o + o = + o + o o o . o . o o . o . . . o + o o o . o o % r S y r u Y U x 8 8 6 6 6 4 X                                                                                                                                                                                                     ",
"8 8 8 ( ..W W R U U S < # + # + + + + + + + + + . + + + + + o + + + + + + + + + + + + o o o o o + o + o o o o o o o o + + o X o o + o + + + + + . + . + . + . + + + + @ + + + + + + + + + o + + + o o o + o o o o o o + o o o + + o o + o + + o o o = + o + o = o = o o o o o + o o o o o o % t y y u r M Y N 6 6 8 9 6 5                                                                                                                                                                                                       ",
"8 8 8 P >.W W W T U J 6 @ + # @ + + . + + + + + + + + + + + + + + + + + + + + o + + + + + o + + + + + + o + o o o o o + + + + o o o o o o X + . . . + + + . + + + + @ + + + + + + + + + o o o o + . + + + # o o + o o o o . + + + = o o + + + o = + + + + + o o o o . . o o + o o o o o o o % r u y y u I U N 6 8 6 8 6 5 X                                                                                                                                                                                                     ",
"8 8 7 P >.W W R W U J e # @ @ + + + + + + + @ + + + + + + + + o + X o + + + + + + + @ + = + + + + + + + + + + o o o o + o + o . o o o + X + + X + o + o o + + + + + + + + + + + + + + . o X + + + + + + + + + o o o o o o o + + # o o o + + + o + + + + # # o o . o o . o o o + o o o o o o % t u y n u P U S 6 5 8 6 6 6 X                                                                                                                                                                                                     ",
"8 d d P ..W W W R R J e # + = @ = + . + + + @ + + + + + + o o + + + o + + + + + + + + + @ + @ + + + + + o o o o o o + + + + + + + o + + + + + + o o o + + + o + + + + = + . + . + + + + o o o o + # # + + + o o o . o + o . + + + + # o o # + @ + + + + o o o o o o o . . o + o + o o o o + % r S y r u P U S 6 8 6 9 6 5                                                                                                                                                                                                       ",
"8 8 8 P @.W @.W W R J 0 # + + + + + + + + + + + + + + + o X + o + + + + + + + + + + + + + + + + + + + o o o o o + + + + + + + + + + + + + . + + o o + o + + o o + . + + . + . + + + . . + o + + + + + + # + o o o . + o + o + + + o + + + + + # # + o # o . o o o o = o o + + + o o o o o + - r r y r y I I S 5 6 9 7 6 7                                                                                                                                                                                                       ",
"d 8 d P ..W W W R R I 0 @ + + + + + + + + + + + @ + + + + + + . + + + + + + + + + + + + @ $ + + + + o o o o + o o + + + + + + . + X + + + + + + o + o + + o + o . + . + . + . + X + . + + + + + + + + + + o o # o o o . o . . + = o o + + + + + # # + o o . o . o o o o o + o + o o . o o + % r u r y S J I S 6 8 6 6 8 6 X                                                                                                                                                                                                     ",
"8 8 8 P ..W W W R R I 0 # + + + + = + + @ # + + @ + + + + + o + o o + o + + + + + + + + + # + + + o o o + o o = + + + + + + + + + o + + + + + + + o + + + o + + . + . . + . . . + + + + o + + + + + + @ + + + o + . o + + o . + o + o + + + + + # + + + o . o . o + + o + + o + o o o o o o % r n t y n U I S 6 8 6 6 6 5 X                                                                                                                                                                                                     ",
"8 8 d P @...W W W U I 6 # + + = + + + @ + @ + + $ + + + + + + + + + o o o = o + + + + + + + + + + o o + o o + + + + + + + + + + o + + + + + + + o + o + + o X + . + + . . + . + o o X + + + + + + + @ $ # + + + + . + o + . . . o + o o + + + # + + o o o o o o o + + + + + + + + o + o + + - r n y y v U I S 6 7 6 6 7 6                                                                                                                                                                                                       ",
"6 w 6 P @.W W W W R P 6 + + + + @ $ $ + + + @ $ $ @ @ + + + + + + + o o o o . + + + + + + + + + o o o o o + + + + + + @ @ + + + + + + + + + + + + + + + o o X o . + + + . + . . o o + + + + + + + + # $ * + + + o + + + o . . . o o o o o + + + + o o o . o o o o + + o # o + + + + + + + + % e y y y r I I n 8 8 6 6 7 6                                                                                                                                                                                                       ",
"d w w ` ..^ W W R R J < @ + + + + # $ + $ # $ $ $ $ $ + + + + + + + o o + X + + + + + + + + o + + + o o = + = @ + + + + + + @ + + + + + + + + + + + + + + o + + + . . . + . . + o + + + + + + + + @ $ @ $ + # + + + + + + . . . . o o o o + + + o o o + o + o o o + + + # + + + o + o + + @ % e n y y u I I S 8 7 8 6 6 8                                                                                                                                                                                                       ",
"8 8 w P ..W W W W U J 6 + + + + + + $ + @ + + $ $ $ + + @ + + + + + + o o o o + o o + + + + + + + + + + + + + + + + + + # + + + + + + + + + + + + + + o + o + + o o o o o + o + o + o + + + + + o # @ @ @ + # + o o + # o o o = o . o o o o + o o o + + + o + + + @ + + + + # o o o + o + + , q r r y n P I S 8 8 6 6 6 6 X                                                                                                                                                                                                     ",
"8 w 8 ) >.W W W W R J 6 @ + + + + + $ $ + + + $ $ + + $ + + + + + + o o o o o o + + o + + + o + + + + + + @ + $ @ + + + + + + + + + + + @ + + + + + o o + o + X o o + o o o o + o + o + + + + + + + @ # + + + + # + + o o o o o o o o o o . o o o o + + # + # + + + + + + + o o o o o o o + , q r y y v U U S 6 7 6 8 6 9                                                                                                                                                                                                       ",
"8 8 6 P >.W W W W R I 0 @ + + + + + + + + + + $ $ @ + + + + + + + + + o o o o o o + o + + + + + + + @ $ + @ + $ + + + + + + . o + + + + + @ + + + + + + o o . + o + o o X + o X o + + + + + + + o + # $ # + + + @ + = + o o o o o o o o . o . . o o + # + # + + + + + + + o o o o . o o o o - r u r u r I I S 8 6 6 6 6 6 X                                                                                                                                                                                                     ",
"8 w 8 ) %.+.+.W W T I 6 + + + + + + @ + + + + $ $ $ + + + + + + o o o o o o o o o o o o + + + $ @ + + $ @ + + + + + + + + + o + + + + + + + + + o + + + + o + . o o o + o o o + o o = + + + + + + + # # # + + + + + + o o o o o o . o . . o . . o + @ + + + @ + + + @ + + o o o . o . . . o & r r u y u I I S 8 8 7 6 9 6                                                                                                                                                                                                       ",
"d 6 0 ` @.} ^ W W R U e @ + + + + + + + @ + + + $ + + + @ + + + + o o o + + . + o o o o o + + @ $ + + $ @ + @ + + + + o + o o o o o + + + + + + + + o o + + + + o o + o o o + o + + + + o + + + + + + + + + + + + o + o . . o o . o . o o . . . o # @ + + + @ + + + + + + + o . o o . o o o % r n e y u U U S 6 5 8 5 6 5 X                                                                                                                                                                                                     ",
"w w w P ..W W ^ W W P e + + + + + + + + + + $ + + + + + = + + + + + X + o X + + o + o + o + + + + + + $ + + + + + + + o o + o o o o o o o + + + o + o + + + + . o o o o o o o + o + + + + = + + + + + + o + + + + + o o o o o o . . o o . . . . + + + + + + + # + + + + + o . o . . o o o o % r n y u n U U S 0 8 8 6 6 5                                                                                                                                                                                                       ",
"6 w 8 P ..^ ^ W W R P 0 # + + + + + = + + + + + + + . + + + + + + + X + + o . + + o o o + + + + + + + $ $ + + + + + + o + o o o + o o + + + + + + + + + + + = + + o o = o + + o o + + + + + @ + + = + + + o + o + o + = o + + o o o o o . . . + + . o + + + + @ + + + o . . o o . . o o o o % e v y y v U I S 6 8 5 9 8 6                                                                                                                                                                                                       ",
"d 6 8 P ..^ W W W U J e @ = + + + + + $ $ + + + + + + + = + + + + + + + + + + . o o o o o + + + + $ + $ + $ + + o o o + o o o o o o + o + X + + + + + + + + + + + + o o o + o o o + + + + + + + + o + o o o + o o o + + + o o o o o o o . . . . + o o + + + + + + + + . . o . . o o . + o o % r r t y n J I S 6 5 8 5 8 8                                                                                                                                                                                                       ",
"8 8 8 P ..W R W R U U e $ o + + @ @ @ $ $ @ + + + + + + = + + + @ + + + + + + + o + o o o + o o + + + + + @ + + + = o o o o o + + o + + + + + @ + + # @ @ + + + + + + + o o + + + + + + + @ + + + o o o . o o o o o + + + + + + . . . . . . . . . . . o o + + + + . + . . o o . . o o o o o % r v r r n I I n 6 7 6 6 6 8                                                                                                                                                                                                       ",
"8 8 8 ) >.W W R W R I < $ + + $ $ % % - % $ @ @ + @ # @ $ % % $ % $ @ = + + + . o o o o o o o + + + + + @ + + + + + + + + o + + + + + + + @ @ @ $ + @ # $ + + + + + + + o o o o @ + + + + + + + o o o o o o o o o o + + + + + + o . O . . . . . . . o o o o + + + + + . o o o o . . o o o + % e r y y y I I S 0 6 6 6 d 8                                                                                                                                                                                                       ",
"8 8 8 P W W W R W R J < + + @ % 1 1 < < 6 , 1 - 1 - , , < e e 6 < % $ + + + + + o o o o o o o o + + + + + + + + + @ - 1 1 1 - - - - 1 1 1 , 1 , - % % + # + + + + o + + + X o o + + + + + @ + + o . o o . o o o o + + @ # + + + + . . . . . . O o o o o o + + + + + + . . o o . o o o o o + @ e n r e n P I v 0 6 6 6 6 6                                                                                                                                                                                                       ",
"8 8 d P ..W W W R W J < # o # % % ; < 0 0 e e 0 e e e e e e e 0 e < $ + + + + + o o o + X o o + + + + + + + + + + - 6 e y y e e e e e e e e e e 0 < 1 + + @ + + + + o X + o o o + + + @ # + + = o o o o o o . o o + + + + + + + o . . . . . . . . . . o o o + # + o . . o . o o + o + o o + % e r t y y I I v 0 6 7 6 7 8                                                                                                                                                                                                       ",
"d w 8 P ..W W W W R J , @ o + % 1 % 6 y y u u v v A v u n u u 4 6 0 $ + + + + o o + o o o o o o + + + + + + + + @ @ f u A n p y w e e w 6 8 0 < < 7 , @ + + @ @ + o o o o o o o o + + + @ + + o o o o . o o o o o o + + + # + + o . . . . . . . . . . . o o o + + o o . o o . . o o o o o + , q v r t n J U v w 6 7 6 6 7                                                                                                                                                                                                       ",
"8 8 d L ..W W W W R J < @ + @ % % % 6 u H H A H J H H H A S N < 6 6 % + + + + o o X o o o o o o o + X + $ + + + % % % a H H H S a a u y e e e < , 6 1 $ + + @ + + + o o o o o + + o + + @ + + + o o o . o o o o o o + + + + + + + o . o . . . . . . . o . . + + + + . . o o o . o o o o + + , q r t r u I I v 0 6 w 6 7 6                                                                                                                                                                                                       ",
"w 8 w ) ..+.W W R R S < + + + % 1 $ 6 N H H J A H H A J H H N 4 8 0 % @ + + + o o o o o X + + + o + + + + @ + + - - - y H H H A H H N H N a y < , 4 < $ + + + @ + + o o o + o + + o + + @ + + + o o o o + + o o o o + @ @ @ + o o o o o . . . . . . . . o o o + + + + + @ + + . . . o @ @ + , r v r t v I S S 0 6 7 6 6 6                                                                                                                                                                                                       ",
"8 8 8 P +.W W W W R H 1 # + + % 1 % 5 u L H H L H H P H H P a < 6 6 - @ + + + + + o + o o + o + + o + + + + + @ - 1 - y H H H P H H H H N N n 6 , 7 < $ + + + + + o o o o o o o = + + @ @ + + + o o o + + o o o + + + @ @ @ $ = + o . o . . . O . . . o . o o # + + + + + + + o . + o + o o , r y e r r J S S 6 7 6 8 7 6 X                                                                                                                                                                                                     ",
"8 8 6 ` >.W W W W R H < + + = - - $ 6 n H H H H H H H H H H y , 6 6 % $ @ + + + + + . + + + + X + = + + + + = @ 1 , f p H H H H H S H N N N u 6 , 6 < @ @ + + + + o o o o o o + + o + + + + + o o o o o @ + o o + + + + + $ $ + + o o o . . o . o . . . . o + + # + o + + # + o o + + + + + 1 y u e y v I J v 0 8 6 6 8 6                                                                                                                                                                                                       ",
"8 8 0 P @.W W W W R H < + + + - 1 $ < t u v u y y u v N a u e 5 7 4 @ @ $ + + + + . + + + + + + . + + + @ + + = - 1 - y A H H A v A N N a n y < , w 6 @ + + + + + o o o o o o o o + o + + + + . o o # + o o o o o o + + + $ @ @ + o o o o . o o o o o . o o + + o + + + + + + + o o o # + # % e y r y y J J x w 5 7 6 6 6 X                                                                                                                                                                                                     ",
"8 8 8 P ..W W W R R H 1 + + + - - % < 0 t e 2 6 6 e e y y y e 5 4 1 @ + $ + + + + + + . + + + + + + + @ + + @ @ - - - y n n n e e r v a e 0 6 , , 6 6 @ + o + = + o o o o o o + o + + + + + + . o o o + o o o o o o o o o + o + O o o o . . . o + o . + + + + + + + + + @ @ + o o + # + # + % q v r r u I I v w 5 7 6 7 9                                                                                                                                                                                                       ",
"w 8 8 P >.@.W W R R S 1 + + + % , , < w 6 6 5 < 6 < 5 8 t y 8 6 6 - + + + + + + + . + + + + + + + @ $ $ + + = @ % - , e e e 0 6 6 6 0 e 0 6 < < < 7 1 + o o + + o + + o o + + o o o + + + + o o o o o o o o o o o o o o o o o o o . . . . . . . o @ o + @ @ + + + + # + + + o + + + + + @ + % 0 y r y u I D N 0 8 6 6 6 4 X                                                                                                                                                                                                     ",
"8 w 8 P @.W W W W U J < @ + + % % , f 1 1 f - , , % , < 6 6 < , 1 @ + + + o + + . + + + . + + + + @ $ @ + + @ @ % , w y y t 8 8 0 6 e t y t e w e < - + o + + + + + o + o o o + + o + + + + + = + + + o o o o o o o o . . O X . . . . . . o . . o o . + @ + + + + + # + + + + + + + o + $ @ , 3 y r t u Y I x w 9 6 6 7 5                                                                                                                                                                                                       ",
"8 8 w ` >.W W W R R J < @ + + + $ @ = @ # # $ $ @ @ + + + @ + @ + + + o o o o o + + o + X + + + + + + + + = @ # $ $ % - - - - - % - 1 f - f 1 f % % $ + + + + + + + + o o + + + + + + + + + + + # + + + + + o o o o o o . o o o . . o . . . O . . . . + + + + + + + + + + + + o + + + # @ @ % 0 r r y r B I v 0 6 6 6 8 9 X                                                                                                                                                                                                     ",
"8 8 6 P @.W W U W { S 1 $ + + @ + + + + + + + + + + + + + + + + o + + o o o + o . + . + + o + + + + + + @ @ @ @ $ + + # + + @ $ @ $ @ + @ @ % $ @ # + + + + + + + + + + + + + + + + + + + + + + + + + + + o o + + o o X . o o . . . . . . . . . . . . o o + . + + @ + + + + + o + # + + # # % 0 r e e u I I v w 6 6 9 6 6                                                                                                                                                                                                       ",
"8 8 e A ..W W W R U v , $ @ + @ + + + @ @ + + + = + + + + + + = + o o + o o o o + + + . + + + + + + + + + # + + @ $ + = + + + $ + # + $ @ # # + # + + + + + o + + + + + + + + + + + @ + + + + @ # + + o o o + + o o o o o o . o . . . . o . o . o . . . . o + + + + + @ + + + o o + + # + @ % < r r t r I M N d 6 9 6 6 8                                                                                                                                                                                                       ",
"8 w w L ..W W W { U J < $ + $ + + + + + $ + + + + + + + + + + + o o o + o o o o + + + X o o o + + + o + + + + @ + + + + + + + $ $ $ # $ $ $ @ # + # + + X + + + # o + + + + + + o # @ + @ + # @ + + o o o o + + o o o o o o o o o . . . . . o o . . . . . . . + + + + + + + o + o + + # + @ $ 2 u r t r U I S 6 6 6 9 7 6 X                                                                                                                                                                                                     ",
"8 8 w A } W W W W U v < $ + + @ $ + @ @ $ @ @ + + + o + + + + + o o + o + + + o o + + + + o + + + X o o + + @ + + + + + + + $ % - $ $ $ $ $ $ @ # + + + + + + + o + o # + + + + + + # + + # @ @ + + + o + o o + + o o o o o o . . o . . . o . o o o o . O . o o + + + + o + o + + o + @ @ @ % 0 y t t y I I S 0 6 6 6 6 5 X                                                                                                                                                                                                     ",
"8 8 w P ..W W W R U H 4 + + @ + + @ @ $ $ $ @ + + + + + + + o + + o o o o o + o o o . + + + + + + o o o + + + + + + o + + + $ - f % # + $ $ @ # @ + + + o + o + + o + + # + + + + + + + + @ $ $ $ + + + o o o + + o o o o o . . . o o . o . o o + o + . . . . + + + + . o . . o o + # + @ + % 0 r r t n U I v 8 9 6 9 5 5                                                                                                                                                                                                       ",
"8 8 8 P @.W W W U U v 1 $ @ + @ @ + $ $ % $ @ + + = + + + + + + + + o o o o o + + o + . + + + + + + + + + + @ + o o o o + + % < 1 % @ @ # $ $ @ = + + + + o + + + + + + @ + + + # + + + # @ $ # # + + o + o + o o o o o o . . . . o o o . . o # + + + + + + + o + + o . . . . o + o + + @ + % 0 r y r n I I v 0 6 8 6 6 5 X                                                                                                                                                                                                     ",
"6 w w L ..W W W T U v < $ + @ + + + @ @ @ @ + + + + + + + @ @ + + + o o o o + + + o o o + + + + + + + + + + + + + + o o + + % , , % $ + + + @ @ + o o o o o o + + + + @ # # + + + + + @ @ # @ # + + + + o o + o o o + o o o o o o o o o o o o o + + + + + + + + . + . . . o . . o + = + + @ % e n y r v I U S 0 6 7 6 8 5 X                                                                                                                                                                                                     ",
"8 6 w A ..W R W T U v 1 $ @ @ $ $ + + + + + + + + + + + + + + @ + + o o o + o o + o o o o = + + + + + @ + + + + X + o + + + % % % % $ $ + + @ + + o + + o o o + # + @ @ + # @ + + @ + + + + + + + + + + + o . o o + + + o o o + o o + + o o # o + # $ @ @ + @ + + . . . . . . + + o + + + # 1 y y r t r J U S 6 6 7 5 7 5                                                                                                                                                                                                       ",
"d 8 w L @.W W R R U v 1 % @ @ + + + + + + + + + + + o o + + + + + + + o o o + + + o o o + + + $ @ @ + @ + + + + . + + . + @ - - % % % $ + + + + + o o + o o o + + @ + @ @ + # @ + @ + + + + + + + + o + o o o o o o + o o o o + o o + + + + + + $ $ $ $ @ @ + + + . . . . . o + o o + + + # 1 r n t t r I U S 6 9 6 6 6 5                                                                                                                                                                                                       ",
"6 w w H } W W R T U v 6 % # $ + $ @ + + + + + + + + = o + + + + + + o o o o o + + o o o + + + + @ + @ @ + + o = + + . = + @ $ + $ $ % + + + + + o o o o o o o + + + + + # @ @ + @ + + @ + + o o + o + o + o o o o o + + o + + o @ @ @ + + + + $ @ $ % $ $ + + @ + . . . . . + + . . . o o = 1 y n e y r I I S 0 6 9 6 6 5 X                                                                                                                                                                                                     ",
"w 8 8 K ..W W W U U v 6 % $ $ $ @ + + + + + + + + + o o o o + + + + o o o o + o o o @ o o o o + @ @ + @ + + . + + + o o o + + + @ @ @ + + + + o o o o + o o + + + + + @ @ @ @ # @ @ # @ + + = + + + o o o o o o o o + o o + + o + # + + + # $ @ @ + # * @ @ + + o . . . . . . + . . . o o + 1 r u y r y I I S 6 5 6 5 8 6                                                                                                                                                                                                       ",
"6 8 8 H } W W W U U n 6 % $ $ $ $ @ + + + + + + + + + + + + + + + o + o o + o o o o o o o o . @ + + + + + + o o o . . o o + @ + + % % + + o o o o + + o o + @ + + + + @ @ @ # @ @ $ # + @ + + + = + + o + o o o o o o + o o o + # + @ + # % % $ + @ @ $ @ + + o o o . . . . o o . o . o @ o 1 r n r y S I I H 0 5 7 6 7 5 X                                                                                                                                                                                                     ",
"d 6 8 L ..^ W W R I n < % $ $ $ + + @ + + + + + + o + + + o + @ @ + + o o o o o o o o o . . o o + + + + + o o o o o o o . + + @ + % - + o o o o o o + + o + + + + @ @ @ # @ @ # # $ $ + @ # + + + = + + + o o o + o + o o o + + + + + + @ # $ % @ + + + + o + o . . . . . . . O . . . o o o 1 r n y y v U I u 0 7 6 5 6 5                                                                                                                                                                                                       ",
"8 w d L } W W R R P S < $ $ % $ $ @ + + @ + # o + + + o + + + @ @ + + @ @ o o o o o o o o o o . o o o + + + o + o o o o o . + + % % + + + o o o o o o + + o + @ + + + @ # @ + # @ $ $ @ # @ + + + + + + + + o o o + + + o o + + + + + + + + $ $ # @ + + + . . o o . . . . . . . . . o o o o , r u y y u I I n 0 6 6 6 7 9 X                                                                                                                                                                                                     ",
"6 6 8 L ..W W W T U v < % @ % $ @ # + + + + o + o o + o + + + @ + + + + + + o o . . o o o . . . o o o o @ o o o o o o o + . o + @ @ + + @ o o o o o o + o + o o + o + + + # + + @ $ $ + # + o + + o o + + + o o o + + + o o + + + + + @ + + % @ # @ o . + . . o . o . . . . . . . . . o o o % q u r y y I U n 8 6 6 5 8 5                                                                                                                                                                                                       ",
"8 6 d L ..W W W R U H < @ $ $ $ $ $ + + + + + o o o o o . o + + + + + o + o + o o o o . o o . . o o o o o o o o o . o o o + . + + o + + + o o . o o . o . o o + + + o + + @ @ @ # $ @ # + # + + + o + + + o + o X + X + + o + + + o o + + + @ $ # + + + o . . . O . . . . . . . . . . o o o - r n y y u I I S 8 6 7 8 6 8                                                                                                                                                                                                       ",
"6 8 8 L ..W W W W R N 6 $ @ $ $ $ + + + + + + . + o o o . o o + + + + + o + o . o . . o . o O . o o o o o o o o o o o o . o o . o o o o o o o o o . o . o . o o + o . o + + # + @ @ $ + + + + + + + o o + + + + + o o + + + + o + + o . + + @ @ + + + + + . . . . . . . . . . . . . . o o + - r u r r u I U v e 9 6 9 6 5                                                                                                                                                                                                       ",
"8 8 8 L } W W W R R S < $ @ @ % $ $ @ + + + + + + o + + + o o + + @ @ + + + + o o . o o . o o o o o . o o o o o o o . o o o o + + + o o o o . o o o . o o o o + + o + o + @ + + + @ $ # @ + + o + o + + + + + o o o o + + + + + + + o . + + o + + o . . . . . . . . . . . . . . . . . o o + , r n e e u I U b 0 6 6 6 9 5                                                                                                                                                                                                       ",
"8 7 7 P W W W R W U S 1 % $ $ % # @ @ @ + + @ + + + + + + + o + + + @ + + + + . o . o . . o o o o o o o o o o . o . o o o o o o @ . o o o o o o o o o o o o o o o o o + + + @ @ @ @ $ @ + + o + + + + + + + + o o o o o + + + + + + + o + + o o . . . . . . . . . . . . . o o . . . . . . o 1 n r e r r J U v 8 5 5 6 6 5 X                                                                                                                                                                                                     ",
"8 8 w J @.W W W W R S < % $ % $ @ @ + + + @ # + + @ + + + + + + + @ + + o + + o o o o o o o . o o . o . o o o o o o o o . o o o o o + o o o o o o o o o o o o @ + + + o . + + + + @ @ + # + + + + + + + + + + + + o o + + + + + + + o o o . o o . . . . . . . . . . . . . . o o . . . o . o 1 x v e e v U U b 0 7 5 9 6 5                                                                                                                                                                                                       ",
"8 8 w ` @.W W W T R S < $ $ $ @ @ @ + @ + @ # @ + + o + + + + + + @ @ + + + o o o o . o . o o . o . o o o o . o . o . . o o o o o + o o o o o o o o o o o o o o + + o + + + + + @ @ @ + + o + + @ + + + + + + + o + o + + + + + + o o o o . o . . . . . . . . . . . . . . . . . . . . o . = < S l 0 e y I U b 8 5 5 5 5 5                                                                                                                                                                                                       ",
"8 8 d P >.W W W W R H 6 $ @ @ @ + @ + + @ # # @ + @ @ + + + o @ + @ + + + + o o . . o o o . o o . o o o o o o o o o o o o . o o o o o o o o o o o o o o o o o o o o o o + + + + @ + + + + o + + + + + + + + + + + o o + + + + + o o o o o O o . . . . . . . . . . . . . . . . . . o o o . o < S v e 0 v U I b 8 5 7 9 6 5 X                                                                                                                                                                                                     ",
"6 8 e P @.W W W W R S 6 % % @ + + + + + + + @ + @ + + + + + + + + + + + + . o o o o o o o o o o o . o o o . o o o o o . o o o o o o o . o o o o o o . o o o o o o o . . + + @ + + @ + o + o + o + + + + + + + + o + o + + + + o o o o . . o o o . . o . . . . . . . . . . . . . o o o + o . < S c 0 q y Y Y v 8 9 9 6 5 4 X                                                                                                                                                                                                     ",
"8 6 6 ` >.W W W W T S 6 $ # @ + + + + @ @ @ + + + + @ + + + + + + + + + o o . + o o o o o o o o o o o . o o o . . . o o o o o . o o o o . o o . . o o o . o . o o o + . . + + @ + + + o o + o + @ + + + + + + + o + o o + + + o . o o o o o o o o . . . . . . . . . . . . o + o o o o o o o ; S c 0 0 u I M b 8 6 6 9 5 9 X                                                                                                                                                                                                     ",
"6 6 8 P >.W W W R R S < % @ @ + + @ @ @ @ @ @ + + + + + + + @ o + + + + o o o . o o o o o o o o . . o o o . o o o o o o o o o o . . o o o o o o o o . . o o o . . + . . . + + + + + o o + o o o + + + + + + + + + o o + + + + o . o o . . o . o . . O . . . . . . . . . + + + + + + + o o . - u r 0 0 c I I v 0 6 9 6 5 6                                                                                                                                                                                                       ",
"d 6 d P >.W W W W U H < $ # @ # % 1 1 1 % @ @ + + + + @ o @ o o o + + + + o . . o . o o o o o o . . O . . . . . o o o o o o o . . O o o . o . o o o o o . . o . . . + . . + + + + + o + + o o o + + + + + + + + + + o o + + + X . . o . . o . . . . . . . . . . . . o o + # $ % % @ + o o o , S v 0 q v I U v 8 5 6 9 5 8                                                                                                                                                                                                       ",
"6 6 8 P ..W W W W R S < @ $ @ 1 q x m n q 1 @ @ + + + + + + @ o o o o @ o . o . . . o o o . . . . . o o o o o . . o o . o o o . o o o o . o o o . . o o o o o o . . . o o o + + + o . o + + . . o o o + + + + + o + o o + o o o . o . O . . . . . . . . O . . . . . o + % < l l l 2 : + o . 1 S r 2 t r U U S 6 4 6 5 4 6                                                                                                                                                                                                       ",
"d 6 7 L ..W W W W U v 6 @ % 1 n D m m m m z 1 @ @ o o o o o o @ + @ o o o o o o o . . o + . . O . . . . o o o o . o o o . o o o . o . o O o o . o o o o o o o @ + o o o o + + + @ + o + o . o . + X o + + + + o o o + o + o o o . . . . . . . . . . . . X . . o o o + % q m F F D D z : + o % S S e r u U U S 6 9 5 5 9 4 X                                                                                                                                                                                                     ",
"6 6 d L %.W W W U T v 6 - - n m m x m m m D q - @ o @ o o o o o + o o o o o o o o . . o + . o . . . . o o + o . o o o o . o o o o o . . . . . . . o o o o . o o + + + + + @ + @ @ + + + o . . . o X o + + o o o . o @ o + o o o o . . . . . o o o . . . . . o o o + @ 3 m G ! G F F F z : o % n n u J r I U u 2 9 6 6 5 5                                                                                                                                                                                                       ",
"6 6 w L ..W W W W T S < - < n x m x z m D G m 3 + o o o o o o o + + o o @ o o o O o o + + + + . o . . @ + + + . o + o o o o @ o o o . . . . . . . . . @ @ o o o + . o + @ + @ @ @ @ + o o . o . o o + o o o o o . . . o o o o + o o o o . o + + o . . o . . + + O + 1 l D Q Q F D D F D 3 @ % r J T R U U I S 8 6 9 6 5 5 X                                                                                                                                                                                                     ",
"6 d 6 ` W W W W W R S < - q m x z x x D G ~ G q @ + o o o o o o o o + + + + + o . . o + + o . . o o + @ + + + + o @ @ o o o o o . . . . . . . . o o o o @ o @ o + o o o o + + + o + + + o o o . o o + o o o o o . . . o o o + o + o o o . o o @ + . . o + + + @ + $ 2 z x F G F D D D F x - % r U R R W R U S 5 9 5 5 9 6 X                                                                                                                                                                                                     ",
"6 6 6 P ..W W W R R S , 1 x m n z m D G G ~ F l : + o o o o o o o o + + + + + + + . o + + + . . o @ + + + + + o o o o o o @ o o . O . . . . . . O . o o o o o o + . o o . o + o o o + + o o o o . o o + + o o o o . o . o o + o + o o o o o o . o o o o + + + + + % 3 z x F F D m D D ! D 1 % q U R R R R I S 6 5 9 5 6 5                                                                                                                                                                                                       ",
"6 d 8 P ..^ W W W R S < 1 m D m x m F G G F F x @ + o o o o o o o o o @ o + o + + + + + + . o o o o @ @ + + + + o o o o o o o o o o o o . o o O . . . o o @ o o + . o O o o o o o o + o + + o o o o o + + o o . . . . . . o o o o + + + o + o o o . o o + + + + @ % l x x D D D m D D Q F 3 % r U W W R U I n 6 5 6 5 5 5                                                                                                                                                                                                       ",
"6 6 8 P @.+.W W W U I < 1 m G m m D F G G F D z : @ o o o o o o o o o o + + + + @ + o @ + . . o o @ + @ @ + + + o o o @ o o o @ o o o o o o o . . . . o o o o o . . . . o o o o o + o + + + + o o o + + + + o . . . . . o o o o o o o + + + + o o . . . # + # @ + - x M M D M M m F F Q Q 3 - r U R R W U I S 8 9 5 5 7 6                                                                                                                                                                                                       ",
"6 w 6 P @.} ^ W W R I 6 1 m G F F F Q Q G F D l @ + + + o o o o o o o o o o + o + + + + + + o . + + @ @ @ @ + o o @ + + + + @ + o + + o o o o o o o o o o o o o . o o o o o o o + o o $ o + o + o o + + + + + . o . . . o o o o o o + + + + + + o . . . + + @ $ $ - z F D D m x m ! F ! F 3 - r U R W R U U v 8 6 5 7 5 5                                                                                                                                                                                                       ",
"6 7 8 ` @.W W W W R P 0 - x Q G Q Q ~ Q ! D D l @ + o + o o o o o o . o o @ + @ + + + + + + o o + + @ @ @ + + + o o + + + + + + + + o + + o o . o o @ o o o . . . o o . . o o o + + o + + $ + + o + % @ + + + . . . . + . . . . + + . + + + + o o . . + + + @ @ + $ l ~ F D m z x M D D D 2 - q U W R R U U v 0 5 5 4 5 9 X                                                                                                                                                                                                     ",
"8 7 6 L >.^ ^ W W U I 6 @ 3 G Q ~ ~ ~ G F D D 3 @ o + . o o o o o o o o . @ + + + @ + @ @ + . o + + + @ + + + + o o @ + + + @ + + @ + o . . . o o o @ o o o o o o . . . o o o o o + + + @ o # + + # % @ + + o o + . . . . . . o o + + + + + + + + . . + + @ @ + + # 2 F ! F m x M M M M m 1 & r U R W R U U v 6 5 5 5 5 6                                                                                                                                                                                                       ",
"6 6 7 P @.+.W ^ W R I < + 1 D Q ~ Q F F D D z : @ o o O o o o o o o o @ o @ + + + @ @ # + + + + + + + + + + + + @ o + + + + + + + @ @ + . o . o @ o o o o o . o O . o + o o o o o o o o o + o # + @ @ + + o . o . . . . . o . o @ O + + + # o + . o + + + + + + + # 1 z F ! M M F F m M q $ % l U R R R U U v 6 5 5 4 7 6                                                                                                                                                                                                       ",
"6 6 6 P ..} W W W W U 1 + + 3 F Q G D D m z 3 @ + o o o o o o o o + + o + @ + + @ @ @ # @ o + + + + o + o + + o + + + + + + + + + @ @ . O o . o o o . o o o o o o o + o o o o o o o + o # o o @ + + o + + + . . . . . . . . . + + + + + + + + + + + + + + + + o + @ @ 2 M F F F ! F m z : @ % r G W R R R U n 6 5 7 4 5 < X                                                                                                                                                                                                     ",
"8 7 7 ( >.^ ^ W W R J , + + % r D m m m z 2 @ + o o o o o o o . o o + + + + @ @ + + @ $ @ o + + + + . . o . o o o + + + + @ @ + o + + . . . o o o o o o o o o . o o o + o o o o o o + + o @ o $ + = o o + o . o . . . . . . . o + + o + + # + + o . + + o . o . o + + - q m F F D D z 1 O o % n U W R R U U S 6 5 5 7 5 5                                                                                                                                                                                                       ",
"7 6 6 L >.W W W R R J 1 o + + @ 1 3 3 3 1 @ + + o o o o o + o + + o + + # @ @ @ + + $ $ @ + + + o o + . . + o o o + + @ @ + @ + o + o . . . o o o o o o o o o o o o o + o o o o o = o o # + # # + o o o + + o o . . . . o . o + + + + + o + @ + + o + + . . o o . . + + $ 3 l z z 3 1 @ + . @ r R W W R R U S 6 4 5 7 4 5 X                                                                                                                                                                                                     ",
"6 6 7 L ..W W W W R J 1 + + + + @ % 1 % @ @ @ + @ @ $ $ @ % @ - $ @ + # @ @ @ @ @ % @ @ $ $ @ $ @ O + + + o + + + @ @ + @ @ @ @ @ + o . . . o o o o @ o o o @ + + o + @ + + o @ # # O @ $ $ O $ + + + + + + + + + + + . o o o + @ + + + # + + @ + o + o . o o o o o o + $ $ : 1 1 - @ @ + + @ r U W W R R G n 6 5 5 < 7 5                                                                                                                                                                                                       ",
"7 6 6 / +.} R ^ R R J 5 ; - ; ; : ; 5 4 ; : ; ; ; ; 5 6 0 6 0 6 < 1 , , 1 , 5 , 4 , < 5 , 5 5 5 , , , , ; ; ; ; ; 5 ; ; : < , , , : * : * * * * : : ; * : * : : ; ; ; : , : ; ; : ; * : ; 4 ; , ; : ; ; ; ; & : ; : : * * : * : - ; ; - - : - - - * - $ $ $ $ $ - $ $ - - - - - : - * # $ $ & c R R ^ R R I N 6 5 5 5 5 5                                                                                                                                                                                                       ",
"6 6 6 V } ] R R R R J w 6 8 0 8 w 8 w w w 8 8 6 8 8 0 i t w 0 d w 8 w 0 w w w w w w w w w w t w t w t t w w i t w t w w p i t t w w w 8 8 0 6 6 8 w 8 8 6 8 8 w w w w 0 i w w w 8 w 8 w w t w 8 8 8 9 8 t w w w 8 6 8 5 5 8 6 8 6 6 6 0 6 8 4 6 6 6 6 6 8 6 6 6 4 6 4 4 4 4 4 4 4 6 4 4 4 4 4 N R R R R R I v 6 5 4 5 4 5 X                                                                                                                                                                                                     ",
"7 8 6 d a y i p a y t 8 8 8 8 8 w w 8 8 w w w w 0 8 w 8 8 d t 8 t t t d t t d t i w w i w w d w i w i w w i w i t i i i i i i i i i d i t i i i w i i t i i w i i i d i i i i i w i i i i i w i i w i i i w i w w w i w w w d w d w 8 d 8 d w 8 8 8 8 w 8 8 8 8 8 8 8 8 6 6 6 8 6 8 6 8 6 5 8 N J J L J B B y 6 4 5 5 5 4                                                                                                                                                                                                       ",
"6 f 6 6 6 6 6 5 6 6 8 8 6 8 8 8 8 w 8 w 6 w d 8 w 8 w w w w w 8 8 d d t d d t w w d i t y i i i d i w i i w i i i t w i w i i i w i w i p i i i i i i i i i i i i i i t t i i i i i w t i w w i w i w i w i w i i i d w w i i w d 8 8 w 8 8 8 w 8 8 8 w 8 w 8 8 w w w d 8 8 8 6 8 8 8 8 6 8 6 6 0 0 8 w 0 0 6 4 6 9 4 5 4 X                                                                                                                                                                                                     ",
"6 4 6 6 5 8 6 8 6 7 6 8 8 8 8 8 6 8 8 8 8 w 8 w 8 w 8 8 d t 8 w w w w i t t d t w i d d i d 8 i i w w i w i i w i w w i i i w i i i w i i i i i i i i w i i w i i i i w i i d w w i i i i w i w i d w w d t w w w w w i i d w 8 w 8 w w 8 8 w 8 8 8 6 8 5 X X X X X X   X X X X X X X X X X X X X   X X X   X X X 4 5 4 5                                                                                                                                                                                                       ",
"5 7 5 8 8 6 9 6 7 6 6 8 6 8 8 6 8 w 8 w 8 w 8 8 d w w 8 w 8 t d w d w w d t d t w i t t t t i t i w i i i i w i i i i w w i w i w i i w w i w i i i w i w i i i i i i d w i i i i t w d i i w i i w i w w i d t d w w 8 w w w w w w w d w w 8 d 8 8 d 8 8 8 5 5 6 6 8 6 6 9 4 5 4 6 4 4 5 5 4 4 4 5 4 4 5 4 4 4 4 4 5 5 5                                                                                                                                                                                                       ",
"5 5 5 5 4 5 5 6 6 5 6 6 8 8 6 6 8 8 8 8 8 7 8 8 d 8 w 8 t w w 8 w w w d w t t t w d w i t i t i i i w w w i i i i w i i i i i i i w i i i i i i i i i i i i w d i w i i i i i w i i w i i w t i i w i w t w w w i 8 i w w w w d w w 8 w 8 8 w w 8 8 8 8 6 8 8 w 8 6 8 8 8 8 8 6 6 6 6 6 5 9 5 5 5 5 4 5 4 5 4 5 5 4 4 4 4 X                                                                                                                                                                                                     ",
"f f 4 f f 4 4 f 4 4 4 9 4 5 5 5 9 4 5 6 9 6 9 6 8 8 8 8 8 8 8 8 8 w w w t d w t w i i t d i d i i w i i i i i w i i p i i i p p i V s p p p p a p p p V V i N i i V p p p p N i i p i i i i i t i i w i d i i i i w i i i i w w w d w w 8 w 8 w 8 8 8 8 8 6 6 6 6 6 4 4 4 f 9 4 4 f 4 f 4 f 4 f 4 f f ; f f f f & & & & & 4 .                                                                                                                                                                                                   ",
"f f ; 4 f ; 4 4 4 4 4 4 4 5 4 w c t q l q q l q q e 2 6 8 8 6 8 8 8 w w w w d 8 d w w w t t 8 i w 8 w w w d d i i d d i i p p i i p i p p p i p a a s p p a a a V i i i p i a i i i p i t i i p i d i d 8 i d i i d i i d w d d w d 8 8 8 9 8 9 5 5 5 4 4 6 4 4 5 4 0 N c c l q c q l q q q ; 4 f f f 4 ; f ; f f ; & ; & f .                                                                                                                                                                                                   ",
"f 4 4 f 4 4 4 4 4 4 5 6 0 6 5 u B x Y M I ^ ^ U x S S e t y u y t a a t t u u H L H P K N u a y N L K L ] L H N ( B N N V B N / B ( ( N p N N p i w w a i y w w 8 C i s B N p K B V t c N w i t t p c N V c c t w c p 0 p c c c q t p t c N N L a N V ] V N N t y w N B B z c c l l c l x c 0 0 6 5 4 f f 4 f ; ; f & f ; f .                                                                                                                                                                                                   ",
"f ; 4 4 4 5 f f 4 , 4 0 6 0 < 1 4 0 r w 0 0 0 : < < 0 1 < < < 1 1 e e < e 0 2 2 0 0 e 0 2 < < 2 0 0 q y u u v y c 0 6 q r 0 6 e c N N c i p t c y r r c y y y y e p N c N N N B B B N N ( N v N B B Y L Y Y Y K L Y Y L Y L V B N L ' ' ] ]  . .]  .{ ;.$.] ] ' ] B V N L B V N V Y V Y ( V Y B B N 4 & & f & & & f ; ; & 4 X                                                                                                                                                                                                   ",
"; f f f w B B B J L a < < 0 0 1 : 5 ; : - - - $ @ @ @ @ $ $ $ - , , 1 < < - 1 % @ # @ @ $ % $ - % $ - $ $ 5 e < - - : 5 ; - : 0 0 0 0 0 0 q q 6 t c c p c w y N N N N i 0 w y 0 p t c N B B B ( B Y ( B L L L Y Y ' Y ' ' ' ' Y ] ]  .]  . .] ] $. .{ | ] | ] $. .' Y ]  . . .] ] ] ] ] ] ] ' ' Y Y u N V N N N N 0 & & & f .                                                                                                                                                                                                   ",
"4 f 4 Y ' c w 0 0 e 0 5 0 J H < < < < 1 - ; ; $ % @ @ % - @ @ - 1 < < < 5 1 , @ % $ $ $ - $ $ - % - - % - 0 0 < - % & 1 ; ; 5 q ' B 0 w 0 0 q 5 w c 0 y w q u c c c N N 0 w l w t p c c V B B L Y B L L L B L ( Y Y ' ' ] ' ' Y ] ]  .]  .;. . .$.$. . . . .$.$.$. .( ]  .] ] | ] ] ] ] ] ' ' ' ' ' y w q w e r N { L & & f .                                                                                                                                                                                                   ",
"; & N ' ; 6 q 4 1 , < 1 0 { I 0 < < < , ; : : @ $ @ @ @ @ $ @ % 1 < , < < 1 : - - $ @ - - @ $ $ $ ; < 1 0 e 6 2 < 1 - : : 0 < i t.%.0 q e 0 0 t c w 6 0 0 0 p u p t t c p l t t t c p N L B L L L ) L B L Y Y Y Y ' '  .' B ' ' ] ]  . . . .$.$.$.$.$. .;.} | $.] B ] ]  .;. .]  .] | ] ] ] ' ' Y Y L y t q 0 0 < 5  .y * f .                                                                                                                                                                                                   ",
"f f V 0 6 ] } p : 1 ; 1 6 N y < < < 1 1 , 1 - $ @ @ + - 1 @ - , < 1 < 1 , , - - - % $ $ $ $ @ @ $ - - 1 6 < < < 6 < : ; < < < w  .] 0 0 0 0 0 y y y 0 0 0 u u N c t e t y p e t c p N N K Y ' B Y Y Y ' Y Y Y ' ] ' ] ] ] ' ' ' $.} $.$.*.;.$.$.*.$.$.*.*.$.$.%.] ] } }  .$.$.} ;.| |  .] ] ] ] ' ' Y L N w e B N < a L * ; .   X                                                                                                                                                                                               ",
"f 4 B : y $.@.' , 1 - - 1 6 < , < < : < 5 < 1 : @ - - - - , 1 % & 1 < 1 , , , - % % $ - - @ - 1 - % % < 2 0 < 5 2 < ; ; : , 1 0 0 0 r e < 5 0 0 0 p c y a N c c N i N c c N c y p c N c B V c p t p N V Y ) ' ] ]  .]  .] ' ' ' *.$.*.=.*.=.<.=.=.=.=.$.$.$.%.} ' ' ' ' ' ] }  . .} } $.] ] ] ' T ' ' ' U y u J J 0 a ' & f .                                                                                                                                                                                                   ",
"; 4 V < u o.%.} , & - % - 1 - @ , 1 - < 0 < < 1 : , - % % : % - - 1 < 6 1 ; - ; - - - $ $ % ; < : , 1 < 0 < 0 6 2 1 ; 1 , 1 , , 0 w 0 w < 0 0 < < 0 0 y u y N u t t c t t c t c p y N B N % # ; ; & * * i ' ' Y B p t r t t c y c p N c N V L N N B N 0 w w r r 0 y w r t q w e t c N y w y y w a L Y ' ] N c L ' r N ' & f .                                                                                                                                                                                                   ",
"; 6 Y ; e } ..H $ $ - 1 - % @ @ % 1 < < < 6 5 , < , $ - & , % $ - - $ - : - - 1 - 1 $ $ % $ 1 , - < < < 0 0 0 < 6 < - - < ; 1 ; 1 < 2 < 5 1 0 < 0 0 0 0 0 r w y c i c t t t c i c p y B 0 o % $ , : $ # ; Y ] c 4 0 a c y 0 0 y c p w c V c y p t t y B Y R 0 ; 5 : 5 y v B ] 4 5 : : e ] Y B e ; 0 N ' ] B t Y ' N a ' & & X                                                                                                                                                                                                   ",
"f 6 B , 1 < r 1 $ @ : - , % - % < e a y H K N L H J R L J ' } Y R H N T ' ] ] ( 0 1 % $ $ % 1 < < 0 6 < 0 0 e 0 6 < < < 1 & , < < < 6 < 1 2 6 < 0 < 6 < 5 0 y 0 e t t q t l t c p c N V 5 % 6 % 4 $ , 4 ; L B 4 : B 8.8.8.B N V B B 6.g.~.D.] ] ] ] ] 9.$.=.( c N t q =.k.~.).t N N 0 =.6X1X).R ; ; i ' ' ] V N V N V Y & f .                                                                                                                                                                                                   ",
"& 8 U 1 : $ - $ - - % @ @ 1 @ 1 P $.N u J R U { '  .5.<.5.5.:.$.%.W Y &.5.9.9.9.%.N 1 % % $ 1 < 0 0 < < 0 e 0 0 0 0 2 0 < 1 , < , < : , < 5 0 y 0 0 0 6 0 5 0 0 0 0 0 t 0 t c t p c N B 0 o 5 % : - : * 4 Y B 2 , T Z.Z.Z.B ' ] ' B #X9XfX{.} ;.%. .=.t.t $.' B B c y g.6XpX).c ' ' N 5.hXgXfXt.1 ; w B ' ' ' Y Y B N ' & f .                                                                                                                                                                                                   ",
"& w T ; % % $ @ @ : % @ @ : 1 e } } e e 0 0 e 0 6 b =.<.5.<.:.@.} U J U } &.&.5.8.:.y % % - % < 0 0 2 < e 0 0 < 0 0 0 0 0 , < 0 0 , 1 , 6 q 0 t y 0 0 5 0 0 0 0 0 0 q t e c t c p p c V B % o % - @ @ o w B t < : ' <.@.g.Y ' *.%.Y >XfXlX`.%.<.%.$.' O.w N Y L V B N K.aXgX>XB $.$.' t.kXsXkXk.< 1 0 N y t N H V c y ' & ; .                                                                                                                                                                                                   ",
"& 8 U 1 : % - $ @ % - % - - < S K 0 0 0 0 0 2 6 < < U <.5.5.q.$.H 0 0 0 < 0 0 L 5.5.' < % $ 1 < 0 0 0 0 0 e 0 0 0 0 0 6 < < , 1 < , ; 1 0 t r u y 0 0 w 0 q 5 0 0 0 q t e t c t y c N N Y V c y c N c c B B r 2 5 B ' 5 ' U ] %.*.] 3XzXkX*X=.6.6.$.] $.' 5.N L Y ' N D.6XfX2XY =.%.' i.kXsXkXk.< < w y L Y r y c t a ' ; ; .                                                                                                                                                                                                   ",
"& 8 T ; & % @ $ @ - % % @ % e u e e 0 < < < 6 < 0 0 0 $.q.q.&.N 0 0 6 0 0 < y 0 N <.} e 1 - 1 - 1 0 0 6 8 e 0 0 0 2 6 2 < 0 6 1 1 < < 5 0 w e u y 0 t q 0 5 0 0 t 0 t t t t c i c N N c L &.;. .] $.*.*.| V N 0 < B N 5 V B ( #.=. .5XkXkX5X;.2.=.} |  .: t B Y ' ' B D.pX9X{.] *.;.' t.zXsXkXF.< < 8 N :X+X:.9.#.] L ' ; f X   X                                                                                                                                                                                               ",
"& 6 i ; - $ $ @ @ @ % % @ % y e 0 e 0 < e u 0 < 0 y < v 5.%.N 0 0 < 0 - < < 0 y 0 e T a 6 < < ; % < 2 < < 6 0 e 0 0 0 0 0 0 0 < 6 0 0 e r 0 y 0 y t q t 6 0 0 0 l w q t t c p N N N V N L  .'  .Y B B ' Y L N 0 : N ' Y Y N Y %.6. .dXzXzX5X=.=.| B ' X.: 6 B ' $.$.B I.fXaX{.B *. .] 6.aXgXlXF.< 5 8 y :XoX} <.' B N ( f ; .                                                                                                                                                                                                   ",
"f < , - - % % @ @ @ @ % - 1 n 0 , q w < 0 0 0 < 0 0 5 < %.T ; 0 q 5 0 < 6 5 0 y < % T H < < < 1 * 1 1 1 1 < 1 < < 0 0 e 6 < 0 0 0 0 0 y y 0 0 0 c y e y q e t 0 8 e q t p i c N N N B Y ' B Y L B 0 0 0 N L c 2 ; L ' 6 J c V &.6. .5XzXzX5X6.5. .N ' *.: 5 L $.6.<.' (.lXkX,XB =.%.' -.rXfXhXg.< 6 8 y $X~.y H N N p ' 4 & .                                                                                                                                                                                                   ",
"f 4 , - - % @ @ @ @ @ % 1 < u 6 < e 0 0 0 5 r 0 6 e < 0 =.} 5 0 q 0 - e 1 1 e y 2 6 } H 1 6 0 1 % , , : ; , - & 1 < 0 0 0 0 y 0 5 q t q w w 0 y w 8 c y q e t 0 w q 0 t c c i p N p V V Y ] B ' N 0 r w t B N 0 1 L ' 0 q N N *.6.;.5XzXzXdX<.5.%.c ( *.; ; L @.=.6.%.(.lXgX:XY =.$.Y <.9XrX9Xg.0 < 6 y =XZ.e N v N u ' 4 & .                                                                                                                                                                                                   ",
"f , - - - @ @ @ @ @ - 1 ; 1 y N 0 w 0 1 < 6 0 < e e < Y <.5.' 0 0 0 5 < < 0 0 0 a  .} v < < 0 1 % 1 5 0 y v y 0 5 < < 0 0 0 0 6 0 0 < 6 0 w e y 0 0 8 0 w 8 q t 8 0 t c t p c p N N V B B ' Y ' N t c q t Y B 6 ; K ' 5 t N L =.t. .5XkXzXdX=.$. .N ( =.: 0 B %.6.t.%.).kXaX1XY =. .' <.6XgXrXZ.6 < 6 e {.g.0 N L N y ) , & .                                                                                                                                                                                                   ",
"f 4 1 - - @ @ @ % - - - @ $ y T Y 0 y 0 < 5 < 0 q 6 H <.5.&.=.T y 0 8 6 0 0 0 u =.5.} 0 < 6 0 0 0 y L ( K L L ( N 0 < 0 5 < 0 1 , 0 : , 2 0 q w 6 0 0 0 0 0 t i q 8 t c c p c c c N B B K ' ' ] V 0 t 0 v ' V 0 : T ' 5 c y Y =.6. .:XkXzX5X@.$. .c ' <.< , V =.t.g.;.~.jX6X:X( 6.6.=.=.wXpXhXD.2 5 8 y *XZ.0 ] %.T y ' 5 & .                                                                                                                                                                                                   ",
"f 4 ; % % @ @ @ - % % @ @ @ < P &.V 0 w 0 0 w 0 6 L %.<.<.5.} I $.T ' R { {  .<.9.<.v 0 < < 6 y L u 6 1 5 5 1 < ; u N 0 < , 0 < ; ; : , 6 e e w 0 8 6 c q 0 w c t 8 t i t c c V N V B Y ' L Y  .T y 0 0 ' ] Y q ; Y | : 0 N B *.t.Y `.kXzX5X$.=.$.B L $.: w N %.g.g.6.Z.fXpX6XY =.4.*.%.,XgXkXI.6 < 8 y &XZ.0 v N N 0 [ 6 & .                                                                                                                                                                                                   ",
"% 4 1 % % @ @ @ @ @ @ + + @ - y T  .N N u y N u v %.5.5.5.5.W U +.$.<.<.<.5.5.9.8.@.6 , < 6 u ]  . . . .$.$.$. . .| ' L r e 0 0 ; 2 6 : 0 e t q e c 0 0 t t N N c q c i c N p N N B Y ( Y L ' ] } ] V Y ] $.' 0 0 ' Y : y N B %.t.Y 4XkXzXdX=.<.$.p ' *.< , N @.t.g.=.).jXrX5X' { %.;.$.,XhXlX~.2 < 6 y =X~.u } %.T 0 ] 8 & .                                                                                                                                                                                                   ",
"; 4 ; % % @ @ % - @ @ + @ @ $ 1 r T ' R H N T Y L { @.%.&.<.&.5.:.q.5.<.&.9.9.:. .y < < < v N a u a N N N N a w w a 0 w N 1 < 0 : 6 : 4 6 q 0 < 0 0 6 0 N c p N c c N N B L N N B ( V L ] '  . .'  .;.{ ' } Y 5 t ' ] 5 6 N V <.6.L 5XzXkX5X} <.] c ( *.; ; B ] 6.g.q.I.pX9X5X .t.t.6.$.5XkXkXD.0 5 6 < =XOXe L H a 0 | 6 & .                                                                                                                                                                                                   ",
"& 4 , % - @ - % 1 - @ $ @ % 1 , ; 1 0 e y 0 0 0 0 e u v B N y u v v u v v H b y < , < 0 0 } T H H H N N L N N L B J V N ] N , , ; ; 4 : 6 < < < 4 0 < t B i t c N V B B K B K B Y Y Y ' ] L $.=.] }  .' $.*.B < r T V ; y c ' 9.6.' 5XzXzX:X] ] ' B V } - 6 B Y %.6.=.Z.hXyX3X+.t.6.6.$.4XkXlX~.q 5 0 5 =X=Xe u 0 e 0 ' 0 & .                                                                                                                                                                                                   ",
"f 4 , % - % - - , % % @ @ 1 % 1 , @ , U ' ] L H N 0 ; , < 0 v y ; $ $ - % : : - 1 - < 0 a N L L ' ( L ' ( ' L L L ' K V N V 0 1 , ; ; , < 5 < , < 0 < q w t c p c N B B L B L L L L ( ] Y ' ;. .| +. . .%.%.N : c ' ( 2 0 u ] <.t.] 2XkXkX,X] %.} ' B  .4 : B Y %.6.%.h.iXkXqX$.g.6.6.=.2XhXlX~.t 5 0 5 -X4XB ] ] Y 0 ] w & .                                                                                                                                                                                                   ",
"f 4 , + @ @ % 1 , - < % @ % % , , % < ..<.%.=.<.5.<.] N 5 ; u L +.%.Y 5 - ; ; - % - , 0 ' K P ' Y { $.} $.]  .{ { ' ] L N Y B , , ; 1 , < , < < < 0 6 2 0 t t t w N V B L L L L L L Y ' ' ' ] ' ]  .] %.*.%.R 0 t ' V - 0 a ] 8.l.] ,XkXzX5X$.g.<.' ' *.: 8 V Y 6.g.;.F.hXhX5X=.g.6.5.;.4XkXlX).r 0 0 6 &X5XB V N c 0 | q & .   X                                                                                                                                                                                               ",
"& 4 , $ % $ % 1 , 1 , , @ @ 1 - 1 - < $.$.%.%.=.5.5.&.=.6.Y w y 5 0 L  .v 5 - % % 1 , u ' ' ] ' ' ' T ] ' U T ] ' ' ' T ' ' ( 1 ; 1 ; < < < , 2 6 6 5 0 e t c t c V N B B B L B L L ' Y ' ' Y  . .$.$.;.%.=. .0 0 ' V : q N ' 6.t.} 4XkXsXdX$.6.<. .| 6.0 6 N ] 9.k.<.I.lXgX0X%.l.g.6.<.5XkXlX`.t 6 8 0 &X5Xv w w w 0  .0 * .                                                                                                                                                                                                   ",
"; 4 , - % % - 1 - - 1 < % % - - , , < $. .}  .&.=.%.=.<.8.8.T Y r 6 - 0 %.{ 1 $ ; < , y t t t e y p a a y a a p p y w w 0 6 w 0 : 1 , , 5 < , 4 < 6 q t N c c N V B K B V L L L B Y Y ' ' Y '  . . .$.*.*.<.' 5 w ' / r 5 N ' =.6.%.5XhXzXuX$.<.g.$.+.6.: t N ' 6.k.6.I.xXgXqX=.k.g.g.<.4XzXlX'.r 0 6 q &X,XL ' ] Y 0 | t & .                                                                                                                                                                                                   ",
"f , , % 1 - - - - % 1 1 @ % 1 1 1 $ 1 &.{ T  .$.&.=.6.g.<.y - - - ; , 1 < H 1 - 1 ; 5 ]  . . . .} +.} }  .$.+. .$.$.$.$. .]  .N ; , , < 0 < 1 < 5 l i i p N c N N N B K B Y Y L L ( ' Y L ) ;.'  .$.$.$.=.5.Y < q ' V < c N &.6.l.=.5XzXsXdX$.6.k.=.] -.: 4 N +.t.k.9.I.lXkXuX-.k.k.k.;.4XkXxX`.q 0 6 0 &X=XU %.<.} 0  .y * .                                                                                                                                                                                                   ",
"f , , , - % - % 1 % % 1 % % - < 1 - & T { P Y $.$.6.5.] w - : 4 0 6 1 ; 1 - % ; : - 0 a a u a N N a N N N N a N N a a a p a a p 1 ; 1 , < 6 5 0 t p c c i c V N c N N N L L L L B Y Y Y B Y ] ] ] } $.*.=.6.T 5 t B ( < , N =.g.k.6.5XkXzXdX;.t.g.<.] 6.< 5 B $.g.k.8.F.lXhXuX8.k.k.k.6.4XzXxX'.y 0 8 2 OX<Xv N N v 6 | y * .                                                                                                                                                                                                   ",
"% 4 1 - - @ @ @ @ @ $ 1 % % f < 1 - $ < y 5 < a t N u - % y ' $.<.&.} 6 ; - - , , ; e N y a p p a a a u a u u u u y y y y y e y , ; , : , 0 0 0 i c c N c i N c c N N V B L B Y ' Y ' L B ( ]  .] $.%.%.=.=.' 0 w V ( - t c %.l.k.t.5XkXzXtX$.i.Z.6.*.l.; < V $.g.Z.g.Z.lXzXuXt.k.k.k.=.4XzXlX&Xc 5 0 5 OX5XI Y ] J 0 { t & .                                                                                                                                                                                                   ",
"f f , 1 - % @ @ @ @ $ 1 @ % - - , % - - $ $ 1 1 ; - $ 0 N L  .6.8.8.h.$.: $ % : % 1 u  . . .$.$.*.&.%.+.%.%.$.%.*.$.o.*.%.o.] K < : ; ; < w q r c c N N v t N c p c p c V B K Y Y Y ' ] ] ' ] ]  .$.*.=.=.=.] 0 q N ( : 6 c =.g.Z.t.5XzXgXdX<.Z.D.g.=.l.: t R =.k.K.8.P.lXzXuXt.D.k.x.;.4XkXzX&XN 0 8 0 F.(.u t e e 5  .y * .                                                                                                                                                                                                   ",
"% f 1 % % @ @ @ , @ 1 , % % 1 % @ $ - - $ % % - ; ; Y :.%.H y  .=.%.=.6.' ; $ $ % % y e 4 , , < 5 6 5 0 6 5 6 6 5 4 , , 1 , 4 0 0 ; ; 1 < 6 q y N a c N p t N N c N p c B L Y B Y ) Y ' ' ]  . . .$.*.=.=.<.=.B 6 N ) : 8 c $.l.k.g.5XgXhXuX6.K.K.g.$.g.B 6.g.=.k.~.g.F.xXzXuXl.k.k.k.c.&XkXkX&XN 0 6 w k.K.N N N y 6  .y * .                                                                                                                                                                                                   ",
"f 4 , % @ @ @ @ % % @ - , 1 1 - - @ 5 ' 1 $ @ + $ 1  .$.%.' N H B T ' @.&.w - ; - % a { ' ' ' ' T Y U J U L T T R ' T ' ' ( L L , , , , : 6 u u u c N N N N N N p t N V L L Y ) Y B Y Y ' ] [ ;.$.$.%.*.<.5.6.N < V / ; 0 y $.9.g.t.4XhXhX5X6.I.D.k.;.~.p N k.<.D.).g.F.xXsXsXx.k.~.F.6.4XkXlX&XJ 0 8 0 J.).J B L N 0  .y * .                                                                                                                                                                                                   ",
"f , 6 1 @ @ @ @ % - : 1 , < 1 1 ; - 0 8.H 1 - $ - ; y e L  .H e , 6 V ' } Y ; : % $ e ' L ) ' [ ] ] ' T ' ' | ] ] ] ' L L N a a < < 0 , , 6 y N N p y N N N N N N N C V V B Y Y Y Y B Y ( ' ' ] } $.*.=.<.;.t.N 2 N ) 0 : p ] 5.k.8.&XkXzXuX6.Z.k.Z.$.oX*.$.~.6.D.).g.F.xXzXdXk.k.F.D.q.:XkXkX&XJ 0 6 w h.D.B V L N 0 [ y * .                                                                                                                                                                                                   ",
"% 6 y - % % @ @ @ @ % % 1 , - < , @ 0 g.=.T N : - - < 5 0 b y 6 , : B ] ' $., $ - % 6 y e y y y t y y u y u y y i u u y y 0 y u < 0 6 < , 6 y y p c c p c r N N N c N V N L B ) Y ( ) Y B L ] $. .$.%.=.<.=.t.L 0 N K : 0 y ( <.k.6.=XkXzXwX5.D.D.D.} K.6X6Xg.6.k.~.k.P.lXsXsXg.k.D.Z.*.OXkXkX4XJ 0 8 y +.&.v a v y 0  .p * .                                                                                                                                                                                                   ",
"f 0 u , - 1 % % % @ $ % 1 - % 1 : o 0 g.<. .} w - : : ; 1 1 < 5 ; : N =.%.%., % - - 0 { ]  .] ] ] ' ' ' ] ' ' ] ] ' ' ' ( ' ' H < 0 0 5 < 0 y N c c N c N N V N N B ( B B B L B Y Y Y ' ' ] ]  .$.$.=.=.<.<.9.N 0 L / : : y Y =.g.6.OXkXzX5X=.D.K.Z.=.{.Z.#Xk.=.K.{.k.F.xXzXdXl.g.k.k. .&XlXkX4XB 0 5 y } 5.%.9.9.%.a  .a * .                                                                                                                                                                                                   ",
"% i v - % % @ @ $ @ @ $ % % % % @ + : L =.%.%.L e 6 , ; , 0 1 ; 1 ; 0 %.9.<.< @ @ @ 1 N N V V N L ( L L L L L Y L V N a t e a y 0 q q 6 < 6 y y t p y p N N N N N N K B V N L V Y Y ' ' ' ' ]  .$.*.%.*.=.,.;.t ; N / 1 6 y Y %.g.9.{.kXkX6X&.K.K.D.=.6.N L 9.9.K.{.k.k.lXsXdXg.=.8.t.B 4XkXkX4XY 0 6 w } t.L u y 0 0 | a * .                                                                                                                                                                                                   ",
"& p n < y u y y r r 0 $ % % % % @ $ 6 < B &.L L L y ; 1 y v , 1 , < ; ' 8.=.1 @ % % % N } ] { }  . . .{  .{  .$.} } ] ] { ] ( y w t y t q 0 y p y p c c N N N N V N B L N N L L Y ) ' Y ' ] ] ] { $.%.=.&.=.+.0 < N / , ; y B } g.=.OXkXkX5X;.D.Z.h.9.k.N w D.6.K.{.k.D.xXsXsXg.+.<.<.' OXkXkX4XV 0 5 5 +.9. .} $.T y ] y * .                                                                                                                                                                                                   ",
"& a y 6 4.7.P e >.h.} % 1 - % % % @ e %.6 a u v L N 0 5 N H 5 ; < < , 0 } $.< $ $ % % 0 V a a p a u a N a u a u a a p y p N N y y r y y u 0 0 y c N N y p N N N B N N N N N L L Y Y ( ' ] ] ]  . .$.*.=.=.=.T 0 5 N V ; 0 c V  .%.<.`.kXgX:X%.Z.k.t.$.$.N Y 8.8.K.~.g.k.xXsXzXk.} t.6.} OXhXfX2XY 0 6 0 ] <.$.} $.' y { a * .                                                                                                                                                                                                   ",
"& N y 0 8.L < < y >.$.# 1 @ + @ @ o e 8.B ; 5 v ' ' N < u B 5 ; < < < < t H 1 % , , - , u L L H L T ' ] ' ] ] Y L ' L N N B r t c y t c r 6 8 0 t c y c p N V c c i N c N N V K B ' ( Y R t.~.g.;.%.*.$.$.<.%.0 w N K 0 5 c Y %.<.<.`.kXgXuX%.g.g.<.B $.B Y ' 6.D.D.9.P.xXsXkXk.] 6.g. .(.jXgX2XY q 6 0 ] 9.L 0 w q 0 { a * .                                                                                                                                                                                                   ",
"* L r 0 R 6 0 0 0 H } $ $ @ @ + @ . e 0.] ; ; y L &.' 0 , < 1 < < 1 , , < 6 , ; 1 1 , , e } ) ' ) ) ' ' ' ] ] ' ' ' T ( ( J 6 0 t 0 e t c e 0 6 5 6 t w i c N c i c c i p s N N Y Y Y V 6.g.] $.k.<. .%.{ $.$.y B B V 5 5 y ' =.g.6.OXkXgXsX=.k.g.6.' -.t ; N +.j.k.;.F.xXsXkXI.' %.8. .XXkXhX,XN 0 6 0 ] 9.} J L L N ' a * .                                                                                                                                                                                                   ",
"& N e 0 { 0 6 0 6 y S $ @ $ @ + @ + 0 9.5.N ; , 5 L L , , < < 5 6 1 , 1 1 1 % - 1 1 % % - y e 8 0 6 8 e 8 t w 0 6 4 4 6 c y 0 0 t e q w p c p q e 6 0 2 0 e N c c t c p C p N N K L L ) ;. .g.<.=.<.$.$.| $.T c B B V < Y N ] =.6.5.&XkXsXsX=.D.k.l.R $.0 5 v V 5.g.] P.xXsXkXk.$.=.9.+.oXkXpX>XL 0 6 8 ' 5.H 0 y 0 u | a * .                                                                                                                                                                                                   ",
"& L 0 5 P , 0 N 1 y H % - @ @ $ - @ 0 <.=.&.N ; 1 , 0 0 , , 2 , < 5 1 < < , % - 1 1 % - % , H } ..%.$.*.%.=.*.$.$. .] ' c w 0 y w c y c t p c c 0 0 6 0 8 0 t e 0 t c i N N N N B L B ;.t.$.K.k.*.9. .' ] %.V r V Y V N Y Y Y ] =.;.`.kXsXsX=.Z.k.t.Y | N 2 t N  .g.;.x.lXsXlXF.B $.=.Y &XjX6X{.' 0 5 8 ] 9.R H L N N ] N * .                                                                                                                                                                                                   ",
"& K < < { 5 e 0 ; H ' 1 e < @ @ - - 1 L  .] @.t < 5 , 0 0 < 2 , < < < < < 1 - - < < & % , % < J ' a e y a y y t y L L y e w r w q 0 r c c i c t q q 6 q w 0 w t t c c c i N N B B ( B $.t. .Z.k.| t.$.Y L ] ' c B Y =.N ] ' V ' | $.`.lXsXsX=.k.k.6.L  .N y u B $.=.] x.lXsXlXx.B <.$.N &XlXdX3X] 0 5 0 =.g.Y 5 0 6 e ] N * .                                                                                                                                                                                                   ",
"& ' < 0  ., N u - H { u >.u - $ @ - - < U L ' L 2 , < < 0 5 < < < < < < < < , - 6 < 1 1 , , % , 0 0 N N a N N N w 0 0 0 e 0 y 0 ' N 0 p y w p e t e 6 8 0 q 0 y c t i i c N N N B B V ] *.] 8.8.&.6.Y Y Y ' ] B N Y y.& N ] N Y ' ' ~.lXsXgX$.*.<.;.N | w 0 c V  .] Y x.kXsXlXF.V *.] v OXlXrX5X' 0 5 0 9.k.J.k.9.=.] | L $ .                                                                                                                                                                                                   ",
"& ' , 0 9.e H a <  .' K 7.J 1 % $ $ % ; w B a y 0 , < < 1 < 5 1 < 6 < 6 < < , , < < 1 6 1 1 , 1 < e N H J U L N 0 0 5 q w y y 0 $.' 0 y t c c q 6 0 0 0 e w q e t c c N N N N V B ( V Y  .=.$.$.t.] V Y ]  .$.V c Y 6.N %.$.N ' Y ' I.lXsXsX .]  .%.N ] V N ' c V ' B k.kXsXxXx.N Y B y OXlXfXoXN t 5 w ] <.t.t.7.5.{ ] K & .                                                                                                                                                                                                   ",
"& ' 1 < 6.&.} T } ..L e P r - % % % - - 1 N N y N u , , < < 6 < < 6 2 < 6 1 % , 1 , < < , % , 1 0 6 6 0 0 0 < ; - , < 0 e e e 0 N c 0 0 q t w 6 0 6 < 0 8 0 w e t t t c i N ) Y } ' L Y ' $.=.<.=.] B Y ]  .$.N p B k.6.t.] L %. .' k.hXgXgX' Y ' $.L L a ] $.y B =.=.l.kXsXxXk.t V c 0 `.lXhX{.N 0 , N %.{ $. . .} T | N * .                                                                                                                                                                                                   ",
"& T 1 + $ : ; : 1 1 < < 6 1 % - % % % % - a } S P T u 1 , < < < < 1 1 < < & % < < < < < 1 % ; < < 0 0 0 0 1 ; 1 & 1 , 0 e y 0 0 0 0 t q 0 0 6 6 < 5 0 < 0 0 0 w y w N y p N Y ' ] ' K Y $. . .] }  .' ' } $.%.B 0 B 6.6.6.Y ' 5.=.] =.K.{.~.N N U L N B V , =.L *.D.g.k.lXdXuXg.0 y q < D.3X:XD.N 0 5 B 6.5.-.=.%.$.' | B & .                                                                                                                                                                                                   ",
"* T 0 + - 0 - $ % $ $ , 1 % @ % @ @ , - % 0 y e e 0 0 < - ; < 6 1 1 , - 1 % $ 1 < < 0 < 1 - & , 0 0 6 < 1 - ; ; , 1 < 0 e e y y y y w 0 5 < 2 6 0 0 0 0 6 0 8 q 0 y N i y Y  .Y ' ' L ;.g.g.9.=.=.=.]  .$.$.$.L 6 N L B N e N } ] $.c N N c 0 0 0 6 6 c a c $.B %.%.] +.OXt.] ] 1 < 5 1 $.<.' T t ; , ' 6.6.<.$.] $.' ' V - .                                                                                                                                                                                                   ",
"& ] , ; L %.T , - % % - $ % % $ @ % - - % 1 % % ; - % % $ $ : 1 1 - @ % % % , < < < 6 0 5 < 1 1 0 2 1 1 - 1 1 , 1 < e e t y u J B t t q 0 6 < 6 0 5 0 0 0 0 e p c V c N c ( $. .] ' L y.Z.6.8.$.%.6.$. .;. .$.$.c : ; : : : 6 0 w r 5 4 2 ; : 5 : 5 : ; 1 1 < w 0 0 2 6 - : : ; , , < < 1 : 1 1 : : N <.<.5.*.' 6.+.L ' L & X                                                                                                                                                                                                   ",
"& ' < < =.4.<.0 , - - - % % % @ @ , , , 1 < % % $ - % % % $ % % - % % % % % 1 1 < 1 < 2 6 0 < 1 6 < & ; 1 1 < 5 < 5 y e y 0 N L V c r t 0 6 2 6 < 0 0 5 6 e t l y c p N B B Y ] ' L B 6.`.t.g.=.k.k.' $.o.=.=.=.=.%.] ]  .] ] =.$.$.q.+.' ] } B N B V Y %.L &.8.<.$.$.=.$.] ' B N B L N N N L N L ' <.6.<.<.$.=.k.5.B ( L & .                                                                                                                                                                                                   ",
"& T 1 1 1.<.=.0 1 % $ % % % % $ % 1 1 , < < % % % % % $ $ % % % & % % $ % : < < 1 1 < 6 6 0 < < < < 1 1 , < 0 < < 5 0 e e 0 H P L y y y q 0 0 6 0 0 q 8 r y t 0 i c p y N V B Y L U ' { =.=.;.{ 9.g.] } $.$.$.=.6.6.6.t.t.t.g.k.g.g.g.6.<.5.g.;.' L L ] g.%.%.h.k.k.l.6.g.l.h.9.;.]  . .Y ' ] | $.2.6.-.=.<.$.O.t.%.L ( K & .                                                                                                                                                                                                   ",
"& ) 1 $ L %.B ; , % % - - - % % 1 < 1 1 6 < % 1 , , , ; 1 - , : , 1 , 1 1 < < < 5 < < 0 0 0 < < 0 0 5 < 6 0 6 0 0 0 0 e e e y H u 0 y y t q w 0 e w p y y p c y y y p c N B L V L L K '  .$.' ' ] L V ] $.} *.%.=.=.=.6.6.9.t.9.t.t.5.*.%.%.*.*.Y L N ' 6.$.L %.g.8.9.t.8.t.k.g.} Y ' ' ' B '  .' ;.=.=.*.$.%.B  .' N ' L & .                                                                                                                                                                                                   ",
"* H c % 1 e 5 , 1 - , , 1 1 1 1 < 6 < < < < 1 1 1 1 1 < < < 1 1 < < < < 1 5 0 6 < 0 6 0 e 0 < 0 6 0 0 0 0 0 0 0 0 0 e 0 6 0 0 e 0 0 0 0 q y q w 0 y p c y y p p c c c N N N V B N N v v y u y u B N 0 N B ( ] $.$.=.=.%.$.%.%.$.%.]  .L Y ] Y L B B B L V N r N V B '  .Y ] 6.6.( N B N c V N ' N ' ' ] ] ] T L L ' y *.H # .                                                                                                                                                                                                   ",
"& 6 +.0 , < < < < , < < < < < < < < < < < < < < < < < < < < 5 < < < < < < < < < < < < < < < < < < < < < < < < < 2 < < < < 6 6 8 0 0 0 0 6 0 0 0 e e 0 0 y 0 q y w w y p N r c r t w 0 6 2 6 0 0 2 5 < 0 0 0 B ( B +.T V B V B t c N c N N a B 0 t N u w 2 0 8 0 r 0 q 0 y V B N c y t q 0 0 q c p B N B L J N N N H T &.5 * .                                                                                                                                                                                                   ",
"& * N  .T L U U L H V I B B B L H J H L H J J L H H H J H H H H H S H H H H H H H H H H J H I P P J P J P J T T W T T T Y T R R ] } ' R } } } } } } } } R W ' R { { { ..W W T T R T T T T T T { T T T T { } } $...^ >.+.$.@.@.} +.+.] R ] R ] ] R } } +.} ..W W ] ' T Y R {  .$.:.%. .} $.$.} @.>.W >.>.>.>.>.>.#.>.q.y # & X                                                                                                                                                                                                   ",
"& & & & 0 t t w w w w 0 w w w w e t t t t e t t e w e t t t e 0 8 8 0 e 0 w 0 0 0 w w w 0 8 w w 8 8 8 w w w w w 8 d t t t 8 w w 0 w w w w 0 t w w w 8 e 8 w 8 8 e 8 e 8 d e 8 w e w e 7 6 6 w 6 8 w 6 6 6 8 6 6 6 6 7 6 5 5 5 6 6 4 4 5 4 4 4 4 4 4 4 , 4 4 , 4 4 4 ; 4 4 , , & f , ; & - ; ; & f f % - - - f % % % # % & & .                                   X                                                                     X                             X                                                           ",
"& & & & * & * & - & & & & & ; ; & f f & & f & f & f 4 & & f f 4 f 4 4 , 4 4 4 < 4 5 4 4 4 9 4 4 5 5 5 5 5 5 5 7 5 7 5 5 9 6 9 9 5 5 5 5 6 9 6 6 6 9 5 9 6 9 6 9 7 7 7 7 7 4 7 7 6 6 7 4 7 5 5 6 5 7 7 5 5 4 4 5 5 4 , 4 4 f 4 4 4 ; 4 4 4 4 f 4 4 ; , f f , 4 & ; ; ; 4 , & ; & & & & & & & & & % * * % % $ % # $ $ * * $ * X                                   X X X X                                                             X X                                                                                         ",
"& & & & f & ; f ; ; f f f ; 4 f f , f 4 4 4 4 4 5 4 5 5 5 5 5 4 9 6 6 9 6 7 8 6 9 6 6 8 6 8 8 w 8 8 w 8 8 6 6 7 w 8 w w 8 t t t w d d i d i t i i i t t t i t t t t e t w w t t w w w w w w 8 8 8 8 8 6 8 w 8 8 8 e u t y u y y t 0 5 4 4 4 5 4 4 5 4 5 4 4 4 4 4 4 4 4 4 4 6 4 2 0 0 2 1 1 < 5 8 e e 7 8 7 7 7 7 7 6 6 5 5 , * & & ; f ; & & % , f f , & , & , f % - % f - ; ; & & & & % & % % & & % & % & , 1 , & & & & ; ; ; , % - % & 1 , - - @ % @ $ $ $ % $ # @ $ @ # # @ # @ # # # # # # = # = o # # . = = = . # = . .   ",
"& & & & & ; ; ; f f f ; f 4 ; ; , 9 e , 5 , 5 4 5 5 w 8 9 8 8 t 6 8 8 w 8 i w d t t p a a a t t t i a s A P A A p p p a p w e w t w 8 6 e a V 8 t 6 i p a p V N i t e 7 d 0 e i 8 8 8 8 w 8 8 p t i a a p p p p a T L L H H U T R H N V H i 8 8 8 5 6 6 5 4 9 5 6 4 5 5 8 0 6 0 r q q < < : , 2 < n e n 4 < f - , , 1 & % & 1 , , & % & , % 1 1 & - 1 , 6 6 6 < 1 < f f , % % - - ; 1 , % % 1 < , , 1 5 - , < < & , & ; 1 < , , 6 , 6 1 , , - - @ - $ $ $ - % % * $ # $ # $ + o o + o % $ & f f ; ; 4 4 f f f ; & ; & & & ; & X ",
"& & & & & & & & ; ; & ; 4 4 w t y r e 5 6 6 0 t e t p e e y y y e e e y e y e y t t t y p t t t e e t i y N v u w e y t e 6 < 8 t 0 5 < 8 e e 5 5 5 6 e 8 5 6 8 e < , , 4 4 4 f 4 4 4 4 4 , 4 5 6 6 6 d t 6 6 6 8 5 5 6 0 9 8 p t 8 5 8 t t 5 9 9 5 9 5 5 4 4 5 4 w b N v v v b u u u u b v v v n n n n n S n n n n n n n n n n n r r r r r r q q r r r v r v n n n n n n n n n n r r u r u n r c n r n r e r u n n v z v v v v v v n n n n n n r l u n u z n u v v v z n v r u r u u v v b N a w 4 & & & & & & & & & * & & * X ",
"& & & & & & & ; 4 N ' ] ' ] +. .} } } } } W { } }  .} }  . .} .. .} } } .. .} } ..} ..} ..} ..} +.....} W { W { { { } } } } } }  . .} ..} } } } } ..} { { R } R { { W T W ..{ { } W T W W W W T R T T W { W T } } } } } } } ] } W { } { } } } { { t 5 5 4 4 4 4 0 I I I J I S I S I I D I U S S I S S S U U U U S I S I I S I S S I S I I S I S I S S U J S S I U U U U U U U U D U U D I S S S S S S J S S D S U U U U U U I U U U U U I I I I I S U S U J U I U I U I I I I I U U D I U J I J B B v v N t 4 & & & & & & & &   ",
"& & , 5 N T } $.$.$.$. .| %.=.=.,.,.:.,.<.%.=.%.,.=.>.>.>.%.>.%.%.<.,.:.,.>.:.<.>.:.>.:.>.:.>.>.>.>.>.>.4.,...>.>.>.>.>.,.>.>.,.:.%.:.>.>.,.>.>.>.>.>.%.>.%.*.%.>.>.>.>.>.>.>.>.>.>.>.>.>.>.>.>.>.>.>.>.>.>.>.>.%.:.:.>.$.:.&.%.>.>.>.:.>.>.>.>.<.a 4 5 5 4 5 4 t B D B S S S S S S J D S S S S S S S S S S S S S S S S S S S S S S S S S S S S S S S S S S S S S S S S S S S S H S S S S S S n S S S S S S J S S S S S S S S S S S S S S S S S S S S b x S S S b S S b S S S S S S S S S S b b c x b v v z v x B v 6 ; & * &   ",
"& 4 | ;.} } $.*.$.*.*.$.O.=.6.6.4.2.3.4.4.4.4.4.1.<.1.<.1.1.1.2.4.1.1.4.1.2.<.4.4.1.1.4.,.<.<.,.4.4.,.4.,.4.4.,.,.4.,.,.,.,.,.>.,.,.4.,.,.,.>.4.<.<.,.4.,.4.,.>.>.>.1.,.4.,.>.>.,.>.>.,.>.1.>.4.>.,.4.,.>.,.,.>.<.,.<.,.>.<.,.>.>.,.,.,.,.>.,.%.=.V f 6 5 4 4 9 y S S S S J S J S S S J S J S H S S S S v S S S S S S S S S S S S H H S S S S S S S S S S J J S S S S S S S S S S S S S n n n S S J J S S J S J S b S S v S S b S S S S S S S S S J S S S v S S S J S J S S S J S S J S S S S S N v N c v b M N c v v N * & * X ",
"& w $.*.*.*.*.=.*.-.<.-.-.-.r.y.3.3.7.u.r.r.r.r.r.7.7.7.7.7.7.r.r.7.7.7.8.3.3.7.3.4.3.3.1.3.3.4.3.r.7.7.3.7.3.3.7.7.4.4.4.4.1.1.2.4.3.4.4.4.7.3.4.3.3.4.4.3.3.3.4.4.3.4.3.1.4.3.4.1.3.4.4.3.4.3.4.4.3.4.4.4.1.,.2.1.4.1.1.4.4.4.2.2.4.4.1.1.,.,.2.K 4 6 4 4 4 4 u J H J S J I J U U J I J I J J S S J P P J U U P J U U U J J U J J S J H J H I J I J I J I I J P U P U P P P J J P J S U S ` U J J J J J J H J I S I J H J J H J H J P P P P U I H I H I S A J J J J P J P J P I J P J J P J J B B B B I I I I J b b y & % &   ",
"$ p -.-.-.6.6.-.-.2.6.y.-.3.t.r.7.u.u.7.r.r.i.r.8.r.r.r.u.7.r.r.r.r.r.7.7.u.7.7.3.7.3.r.r.7.r.3.7.r.r.r.r.r.r.7.r.7.w.w.7.3.3.3.3.7.r.r.r.r.7.7.r.7.r.7.3.7.3.7.3.7.3.3.7.7.3.3.3.3.3.w.3.3.3.3.3.3.w.3.3.3.7.3.4.1.3.3.3.w.2.w.3.3.2.3.3.4.2.3.r.( f 6 6 4 6 4 u P I J J P P U U T P U T P U P U P T U P P T U P P T P P P T T U T P J J P P P T U P P P U P T T U T T P U U T P P P T P P T U P P T T P U T T Y P T T P P P P U P P T P P U P U P T P P P T T T T P U R T T T T T P T U P P P N U L U ' T Y Y U Y U v $ & & X ",
"* a 6.<.y.y.y.y.6.y.e.<.1.3.r.r.u.u.7.3.r.r.r.r.r.r.a.r.a.r.r.7.r.r.3.r.r.7.r.3.3.3.w.3.3.u.3.3.7.7.r.r.7.7.7.7.r.7.3.7.3.3.3.3.3.7.w.7.4.3.r.7.3.7.3.3.7.7.3.7.3.7.3.3.3.3.4.3.3.3.4.3.w.3.3.3.r.3.3.3.3.r.w.3.3.3.3.3.7.2.3.3.3.2.4.3.3.3.2.1.r.) 4 9 6 4 4 5 H T P T T P T T T T T T T R T T T T T { T T T T T R R T T P T P T T T U P U T T T T T R T T T T T T U { U T T T T T T T U T T T R T T T T T T W R R T Y T T T R T T T T U T T T { P T T T P U U { T T T T T } T T R T T T T T T L Y Y T ] +.} } } R  .H * & &   ",
"* w y.<.2.y.y.6.y.y.6.2.2.r.6.w.3.3.u.u.u.7.u.u.r.8.r.r.a.r.8.r.r.r.2.r.3.7.y.w.3.3.7.r.3.r.r.3.7.r.7.7.r.r.4.r.r.7.7.7.3.7.3.3.r.3.3.7.3.3.7.3.7.7.7.7.7.7.7.3.3.3.3.3.3.3.1.3.3.3.4.1.4.3.3.3.3.r.3.3.3.7.3.3.r.3.3.2.3.2.2.2.2.3.3.3.3.3.3.2.8._ 4 9 5 4 4 4 J T T U T T U T T P T U T T T T T T T U T T T T T T T { T T U U U T P P P T P P T U P R T T T T U T T T T T T T T T T T T T T T T R T T T T W T T T T T T T T R U T T T T T T T T T T P T T T ` T T T T T T { T R T T T T T T P L T T ] ] +.+.} +.] $.Y * % & X ",
"* 6 6.y.6.y.6.y.r.t.y.6.2.r.2.2.2.3.r.7.8.7.u.7.r.u.r.u.u.a.a.3.r.r.2.w.w.r.3.2.3.3.7.3.7.7.r.r.r.r.7.7.r.r.r.r.7.7.7.r.7.7.3.r.7.7.7.3.3.3.3.3.7.3.r.7.7.7.7.3.3.3.3.1.1.3.1.4.1.3.3.1.4.3.3.3.3.r.3.3.3.7.4.3.3.3.w.3.3.4.2.3.2.4.2.2.4.w.2.2.r.' 4 5 4 4 4 4 H T T T T T T P P T T T U T T P T { T T T R T R T T T T T T P P P T P P P T U T T T T T U T T W W T T T T T T T T T T T T T T T T T T T T T T T T T T T R T T T T T T T T T T { T P T T T T { T T T { T T { T W T T T T P P T T T ] ] } ] ]  .+.+.+.$.' $ & &   ",
"% 4 e.r.y.y.t.a.t.a.a.y.2.r.w.2.3.r.u.7.u.7.7.u.7.8.u.r.r.a.u.r.6.r.r.r.7.3.2.2.2.7.7.7.r.7.3.r.7.7.7.7.7.r.4.r.7.7.r.7.7.3.3.3.3.7.3.7.2.3.3.3.7.7.7.7.3.3.3.7.w.3.1.4.3.4.1.1.1.3.1.1.4.3.3.3.7.3.3.3.3.3.3.3.3.r.3.3.2.4.3.3.4.1.1.1.2.3.2.3.7._ 4 5 5 4 4 4 J R T T T T T J U T T P U P T T R T T T T T T T T T U { T T P U T U P U P T T T P P T T R T T T T T R U T T U T T T T T T T W U W T T T T T R T T R T T T T P T T T T T T T T T T T P P U T ` T T W T T T T T T T { T T T P P P L ] ] +.+.] +.] $.+.@.' * * * X ",
"* 4 y.t.s.t.a.t.t.a.t.r.e.u.2.2.3.8.u.u.7.u.u.7.u.u.u.r.u.u.r.r.r.y.2.w.3.2.2.1.2.w.3.r.3.3.3.3.7.7.7.r.7.7.r.r.r.r.w.7.7.7.7.7.7.3.3.7.3.2.3.3.7.7.3.7.7.7.3.7.3.1.3.3.1.3.4.1.3.4.1.4.3.w.3.3.3.7.3.3.3.3.r.3.3.w.3.2.3.1.1.3.4.1.,.1.2.2.2.4.3.{ 5 5 6 4 4 4 H T T T T T P I P T T T P T T T T T T T R T T T T T R T T T P P P P U P T U P U P T T T T T T T T U T ` T T T T { U T W U R U ` T T T W T T T T T { R T T T T T T T T T T T P T T T T T T W T { { T { T W { T T T W T R T P T P ' ] } } ] } ] ] } ] $.V * & * X ",
"* 4 y.t.s.a.i.a.y.t.a.y.-.y.1.6.r.r.r.r.r.r.r.r.r.u.7.u.u.u.w.w.r.r.2.y.7.7.2.2.r.3.3.r.2.3.2.3.7.r.r.7.7.7.r.7.7.7.7.7.7.r.7.7.7.3.3.3.4.3.3.3.3.3.r.3.4.3.3.4.3.3.4.3.2.2.3.1.3.3.1.4.w.3.w.w.3.3.3.3.3.4.r.3.w.3.3.u.r.r.r.7.r.3.3.3.w.3.3.3.w.[ 4 9 4 4 4 4 u T P T T T T P P T T P T T T T T T R T T T T { T R T T T T T T P U T T P U P T U T T T T T T U T T T P T T P T U T T T T T T { T T T T W { T T { U T { T T T T T T U P T P T R T ` T T T T T T T { { T T T T { T T T T T T P T T { } } W W } }  .+. .e * * &   ",
"& 4 -.t.a.t.t.i.a.t.l.t.6.r.r.7.t.r.3.r.7.r.t.r.8.u.u.7.8.7.r.r.r.3.r.w.2.3.2.2.3.w.3.3.2.3.r.r.3.r.r.7.3.7.r.7.7.7.7.7.7.7.3.7.r.7.3.3.2.3.3.3.3.3.3.3.4.r.3.3.3.2.2.2.2.2.3.4.4.3.4.w.4.3.3.1.4.7.3.r.3.7.3.7.3.2.X._ _ _ ) _ ) ` ( ( L ` ( ( / s 6 4 5 4 4 4 J T P T T T T U T U T U T T T T T T T T T T W T T T T T T P { T T T U P T P P P P T T P T T P T T T T T P U U T R U T T T T T T T T T T T T R T T T T T T T T T T P T T T T T T T P T T T T T T { T W T T T W T P T T T W T T T T ..} W { ..} } } +.} < $ & &   ",
"& ; o.a.t.y.a.s.s.s.l.s.w.r.r.r.r.r.3.3.7.r.r.r.r.r.u.r.u.3.3.r.w.2.w.2.3.3.2.1.2.3.3.2.3.4.2.3.3.r.7.7.7.7.r.r.r.3.r.7.r.r.7.7.3.3.3.3.3.3.3.3.4.4.3.3.3.3.2.3.1.2.2.3.3.4.3.3.3.w.3.3.3.3.3.3.3.3.r.3.r.7.3.3.3.2.p 9 9 7 5 7 4 4 4 9 4 9 7 4 4 5 4 6 4 4 4 4 H P U U T U P P P T P U T T T T T T T T T { T T T T U T T T T T T T T T T P T U P T T P T T T T T P T T T T P T T ` U T T T { T T T T T T T T T T T T T T T T T T T T T T { T T T T T T T T T { T T { T { T { T T T T T T T T T ......W } } } } {  .} , * & & X ",
"& & ( t.a.t.s.s.s.l.s.a.w.r.r.r.r.r.2.r.r.r.r.t.r.r.8.r.u.7.r.u.r.r.r.w.r.2.2.2.1.3.3.3.7.2.2.w.7.7.7.r.7.r.7.7.7.7.7.r.r.7.7.3.3.3.3.3.3.3.3.3.3.3.3.3.3.3.2.2.2.3.3.3.3.r.3.3.w.3.3.3.w.4.4.3.3.3.3.3.3.3.7.3.3.e.s 8 8 d d w w d d 8 7 8 a A d 7 6 5 4 4 4 4 H T P P T U P P P P T T T T T T P T T T T R T T T T P T U T T T T T T T T R T T T P U T P T T T T T P U T T T P T T T T W T U W T W T T T T T T T T T T T P T T T T T T T T T T T T T T W T T { T W T T T { T T T P T T T T T T { ..W >.$. . .} }  . ., * & *   ",
"; * V t.s.l.t.s.s.s.s.a.r.r.r.r.r.2.6.r.7.r.r.r.r.r.r.r.r.r.r.r.r.r.r.7.3.2.2.2.2.2.r.r.r.3.3.7.7.7.u.7.u.u.3.7.7.7.7.u.7.3.7.7.r.7.7.3.7.3.3.3.3.r.3.3.3.3.3.3.3.4.3.3.3.3.r.r.3.4.3.3.w.1.3.4.3.3.3.3.3.w.3.7.r.3.s 7 8 d 8 8 8 8 8 7 7 8 w i 7 8 9 6 4 4 4 4 H R T T T T P P U T T T T T T T R T T R R T T T T T T T P T T T R T T T T T U T T P U T T T T T T U T T T T R T { U { { T T T T { T T T W W T T T T { T P T T T T T T T T T T T T T T T W T T T T { T T T T T W T T P T { T T { ....$...+...} +.+. .} f * $ &   ",
"* * V a.s.a.l.a.s.l.l.l.a.t.r.2.2.2.w.2.3.7.7.w.7.7.3.r.7.r.u.7.r.r.r.2.r.r.7.y.7.3.2.3.3.3.r.3.7.r.7.7.7.3.7.7.3.r.7.7.7.3.7.3.3.7.r.3.7.3.3.3.3.r.3.3.w.3.3.3.3.3.3.3.3.3.r.r.3.3.3.3.1.1.1.4.2.3.3.3.4.w.3.3.2.7.s 7 9 7 8 7 8 7 7 4 7 6 p ` 8 d 4 4 4 ; 4 4 J T T U P T U U U T T T T T T T T T T T T T T T T T P T T P U T T T T T T T T T T T T T T T T T { { T T T P P T U { U T T T W T T T T T T T T T R T T T T T T T T T T T T T T T T T { { T T T { T T { T T T T T P T T P P T T T ..@.$.@.$.+.}  .} } { , $ & & X ",
"& * N y.a.s.a.l.l.f.l.f.y.r.y.r.2.2.7.r.2.3.3.r.r.r.3.r.u.r.u.3.r.r.7.7.r.r.2.r.3.3.3.3.7.r.u.7.r.r.7.u.u.7.7.7.r.r.3.7.u.3.3.r.7.r.3.r.3.3.3.3.3.3.3.3.3.3.3.3.3.3.r.r.r.3.3.r.3.3.3.3.4.1.3.3.4.4.2.3.3.3.3.3.3.w./ 7 f 5 4 9 9 4 4 & 5 d A s d d 6 4 4 4 4 ; P T T P P T T T T T T T T T T T T R T T U T T T P T T T P U U T T T W T T T T T T T T T T P T T U { T P T T T R T T U { T T T T T { T T T W T T R P T T T T T T T T T T T T T T T T T { T T T T { T T { T T T T T P T P P T T T } ..$.@.$.+.$.$.}  .| , * & &   ",
"; * N y.a.l.s.s.s.s.l.l.y.6.w.r.y.2.2.2.r.r.7.3.7.3.3.3.r.r.u.3.r.r.r.r.7.r.2.7.3.3.r.3.r.7.7.7.4.r.7.7.3.3.u.r.r.7.7.7.3.3.3.r.7.3.7.3.r.3.w.3.r.r.3.r.r.3.3.2.3.3.3.3.3.3.r.4.3.3.4.3.3.1.1.4.2.3.3.2.3.3.2.3.3.3.A 7 f & 4 5 f & & & 7 7 i _ d 8 5 5 4 4 4 4 L W T T T T T T T T T T W T T T T T T T P T T T P T P T P P P T T T T T R T T T T T P U P T T T { U T T T T T T T T T T T T T T T T T T T T T T T T T T T T T P T T T T T T T T W T T T T T T T { T T T T T T T T T P P T T P T ..$.@.$.$.$.@.$...} L f * * &   ",
"; # N y.s.s.f.s.s.l.l.s.w.w.w.w.7.w.2.2.3.3.7.w.2.2.2.r.7.u.7.u.r.u.r.r.7.3.3.3.3.2.w.3.7.7.r.7.3.w.3.3.w.r.r.3.2.3.r.3.3.3.3.7.3.r.w.7.r.7.7.3.3.7.7.r.r.3.3.3.3.4.3.3.7.7.3.3.3.4.1.3.w.4.3.1.3.3.3.2.4.2.1.3.3.3.` 7 > > > > > h > * 8 7 8 7 8 8 7 4 4 4 4 4 J T T T T T T T P T T T T W T T T T T T P T T P T T T P P T T T P U T T T W T T T T T T R T { T T T T T T T T T T T T T T T T T T T T T T T T T T T P T T T T R T T T T T { T T T U { { { U T { T P T T T T T T T P P T T T T T  .$.$.$.@.$.$.$.@.} N & $ * & X ",
"* * N y.s.s.s.l.s.s.s.a.2.r.2.6.6.r.7.w.2.7.r.r.r.r.2.r.u.8.7.u.r.r.r.8.7.3.3.r.3.4.u.u.r.r.u.7.3.2.3.3.3.w.3.4.2.w.3.3.3.r.7.3.3.7.r.7.r.r.7.7.r.r.3.7.3.4.4.3.3.3.3.3.3.7.3.3.3.4.1.4.4.3.3.3.1.3.3.3.3.7.3.3.3.r.` 7 > > k g g j h = 8 7 8 d 8 d 9 4 4 4 4 f P T T W T P T T P T T R T T T T T T T T T T T T U T T U U T P P P T T T T T T T T T T T T T T T T U T { { T T T R T R T T T T T T T T T T T T T T T T P T T T T T P P T T T T T T { T R T { T T T T T T T T T P T P T T P T P T ..} $.@.>.$.@.....>.t # & & &   ",
"- * i y.s.l.l.s.s.s.s.a.2.r.r.6.r.r.r.2.3.w.r.r.r.r.6.r.r.r.7.r.u.r.w.r.3.3.r.3.7.3.w.r.r.r.r.3.3.3.3.3.w.4.3.3.4.3.3.3.7.3.3.7.3.r.r.3.7.7.7.r.3.r.3.r.r.3.3.3.r.r.r.r.7.3.3.3.3.3.3.3.3.3.3.3.2.4.3.3.3.3.3.3.3.w.P 7 g k k k g j > . 9 8 7 8 8 8 9 4 4 4 4 4 L T T T T T T T U T T R T T T T T T T T U T T T T P T T T T U T P T T P T T T T T U T T T T R U T T T U T R T T { T T T T T T T T T T P P T U T T P T U T T T T T P T { T T T T T T T { { T T { T T T T T T T T T T T T T T T T } $.$.$.@.$.@.$.$.%.t $ & * &   ",
"* * 6 -.l.s.f.s.s.s.l.i.w.r.w.7.r.r.r.r.r.7.r.r.w.w.r.r.r.7.r.w.r.r.u.7.w.3.7.7.7.u.3.3.r.r.3.2.3.4.3.r.3.4.1.3.4.3.3.3.7.7.7.7.r.r.r.7.3.7.7.3.3.7.7.r.3.r.3.3.r.r.3.3.7.3.3.7.3.3.3.3.3.3.3.w.3.3.3.3.r.3.3.w.3.w.P 4 h j j j j j g X 4 8 8 d d 8 6 4 4 f 4 4 P { T T T T T T T T T T U R T T T T T T T T T T U T T T T T T T T U T T T T T W T T T T P T T T { T T { T { T T T T T T T T T T T T U P T P P T T T T P P T T R T T T T T T T T { { T T T U { U T T T T T T T T T T { T T T T T { $.@.$.$.$.$.%.$.,.t * & $ & X ",
"* - f $.l.f.l.s.l.s.l.y.y.t.7.r.r.r.u.7.7.7.7.r.r.7.r.7.r.7.3.r.r.r.r.r.8.3.7.u.r.r.r.3.r.r.7.3.3.3.w.r.2.2.2.2.1.2.3.3.r.3.3.3.3.r.r.r.3.r.r.3.3.r.3.w.r.3.3.3.r.3.7.r.7.7.7.3.3.w.w.3.3.3.w.4.3.3.3.w.w.3.3.3.3.w.P 5 h j Z Z Z j j O f d d 8 8 d 9 4 4 , 4 4 J T T T T T T W T T T T T T T T T U T T U T U T T T T T T T R T T R T T T T T T W T T T T T T T T T T T T T T R T R T T T T T T T T U P P U T P T P P P T P T T T T T T T T U { { U { { T T T { T T { T T T T T T T W T T T W T { ..%.%.@.$.$.@.$.:.a # * & &   ",
"& & * O.l.s.f.s.l.s.l.a.y.y.y.r.8.r.8.r.w.7.3.7.r.7.r.r.7.r.6.r.r.r.r.7.r.u.7.7.r.u.r.7.3.r.3.2.2.4.3.3.2.2.3.3.3.w.3.3.3.3.3.3.3.3.3.r.4.r.7.r.7.7.r.r.r.r.r.3.3.r.7.7.7.7.7.7.3.w.3.w.7.3.3.4.3.3.1.3.r.3.3.3.2.r.` 7 k Z C C C Z Z @ f 8 8 8 d d 5 4 4 4 4 4 P T T T R T T R T R W T R T T T T T T T T T T T T T T T R T T T T T U T T T T R T T R T T T { T T T T W T W T T T T T T T T T T P U P T P P P P U T T T T P T P T { T T T T T { { { U T T T { U T T T T T T T T T T { T T { { T { $.%.%.$.@.@.$.$.%.i $ & * &   ",
"& & * $.l.s.s.s.f.l.s.a.6.r.r.r.r.r.r.r.7.3.r.3.7.r.r.r.r.r.r.r.r.r.r.u.7.7.u.7.r.u.7.3.7.r.3.2.1.2.w.3.2.2.3.3.2.3.3.7.3.3.3.3.3.3.3.3.r.r.7.3.7.r.r.r.r.r.4.3.3.r.3.7.3.3.r.r.w.3.3.3.3.3.u.u.3.3.3.3.3.3.3.3.3.r.` 7 : k z C C C C $ f 8 d 8 8 d 9 4 4 , f 5 P T T T T T T T T T T T T T T T T T T T T { T T T T T T T T T T T R T T T T T T T T { T T R T T W T T T T { T T T T T T T T T P P P T P T T P T T T P U T T T T T T R T R T T T U { { W { T T P T { T T T T T T T T { T { T T { R } $.%.$.%.$.$.$.$.w $ * & * X ",
"* & * -.l.f.s.l.l.s.l.y.r.r.7.r.7.r.r.r.r.7.r.r.7.r.7.r.r.r.r.7.r.u.7.r.u.3.u.7.r.r.r.3.w.7.3.2.2.2.3.3.2.3.3.2.3.w.w.3.3.3.3.3.3.3.4.3.3.r.7.7.3.r.r.7.3.r.r.r.7.r.7.r.r.7.3.7.w.3.3.3.4.3.3.3.2.3.3.3.7.3.3.7.3.r.T 7 . X X X X   X = f d d d 7 d 5 4 4 4 f 5 P R T T T W T T T T W T T T T W T T T T T T T T T P T T T T T T T T T T T T W T W T T T T T T T T T T T T T T T T T T T T T T T T T T T T T P U P T P P P T { T P T { T T { T { { U T { T T T { T T T T T T T T { W T T T W T { { } %.%.%.%.$.@.@...9 # & $ &   ",
"* & * -.l.s.s.s.s.l.l.r.r.r.r.r.7.7.r.u.u.7.3.7.7.r.r.r.r.u.r.w.r.r.r.r.r.r.r.w.r.r.u.r.3.r.3.1.3.3.3.3.3.r.3.3.r.r.w.r.r.3.3.w.4.3.3.4.4.w.w.4.3.u.r.3.3.u.r.3.r.3.7.7.r.3.r.3.w.w.w.w.w.4.u.4.3.3.3.w.3.3.7.w.r.r.P 7 % $ % % % % $ % 4 8 d 7 8 d 9 4 9 , f 5 U T T T T W T T T T T T T W T T T T { U T T T T U T T T T T T T T T W U T T U U U { { U T T T T T T T { T T T T T T T T T T T T T T ` T T T P P T T P P T T T T P T T T { T T T T T { T { T { T T T T T T T T T T T { T T { T W ] $.%.%.%.%.$.$.%.] ; * * & $ X ",
"& - * -.s.s.l.s.s.s.f.y.r.u.r.r.7.r.u.8.7.7.u.7.r.u.r.u.u.u.r.8.r.r.r.r.r.r.r.r.r.r.3.3.3.3.3.w.3.3.3.3.3.3.r.3.3.3.r.r.r.3.3.w.3.1.1.1.1.3.w.w.3.3.r.u.3.3.3.r.r.7.r.r.4.r.r.r.w.4.3.4.u.u.4.r.7.3.3.3.r.3.3.7.3.r.| 7 - f % - ; ; & % 4 8 d p 8 d 4 4 , , f 5 P W T T T T T T T T T T T T T T { U T { U T T T T T T T T T T T T T T T T R W ` { U T { T T T T W W T T T T U P P U P T T T T T T T T T T T T T P T P T P T T T T { T { T W T { W { T T T T T T T T T T U T { T { T T W T T T { { $.%.$.%.%.$.@.<. .* * & * &   ",
"& & # [ s.s.s.s.s.s.l.y.r.u.r.r.u.7.7.u.7.u.u.u.r.r.u.a.a.r.r.u.u.w.r.7.r.r.r.r.r.r.r.r.r.3.3.r.3.3.3.3.1.3.3.3.3.r.r.3.w.1.1.3.1.1.4.1.4.3.w.w.u.3.3.u.u.u.r.r.r.r.w.r.r.7.r.3.u.3.w.w.4.w.3.r.3.7.7.3.3.3.7.3.3.7.` d , - 1 - ; - f 1 4 7 i A 8 d 9 , 4 f , 5 P T T T T T T T T T T T T T T U U T { U T T R P T T T R T U R T T T W T T T T W ` U { U T W T { T T T T T T U P P P P T T P T U T R T T U T T T T T T T T P T T T T T T T T T T T { { T T T T { { T U { { U T T { T { T T { T T {  .%.@.@.%.$.$.<. .# & $ * * X ",
"* & * ) l.f.s.s.s.l.s.r.r.8.r.r.7.7.7.7.u.7.u.7.r.r.r.r.r.7.r.r.3.r.u.r.r.w.u.w.r.7.r.r.u.w.3.w.3.1.1.1.3.3.3.r.3.r.r.r.r.3.4.3.3.1.1.1.1.1.4.w.4.r.u.3.u.3.u.r.r.3.w.7.7.7.w.r.3.u.4.3.w.3.3.3.3.4.7.3.3.3.3.3.3.r.{ 7 7 d 7 6 7 7 8 7 8 7 7 8 7 d 4 4 4 f f 6 P T T T T T T T T T T T T U T T T T T T T T T T T T T T T T T U T T T T T T T T W U T T T T T T T { T T T P P P U P T T P T T T T T T T P T P P P P P T T T T T T { T T T { { T T T T T { T T T T T { T T { { T W T T T W T { T R  .@.%.%.%.%.%.=.*.# & * & $ X ",
"& & $ i y.l.s.s.s.l.l.y.r.r.r.r.u.w.u.7.3.u.u.u.r.r.r.r.r.y.u.2.w.r.r.r.3.u.u.w.r.r.r.r.r.7.3.3.3.3.1.3.3.3.3.3.3.r.r.r.4.3.w.w.3.3.1.1.1.4.1.3.r.3.3.r.w.3.3.r.r.r.4.r.r.3.r.w.3.u.3.u.r.3.4.3.3.3.3.r.r.3.3.3.3.r...p A p p A s a s a s a a s s a 9 , , 4 f 6 P T T T T T T T R T T T T T T T T T T R T T T T T T T T T T T T T T W T { U T { U T { U T W { T T T T T T P P P I P P P T T T T T T T T P T T T P P P P T T T T T T T { T { T { T T T { T T T T T T T T { T T T { { T T T { T T {  .%.%.%.%.$.$.<.%.# & $ & *   ",
"* & $ 8 a.l.l.s.s.s.s.y.r.r.u.8.7.7.7.u.8.r.7.7.8.r.r.r.r.u.u.w.3.r.r.7.r.r.u.u.u.u.r.r.r.r.4.1.1.4.3.1.3.3.3.3.3.3.3.3.w.3.w.4.3.3.1.1.w.1.w.3.3.u.w.r.u.w.u.3.3.r.u.3.r.3.r.4.4.3.7.3.3.r.u.3.3.r.3.r.3.3.3.3.r.3.w.3.3.3.3.3.7.u.r.u.7.7.r.r.w.u.e f 4 f f 8 T T W T T T T W T T T T T T T T { U T T T T T R T T U T T T T T T T T T T T { U W T { T T T T T T T T W T P U P P P T U T T T T T T T T T T U P U P U P P T T T { T T T T W T T T { T T T P { P T { { T { T R { T T { T T { { W R  .&.$.%.@.@.$.&.[ * * * & & X ",
"* & * 4 t.s.s.s.l.s.s.a.r.r.r.i.7.7.u.8.r.r.r.r.7.r.r.r.u.r.7.3.3.3.r.r.r.u.r.u.r.r.r.r.r.r.3.r.3.3.3.3.3.r.r.w.3.3.4.3.3.4.w.w.w.3.4.w.3.4.4.w.3.u.4.3.w.w.w.w.3.w.u.w.u.r.3.u.3.3.3.3.3.3.3.3.3.3.3.r.w.3.3.w.3.3.3.3.4.1.3.3.2.3.3.w.3.r.3.3.3.3.w f , 4 f 0 W T T T T R T T T T T T U P T T U T T U T T T T T T { T R T T T T T T ` T T T T T W ` U W T U ` T { T T T U P T P T T T T P P T T P T T T T T T P T ` U P T T { T { T T P ` T { T T T T T { ) T T T T T T R T { T W R { { T { T R ..%.%.%.%.%.%.%.a # * $ * $ X ",
"& & * 6 a.s.s.s.s.s.l.a.u.r.r.r.u.7.r.u.8.u.r.r.r.r.r.r.3.7.3.3.3.w.w.u.w.r.3.7.r.r.r.u.7.3.7.r.4.3.3.3.3.r.3.w.3.3.4.3.1.1.1.1.1.3.4.3.w.4.4.r.3.3.3.w.3.3.3.3.w.3.3.4.3.r.3.3.u.7.7.3.3.w.w.3.r.r.4.r.r.r.3.3.3.3.3.2.1.1.3.3.2.3.3.3.3.3.u.3.3.2.i f f 4 f t T U T T T T T U T T T T T T T U { T T T T R U T T { R U T T T T T R R U T T T T { U W U T T T U T T T T T P T T T T U P T P P T T U T T T T P P U { U U T { U T T T { { T P { T T { T P T T R T { { T T T { T R { T { T W T W { T $.%.%.%.&.%.%.%.w * & & * *   ",
"& $ $ 5 a.a.i.s.s.s.l.a.y.r.r.r.7.u.u.3.7.u.7.u.u.7.3.r.r.w.w.3.3.3.3.w.w.3.w.3.w.r.r.r.3.3.3.3.3.3.3.3.3.3.r.r.7.7.3.3.4.3.1.4.4.w.4.4.4.1.w.w.1.3.3.3.4.3.3.1.4.w.w.4.w.w.w.w.u.w.w.w.7.w.w.w.3.3.3.r.3.3.3.3.3.3.3.1.1.3.3.1.2.3.2.2.w.w.3.2.2.3.i , 4 f f 0 T T T T T T T T T P T T P U T T T U T T T T T R T T T T T T T T T T T T T T T U T U T P T T T T T T T T T P T T T T P T P T I P T P T T T T T T T T T T T U T T T { T { T T { T T T T T P T T T T { T { { T { T T T { T { W T T { ..=.%.%.%.%.%.=.6 * * * & * X ",
"* & * 4 a.t.s.i.i.s.s.y.r.t.r.r.u.7.7.u.u.3.7.u.r.w.r.3.w.3.3.3.1.3.w.w.w.w.r.w.w.r.r.3.3.3.r.3.w.3.3.3.3.r.r.r.7.7.7.7.w.3.4.3.3.3.3.3.3.3.w.w.3.3.1.1.1.w.4.3.4.w.3.3.3.3.w.u.w.r.7.w.w.3.3.w.3.w.3.3.3.3.3.4.4.3.1.3.4.1.1.3.2.3.2.w.w.w.3.3.2.3.i , 4 f f t T P T T T T T U U T T T T T T T T { T T T T T T T T T T T T T T T T T T T T T T P T P T T T U T T P T T T T P T T P T T P T P T T T T T T T { T T P P T T T T T T T T { T T T T ` T T T P P T T T T T { T { { W T T W { { T W { ' %.&.%.%.%.$.%.2.4 $ * * * $ X ",
"& $ * 4 y.a.s.t.i.s.s.y.r.r.r.r.7.3.7.r.r.3.3.u.r.3.r.3.3.3.3.3.3.3.w.3.w.w.r.3.w.3.3.w.3.r.7.7.r.r.r.3.3.r.r.3.r.r.r.4.3.3.3.3.w.w.3.r.w.w.r.3.3.3.3.3.1.3.w.3.3.3.1.3.3.4.w.u.r.r.r.3.3.u.3.4.3.3.3.3.3.3.3.3.3.1.3.1.1.3.2.2.2.w.3.2.2.3.w.3.3.r.p f f f & t { T U T U T T U P T U T T P T T T T T T T T T T T T T T T T T T T T T T T T T T T T P T T T P P T T T T { U T T T T T T P I T T T T T T T T P T T T T U T T T T R T T T T P T T P T T P T T P T T T T T T { T W { T T T T T T T { ..%.%.%.%.%.%.6.4 * * % % *   ",
"* & & ; -.a.t.a.s.s.s.y.r.t.r.r.7.u.u.3.r.u.w.3.u.3.7.3.r.3.r.w.3.w.3.w.r.r.w.w.3.3.3.3.3.r.r.r.r.3.r.r.7.r.r.r.r.r.r.r.3.3.3.3.w.w.r.3.w.w.4.4.3.3.3.w.w.w.w.3.3.3.4.3.3.3.4.w.r.r.r.3.4.7.w.3.3.3.3.3.3.3.3.w.3.3.7.3.1.4.3.1.2.3.3.2.1.3.3.3.w.r.a & 4 f f e T T T P ` T P T T T P T T T T T U T T T T T T T T T T R T T T T U T T T T T T T P T T T T T P T T P P T T T T T T T T P T T T T T T T T T T T T T T { { T { { T T { T T T { T T T T T P T T T P T T T T T { T T T T { } T T T { R ..%.%.%.%.%.$.6.4 $ $ * * & X ",
"& & & * [ i.t.s.s.t.s.y.r.7.7.r.r.r.r.7.u.u.3.3.3.u.3.u.r.w.r.r.3.3.3.3.3.3.w.w.w.3.3.w.w.w.7.7.7.7.u.4.7.r.r.7.7.r.7.7.r.3.3.r.3.u.u.w.3.3.4.4.3.3.3.3.w.w.3.3.w.3.3.w.3.3.3.w.w.w.3.r.7.3.w.3.w.3.3.2.3.3.3.3.3.3.3.3.1.3.1.1.2.3.2.w.2.2.2.2.3.w.s ; f f & y T P P T U P U T P T P P T T T T T U T T U T T T T T T T T T T T T { { T T U R U P T T U T T T T T T T T U T T { T T T { T T T T T T { T T T T T T { U T T { T T T T U ` T { P T T T T T T T T T T T T T T T T { T } T T R T { R R %.%.$.%.%.@.%.6.4 * & & * $ X ",
"* * * * ( l.s.l.i.a.a.y.w.r.r.r.8.r.r.r.7.r.3.3.u.w.3.3.w.e.u.w.3.w.1.3.3.3.3.3.4.1.3.3.3.4.3.3.u.r.r.r.7.r.r.r.r.r.r.r.r.r.3.r.3.3.3.r.3.3.4.1.3.3.3.3.w.3.3.4.4.r.3.3.w.4.3.w.w.3.w.r.w.3.7.w.w.3.3.2.3.3.3.3.3.4.1.3.1.1.1.3.2.1.1.2.1.1.2.3.2.2.V f , f & t { T T T U T T P U T U T T T T U T T T T { T U T T T T T T T T T T U T T ` U T T T T T T ` T T T T T T P T T T T T R R T T T T T R T T T T W T T U { T { U T T T { T T T T T P { T P P T T T T T { T { { { T T T T { T { { T T T { ,.%.%.@.%.%.&.*.; & * * $ *   ",
"& * & = V l.s.s.s.i.u.2.r.r.w.u.u.w.r.r.r.3.3.3.r.3.3.w.w.2.w.3.1.4.w.4.1.w.4.1.1.3.3.w.3.3.3.7.r.r.r.r.r.r.r.7.r.r.7.r.r.r.3.3.r.3.w.w.3.3.1.w.1.3.3.3.w.4.3.3.1.w.w.4.3.3.3.w.3.3.3.3.w.r.3.w.3.3.3.3.3.3.2.2.1.1.1.3.7.1.1.3.2.1.1.1.,.2.2.w.2.3.K f 4 f f t T U P T P U P P U P T P P U T T T U T T T T P T T T T T T T T T U ` U U T T { T T T P T U T T T T P P T U P T T T T T T R R T { T T T T T T T { { U T T T T T T T T T P T P T P P T P T T ` T ) T P T T T T { { { T T T T { T T P *.&.$.%.&.*.=.' * * & $ * * X ",
"* * & = / l.s.s.a.a.u.w.r.7.u.a.u.r.r.w.7.7.3.w.w.w.3.w.w.2.2.3.w.1.4.w.w.4.3.w.4.1.3.3.3.3.3.r.7.r.r.r.3.7.r.7.r.r.r.r.r.r.r.r.3.r.w.w.w.3.3.3.3.3.3.3.3.3.1.3.4.3.w.w.w.3.3.3.w.w.3.3.3.3.w.w.3.3.2.3.3.3.3.1.4.1.1.1.4.1.1.3.1.3.2.3.4.1.1.1.3.r.K ; , f & u T U P P U J P U P P T T U { T T T { T T U T T P T U T R T T T T T R ` T T U T T T T P U T T T P U T T T P T T T T T T T { P T T R T T T R T R T { U { T { T P T T T P P T T P T T U P P T R P P T T T { T T T T W T { T { T ' T ' ..%.$.%.=.%.6.V # * $ * * $ X ",
"- * - # K l.s.s.s.t.u.e.2.y.r.r.u.w.r.3.3.w.3.w.r.r.w.w.2.2.2.3.3.3.1.w.3.3.3.w.4.1.1.3.r.w.r.3.r.7.7.u.r.r.7.3.r.r.r.7.r.w.r.r.r.4.u.r.u.4.4.4.w.w.w.w.w.1.1.4.3.3.3.w.r.3.3.1.1.3.1.3.3.3.3.w.3.3.3.3.1.w.3.1.1.1.1.1.3.1.1.3.2.3.3.2.2.2.1.1.3.r.P & , f & t { T U U P P P P P T T P T T T U T T U T T T T T P T T T T T T P T T T ` T T T T U T T T T U T ` T T T T T T T T T T } T T T T T T T T T T T T T T T T { T T T { R P P P T T T P T T P T T P P P P U W T T T T T T { { T T T { T { ..$.%.%.<.%.8.N = & $ $ * *   ",
"* * & = V l.s.l.s.a.t.-.w.r.2.r.w.r.r.r.3.w.r.w.r.u.w.3.3.3.3.2.3.1.3.3.3.w.r.w.w.3.1.3.3.r.r.3.7.u.7.7.7.7.7.r.r.r.r.r.r.r.r.r.r.r.r.3.w.u.w.w.4.w.w.4.4.4.1.1.3.3.4.3.r.3.3.3.3.2.2.1.3.w.w.3.3.3.3.3.3.3.3.4.3.3.3.1.4.1.1.3.2.2.2.3.3.2.1.2.3.w.` & f f % t T T P P P T U U T P T P T T { P T P P T T U T T P U T T T T P U U U U U T T T T T T ` U U P T U T T T T P T { T T T T T T T { { T T T W W T T W { T W T { U ` T T P P T T T T P T P P P T P P T P ` T { { T T { U { T T { T T { R o.%.%.&.%.%.7.V = & * & * * X ",
"* & * # V a.s.l.s.s.y.w.w.2.2.r.r.7.r.r.3.w.3.3.u.a.3.r.3.r.w.3.1.3.w.3.3.w.w.w.3.3.3.w.3.r.r.7.7.7.r.3.w.7.7.7.7.w.3.r.r.r.r.r.r.r.r.r.r.r.r.r.w.4.w.w.3.1.1.3.3.3.w.r.r.r.3.r.3.3.3.1.3.3.w.w.4.3.1.1.3.3.3.3.3.3.w.3.4.1.3.3.2.2.2.3.3.3.2.3.w.7.{ & 4 f & y T T T U T P T { U U T P P T U T T T T T T T T P U P P T T P U P T P P P T T T W T T T P U ` U T T T T T R T T T T T T T T T W T { T T W T T U T U { ` U T { U R T P P T P T T T T P P T P T T T T U T { T { ` { T T { T { U T T ) %.%.%.=.<.%.r.V o & $ * & &   ",
"* * * # i y.s.s.s.a.r.r.3.3.2.y.r.r.r.3.3.2.3.w.a.u.w.3.r.u.r.3.4.3.r.w.3.r.w.3.3.1.w.3.3.3.r.r.7.u.r.7.r.r.r.r.r.r.r.7.r.r.r.r.r.r.u.4.w.r.4.w.u.w.r.w.3.1.1.3.3.1.r.w.3.7.r.3.3.w.3.1.4.w.3.4.1.1.1.3.4.3.3.3.3.3.3.3.3.3.3.w.3.3.w.2.3.w.3.w.3.7.` & f & & t W P T P T U T T T T T T T T T T T T T T T T P U T P T T T R P L U T P U T T T T T T T U U T T U T T T T T T T { T T W T T T T T T T T T T T T T { T U W T U U T T P P P T T T T T T T P P { T T T R ` P U T W T P T { T T ` T P R <.%.%.,.%.&.8.V = & * $ * %   ",
"& * * $ 5 -.l.s.s.a.w.r.r.r.2.r.r.w.w.3.3.w.a.r.3.u.r.r.r.7.w.w.w.w.u.r.r.r.r.r.3.3.3.w.3.3.7.r.u.7.r.u.r.r.r.r.r.r.r.w.r.r.r.r.4.r.w.w.w.r.w.w.w.w.3.w.3.w.w.w.3.2.2.3.w.w.w.w.w.r.w.3.3.3.1.1.1.1.1.3.3.3.3.3.3.w.w.3.3.w.w.w.3.2.3.3.w.3.w.2.w.u.| % 4 f & t T T T U T T U U T T T T T U T T T R T U T T U P P P U T T T P T T T T T T T T T T T U P P P U P T P T R T T T T T { T T W { T T T T T T T T T T T W T T T T ` U T P T T T T T T T T T P P T { T T T { T P T T T T T T { { T T { { 3.%.%.=.=.&.6.a = & $ * * % X ",
"* * & $ ; -.a.t.a.y.w.u.r.r.r.r.a.r.7.w.e.a.r.3.3.3.r.r.u.7.r.r.u.u.w.w.r.r.u.w.w.3.1.4.3.3.r.r.r.r.r.7.w.r.r.r.r.r.r.r.u.r.w.w.r.r.w.w.r.r.w.w.w.3.1.1.3.1.w.w.3.2.3.w.7.r.r.w.3.r.w.1.3.3.1.1.1.1.1.3.3.1.w.w.3.w.w.w.3.w.w.w.w.w.w.3.3.3.w.2.w.r.| f 4 % % y T T T U T T R ` T T T U T T U T T T T T T P T T P U J P P P U P T T P T U T T T P P P P P P P P P P T T T T T T T W T T T T T T T T T T U T ` U T T T T T T U P P U P T T ' T T T T T P T T T { { { W T T ` T T T P T T T T T P R 4.%.,.%.%.*.1.8 @ & * $ * &   ",
"- $ * & $ -.a.y.r.r.r.r.r.r.7.r.r.r.2.2.w.w.r.3.w.r.r.r.w.r.r.r.w.w.w.w.u.u.w.w.r.3.1.3.1.3.w.r.w.r.w.3.w.r.r.r.u.u.r.r.r.w.w.w.u.w.u.w.u.u.w.w.w.3.w.1.w.w.w.w.2.2.w.w.u.r.r.r.r.w.w.3.3.w.w.1.1.1.4.w.3.3.w.w.u.w.w.u.r.r.u.w.w.r.u.w.w.w.w.w.r.w.` % f - & p { { { ....{ W W { W W ....{ W ..R { } { R { W { T R T T T T W { { { { W { W { T T T P P { T U P U T T W W } R { W T { W T T T W { T T T { T T U ` U T T T U P T T P T T { { R T T T { { { T { T T { W T T T T T T ` T T R T T T } 3.%.$.$.%.=.%.f $ * * * * *   ",
"* * & * # a.s.y.a.s.u.u.a.s.s.s.d.u.a.a.a.a.u.u.a.u.a.d.d.d.d.a.d.d.d.d.p.d.d.d.p.u.r.u.u.w.w.p.a.u.p.a.p.d.a.r.p.u.p.a.p.p.p.a.p.p.p.p.p.p.p.p.u.u.p.u.w.u.w.w.w.r.u.a.p.p.u.u.u.p.u.r.u.p.u.w.r.r.w.w.w.u.r.u.u.p.p.u.p.u.p.p.p.u.p.u.u.p.u.u.u.p.[ f f f % p >.>.>.>.>.>.>.>.>.>...>.>.>.>.>.>.>.>.>.>...%.%...........>.>.%.>.>.>...>.>...>.............{ ......>...>...@.>.>.>.....,.>.,.....>.>.>.>...>...W ..........{ ..} ..........$.$.>.>...>.>...>...>.........>.....W ..{ ..>.......$.u.<.<.=.<.6.*.* * & $ * $ & X ",
"* * * $ # x.B.z.x.x.s.x.B.m.m.C.m.m.m.C.z.z.m.C.m.m.m.C.B.m.m.m.m.m.m.m.N.N.m.m.m.m.b.N.m.N.m.N.m.m.M.B.m.m.z.z.m.m.m.m.d.m.m.m.m.m.b.N.m.m.b.N.N.b.b.b.p.d.m.d.d.d.m.f.b.b.m.b.b.m.b.b.b.m.b.b.d.b.d.d.d.b.d.b.b.b.b.b.N.N.N.m.m.B.N.m.N.N.N.N.B.F.( ; ; ; * V 8.7.7.7.7.7.7.7.4.3.4.4.7.4.7.7.7.6.7.3.4.4.4.1.4.,.4.<.4.6.4.1.4.4.7.7.7.4.4.4.4.4.4.>.4.4.>.,.4.1.4.7.4.4.7.7.4.3.4.3.4.7.7.6.4.4.7.3.4.7.6.4.4.4.4.4.4.>.4.4.1.<.4.4.7.4.7.7.4.7.7.8.7.7.7.8.7.4.7.3.4.3.3.3.4.4.1.4.7.4.4.4.8.j.4.5.6.7.t.7.+ * * * * * $ X ",
"% * * & # w z.C.B.B.B.U.P.P.P.P.G.G.Y.V.B.V.V.V.V.V.V.V.V.V.G.G.S.S.S.S.Y.G.G.G.V.G.G.G.V.V.G.V.G.G.V.V.B.m.m.m.m.M.B.m.m.m.m.B.N.N.N.N.V.N.N.N.N.N.N.N.N.b.N.m.z.m.z.z.m.m.m.m.d.d.d.u.u.u.w.r.w.r.r.r.w.2.3.3.3.1.>.4.1.` o.o.O.*.o.O.o.o.o.o.[ [ 5 f ; ; * a b.b.b.b.b.p.b.b.b.b.b.p.b.b.b.b.j.h.h.p.p.h.d.i.i.p.p.p.p.d.p.p.p.p.p.p.p.u.p.p.p.p.u.p.p.u.p.p.p.h.j.h.h.h.p.p.p.p.h.p.h.p.p.p.h.p.h.d.h.p.p.p.p.p.b.p.p.p.p.p.h.p.j.j.h.b.j.b.b.j.b.j.j.b.j.j.b.b.p.p.h.j.h.d.p.p.p.p.p.b.p.p.j.B.a.l.l.s.M.s.= & $ * * $ *   ",
"* * & * * * & & ; ; & f & & & , f f f f f f 4 , 4 4 f 4 4 4 , 4 4 9 5 4 4 7 6 4 7 7 7 7 < 7 7 7 7 6 6 7 7 7 8 6 7 8 6 6 8 8 8 8 7 7 7 0 7 d 0 7 d d 7 e 7 7 7 7 6 8 6 w 7 6 d 6 7 7 6 6 7 7 6 7 7 7 7 < 7 7 , 7 7 f 7 7 4 f f 7 4 ; f 4 4 , f f f ; & f f & & f t H L A J H A T ` { ` { { { { ..*.1.2.2.4.2.3.2.4.3.3.u.u.u.u.r.u.u.u.u.p.u.p.u.p.p.p.b.d.b.b.b.z.z.b.b.b.m.b.b.b.j.d.b.b.d.d.d.p.d.d.d.p.d.s.d.b.N.b.N.N.b.b.b.M.z.m.z.j.j.j.d.j.j.j.d.z.m.z.j.b.b.m.m.b.b.m.d.b.b.b.m.N.m.b.b.M.P.k.M.m.z.j.K # * * * & $ * X ",
"& $ $ * * * $ * * * * & & & & & & & % & f & & & & f & f f f f f f f f f f f 4 , 7 f f f , 7 4 4 4 4 5 4 9 4 5 5 5 9 5 9 9 4 5 7 7 7 7 < 7 7 6 7 7 7 7 < 7 7 7 7 6 5 7 7 5 7 6 5 7 7 7 6 4 7 < 7 7 7 7 , 7 , 7 , f 7 f , 4 7 f f 4 f 4 f 4 f f 4 f f f f & - ; f & f % f % f & f - f - f f f - f & 4 & & 4 f 4 4 f f 4 4 , , 4 f , , , 4 4 , 4 , f f f 4 f f f f 4 4 4 , 4 4 f f 4 4 4 f 4 , f 4 4 f , f 4 f f 4 < f f f f f f f & 4 & & , & f 4 ; ; & f & , 4 4 5 5 i t i a p p A a A P K L L A K ( [ [ | ' V & * * $ * $ * * X ",
"* & * * * * & & & * & & & & & & % & & & & % ; & & & & ; f f % f & f f f f f & % f f , , f f f f 4 4 4 4 9 4 4 5 4 4 5 5 4 4 5 6 7 7 7 7 7 < 7 4 7 7 7 7 e 7 < e 7 6 5 6 5 7 5 6 7 < 7 7 < 7 4 7 , < 7 < < 7 < 7 4 4 4 7 4 4 f , ; ; f ; f f f f ; ; & & ; & & ; & % f & f & & f f f , f f f , 4 4 4 4 ; 4 4 5 4 9 4 5 5 4 6 6 8 8 7 8 6 8 8 8 7 8 8 8 8 d d 7 0 8 8 8 8 8 8 8 8 8 8 8 7 8 8 8 6 6 6 7 8 6 9 6 5 6 7 6 7 7 7 < 7 5 5 4 5 4 4 4 4 4 4 4 4 4 4 & & , f & & & & & & & & & % % * * * * * * * * * * & - * * * & & &   ",
"* $ $ & * * & $ & & & & & & & 4 f 5 , 4 4 5 7 5 7 5 5 5 5 5 5 8 t 6 6 t p y a A p t t 8 i A i y e 8 w w 6 6 w 0 w w t 8 i t 8 8 d e 0 0 7 e e d e e e 7 7 7 7 7 6 5 6 6 6 6 6 8 7 6 6 6 7 7 6 < 7 7 < 7 6 7 7 < 7 7 < < 7 < f e 8 w 8 5 6 6 6 4 4 8 d 6 4 8 4 4 5 5 4 5 4 5 6 5 4 4 7 6 7 7 4 , 4 5 4 4 4 4 4 4 < 4 f f 4 & # # # # * # * % # * = * # % # # # # * * # * * # * $ # # * # # * # * # * # # * $ * # # # # $ = = + @ # # # = # = # * o = = o . # # = o o o # # # = o = = . # . = = o . # . = . . . . . . . . . . .   ",
"* * * & & & & & & * & & & & & 4 , 7 4 4 5 7 5 5 9 4 5 5 , 9 5 5 7 4 f < 7 6 w t w d 6 7 8 d 7 e 6 9 6 7 f 5 9 9 5 7 7 5 8 8 9 5 6 7 f 7 1 4 < 1 7 f 1 1 , 1 1 f f 4 4 4 f f f 4 , 4 f f , - # f f f % % f f f f f 4 4 4 4 f f 4 4 6 4 4 4 4 4 4 ; 4 0 5 4 8 4 5 4 4 4 4 4 6 6 6 4 4 7 4 7 7 8 7 & & & & * * & $ & & ; & & *                                 X X                                                             X X                                                                                     X           ",
"* * & # # # $ ; , 5 e y e e y N u u u u u S a u S S a S H N v v u v u n v v H S H S J J H v H S H J I J I J J J I J J U I J J I S P U U U U ` U U ` U U ` U U ` P P P U U T T T T T T W { { U U T T P T T W W T R { W { { W { ..+.] ] } ]  .] +.T ' ' ' ] ]  .} } } } ..} ..} ..} { { { W W { ..' ] ] }  .{ ] ) N 6 * & 4 $                               X X X                                                             X X                         X                                                     X                 ",
"& $ 4 %.r.r.i.u.p.i.g.h.j.j.j.h.j.j.j.k.b.n.n.j.n.n.j.k.n.Z.M.).{.[.(.).).K.H.D.(.[.).K.S.A.M.D.T.D.~.).D.~.).(./.XX/.).).).~.~.[.H.G.H.H.H.K.H.).~.T.D.~.D.S.R.).W.~.H.H.A.S.H.~.{.).[.#X>X#X#X#X>X@X@XXX(.[.(.(.(.{.XXoX#X:X$X#X#XoX#XoXXX[.{.`.{.XX#X#X#X#X@X$X$X#X:X$X#XoX[.).~.T.T.I.~.~.~.).(.(.[.(.{.#XoXXX).l.; ; #                                                                                                                                                                                                     ",
"# 5 h.XX$X#XXX@X$X:X$X$X,X,X$X:X$X:X$X*X:X:X$X#X$X$X$X@X$X1X<X<X3X8X8X1X1X8X1X1X1X1X3X<X*X$X$X<X1X1X3X3X<X1X3X3X1X1X1X<X1X1X<X<X8X8X3X3X8X7X7X7X3X<X<X1X=X*X*X$X<X<X,X$X1X1X<X3X3X7X1X7X7X8X7X7X5X6XwX6X<X<X1X2X<X<X3X6X8X3X6X0X3X3X3X7X7X1X1X<X2X1X<X<X<X2X3X6X7X7X1X7X7X7X1X,X,X*X,X,X,X@X<X<X<X1X1X<X<X1X<X<X,X<X:X-.* #                                                                                                                                                                                                     ",
"# -.OX,X1X<X,X1X1X1X1X8X1X3X1X7X7X7X7X3X1X7X7X<X<X<X<X,X1X3X7X1X<X3X8X7X8X8X8X8X7X7X7X3X1X<X<X3X3X1X3X8X8X8X3X8X7X2X1X1X3X3X3X3X8X8X8XwXwXeX8X7X7X7X3X7X<X<X<X<X1X3X3X3X8X7X7X7X7X7X8X8X7X8X7X8X3X3X6X3X<X2X<X<X,X2X3X3X1X<X<X8X7X7X3X3X3X1X1X1X,X1X,X,X,X<X2X6X<X7X7X7X<X<X<X$X:X*X,X<X<X,X<X<X6X1X1X1X<X1X<X<X:X<X<Xk.6 #                                                                                                                                                                                                     ",
"# l.,X<X1X<X1X1X8X1X1X1X3X7X3X3X1X1X1X7X7X7X:X:X<X,X,X,X<X1X<X7X<X3X7X7X8X7X1X7X1X7X3X3X1X<X7X3X2X|.).|.oXXXXXXX+X@XOX|.@X$X*X,X,X#X#X@X+X+X+X#X@X+X+X@X@X@XoX*X*X*X,X$X*X,X*X*X,X,X*X*X<X3X<X<X2X2X5X3X,X,X*XXX+X@X:X@X*X,X*X<X,X:X,X,X$X$X,X<X:X,X4X2X,X<X2X,X$X$X#X$XoXXX@XoX|.).`.XX|.oX#XXX#XXX[.[.|.#X,X<X1X<X1X(.a =                                                                                                                                                                                                     ",
"@ M.1X1X1X1X1X1X3X1X1X3X6X1X3X3X1X1X1X7X1X1X<X<X1X*X*X*X<X<X<X1X3X3X8X8XwX8X3X8X8X8X3X8X3X7X2X|.).(.+X@X*X2X2X2X0X7X1X<X<X<X<X3X<X$X#X@X#XoXoX[.XX|.|.`.`.XX`.XX@X@XOX+X+XoXOX|.+XXXXX+X*X,X@X@X&X+X+X@X+XOX{.!.(.(.|.`.|.|.`.+XXX`. X|.[.(.`.XX`.`.`.{.|.OXOX'.`.).W._.W.T./.(.W.I.I.T.).).).E.~.E.D.B.m.k.B.+X1X1X<X(.a =                                                                                                                                                                                                     ",
"# n.7X1X1X7X7X1X1X3X8X1X7X1X8X3X7X1X7X7X7X:X<X<X1X<X<X<X1X1X<X<X3X3X8X7X6X3XwX3X7X8X7X8X6X8XXX3.*.r.g.d.z.k.m.m.z.j.j.j.i.r.8.7.7.u.7.3.7.7.4.4.<.1.*.=.*.*.*.*. . ..... . ..... . . . .{  .[ ] '  .-.<.6.-.-.e.1.1.1.1.2.=.1.-.*.-.*.-.1.*.*.o.$.X. .X.$. .*.-.o.O.*.*.*.=.*.o.-.-.*.*.O.*.*.-.*.%.o.t.l.7.%.P.<X1X<X+XV =                                                                                                                                                                                                     ",
"# N.7X1X1X7X1X1X<X1X3X1X3X3X6X3X7X1X7X1X1X:X1X<X1X<X<X1X3X1X<X<X3X6X8X7X0X8X6X0X8X7X7X7X0X7X).) ) 5 & 8 8 6 6 8 8 8 8 8 8 8 w w 8 0 w w 8 0 w w 0 8 8 8 w w 8 d 8 8 w 8 w w 8 w 8 w 8 8 5 8 8 8 8 9 i s p i s p a i s p i p p p a p p s i i i i i d d d i i p p a i a p i a i p i i i i i i i i d d 8 K =.} { j.:X1X1X#X( .                                                                                                                                                                                                     ",
"# m.1X1X7X<X$X<X<X<X:X1X1X3X3X<X7X7X7X1X1X1X:X<X$X<X$X,X<X<X,X1X3X8X3X3X3X2XwX3X1X9X9X7X0X7X).' ) 8 8 s s K K K K K K K K K K K K K K ` L K A ` / K / / / / / V / / / / / / / / / / / / / K K V / s p s V V / V V K / V / V V A V s s V A s a a i p V s s s V / V / K / / A / / / V / V K / s s V a i a ' ' ' k.<X1X<X+XK .                                                                                                                                                                                                     ",
"# F.3X1X8XF.o.oXo.$X1.XXl.I.^.y.,Xo.,X*.XXr.x.).r.*X .*X| +Xa.D.P.s.#X*.2X| @X1.^.W.=.wX3X0X^.[ ) 8 t s V K K L / V A K A K K A A K K K K s V V / / A V / / V / A / K s K K V / A s V V s V s a V V s s s / V / / s / V / V V / V / V A s s s s i s p s s s V s / / / / V V / / / / A V / s s s s s i a ' $. .j.<X1X<X#XV o                                                                                                                                                                                                     ",
"= m.8X<X8Xx.K [.( @X .(.r.B.I.-.,XV *X) XXe.z.I...*XK ,XK |.r.V.Z.1.OX) <X( #X| T.P.' wX8X3X). .' 8 i / V K A K / / / K / / L / K K K A A s V / K / / / V / / / / ( / / / / / / / K V / s K / K V V s s V s / / / / / / / / / V V / V V s s / s s A s s s V s / / / / V / / / / V / / ( / / s / / V p s ] %.] j.1X<X<X#XV o                                                                                                                                                                                                     ",
"# k.3X<X8XM.L [./ ,Xo.).6.m.F.o.2XV @XL (.<.x.~.[ ,XL 1X/ XXw.m.F.2.|.Y ,XV @Xo.W.P.K eX0X7X`.*._ 8 i K K V K K ( K / / / K / / V / / K / V / K V / K V K / / / K / / / / / ( / / ( A K V / s / V V s V ( ( / / s / / / s / / V V / V V / s V V V s s s s s V / s / / / V / V / V / / V / s / / / s p V ' $.=.k.1X<X1X@XV .                                                                                                                                                                                                     ",
"= M.3X<X8XZ.V oX( @X[ ~.7.j.F. .<XV ,XV (.2.z.W.K <XV 1X/ OX-.k.Z.-.XXV <XN XX .I.F.a wXwX3X(.*.| 8 i K A K ( ( ( ( ( ) / L ` / V / / K / / / A / / / / / / ) ( / K / / ( K s / K ( / V V / / A / / s / ( ( A s s s p / ;._ s s s s s s s s s s / s p V s s V / p p V a p s s a i V s i i i / / V V s V ' $.<.z.1X1X3X#XV =                                                                                                                                                                                                     ",
"# z.1X1XwXF.K oXK :X .D.y.d.F.| 1Xa @X/ (.1.s.T./ <XV 1X/ oX6.x.I.2.`.V 2Xa @XO.I.I.V rXwX7X(.-. .8 i / K / K ( ) ) ( K ( ( ( ) / K / / ) | [ [ [ [ _ X.X.) _ [ / ( / / K / s K / / / / / / / / / / s / / V s i d d d ;.v.c.d d d s d d a a d i V i d s s i p V d i s i d s s d i A p i i i s / s / s s ] =.9.k.<X1X3XXXN =                                                                                                                                                                                                     ",
"= z.3X1XwXF.L @X/ #X[ D.r.j.F.[ wXV :XK /.2.a.T.L ,XV 3X/ OXy.z.F.-.`.V ,XV {.*.I.I.N eX5XeX(.=.| 8 a K K ) ( ( ) ( ( ( K K L ( / K K / _ e.L.E.L.f.f.a.C.f.e._ K K / / / ) / ( K V A / / / / / / V s ( s s d = = = O _ c.[ f * * 9 * = 4 5 = * d * = d f . f d # * 9 & = 4 4 = * 9 f = * * i s V V s V | q.9.k.1X<X3XXXa =                                                                                                                                                                                                     ",
"= j.1X1XwXS.K @X/ OX| I.r.l.P.[ 2XN #XV ~.2.s.W.K <XV 6X) |.6.z.I.=.XXV ,XV #X*.I.I.V wX6XeX`.2.| 5 s ( / / K ( ( ( ( K / / _ _ K / / K ` f.!.!.!.!.E.!.L.!.C.X./ / / / K / / / ( ( / / / / / K / / s / / / s d i i i / ` ( s s p V p i s s i i V i i s i i i s p p V s i s V s i s s i i i A V / V A s *.=.6.M.3X1X3XXXa =                                                                                                                                                                                                     ",
"+ l.2X1XwXI.L <X( #X| D.r.l.I.' <XV oX( ).y.t.).V <XV 3X) |.u.l.W.<.OXK <X/ OX2.I.I.V eXwXwX`.4.| 5 s / ( / ( ) ( ( ( ( ) ( ) ) ( ( ( / K y.!.E.C.E.L.'.U.U.C.X.K ( / K ) K K / / / / / K K ( / / V s ( / V / _ ( ( ( / ( ( ( ( / / ( / / V / / / ( / / / ( / V ( ` ) / / ( _ ( ( / / V / / / / / V V s %.9.9.M.6X1X3X|.s .                                                                                                                                                                                                     ",
"# i.<X3X8XW.L ,X| |.] S.r.d.G.) <XN XXV ~.y.s.)./ ,XN <X[ XXy.z.D.-.XX) <XL +X2.P.)./ eXwXwX^.1.| 4 K K ( / / / / / / ) / ) | O./ / / ) A y.U.C.C.L.'.U.E.L.f.) ( / ( ( / / ( / / / ) ) K / / ) ( / s / / / / s / ( / / ( ( ( ( / / / / / / / / / / / s / / / s / ( / / / / / / / / s / / / / / V / V s $.5.6.k.5X1X1XXXa o                                                                                                                                                                                                     ",
"= p.<X1X9X}...*Xr.+Xr.I.p.M.[.,.<X[ @X*.|.x.l.(.*.,X[ ,Xy.#Xx.D.(.s.$Xr.3X2.+Xl.^.|.e.eXwXwX(.6.' & K A K K / / / ) ) / ( ) ) / / / / ) A e.U.'.U.!.!.U.U.f.e.X.K K K ( / ( ( L ) / / ` / ) ) / / / / / / / / / / ( ( ( / / ( ( / / / / / / ( / / / / / / / s / / / s / / / s / / / / / / / / s V / A s ] 6.g.k.<X<X1X`.a =                                                                                                                                                                                                     ",
"# j.3X1X3X<X+X1X,X<X+X$X*X#X7X#X3X@X1X@X1X<X:X<X*X3XOX<X,X3X<X3X3X3XwX,X3X<X3X1X5X3X6XwXwXeX X6.' f K K K / ` P / ( ) ( ) K ( ) ( ( / / s e.U.L.L.L.!.U.!.U.e._ K ( ( L K / / ( / ) ) ( / / / K _ / A ( / / / / / / ( _ / / / / ( / / s / / / ( / / s / / / s / / / / / ( / / / / / / / s / / / V / V s ' <.g.k.<X:X1X`.a =                                                                                                                                                                                                     ",
"= j.<X3X3X3X7X7X3X8X7X7X7X8X8X7X3X3X3XwXwX6XwXwXwX3X8X3X3X7X6X8X8XwXwX3XwXwXeXwXwXwX6XwXwXeXXX6.) & K K A K ( ( ( ( ) ) ( ) ) ( ( ) ( _ i X.f.C.!.L.%Xa.C.L.e._ K A ) / ) ( / / ( / ( / ) ) K / / / / ( / / / ( ( ( ( / ( / / / / / s / / / ( / / / / / / ( / / / / / / / / / / ( s / ( / ( / / / / / s ' 5.t.x.1X,X6XXXa =                                                                                                                                                                                                     ",
"# l.<X3X7X1X7X7X3X6X3X3X7X7X7X7X8X1X3X8XwX8X8X8X7X7X7X7X7X8X7X8XwXwX3XwXeX7XwXeX8XwX3XwXeXwXXX2.( & K K / / ( ( / ) ( ` ) ) ) ) ( ) _ _ i X.a.C.!.U.'.L.f.C.e._ K ( K K ) K / / / ) / / / ) ) / ( ( / ( / / / ( ( / / / / / / / / / / / / / / / / s / ( s / / / ( / / / / A / s / / / / ( / / s ( / / s _ 6.t.k.3X<X3X@Xa .                                                                                                                                                                                                     ",
"= s.<X3X7X7X1X7X8XwXwXeXwXwX8X7X8X3X3X8XwX8X8X8XwX7X8X8X8XwXwXwX8XwXeXwX7X8X8XwXwXwXwXwXwXwXOX2.L & A K K / / / ( ( ) ( ) ( / / _ ) ( / d X.e.f.C.C.!.U.L.C.e._ A ) ) ) ) ) ( ) ) ) ) ( ) / / / ( ( s ( ( / / / / ( ( / ( / / / / / / / / / / s / / ( / / / / / ( / s / / / / / / / ( / ( / / / ( / V s ( =.g.k.<X<X<X#Xa =                                                                                                                                                                                                     ",
"# t.<X<X1X7X1X7XqXqX5X-X;XqXqX7X8X3X8X8X8X8X8X8X8XwX8X8X8XwX8X8XwXwXeXwX3XwX3XwXwXwXwX6XwX3XXX2.L & V V V K ( ( ( ( / K ) / / ) ( ( ( ( d _ -.f.f.f.C.L.f.f.O.) K ( ( A K / / K ( / ( V ) / / / / / s _ ( / ( / / / ( / ( ( ( ( _ / ( ( / / ( / ( / / / / ( ( / / / / / / ( s / / / ( / _ / / ( / / / s L <.g.k.<X:X<X|.a =                                                                                                                                                                                                     ",
"# 7.@X<X1X1X7X1X*X%XL.-.X.U.-X;X8X3X8X8X8XwXwX8X8X8XwX8XeXwX7X8X0XwXwXeX6XwX7X8XwXwXeXeX8XrX+X6.K * i a V V ( / K K K ( / / ) / ( / / ( d A X.O.O.e.O.e.1.-.| ` K ( ( K V s A K / V A K / / K / / / s ( ( / / / / ( / ( / ( ( ( / ( / / / / / _ / / / / ( ( V / / ( / / / / / / / / / _ / / / _ ( / / V ( 5.g.k.:X<X,X(.i =                                                                                                                                                                                                     ",
"= 2.@X2X1X<X1X1X<XP.X.` 2.e.!.7X8X8X8X8X8XwX8XwXeXwXwXwX8X8X7X3X3XwXwXwX8X8XwXwXwX5XwXeXeXrX@X7.K $ ( / A K / s / / / / / / ) ) / / / ) 6 t s s / K A V s s a s / / / ( ( ( / ( ( / ) ( ( ( ) _ _ s s _ ( ( ( / ( / / _ _ ( / _ ( / / ( / / / / / ( / / _ / / / / ( / / / / / / / V / _ ( / / ( ) / / s V =.t.Z.<X<X3X).p =                                                                                                                                                                                                     ",
"# 2.@X1X<X<X<X1X;Xf.X.| | a.z.7X7X8X8XwXwXwXwX8XeXwXwXwXwXeX7X7XwXwX8XwX8X8X7XwX3XwXeXeXrXeX#X2.V & s .                                                                                       X s ( s _ ( ( ( ( ( / / / ( / ( / / / ( ( ( ( ( ( ( ( ( / V / / / / / _ / / / / / ( _ / ( / / ( / / / / s K &.8.D.1X<X3X).i o                                                                                                                                                                                                     ",
"# 6.@X1X,X*X:X:X=XL.X.e.1.) f.;X8XwX8XwXwX8X8XeX8XwXwXwXeXeXwXeXwXwXeXwX8X7X3XwXwXrXrXeXeXrX$X6.N & s # . . . . . . . . . . . . . . . . = $ & & & f , , & & & * . . . . . . . . . o . . . . . . d ( s _ ( / ( _ _ ( / _ _ / _ / / ( / / ( / / ( ( s A / V ( / ( / / / / / / / / ( / ( / / ( / ( ( / V V L %.9.T.3X<X6X).i #                                                                                                                                                                                                     ",
"= e.#X2X*X*X,X@X-XP.` -.` K C.2X8X8XwX8X8XwXwX8X9XwXwXwX8XwX7X7XwX8XwXwXwXeXrXeXeXeXeXeXeXeX+Xy.K & / s a a V V V V V V s V V a V s s V 8 a / ( P _ ) ` ) ( K a V K s s a s V s V V V V s K s s ( ( / / ( / _ ( ( ( / ( / ( ( ( ( / ( ( ( ( _ _ ( / / / ( ( / / / / / / / / _ / / ( ( / / / ( _ / / K V ) &.8.I.3X1X3X`.i .                                                                                                                                                                                                     ",
"# 4.+X,X*X*X,X@X2X!.| X.X.) U.7X7X8X8X9X8X8X8XeXeXwX8X8XeXeX7X7X6X0XwXwX8XeXrXeXeX8XwXwXwXwX#X6.K & ) ) ) ) ) ` _ _ ) ) _ ` _ _ X._ _ [ w w i i t t t p i i t p ) _ ) _ _ _ _ [ _ _ ` ) _ _ ) _ _ ( / ( / ( _ _ _ / ( / ( _ _ / / / / ( ( / _ _ ( ( _ _ / / / ( / _ / / _ / s / / / / / ( _ ( ( ( / / V ' *.8.D.3X1X1X(.i =                                                                                                                                                                                                     ",
"# 1.*X<X<X:X*X@X*X.X1.e.-.X.%X7X8X8XwX9XeXwXeX8X7XwXeXeXwX8X7XeXwX8XeXwX7XeXeXwXwXwXwXeXwXrXOX2.) & / V / ( / / / ( / ( _ _ ) _ _ ) ) | i 8 i t t t t t t t t t ) ) _ _ _ ) ) ( ( ( ) ( ( ( / ) _ ( s _ _ / / / ( _ ( _ _ / ( / _ / / _ _ / ( / _ / ( / / / _ ( / / / / / / _ / ( ( ( ( ( ( _ ( ( / / s ' =.8.D.1X1X<X(.p .                                                                                                                                                                                                     ",
"= -.$X3X<X<X$X$X=X-X%XY.U.%X;X,X8XwX7XeXwXeXeX7XeXeX7XeX8XeXeXwXwXwXrXeXwXeXeXeXeXwXwXeXwXeX|.2.' ; ) / / / ) _ / / ) _ ) / ) ) ) X.` | i w t t t p t p t t i p ) ) _ _ ) _ _ ) _ ) ( ) ) ) / ) _ _ s _ _ / _ ( _ ( _ ( _ _ ( / / / _ / / / _ / / ( / _ ( / / / / / _ / _ / / _ _ ( _ ( _ / _ ( ( / / s ) 5.8.D.3X1X1X).i #                                                                                                                                                                                                     ",
"# *.$X<X<X<X<X,X*X@X$X,X,X2X$X1X7X7X0X7X7XeX8XeX7XeXeXeX7X8X8XeXeXwXeXeXwXeXwXeXwXwXwXeXeXrX`.7.[ 4 ) ( ) ) ) ) _ _ _ ) _ _ ) ) ) _ _ X.p e p t t p t t t p t i _ _ [ [ ) _ _ ) ) _ _ _ _ _ ) ) ( ( s _ ( ( _ ( / ( _ / / / _ _ _ / ( / ( _ / ( _ / / / / _ / _ / / / / s _ / s A ( A / / / ( / / A / V ( 6.8.F.<X<X<XW.t .                                                                                                                                                                                                     ",
"# *.OX<X<X<X<X1X1X<X3X8X6X3X3X0X3X3X0X7X7X8XwX0XwXwXwXwXwXeXwXeXeXeXwXwXeXrXeXwXeXwXwXwXwXeX(.2.[ 4 ) / ) ) ) ) _ _ _ _ _ _ _ [ _ ) _ X.a t t p t p t t y t i p ` ` ` _ ) _ | _ _ _ _ _ ) ) _ _ _ ) V _ ) _ _ ) ) / ( ( ( ( _ ( / / ) _ / _ / ( _ / / / ( ( ( ( ( / / / / / / / / / _ / / / / / / V ( / / 6.g.k.1X,X<X~.i o                                                                                                                                                                                                     ",
"# | oX,X2X1X<X<X<X,X0X3X2X1X3X3X2X3X3X2X7X7X7X7XwXeXwXeXwXwX8XwXeXeXrXwXwXwXeXrXeXwX7XeXwXwX`.2.' 4 _ / ` ) _ _ _ _ ) [ [ _ _ _ | _ _ | a t i t t t p t i i y i ` { { _ _ _ _ _ _ ) ) _ ) _ ) _ _ ) ( [ _ _ ) _ ( / / _ _ ( _ _ / _ ( / ( ) _ / _ / / / _ ` ( _ _ / _ ( / / / _ / / / / / / / _ / / / V / 6.9.D.2X<X,X~.i .                                                                                                                                                                                                     ",
"$ | oX1X3X3X1X1X1X3X8X3X3X3X1X4X3X3X3X3X3X7X7X7X8XwXeXeXwXtXwXwXeXeXwXwXwXwXeXeXwXwXwX0X7X7X|.4.[ 5 / ) _ _ _ _ _ _ [ ) _ _ _ _ [ ) [ | a w t t i i t p t i w a [ [ _ | _ ) _ _ _ ) [ _ [ _ _ _ _ _ / _ ) / _ ( _ _ ) _ ( _ / / _ / ( ( ( / ( / ` ( _ _ ( ( _ ( / ( / / / / / / / / / / / / _ / / / V V V 5.6.x.1X1X,X`.t =                                                                                                                                                                                                     ",
"# | OX1X1X3X3X3X5X8X8X6X3X3X7X3X3X3XwX3X7X3X7X0X3XwXeXwXeXeXeXwXwXwXwX8XwXwXwXwXeX8XwX7X7XwX+X7.) 9 ) ( _ _ [ [ _ _ _ _ ) _ ) _ _ _ ) | s t i t y i t t i e i i _ _ ) [ ) ` ( _ _ _ [ _ _ _ _ ` [ _ V _ _ ) _ ( ( _ / ) ( _ _ ( _ / _ _ _ / _ / _ _ ( ) _ _ ( ( _ / _ / _ / / / / _ / / / _ / / / / / V s -.t.D.1X2X2X`.w =                                                                                                                                                                                                     ",
"# [ @X3X8X3X8XwXwX7XwX0X7X7XwX8X8XwX6X3X8X5X6X6X7X8XeXeXeXeXeXwXwXwXwXwXwXeX8X3XwXwXwXeX0XeX,X6.( 0 ) ) ( ) _ ) _ _ _ ) ) [ _ [ [ ` ) | A t y i y t p e i e w i ) _ [ _ ` | _ _ _ X._ ) _ _ _ [ _ ) / [ ) ) _ _ _ _ / ) _ ) _ _ _ ( _ _ ( ( ( ) ) ( ( / _ _ ( _ _ / ( ( ( _ _ / / / / / / / / / / / V A V =.9.D.6X2X6X`.i =                                                                                                                                                                                                     ",
"#  .5X6XwXwX0X1X3XwX1X3X7X0X7XeX5X3X2X,X3XeX4X2X1X7X3XeX6XeXwXwXwXeXwX3XwXwXwX3XeXeXeXeXwXeX*X1.' d ) / ) _ _ [ _ _ [ [ [ [ _ [ _ ' | ` a t i i i i i a i i e t _ _ _ ) ' | _ | _ X._ ) _ _ _ [ _ ( / X.) ( _ _ _ _ _ / ( _ _ ( / _ _ _ ) ) ( ( ( _ ) ( _ _ ( _ ( _ / _ _ _ / / / / / / _ A / / / V / / s &.6.D.3X1X3XXXi o                                                                                                                                                                                                     ",
"=  .6XwX8X8X^.I.`.1XOX+XOX,X$XwX~.,XI.x.^.2Xx.x.P.OX&XwX X5X*X+X=XwXXXI.T.yXwX3XwXrX7X0X7X7X+X1.) i ) ( ) ) _ _ ) _ X.[ _ [ _ _ ) _ | | a y t t y t t t e e w e _ ) _ _ _ _ [ [ _ [ [ _ [ _ _ | X._ A ) _ _ _ _ / _ _ _ _ ( ) _ ( / ) ) _ _ ) ) ) _ _ / _ _ _ _ _ _ _ ( _ _ / / _ _ / / / / / / V / / K s %.6.F.6X1XwXOXi .                                                                                                                                                                                                     ",
"# [ uX3XwX,X).yX2X2X<XeXeX7X*X+X,X5X`.tX).`.XXaXrX<X#XOX3X3X1XeX,X<XwXeXW.8XwX5XwXeX0X0X7X3X+X=./ p ) ( ( ) _ _ _ X._ ) _ [ [ _ _ ` _ [ A a a i i i a t i i i A ) _ _ _ _ [ _ _ _ [ _ _ _ _ _ _ _ ( A ) ) _ ) _ _ _ ( _ ( ) / _ _ ) ) ) ) ` _ ) _ ) _ _ ( _ ) _ _ ( / _ _ _ / _ _ _ / / / / / / / / / K a  .9.F.3X1X6X+Xw =                                                                                                                                                                                                     ",
"# [ wX8XeX<X(.wXwX0X*X2X2XwXOX`.<X3X_.`.P.*XI.`.*X2X^._.2X7X7XwX,XwX<X`.(.wX2X3XeXeX3X2X2X1X+X1.s w ) ` _ _ ` | X.X.X.| [ [ [ [ | [ [ [ | X.X.X.| X.| X.| X.X.X.X.[ _ [ X.| | X.| | | [ | X.X.| [ _ / _ _ [ | X._ [ _ _ _ [ [ [ _ _ | X._ ) [ [ X.[ X.[ X._ _ _ _ _ [ [ ) [ _ [ / / _ / _ _ / / / / ( / V | 9.D.8X3X8XoXw o                                                                                                                                                                                                     ",
"= ] wX3XwX,X`.rXwX3X,X2X3XeX@X,X+X*X(.|._.@XI.`.@X2X_.*X*X2X2XwX2X2X*X+X<XwX8XwXwXeX0X3X4X1X+X,.a 4 p a a V a a s a s s s s s A s A s s a a a a s a s a A a V V s a s A s s A s V s a A H A A K A s i s s s V A V A V V s s s s K A s s A s s V s s V / s / s s K V V V s V V V d s s / s d s s s a s p i ] <.~.8X<X8XoXw =                                                                                                                                                                                                     ",
"= ' 8X8XwX<XE.9X,X2X2XrXeX5X,XyX`.XX|.eXP.`.OXfXyX,X+XtXOX*X1XwX<X&X*XeX^.5XwXeXeXeXwX5X2X0X@X-.s , 5 5 5 7 5 6 8 7 8 8 6 6 8 5 6 7 5 5 7 5 5 5 9 6 6 9 6 9 5 5 9 9 8 5 7 6 6 6 6 7 6 8 8 w 8 8 w 8 8 8 6 6 8 8 d d 8 d d 8 8 8 w w w 8 8 8 8 w d w w 8 d 8 w i d i w d d w d d d d d s d d d d i w 8 6 4 ' q.D.3X<X8XoX8 =                                                                                                                                                                                                     ",
"+ ( wX8X8XeX(.P.OX3XOX@X#X2X`.W.(.2Xx.d.P.,Xa.l.B.|.d.P.+X*X*XeX&X3X_.F.|.7X0X8X0XrXwX3XwXrX<X*.a , 7 9 6 0 8 8 8 8 8 8 8 8 8 8 8 8 6 8 8 8 8 w 6 6 6 8 8 6 8 8 8 8 8 8 8 8 w 8 8 w d w t d d w w 8 8 8 8 8 w 8 d i w w w w d d d w w 8 i 8 8 d i d d i 8 t d i w d i d i i 8 i d s d d d s d d d 8 d 7 4 ' 5.F.8X3XwX|.6 #                                                                                                                                                                                                     ",
"+ ( 3XwX8XeX8X<X0XeX0X3X5XwX3X2X1X7X*X&X2XwX1X4X2XwX2X2X7X7X7X7X6XtXwX<XwX1X3X7X8XeXyXeXrXdX@X1.p & 9 5 5 5 7 7 6 6 8 8 8 6 8 8 8 6 8 6 0 6 6 9 7 7 6 6 6 9 6 9 5 5 8 8 8 6 6 8 8 8 6 w 8 w 8 8 w 8 7 d 8 8 8 8 8 8 w w 8 d 8 8 8 8 w 8 8 8 8 8 0 8 8 8 8 8 8 8 d 8 d w w w 8 8 d 8 8 w d d C d 0 8 6 6 6 V q.T.3X1X9X).6 =                                                                                                                                                                                                     ",
"# V <XwXwX8XwXeXwXeXeXeXeXwXwXwX7X3X3X0X0X1XeXrXrXrXrXrXrXwXeX7XeXwX8XwX3X0X0XwX7XyXrXrXyXyX,X*.p = f f 9 4 < 4 5 7 4 4 9 9 4 4 9 4 9 4 4 9 5 < 5 4 9 9 5 5 5 5 4 5 5 5 5 5 9 4 5 9 5 5 4 9 5 5 9 4 4 6 5 6 8 8 7 6 6 6 6 6 6 5 9 6 6 8 8 8 8 8 8 8 8 8 8 8 8 8 8 6 8 8 6 8 8 6 8 8 5 6 d d 9 9 6 6 9 4 4 N %.~.3X<X3X(.5 =                                                                                                                                                                                                     ",
"# N 1XwXwXwXwXwXwXwXwXwXeX6X1X3X<X2X3X0X7X2XwXwXwXwXeXrXrXeXtX7XeXwX5X5X0X0XwXeXwXwXrXyXyXyX7Xr.N 0 < < < < 5 , < < 5 < 1 1 1 , < , < 1 , , 1 , - , - ; - - ; & ; & % % % - - - % - - & - - & % & & , , 5 , , 5 4 4 4 , ; 4 4 4 5 < < < 4 5 5 , 5 4 4 4 5 < , < 5 ; 4 4 4 4 6 : 5 4 5 4 5 4 9 9 4 4 ; 4 ; q v (.8X1X8X^.5 =                                                                                                                                                                                                     ",
"+ V 1X8X8X7XwXeXwXwXwXeXwX3X5X3X2X3X0X3X3X8XrXeXrXeXeXeXrXrXwX0XeX6X2X3X3X0XeXeXwXwXrXyXyXiXiX7XH.b.p.h.h.p.i.0.0.8.9.8.6.7.7.8.0.0.0.0.g.p.g.k.h.b.h.h.g.g.g.8.0.p.8.h.0.0.0.8.9.5.4.0.9.0.0.9.5.:.%.<.<.&.&.&.=.&.=.&.&.%.%.#.%.$.%.%.:.:.&.@.$.@.%.$.+.$.$.$.#.$.+.+. .+.+.] ] ;.] ' ;.[ ;.;. .+.+.+.] +.5.,X8X1X3X^.f #                                                                                                                                                                                                     ",
"= i 8X6X0X3XwXwXwXwXwXwX7X7XwX7X*X7X<X7X*X8XeXeXwXtXeXeXtXtX7X7XeXeX3X3X3XwXwXwX0XwXeXiXiXiXaXyXfXaXiXiXfXfXrXrXuXeX*X2X5X*X,X0XwX0XwXwXwXtXyXiXaXjXaXpXaXaXyXeXiXyXeXiXyXiXeX7X3X-X<X<X-X$X<X-X$X$X*X*X=X<X*X*X*X,X*X+X$X*X$XOXOXOX@X@X*X*X*X@X@X,X2X*X*X@X@X*X:X&X#X#X+X@X+XOX`.XX|.`.|.OX+X+XXX+XXXOX#X*X,X3X3X3X8XW.; +                                                                                                                                                                                                     ",
"# 4 |.wXwX7X3X8X7X8X7XwX7X8X7X7X7X7X7X7X7X7X9XwX7X7XeX7XeX9X7X0XwXeX0X0X7X7X0XwX0X1X7XiXtXiXtXyXiXyXyXyXyXyXyXyXiXyX3XeXyXwX0XyXiXiXaXaXaXiXiXwXtXtXaXiXiXyXiXyXiXyXeXyXeXyXyXiXyXeXyXwX9X7XeX7X1X7XrXyXtX8XyXwXeXrXeX7X7XwXeX7X2X1X7X0X7X7X7X2XwXwXwXwXwXwX8X8XwX6X8X8XwX3XwX3X,X1X1X,X<X8X7X3X8X3X3X3X3X1X1X3X7X3X8XR.# #                                                                                                                                                                                                     ",
"* # K 3XrXwXwXrXiXyXeX9X9X7X7X$X$X7X$X7X7X7X0XeX7X<X2X<X2X0X*X*X1X0X0X0X2X4X0X0X7XwXeXtXtXeXyXiXrXyXfXjXaXyXaXeXwX3X*X4X2X3X0X0X7X0X0XeXwXwXiXyXaXiXiXyXrXyXwXeXyXeXyXeXyXyXrXeX7X7XeXwX7X7XeXwX*X*X4X3X1X*X2X2X*X2X7X*X-X2X7X1X2X*X$X*X1X*X=X2XwX0X0X3X3X5X3X8X5X3X6X5X3X3X3X<X*X2X<X<X<X3X3X1X3X1X<X1X3X<X<X1X1X<X<X_ # #                                                                                                                                                                                                     ",
"$ * * w K ' ( ) P [ [ [ | | | | | | | | | | X.....X.o.o.,.,.1.1.2.3.r.i.u.r.r.a.w.u.d.i.s.d.m.m.m.B.P.Y.P.P.D.L.m.m.z.z.m.V.V.F.B.S.G.W./.W._.|..X|.|.Q._.|._. X.X/.[..X#X.X.X[.].].[.$X-X$X.X[.Q./.(./._././././.Q.Q.^.].].Q.Q./.W./.(.}.(.^.}.|.+X|._.(.`.(.`.`.`.`.`.|.`.(.).T./.(.(.(.`.(.XX|.`.XX(.XX+X@XOX@X|.*.* * #                                                                                                                                                                                                     ",
"$ * * o # # = # + = * = # # * * * % * % % % % * $ & & & % & % f & & ; f & 4 f ; , f , 4 f 4 4 4 4 4 5 4 5 6 6 5 6 5 5 6 8 8 8 9 6 8 w 6 8 0 8 8 e 8 8 8 t 8 8 8 d t d t e d t t d e e d A e 7 e w 8 w d 8 w 8 w 8 8 8 w w 8 8 6 8 8 8 7 8 6 5 8 8 6 8 6 5 9 5 4 6 4 9 4 5 4 4 4 4 4 4 4 4 , 4 4 4 5 4 4 4 4 5 4 4 , $ $ & #                                                                                                                                                                                                     ",
"* * * & $ & & * * & & & & & % * % & & & f & f & f f & f f f f f ; f f 4 4 , f f 4 f & 4 4 4 4 4 4 4 4 4 4 4 4 4 5 5 5 5 5 5 5 4 5 9 9 5 7 7 7 6 6 9 5 5 7 8 6 8 7 < < 7 7 7 7 7 7 7 7 7 1 7 7 < 6 9 6 6 9 5 5 6 7 6 4 4 6 4 4 5 4 4 4 4 4 4 4 f f , f ; , , f , f f & f & ; ; f & & & & & & & & * & $ * $ * * $ * * & & & #                                                                                                                                                                                                     ",
"4 4 4 4 4 4 4 4 5 4 5 7 9 4 5 5 9 9 5 4 7 5 9 5 6 6 6 7 7 6 6 6 8 8 8 8 8 8 8 t 8 8 8 8 w 8 8 w 8 8 w d d d w w 8 d w d w w 8 w t w t t w d w t t w w t t w i 8 t d d t d e d d d e e d d d e d 8 d w 8 w 8 8 8 8 w 8 8 8 8 6 d 8 8 6 6 8 6 8 5 9 6 6 6 6 9 6 9 5 5 4 6 6 4 6 4 4 4 5 4 4 4 4 4 4 4 4 4 4 4 4 4 f 4 4 4 f 4 .                                                                                                                                                                                                   ",
"4 4 4 4 4 4 4 4 4 5 4 4 5 4 4 5 5 4 5 5 5 5 5 7 7 6 6 6 6 8 d 6 5 5 8 8 8 8 8 8 8 8 8 8 8 8 8 8 8 w w 8 w w w w 8 w w d w i w d d w w d w w w w 8 i i d d w w w t t e d e e d e d d d e e d d e w w w d 8 w 8 d w w 8 8 8 8 8 8 8 8 6 8 6 8 8 8 8 6 8 6 9 6 9 8 6 6 6 6 5 4 9 6 5 5 4 5 5 4 5 4 4 4 4 4 , 4 4 , 4 4 & & f f .                                                                                                                                                                                                   ",
"4 f 4 4 4 9 4 5 5 9 4 4 5 5 5 5 5 7 5 5 5 9 6 5 6 8 8 7 6 6 d 8 8 8 8 8 8 8 8 8 8 8 8 8 8 w w 8 w d 8 8 d 8 w t d w 8 t 8 t w w e w w w w d 8 d w 6 e e w e t t d d e d 8 w w w n n n n e e n e 8 6 8 8 8 8 8 6 6 7 6 8 7 6 6 5 5 4 4 6 5 5 5 9 5 4 4 4 4 4 4 5 4 4 4 4 4 f 4 f , f f f f f f f & f & & f f % f & & f f f 4 X                                                                                                                                                                                                   ",
"; 4 4 4 4 4 f 4 4 4 4 4 4 < 4 4 4 5 5 5 5 4 5 9 7 6 5 6 5 d 6 6 8 8 8 t t w i d t i i i i i i p p p p a a a a a s V a a s s s s A A A L ` L L K ` L ` A ` A A A H ` P ` ` P P ` U W ` ` ` ` ` ` [ X.[ [ | | | | ......X.O.O.O.X.X.O.O.X.| O.X.o.o.,.1.1.1.1.o.o.O.*.*.O.o.,.1.1.1.-.1.2.4.3.2.w.w.r.w.u.r.w.r.2.,.{ 7 f , f .                                                                                                                                                                                                   ",
"4 8 X.2.r.a.d.d.a.d.s.d.d.a.d.d.f.d.d.d.f.d.d.d.d.d.d.d.p.u.a.u.s.h.d.d.z.d.d.j.b.d.m.b.m.m.b.b.z.m.b.M.N.N.N.N.N.M.M.M.z.m.m.V.N.N.N.S.N.N.G.N.N.N.N.S.N.N.V.V.N.G.G.G.N.G.V.N.N.N.G.N.G.N.G.G.S.S.D.P.G.G.G.G.G.G.G.V.G.Y.G.G.S.G.I.D.G.S.S.G.Y.T.Y.R.G.G.T.G.T.T.W.T.W.T.W.Y.E.Y.E.R.R.Q.Q.Q.R././././././.Q.G.p.y f f 4 .                                                                                                                                                                                                   ",
"& i B.I.Y.Q.Q.Q.Q.R.R.R.^.^.Q.Q.R.R.T.W.T.T.T.R.T./.Q.R.^.G.R.T.W.^.R.R.R.R.T.R.G.T.G.H.T.Q.T.G.T.T.R.R.Q.Q.^.].R.Y.R.H.G.Y.T.R.R.^.^.^.^.^.^.^.^.^.].K./.H./.H.H.H.H.H.H.^.^.H.R.^.^.R.^.R.R.G.H.H.E.Y.H.H.R.H.R.T.T.T.G.R.^.R.R.W.Y.P.G.Y.G.G.G.G.T.Y.G.G.T.R.T.T.W.T.T.Y.G.E.E.U.P.G.G.H.H.T.T.T.T.T.R.H.G.R.G.b.a f , f .                                                                                                                                                                                                   ",
"4 i V.Y.Y.T.T.Y.T.T.T.R.T.R.T.G.G.G.Y.Y.Y.T.T.Y.Y.T.R.R.T.H.T.T.T.T.H.R.W.G.H.H.G.G.H.S.G.T.T.G.G.T.T.R.H.R.H.R.H.G.H.G.G.S.G.G.G.H.^.R.H.^.^.H.H.H.H./.^.H.H.^.R.H.H.R.H.G.H.^.R.R.R.R.G.R.G.G.H.H.R.R.H.R.^.R.R.T.T.Q.T.T.R.G.R.Y.H.Y.T.T.G.H.G.G.T.H.G.T.R.H.T.T.T.T.T.G.Y.U.Y.E.U.G.G.G.G.T.T.T.H.^.H.^.^.H.G.b.v f 4 4 .                                                                                                                                                                                                   ",
"; i P.Y.T.R.Y.T.Y.T.H.R.R.H.T.T.G.Y.T.G.Y.T.T.T.W.R.H.R.T.R.T.T.T.T.R.T.Y.T.H.T.T.G.H.G.G.H.T.H.T.R.R.T.R.H.^.H.T.G.T.T.H.G.S.G.G.R.R.H.^./.H.^.H././.H.H.^./.H.H.R.R.H.H.^.^.H.R.R.R.G.R.G.R.R.H.R.H.R.H.T.H.^.R.T.Q.T.T.T.^.G.R.R.Y.H.T.H.G.G.G.G.H.T.G.T.T.R.T.T.T.T.R.T.Y.Y.Y.Y.Y.P.Y.Y.G.T.R.T.H.R.^.H.H.H.S.b.A f , f .                                                                                                                                                                                                   ",
"f a P.R.R.T.T.T.T.R.R.R.R.^.H.R.T.Y.Y.G.G.R.R.R.T.R.T.R.^.H.R.R.R.R.R.T.T.T.H.T.T.G.G.G.G.T.T.G.H.R.H.R.H.R.H.R.T.H.G.H.H.H.G.H.G.H.G.R./.R.K.^.H./.H.H.H.^.^.H.^.H.^.H.H.H.^.H.R.G.R.R.G.N.R.H.Y.R.R.R.R.R.H.H.R.T.R.R.Q.T.R.^.H.Y.Y.T.T.H.T.S.G.G.T.R.G.G.T.R.T.H.T.T.T.T.Y.Y.Y.Y.E.Y.Y.Y.T.T.H.R.R.R.H.^.H.G.S.b.H % f 4 .   X                                                                                                                                                                                               ",
"& a V.Y.R.W.Y.T.T.R.R.T.R.H.^.G.G.Y.T.G.Y.T.T.T.T.R.R.T.T.R.R.T.R.T.T.T.G.G.H.G.T.G.G.G.G.T.T.G.H.R.H.R.R.R.H.R.T.T.H.G.H.H.G.G.R.G.R.Q./.H.H./.H.H.H./.H.^.H.^.H.^.H.H.^.^.H.^.R.G.R.R.R.R.H.H.H.T.H.R.R.R.R.R.T.^.T.R.R.T.R.T.R.Y.H.Y.G.G.G.H.G.G.T.H.G.G.T.T.T.T.T.G.T.R.E.Y.E.Y.Y.Y.E.Y.T.Y.T.H.H.R.H.H.H.^.S.b.H f 4 4 .                                                                                                                                                                                                   ",
"f d Y.G.].G.G.G.^.^.G.^.^.G.].H.G.G.Q.G.G.G.^.^.^.^.^.G.H.^.H.G.W.R.R.H.H.G.H.H.G.G.G.G.R.H.G.G.G.R.H.H.^.G.G.^.^.G.G.G.G.G.T.G.^.H.^.^.R.H.^.H.H.R.R.R.R.R.H.R.R.H.R.H.H.H.^.^.R.H.^.H.^.H.R.R.H.H.H.R.R.R.R.H.G.R.R.R.R.R.R.R.R.G.N.G.G.G.G.N.R.R.R.H.H.H.R.R.G.T.G.G.G.Q.Q.Y.Y.Y.Y.Y.G.R.G.R.G.^.^.H.H.H.R.H.H.b.H f 4 4 .                                                                                                                                                                                                   ",
"f A G.Y.G.G.].].H.G.^.^.H.^.G.^.Q.^.G.G.G.^.G.G.G.G.^.^.].G.].].R.H.R.R.H.G.T.H.G.G.H.R.G.R.R.G.H.H.G.H.H.H.G.H.H.G.R.G.R.R.T.R.^.H.H.^.R.R.H.^.^.H.R.H.H.R.R.H.H.R.H.^.^.^.^.H.^.H.H.^.H.^.H.R.H.H.R.R.R.R.R.R.R.R.R.R.R.G.R.R.R.R.R.R.G.G.G.G.N.N.H.R.R.R.N.N.G.Y.Y.Y.Y.Y.Y.Y.Q.Y.Y.R.R.G.R.G.G.H.H.^.^.R.T.H.S.b.K & f f .                                                                                                                                                                                                   ",
"f A Y.Y.H.].G.G.^.G.^.G.^.H.^.G.G.H.G.G.G.^.G.^.^.^.G.^.G.].^.H.R.R.H.H.R.T.G.T.G.G.G.^.G.H.^.R.G.G.G.G.G.H.^.H.H.G.R.R.R.G.G.R.H.^.H.^.R.H.R.H.^.H.H.R.H.H.^.H.R.H.^.^.^.H.^.H.H.^.R.H.^.R.H.H.R.R.H.R.H.R.R.R.R.R.R.R.R.G.R.G.G.^.R.N.R.G.G.R.R.H.R.H.R.N.H.H.G.G.G.Y.Y.R.Y.Y.Y.Y.R.Y.G.R.R.R.R.G.H.^.H.^.^.^.H.j.K & 4 5 .                                                                                                                                                                                                   ",
"f n Y.Q.G.G./.G.H.^.^.G.^.^.G.].G.^.Q.Q.G.^.^.^.^.G.Q.G.].G.H.].H.R.^.R.T.G.G.R.R.H.H.G.H.^.R.H.H.G.G.G.G.G.G.H.^.R.H.R.G.R.G.R.^.H.^.H.R.R.R.R.R.H.H.H.R.^.H.R.H.^.R.H.H.^.H.^.R.^.H.R.R.R.R.R.R.R.R.R.R.R.H.R.R.R.R.R.R.R.R.R.R.R.G.G.R.R.G.H.N.R.R.R.R.R.H.R.G.N.Y.Y.Y.R.Q.Y.Y.Q.Y.R.R.G.R.G.^.H.H.R.^.H.H.^.H.b.K & f 5 .                                                                                                                                                                                                   ",
"f t N.G.].Q.G./.^.G.^.^.H.].G.H.].G.}.Y.Q.G.^.^.^.^.^.H.G./.G.H.H.R.R.T.H.T.T.T.H.G.R.G.H.^.^.H.H.H.G.S.N.G.H.^.R.T.R.H.^.H.R.T.^.H.^.^.^.H.^.^.R.R.R.H.H.^.H.R.^.^.H.^.^.H.^.^.R.R.H.R.R.H.R.R.R.R.R.R.R.R.R.R.H.R.R.R.R.R.R.G.G.G.R.R.H.H.H.G.R.R.R.R.R.H.H.H.N.N.Y.Y.R.R.Q.Q.Q.E.Y.Q.R.R.R.R.G.H.^.H.H.^.R.H.A.j.H f 4 4 X                                                                                                                                                                                                   ",
"f A G.G.G.G./.G.G.^.^.H.H./.].G.G.Q.Q.G.^.G.^.G.^.G.^.^./.]./.G.^.R.H.R.R.T.T.T.G.R.H.R.H.^.H.^.^.G.G.G.G.G.H.^.G.T.R.^.R.R.G.R.H.^.^.H.H.^.H.H.R.R.R.H.H.R.R.R.H.H.^.H.^.H.H.H.R.R.R.R.R.R.H.R.R.R.^.R.^.^.R.R.R.R.H.R.R.H.R.R.R.R.G.G.R.H.G.R.R.R.H.R.R.R.N.H.G.G.Y.Y.Y.Y.Y.Y.Y.Q.E.Q.G.R.R.G.^.G.H.^.R.R.H.^.G.b.K & f 4 .                                                                                                                                                                                                   ",
"f i N.G.H.].G.^.G.G.G.^./.H.G./.G.Q.G.Q.G.].G.Q.G.].^.G.G.H.G.].R.R.H.T.T.T.T.G.H.H.H.H./.H.^.H.H.G.G.G.G.H.H.H.^.G.T.G.R.R.R.R.^.H.^.H.^.^.H.^.H.R.H.R.R.R.H.R.^.H.^.^.^.H.^.H.R.R.R.R.R.H.R.H.R.R.R.R.R.R.R.R.R.R.R.R.R.R.R.H.G.R.R.R.H.H.R.H.R.H.R.H.R.H.R.N.G.T.G.R.Y.R.Q.Y.Q.Y.Y.Q.R.G.R.R.^.H.^.H.R.H.T.R.S.m.K ; f 5 .                                                                                                                                                                                                   ",
"f A V.G.G.G.^.G.].].G.G.H.G./.G.G.Q./.G.^.^.^.^.^.G.^.^.].H./.G.H.R.T.T.G.G.T.T.H.^.^.^.H.^.H.^.^.G.G.G.H.H.H.^.G.^.R.Y.R.G.R.R.^.H.^.^.^.H.^.H.R.R.^.H.H.R.R.H.H.H.H.^.^.^.^.H.H.R.H.R.H.R.H.R.R.R.R.R.H.R.R.H.R.R.H.R.R.H.R.R.R.G.R.G.R.H.R.H.R.R.H.R.R.R.H.H.G.G.Y.Y.R.Y.Y.Q.Y.R.Y.Q.R.G.R.R.H.^.H.^.R.H.R.T.S.b.H ; 4 5 .                                                                                                                                                                                                   ",
"f A V.G.G.G.^.^.G.G.G.G./.G.H./.Q.G.Q.Q.G.H.].G.Q.Q.Q.Q.Q.G.H./.^.R.H.H.H.^.H.H.^.^.H.R.G.G.^.^.H.G./.H.H.H.H.[.G.^.H.^.^.G.R.R.H.^.^.^.^.^.^.^.^.H.^.H.H.^.H.^.R.H.R.^.^.H.R.R.H.R.H.H.H.R.R.R.R.R.G.R.R.R.R.R.R.R.R.H.R.H.R.G.R.G.R.R.R.R.R.G.H.R.H.H.^.H.R.H.G.T.T.T.T.T.G.G.G.R.R.G.R.R.R.R.^.H.H./.H.H.H.].A.b.H ; , 9 o                                                                                                                                                                                                   ",
"f e V.V.G.G.R.G.Y.Y.G.G.G.G.G.H.G.]./.G.H.].].G./.G.G./.Q./.].G.H.R.R.R.H.H.^.^.^.H.R.G.^.H.^.H././.H.H.].H.H.H.H.G.^.H.H.^.^.G.^.^.^.H.^.H.H.^.H.^.^.^.^.H.^.H.R.H.H.R.R.N.N.H.N.H.H.H.R.R.R.R.R.G.R.R.R.R.R.R.R.R.R.R.R.H.R.R.^.G.G.R.R.G.R.R.H.H.R.^.^.^.H.^.R.G.T.G.R.T.G.T.R.R.G.R.G.R.R.R.H.^./.H.H.].H.H.G.b.K f , 5 o   X                                                                                                                                                                                               ",
"f u N.G.G.G.G.G.Y.Y.Y.Y.G.G.G.H.].G.]./.G.].G./.Q./.G.Q.G.G.Q.G.R.R.H.R.H.].H.^.H.^.R.G.G.^.Q.H.H./.H.H.H.H.[.H.^.^.H.H.^.H.G.^.^.H.^.^.^.H.^.^.^.^.^.H.H.^.H.^.H.H.H.R.H.H.H.N.N.H.H.R.H.R.R.R.R.R.R.R.R.H.R.R.R.R.R.R.H.R.R.H.R.R.R.R.R.R.R.R.H.H.H.R.R.R.H.H.R.G.T.T.T.T.R.R.R.G.R.R.G.R.R.G./.H.^.H.H.H.H.[.A.b.H f 4 9 o                                                                                                                                                                                                   ",
"f A N.V.G.Y.G.T.G.G.Y.G.G.G.H.].G.].Q.G.H.G.].G.G.Q.].Q./.Q.G.Q.G.H.R.R.^.H.].H.^.^.H.^.^.H.^.R./.H.[.H.H.].H.H.^.H.^.^.^.^.G.R.H.^.^.^.H.^.^.H.^.H.^.H.H.^.^.H.R.H.^.R.^.H.^.H.H.H.R.R.R.R.H.R.R.R.R.R.R.R.R.H.H.R.R.H.R.H.H.R.R.R.R.R.R.R.R.R.R.R.R.R.R.R.^.R.R.R.R.T.R.R.T.R.R.R.R.G.R.R.R.R.H.^.H./.H.[.H.H.H.b.K f , 9 o                                                                                                                                                                                                   ",
"f i V.G.G.Y.R.T.G.G.].G.G.G.].H.G.].H./.].[.G.^.G./.Q.Q.^.G.G.Q.H.R.T.T.R.R.R.R.^.H./.H./.H.^.^.H.H.H.[.H.H.[.[.H.[.[.H.H.^.H.].^.^.^.^.^.H.^.H.H.^.H.^.^.H.^.H.R.R.R.R.R.H.R.R.R.H.R.R.R.R.R.R.R.R.R.R.R.H.R.R.R.H.R.G.R.R.R.R.H.R.H.R.R.R.R.R.H.R.R.R.H.^.^.H.G.R.R.R.R.R.G.R.G.R.R.R.R.R.R.R.^.^.^.H.[.[.H.H.G.b.H ; 4 5 o                                                                                                                                                                                                   ",
"f A V.Y.G.R.Q.Q.^.G.G.G.G.^.G.^.G.G./.G.G.G.H.G.Q.G.G.G.G.G.Q.^.R.G.T.T.R.R.R.^.H.^.H.H./.H.H.^.H.[.H.H.[.H.H.H.K.H.H.H.^.H.^.H.H.^.^.H.^.^.^.^.^.^.^.H.H.^.^.^.^.H.R.R.H.^.H.R.H.H.G.R.R.H.R.R.R.R.G.R.R.R.R.R.R.H.R.R.R.H.H.R.R.R.R.R.R.R.R.G.^.H.R.H.^.H.^.^.R.R.R.G.R.R.G.R.R.R.R.R.R.^.G.R.^.H.^.^.H.H.H.].H.n.K f , 9 =                                                                                                                                                                                                   ",
"f a V.Y.G.R.Y.R.H.].G.G.H.^.].G.].G.H././.G.].G.G.Q.G.^.^.G.^.H.H.G.T.T.R.R.H.H.^.^.H./.H.H./.^.H.[.[.H.[.H.H.[.[.H.H.[.H.].^.H.H.^.^.^.H.^.H.^.^.H.^.H.^.^.H.^.^.R.R.R.^.H.R.H.G.G.R.R.R.R.R.R.R.G.G.R.R.R.G.R.H.R.H.R.G.R.R.N.R.R.R.R.R.R.R.R.^.R.H.^.^.H.^.H.R.R.R.R.R.R.R.R.R.R.R.G.R.R.R.R.H.^.H.^.G.].].G.S.n.K 4 4 5 =                                                                                                                                                                                                   ",
"f p V.G.G.Q.Y.R.G.].G.G.G.G.H.G.].G.G./.G.G./.G.].G.G.G.G.Q.G.^.T.T.T.T.R.R.R.R.^.H./.H./.H.^.^.].H.H.[.H.H.].H.[.H.H.H.].H.H.].^.^.H.^.H.^.^.^.^.^.^.^.K.^.^.^.H.^.R.R.^.^.H.H.H.R.G.R.R.R.N.R.R.R.G.R.R.R.N.R.R.R.R.R.R.G.R.H.R.H.H.R.R.H.R.R.H.R.R.H.^.^.^.^.R.R.R.R.R.R.R.R.R.R.R.R.R.R.R.^.H.^.].H.^.H.].H.S.n.K & 4 5 o                                                                                                                                                                                                   ",
"4 a N.G.T.T.Y.Y.T.T.Y.G.G.G.Y.T.Y.R.Y.R.Y.Y.^.Y.Y.Y.G.R.^.G.^.G.H.H.H.H.^.H.H.R.R.R.R.R.R.R.K.R.H.].H.].H.].H.].H.^.^.H.^.H.^.^.H.^.R.R.R.R.^.H.^.H.^.^.H.^.^.^.R.R.G.R.R.R.R.G.R.G.G.R.R.R.R.R.R.R.G.G.G.R.R.G.R.R.R.R.H.R.R.N.H.^.^.R.H.^.^.^.R.R.R.R.^.R.H.H.R.R.R.R.R.H.R.R.R.R.R.R.R.R.R.R.H.].H.H./.H.H.^.G.b.J , 4 9 o                                                                                                                                                                                                   ",
"f a V.G.Y.Y.Y.T.T.T.Y.G.V.G.Y.T.R.Y.Y.Y.Y.Y.G.G.R.Y.G.G.G.^.G.^.R.R.H.R.R.^.R.^.R.R.R.R.R.^.^.R.].H.H.H.^.H.].H.].H.^.H.^.^.H.^.^.^.R.R.^.R.^.K.^.^.H.^.^.^.^.H.R.R.R.R.R.R.R.R.G.G.G.G.G.G.R.G.G.G.G.R.R.R.R.R.R.R.R.G.R.G.R.R.H.R.R.R.H.R.H.^.H.^.H.R.^.H.^.^.R.R.H.R.R.R.R.R.R.R.R.R.R.H.R.R.].H.H.].H./.].H.G.b.A , , 5 .                                                                                                                                                                                                   ",
"f t V.S.G.Y.G.Y.Y.Y.G.G.G.G.G.T.R.R.Y.Y.Y.G.G.G.G.Q.Q.Q.G.^.G.^.H.H.H.H.H.R.^.H.R.R.^.R.R.R.^.R.H.[.[.H.H.].H.].H.^.H.^.^.^.^.^.^.H.R.^.H.^.H.^.^.^.^.^.^.H.^.^.R.R.R.R.R.R.R.G.G.R.R.R.R.R.R.G.R.G.G.G.R.G.R.G.R.G.R.R.R.G.G.G.H.^.H.^.^.^.^.^.^.^.^.R.R.R.R.R.R.R.R.R.R.R.R.R.R.R.R.H.R.R.H.R.H.[.H.H./.H.].H.G.b.J f 4 9 +                                                                                                                                                                                                   ",
"f A V.V.G.G.G.Y.T.G.G.G.V.V.G.G.Y.Y.R.Y.G.G.Y.Y.G.G.Q.G.G.^.^.G.H.H.H.R.H.R.^.H.R.R.^.K.R.R.^.K.].H.H.].].H.^.H.^.^.^.^.^.^.H.^.^.H.^.^.^.^.^.^.^.H.^.^.^.^.H.^.G.R.R.G.R.R.G.R.R.G.G.G.G.R.R.G.R.R.G.R.R.G.R.R.R.R.R.R.R.R.G.R.^.H.R.^.^.H.H.^.^.H.^.R.R.R.R.R.H.R.R.R.R.R.H.R.H.^.R.R.H.^.H.R.H.H.[.[.H./.H.^.G.b.` f , 5 =                                                                                                                                                                                                   ",
"4 a N.V.G.G.V.Y.G.G.G.V.S.G.V.G.Y.R.Y.Y.Y.Y.Y.R.G./.Y.G.Q.G.G.^.R.H.R.R.H.H.^.^.R.^.R.R.R.R.^.^.H.].H./.^.H.H.].^.H.^.^.H.^.^.H.R.R.^.^.^.^.^.H.^.H.^.K.^.^.^.H.R.R.R.R.R.R.G.G.G.G.G.R.G.R.R.R.G.R.R.H.R.R.R.R.R.R.R.R.R.^.G.R.H.^.H.H.R.R.R.R.H.^.^.R.R.R.^.R.R.R.R.R.R.R.R.R.^.^.^.H.^.R.H.R.].H.H.H.H.^.^.H.N.N.P f f 6 o X                                                                                                                                                                                                 ",
"f p N.S.Y.V.G.G.Y.G.V.G.G.V.V.G.Y.Y.R.R.R.R.Y.Y.G.Q.Q.Q.Q./.Q.Q.H.H.H.H.R.H.^.^.K.^.R.R.R.R.R.R.].H./.H.H./.].H.^.^.^.H.^.^.^.^.H.^.R.R.H.H.^.^.^.^.^.^.^.H.H.^.R.R.R.R.R.R.R.R.R.G.G.G.R.G.R.R.R.R.R.R.R.R.G.R.G.R.R.R.R.N.G.R.^.H.^.^.R.R.R.R.^.^.R.R.^.H.R.^.R.R.R.H.^.H.R.R.H.H.^.^.R.R.H.R.H.H.].H.^.H.^.^.G.b.A f 1 7 o                                                                                                                                                                                                   ",
"f p N.V.Y.Y.G.Y.Y.G.V.G.G.L.G.Y.Y.Y.R.Y.Y.R.R.R.].Q.Q.Q.Q.G.].^.G.G.G.R.R.R.R.R.R.^.^.R.R.R.R.R.H.].H.]./.].H.].^.^.^.^.^.^.^.H.H.^.^.^.^.^.R.^.^.^.^.H.^.H.^.^.R.R.R.R.R.R.G.G.G.R.R.G.G.R.R.R.R.^.R.R.R.R.R.R.^.^.R.R.R.G.R.R.^.^.R.R.R.R.^.R.^.^.^.^.^.^.^.^.R.R.R.R.R.R.R.^.^.^.H.^.H.^.H.^.H.^.H./.^.H.^.H.N.b.U , f 7 + X X                                                                                                                                                                                               ",
"7 a N.G.G.Y.Y.G.G.V.V.G.G.Y.V.Y.Y.Y.R.R.Y.R.R.Y.G.}.G.Q.Q.Q.G.G.H.R.H.R.H.R.R.R.R.K.R.R.^.K.^.R.].H.].H./.H.].H.^.H.^.^.H.^.^.^.^.H.^.^.H.^.^.^.^.H.^.^.^.^.^.H.G.R.R.R.R.R.R.R.G.G.R.G.G.G.R.R.R.G.R.R.R.R.R.R.R.^.R.R.R.R.R.R.H.R.R.R.R.R.R.R.H.^.H.^.^.H.R.H.R.R.R.R.R.R.R.H.R.R.^.^.^.^.H.^.^.H.^.H.H./.H.^.G.b.J , 4 6 . X                                                                                                                                                                                                 ",
"f d N.G.G.G.G.V.V.G.V.G.G.V.G.G.Y.Y.R.R.Y.R.R.R.R.R.R.R.R.R.R.G.R.R.R.G.R.R.^.R.R.^.R.^.^.K.R.R.R.R.R.R.^.H.^.H.^.^.^.H.^.^.^.^.R.R.R.R.R.R.^.^.R.R.R.R.R.R.R.R.R.R.R.G.R.R.R.G.R.G.G.G.R.G.G.R.R.R.R.R.R.R.R.R.R.^.R.R.R.^.R.G.R.R.R.R.R.R.R.R.R.R.R.R.R.R.R.R.R.R.H.R.R.R.R.R.R.R.^.^.H.^.H.^.H.R.R.^.H.^.^.H.S.n.K 4 4 6 =                                                                                                                                                                                                   ",
"f A N.N.G.G.Y.Y.G.V.V.G.V.G.V.G.Y.Y.R.R.Y.Y.Q.R.R.R.R.R.R.R.R.R.R.R.^.H.G.^.R.R.R.R.R.^.R.R.^.R.^.R.R.R.^.^.^.^.^.^.^.^.^.^.^.H.R.R.R.R.R.R.R.R.R.R.R.R.R.R.G.R.R.R.R.R.G.G.G.R.G.G.R.G.G.R.R.R.R.R.R.R.R.R.R.R.R.R.R.R.G.^.^.^.H.R.R.R.R.R.R.R.R.R.R.R.R.R.R.R.R.H.R.R.R.R.R.R.R.R.H.^.^.^.^.H.^.H.R.H.H.R.^.H.A.j.K f 4 5 .                                                                                                                                                                                                   ",
"7 p C.G.G.G.G.G.V.V.G.V.Y.G.G.G.Y.Y.Y.R.Y.Y.R.R.G.R.R.R.R.R.R.G.H.R.H.H.R.R.R.R.R.^.K.^.^.R.^.R.H.^.R.R.R.K.^.^.H.^.^.H.H.^.^.^.^.^.H.^.R.R.R.^.R.R.R.G.R.R.G.R.R.R.R.R.G.R.R.G.G.R.G.G.R.R.G.R.R.R.R.R.R.R.R.R.R.R.R.^.^.G.R.R.R.R.R.R.R.R.R.^.R.R.R.R.G.R.R.R.R.H.R.R.R.R.R.R.R.^.^.^.^.H.H.^.H.^.R.^.^.^.H.^.A.b.L f 4 6 .                                                                                                                                                                                                   ",
"f p C.V.Y.Y.V.G.G.G.V.G.V.V.G.G.Y.Y.R.Y.R.R.R.R.R.R.R.R.R.R.R.G.R.R.^.^.R.R.R.R.R.^.^.^.^.R.R.R.R.R.^.R.^.^.^.^.^.^.^.^.^.^.^.^.H.^.^.^.R.R.^.R.R.R.R.R.R.R.R.R.G.G.G.R.G.G.G.G.G.G.R.R.R.R.R.R.R.R.R.R.R.R.R.R.R.R.^.^.^.R.^.R.R.R.R.R.R.R.^.R.^.^.^.R.R.G.G.R.G.R.R.H.R.R.R.R.R.H.H.^.^.^.H.^.R.R.H.H.H.^.^.H.H.n.K f 4 9 =                                                                                                                                                                                                   ",
", p N.N.V.Y.V.G.G.G.G.V.Y.V.Y.Y.Y.Y.Y.R.R.R.Y.R.R.R.R.R.^.R.R.R.R.R.R.R.H.R.R.R.R.^.^.^.^.^.^.^.H.R.R.H.^.^.^.^.^.H.^.^.^.^.H.^.H.^.^.H.R.^.R.H.R.R.R.R.R.R.R.G.R.G.R.G.R.G.G.G.G.R.R.G.G.R.R.^.R.R.R.R.R.R.R.^.^.^.R.^.^.^.^.^.R.R.R.R.R.^.R.R.^.H.^.R.R.N.G.G.G.G.R.^.R.R.^.R.R.R.R.R.H.R.H.H.T.T.R.R.H.R.R.R.S.n.L , 5 5 .                                                                                                                                                                                                   ",
"7 p N.V.G.G.V.G.Y.G.V.Y.Y.G.Y.Y.Y.R.Q.Q.R.Q.Q.Q.R.R.Q.Q.^.R.R.R.R.R.R.R.R.R.R.R.R.R.H.^.^.^.H.H.R.R.R.^.H.^.^.H.^.^.^.^.^.^.^.^.^.^.H.^.R.H.R.R.R.^.R.R.R.R.R.R.^.R.R.G.R.R.G.R.G.R.R.R.R.R.R.R.R.R.R.R.R.R.^.^.^.^.R.R.^.G.^.^.R.R.R.^.R.H.R.^.^.^.^.G.G.G.G.R.G.R.R.R.R.R.R.^.R.R.^.^.^.R.H.H.T.R.G.T.H.T.H.R.H.b.L f 4 5 =                                                                                                                                                                                                   ",
"f i N.V.G.G.G.G.G.G.Y.Y.G.G.Y.Q.E.Q.Q.Y.Y.R.Q.Y.Q.Q.Q.Q.^.R.R.R.R.R.R.R.R.R.R.R.R.^.^.^.^.H.H.^.H.R.R.R.^.^.^.^.^.^.H.^.^.^.H.^.^.H.H.R.H.^.R.R.R.R.R.R.R.^.^.^.R.R.R.R.R.R.R.G.R.R.R.R.R.^.R.R.R.R.R.R.R.R.^.^.^.^.R.R.R.R.^.^.^.R.R.R.^.^.R.^.^.^.^.N.N.R.G.G.G.G.G.R.^.R.^.^.^.R.^.^.R.R.H.H.T.T.T.T.G.T.H.R.H.n.K f 4 5 #                                                                                                                                                                                                   ",
"7 A N.G.Q.Y.Y.Y.G.G.G.Y.R.Y.Y.E.Q.Q.Q.Y.R.R.Y.Q.Q.Q.Q.Q.^.R.H.H.H.R.R.R.R.R.R.R.R.R.R.^.^.^.R.^.^.^.H.R.H.^.^.K.^.^.^.^.^.^.H.^.H.H.H.H.^.H.H.H.R.R.^.^.^.^.^.^.R.G.G.R.G.G.R.R.R.R.G.R.R.R.R.R.R.R.R.R.R.R.R.^.^.^.R.R.R.R.R.^.^.^.R.R.R.R.^.^.R.^.R.H.G.R.G.G.G.G.R.^.^.^.R.^.^.R.^.^.H.H.H.H.G.T.G.G.G.H.R.R.G.M.K , 4 8 .                                                                                                                                                                                                   ",
"f A N.V.G.T.T.T.Y.G.G.Q.E.Y.E.Y.Q.Q.G.E.Q.Q.Y.!.Q.Q.Q.R.Q.Q.G.R.G.R.R.R.R.^.R.R.R.^.^.R.R.R.R.R.R.R.R.R.R.R.R.R.R.R.^.R.R.R.R.H.H.H.H.H.R.G.R.G.^.^.R.^.R.^.^.R.R.R.Y.Y.R.Y.R.R.R.R.Y.R.Y.R.R.R.R.R.R.R.R.R.R.^.R.Q.^.R.R.Q.R.^.^.Q.^.R.R.R.^.R.R.R.R.G.R.G.G.G.G.G.R.R.T.Q.R.R.Q.Q.Q.Q.T.T.Y.G.Y.T.Y.G.G.T.R.R.H.n.L f 4 9 .                                                                                                                                                                                                   ",
"f e N.G.G.^.Y.R.T.G.Y.Y.T.T.Q.Y.Y.E.G.G.Y.Y.Q.!.Q.Q.Q.Q.Q.Q.R.R.R.R.R.R.R.^.R.R.R.^.^.R.R.R.R.R.R.R.R.R.R.R.R.R.R.R.R.^.R.R.R.R.R.H.G.R.R.G.G.G.R.^.R.R.^.^.R.R.R.R.R.R.G.R.Y.R.G.R.G.R.R.R.R.Y.Y.R.R.R.^.^.R.^.R.^.R.^.Q.R.^.^.Q.Q.^.^.R.R.R.R.R.R.R.G.R.R.R.R.R.G.T.T.T.Q.R.R.Q.Q.Q.Q.T.T.G.Y.T.G.G.S.S.G.R.T.G.M.P f 4 6 =                                                                                                                                                                                                   ",
"4 p N.V.G.Q.R.R.T.Q.T.Y.Y.Y.Q.Q.T.G.G.G.G.Y.Q.Q.Q.Q.Q.R.R.R.R.Q.R.R.^.R.^.R.R.R.R.R.R.R.^.^.^.^.^.^.R.R.R.R.R.R.^.^.^.^.^.R.R.R.R.G.H.H.R.G.G.G.G.^.^.R.R.R.^.R.Y.R.^.R.R.Y.^.R.R.G.R.R.R.R.R.Y.Y.Y.R.R.^.Q.^.^.R.Q.R.^.Q.Q.^.^.^.Q.^.R.R.R.R.R.R.G.R.R.R.R.R.R.T.T.T.T.Y.R.R.R.Q.Q.T.Q.T.Y.S.G.G.T.G.G.G.G.G.R.G.n.K 4 4 6 o                                                                                                                                                                                                   ",
"7 p N.N.G.Y.T.R.Q.T.Q.Q.T.Y.Y.R.Y.G.G.G.G.G.E.Q.Q.Q.!.Q.T.Q.R.R.R.^.R.R.^.R.R.R.^.R.R.R.R.R.R.R.R.^.^.^.R.R.R.R.R.R.^.^.R.R.R.H.G.G.R.H.G.G.G.R.G.R.^.^.^.R.R.R.R.R.R.R.R.R.^.^.R.R.G.R.R.R.R.R.R.R.R.R.^.Q.Q.R.R.R.^.Q.^.^.Q.Q.Q.Q.R.R.R.^.^.R.R.R.R.R.R.R.R.R.R.Q.Y.T.T.T.T.T.Q.Q.T.E.T.Y.S.G.G.G.S.S.G.G.G.R.G.M.L & 4 6 .                                                                                                                                                                                                   ",
"f i N.V.G.Y.E.^.R.T.T.Q.T.T.T.T.R.Y.Y.Y.Y.Q.Q.R.Q.Q.Q.Q.Q.^.R.T.R.^.R.^.^.R.R.^.R.R.^.^.^.R.^.R.R.^.^.R.^.R.R.R.R.R.R.G.R.R.R.R.G.R.G.G.G.G.G.R.H.H.R.R.^.^.R.R.R.R.R.R.R.R.R.R.R.R.Y.R.R.R.R.Y.R.Y.R.Q.R.Q.Q.^.R.R.Q.Q.^.^.Q././.Q.^.Q.Q.^.^.^.^.^.R.R.R.^.R.R.Q.T.G.T.T.G.T.T.T.R.T.Q.T.G.G.G.G.G.S.S.S.T.G.T.H.M.L 4 5 5 .                                                                                                                                                                                                   ",
"7 A N.V.G.G.T.G.T.Q.T.T.Q.T.Y.Q.Q.Y.Y.Y.Y.Y.T.R.Q.Q.Q.T.T.T.T.^.R.^.R.^.^.R.^.R.^.^.R.^.^.R.R.^.^.R.^.^.R.R.^.R.R.G.R.R.R.R.H.R.R.G.R.R.G.G.G.G.R.H.R.R.R.R.^.R.Y.R.R.R.R.R.R.R.R.^.R.R.R.R.R.R.Y.R.Q.Q.R.Q.Q.^.R.R.Q.R.^.Q.Q.Q.Q.Q.^.^.^.^.^.R.R.R.R.^.R.R.^.R.T.T.G.T.Y.Y.G.G.T.T.T.T.T.Y.G.G.G.S.S.G.S.G.T.T.H.n.L , 4 5 =                                                                                                                                                                                                   ",
"f A N.G.G.T.G.T.T.T.Q.T.T.Y.T.R.Q.Y.Y.G.Y.R.Q.R.T.T.T.T.T.Q.T.^.^.R.R.^.^.R.^.R.^.^.R.^.^.R.^.R.^.R.R.^.^.^.R.H.H.R.R.R.R.R.G.H.G.G.R.G.G.G.G.R.R.H.H.^.R.^.^.^.R.R.R.R.^.R.R.R.R.R.G.G.R.R.R.R.R.Q.Q.R.R.Q.Q.R.^.^.Q.^.^.Q.Q.^.Q.^.^.^.^.^.^.R.R.^.R.^.R.R.R.R.R.T.G.G.Y.Y.G.T.T.T.R.T.Y.G.G.G.G.Y.G.G.G.G.G.T.H.n.K f 4 5 =   X                                                                                                                                                                                               ",
"f y N.G.E.G.G.^.T.T.Q.T.T.Q.T.H.R.Q.Q.R.Q.Y.Y.R.T.Q.Q.T.Q.R.^.^.^.R.^.^.^.R.R.^.R.^.^.^.^.^.^.R.R.R.^.^.^.^.H.R.R.H.R.R.R.R.R.R.R.R.G.R.^.R.R.G.R.R.R.R.R.^.R.^.R.R.Q.R.^.^.^.R.R.R.R.R.R.R.R.R.R.R.R.R.R.R.^.R.^.Q.^.Q.^.^.^.^.^.^.^.^.^.R.R.R.^.R.R.^.R.R.R.G.T.T.T.G.G.W.T.G.G.R.R.T.G.Y.Y.G.G.T.R.G.G.G.T.T.H.n.K 4 4 5 .                                                                                                                                                                                                   ",
"7 u N.G.G.R.R.R.R.Q.R.R.R.R.R.R.R.R.R.W.T.T.W.Y.T.Q.^.^.^.H.^.^.R.R.R.^.R.^.^.R.^.R.^.^.^.^.R.R.R.R.^.R.R.R.R.R.H.H.R.R.R.H.G.G.^.H.G.^.R.R.G.R.H.R.R.R.R.^.^.^.^.Q.^.^.^.R.^.R.^.^.R.^.R.R.R.R.R.Q.R.R.R.R.^.^.Q.^./.Q.Q.Q.Q.^.^.^.^.^.^.^.^.R.^.^.R.R.R.R.G.G.Y.W.T.G.Y.T.G.T.T.R.T.G.G.T.G.G.T.T.G.G.T.G.T.T.G.N.H 4 4 6 .                                                                                                                                                                                                   ",
"f A N.G.Y.T.R.R.R.Y.T.R.R.R.R.H.R.R.T.R.R.T.W.Q.^.Q.^.^.^.^.^.^.^.^.^.R.^.^.^.R.^.^.^.^.^.R.R.R.R.H.H.R.R.R.R.H.R.R.H.R.R.R.R.R.^.G.^.H.R.G.G.G.R.R.R.^.R.^.^.^.^.Q.^.^.Q.^.^.^.R.^.^.^.R.^.^.R.Q.R.Q.R.^.^.^.Q.^.^./.Q.^.R.^.^.^.R.^.^.^.^.^.^.^.R.R.R.R.G.G.G.G.T.R.Y.G.W.W.Y.T.T.T.T.T.T.G.G.Y.T.G.G.G.T.G.R.G.b.L f 4 6 =                                                                                                                                                                                                   ",
"7 p N.G.R.R.R.R.T.Q.R.R.R.^.Q.R.R.R.R.R.R.Q.Q.R.R.Q.Q.Q.Q.^.^.^.^.^.R.R.R.^.R.^.^.R.^.^.R.R.R.R.R.H.R.H.R.R.R.R.R.H.R.R.R.R.R.R.G.G.G.^.R.G.R.R.H.H.^.^.^.^.^.R.^.^.^.^.R.R.^.^.^.^.^.^.^.^.^.^.R.^.R.Q.^.^.^.^.^.^.Q.Q.^.^.^.R.R.R.R.R.^.^.R.^.R.^.R.R.R.G.G.G.G.T.R.G.Y.W.T.T.G.T.T.T.T.T.G.G.Y.T.T.T.T.G.G.R.G.N.L f 4 9 o                                                                                                                                                                                                   ",
"4 A V.G.R.^.Q.R.Q.Q.R.^.R.^.^.R.Q.R.R.Q.Q.Q.Q.Q.Q.^.Q.Q.Q.Q.^.H.R.R.Y.R.G.^.^.^.R.^.R.R.R.R.R.R.R.R.R.R.R.R.H.H.R.R.H.H.H.R.^.^.^.G.G.R.R.R.G.R.R.R.^.R.R.^.^.^.^.^.^.^.^.R.^.^.^.^.^.^.^.^.^.^.^.^.Q.^.^.Q.^.^.^.Q.^.Q.R.R.R.R.R.R.R.R.R.R.R.R.^.R.G.R.R.R.R.R.T.T.T.G.T.Y.G.G.T.T.R.T.T.G.G.G.T.T.T.T.T.T.G.T.G.b.P f 4 6 =                                                                                                                                                                                                   ",
"4 y V.G.G.Q.R.R.Q.Q.Q.R.Q.^.Q.^.Q.R.Q.R./.R.Q.T.R.Q.R.R.^.Q.^.H.Y.Y.Y.G.Y.R.R.^.^.R.^.^.R.R.R.^.R.R.R.R.R.R.R.R.R.G.G.R.R.R.^.H.G.^.G.^.R.R.G.R.R.R.R.R.R.R.^.R.^.^.^.^.^.^./.^.R.^.^.^.^.^.^.R.^.^.^.Q.^.^.Q.^.R.^.R.R.R.Y.R.Y.G.R.R.R.^.^.R.^.R.R.R.R.R.R.R.R.R.G.R.R.T.T.T.T.T.T.R.^.H.G.T.T.T.G.T.T.Y.T.G.T.G.N.L f 5 9 o                                                                                                                                                                                                   ",
"f p C.G.R.R.R.R.Q.Q.Q.R.R.R.Q.Q.R.R.R.Q.Q.R.T.Q.R.R.T.R.H.^.T.T.R.R.R.R.^.R.^.^.^.R.R.^.^.^.^.^.^.R.^.^.R.H.R.R.R.R.R.G.R.R.^.R.^.G.G.^.G.R.R.R.R.R.G.R.R.R.R.^.Q.^.^.^./.^.^.^.Q.^.Q.Q.^.R.^.R.R.^.^.Q.Q.Q.Q.R.^.R.^.Y.Y.R.Y.Y.R.R.R.R.^.^.^.^.R.R.^.^.^.^.^.R.R.T.G.R.R.R.G.G.T.T.R.R.R.T.T.G.T.T.Y.T.G.T.T.T.G.b.H 4 5 5 +                                                                                                                                                                                                   ",
"7 i N.G.R./.R.Q./.^.^.R.R.Q.^.T.G.E.T.R.Q.Q.Q.Q.T.Q.R.R.R.^.T.T.R.Y.Y.R.R.R.^.^.^.^.R.^.^.^.^.^.^.^.R.R.R.R.R.R.G.R.G.R.R.R.R.^.^.H.^.H.R.G.G.G.R.R.R.R.^.^.R.^.R.^.^.^.^.^.^.^.^.Q.^.^.R.R.R.R.R.^.Q.^.Q.^.^.Q.^.Q.^.R.Y.Y.Y.Y.G.^.^.^.^.^.^.R.^.^.^.^.^.^.^.R.T.T.Y.T.T.T.G.G.T.H.R.R.R.R.T.T.T.T.T.G.G.T.G.R.G.b.L , 4 6 =   X                                                                                                                                                                                               ",
"7 y N.V.R.G.R.R.Q.^.R.^.Q.Q.T.T.R.W.T.W.Q.R.R.R.Q.T.^.^.Q.Q.^.Y.Y.Y.Y.R.^.R.^.^.^.^.^.^.^.^.^.^.^.^.^.R.R.H.R.R.R.G.R.R.R.^.^.^.^.^.H.^.R.R.R.R.G.R.R.^.^.^.^.^.Q.^.^./.^.^.^.^.^.^.^.R.R.R.R.R.R.^.^.^.^.^.R.Q.^.R.^.R.R.Y.R.R.R.^.^.^.^.^.R.^.^.^.^.^.^.^.^.^.W.T.T.T.R.R.R.G.R.R.^.R.R.^.R.H.T.G.T.G.G.G.T.R.G.b.L f 4 5 o                                                                                                                                                                                                   ",
"4 p m.G.T.W./.W.Q.R.R./.Q.Q.R.Y.T.T.T.Q.Q.^.Q.Q.Q.H.^.^.R./.R.G.Y.Y.R.R.R.R.Q.^.^.R.^.^.^.Q.^.^.^.^.R.R.Y.Y.R.R.R.R.R.R.^.^.^.R.^.H.H.H.^.H.H.^.R.R.R.^.R.^.R.R.R.R.^.^.^.^.^.^.].^.^.R.R.R.R.R.^.^.^.^./.^.^.^.^.Q.^.^.R.R.R.R.R.^.^.R.^.^./.^.^.^.^.^.^.^.^.].Q.G.H.R.R.^.R.T.R.R.R./.^.^.H.H.T.H.T.H.G.G.G.R.D.n.L ; 4 6 =                                                                                                                                                                                                   ",
"4 p m.Y.W.R.R.^./.R.R.^.^.R.R.W.T.Y.R.R.Q./.^.^.^./.R.^.Q.Q.R.R.R.Y.R.R.R.R.^.^.^.^.^.^.^.^.^.^.^.^.^.R.R.R.^.^.^.R.R.^.^.^.^.R.^.^.^.^.^.^.^.H.R.R.R.R.^.^.R.R.R.R.^.^.^.^.^./.^.^.^.R.R.^.R.^.^.^.^.^.^.^.^.^.^.^.^.Q.R.R.R.Q.R.^.^.^.Q./.^.^.^.^.^.^.^.^.R.Q.T.G.H.Q.^.R.R.R.R.Q.].H.R.R.^.R.T.R.Q.R.T.G.H.R.G.M.K 4 4 6 .                                                                                                                                                                                                   ",
"4 i m.Y.H.T.^.^.R.Q.~.Q./.R.T.T.T.T.T.R.Q./.R.^./.^.^.^.^.^.R.G.Y.R.R.R.R.Q.^.^.^.Q.^.^.^.^.^.Q.^.^.^.R.Y.R.R.^.^.R.^.^.^.^.^.R.^.^.H.^.^.^.^.H.R.R.^.^.R.R.R.R.R.R.R.^.^./.^.^.^.^.^.R.R.R.R.R.Q.^./.^.^.^.^.^.^.^.Q.Y.Y.R.R.Y.R.^.^.].Q./.^.^.^.^.^.^.^.R.Q.^.T.G.G.T.R./.R.R./.R.R.H.H.R.R.R.T.Q.Q.R.T.T.R.R.H.n.K 4 4 6 .                                                                                                                                                                                                   ",
"9 p N.Y.R.R.R.^.R./.R.^.Q.R.Y.W.Y.T.T.T.T.^.^.^.^.^.^.^.R./.R.G.R.Y.Y.R.R.Q.^.^.^.^./.^.^.^./.R.R.R.R.Y.Y.R.R.R.^.^.^.^.^.^.^.^.^.^.].H.H.^.^.^.R.^.^.^.^.R.R.^.R.^.R./.^.^./.^.^.^.R.R.R.R.R.R.Q.^.^.^././.^.^.^.^.Q.R.Y.R.Y.R.R.^.^.^.Q././.^.^./.^.^.R.R.R.Q.T.T.T.T.R.R.^.R.R./.R.^.R.].H.R.H.R.R.T.G.T.R.R.H.M.K f 9 6 =                                                                                                                                                                                                   ",
"9 p B.W.R.R.R.R.R.R.R./.^.R.W.T.T.T.T.T.R.Q.^.^.^./.R.^.R.R.R.G.Y.Y.R.Q.Q.^.^.^.^.^.^.^.^.^.^.^.R.R.R.G.Y.R.R.R.^.^.^.R.^.^.^.^.^.^.^.^./.^.H.^.R.R.^.^.R.R.^.^.^.^.^.^.^.^.^./.^.^.^.R.R.R.R.R.R.R.R.R.^.^.^.^.^.^.^.R.Y.R.R.R.R.^.^.^.^.^.^./.^.^.^.R.^.^.R.R.T.H.R.R.R.R.R./.R.R./.R.].R.R.R.^.H.R.R.T.H.R.R.G.n.L , 4 5 =                                                                                                                                                                                                   ",
"4 p M.G.T.R.R.R.R./.R.R.^.^.T.Y.T.T.T.T.R.Q.^.^.R.R.^.^.R.Q.R.R.Y.R.^.R.R.Q.^.^.^.^./.^.^.^.^.^.^.R.R.R.R.R.R.R.^.^.^.^.^.^.^./.^.^.^.^.^.^.H.^.R.R.R.R.R.R.R.^.^.^.^.^.^.^./.^.^.^.].^.R.R.R.R.R.R.R.^.^.^.^.^.^.^.R.R.Q.Q.R.Q.^.^.^.^.^.^.^.^.^.^.^.R.^.^.^.Y.T.T.T.T.R.R.^.^.Q.Q.R.R.R.R.^.R.].R.R.R.R.H.T.R.G.n.K 4 4 8 o                                                                                                                                                                                                   ",
"5 i B.E.W.R.R.R.R.R.^.W.^.R.R.T.Q.T.T.T.T.T.Q.^.R.^.R.Q.R././.T.Y.Y.R.^.R.R.Q.^.^.^./.^.^.R.R.Q.^.R.Y.G.Y.R.R.R.^.^.^.^.^.^.^.^.^./.^./.^.^.].^.^.^.^.^.R.R.^.^.^.^.^.^.^.^./.^.^.^.^.^.^.^.^.R.R.Y.R.R.^.^.^.^.Q.^.^.Q.R.Y.Q.Q.Q.Q.^.^.^.^.^.^.^.^.R.R.R.R.R.Y.T.T.T.T.H.Q./.H.R.R.^.R.^.R.R.R.R.^.^./.^.R.H.R.H.n.P f 4 5 .                                                                                                                                                                                                   ",
"4 a V.G.R.R.R.^.^.^.^./.R./.R.R.Q.Q.T.Q.R.R.R.T.R.^.Q.Q.R.R.R.R.R.R.R.^.^.^.^.^.^.^.Q./.^.R.R.^.R.Y.R.R.G.R.R.R.^.^.^.^.^./.^.^.^.^.^.^.^.^.].^.^.^.^.^.R.R.^.^.^.^.^.^.^.^./.^.^.^.^.^.^.^.^.^.R.Q.R.R.R.^.^.^.R.^.^.^.Q.Q.Q.Q./.Q.^./.^.^.^.^.^.^.R.R.R.R.R.R.G.T.H.R.R.R.Q.Q./.R.R.].R.].^.].^.^.^.R.^.H.].Q.H.N.K 4 5 5 =                                                                                                                                                                                                   ",
"5 i V.Y.Q.Q.Q././.R.R.R./.R.R.^.R./.R.R.R.R.R.T.R.~.R.Q.R.Q.Q.R.Q.Q.^./.^.^.^.R.^.^.^.^.R.R.R.R.Y.R.R.G.G.R.R.R.R.^.^.^.^.R.^.^.^.^.^.^.^.^.^.^.^.^./.^.^.^.^.^./.^./.^.^.].^.^.^.^.^.^.^.^.^.^.R.R.R.^.Q.^.^.Q.R.Q.Q.Q.Q.^.Q.}.].^.].^.^.^.^.^.^.^.R.R.Y.R.R.R.T.G.H.T.T.R.R.R.Q.Q.R././.Q.R.^.^.^.R.R.R.R.~.R.H.n.P 4 4 9 =   X                                                                                                                                                                                               ",
"5 a V.T.Q.Q.Q.Q.Q.R.R././.W.^.R.R.R.R.R.Q.R.Q.R.T.Q.R.Q.T.R.R.Q.^.^.^.^.^.^.^.Q././.^.^.^.^.Y.Y.Y.R.R.Y.Y.R.R.G.R.^.R.^.^.^.^././.^.].^.^.^.^.^.^.^.^.^.^.^.^.^.^.^.^.^.^.^.^.^.^.].^.^.^.^.^.^.^.^.R.Q.R.R.^.Q.R.R.R.R.Q.^.}.].^.^.^.^.^.^./.^./.^.^.Y.G.Y.R.Y.T.G.T.T.Y.R.R.Q./.].R.R.R././.^.R.^.R.R.R.R./.R.H.N.P 4 4 4 .                                                                                                                                                                                                   ",
"4 a V.T.R.^.^.^.R.~.^.^.Q.R./.R.R.R.R.^.Q.R.R.Y.H.R.Q.T.T.T./.R.Q.^.^.^.^.^.^.^.^.^.^.^.^.R.Y.Y.Y.Y.R.G.G.Y.G.R.R.R.^.^.^.^.^.^.^.^.^.^.^.^.R.R.^.^.^.^.^.^.^.^.^./././.^.^.^.^.^.^.^.^.^.^.^.^.^.^.^.R.R.R.Q.R.R.R.Q.^.^.}.}.^.].^.^.^.^.^.^./.^./.^.Y.Y.R.Y.R.T.G.Y.T.T.T.W.T.Q./.R.^.Q.^.^.^.R.^.R.R.R.H.R.R.G.M.P f 4 6 .                                                                                                                                                                                                   ",
"4 a V.T.R.^.R.^.^.^.^././.^.R.R.R.Q.R.Q.^.Q.Y.G.H.T.R.T.T.R./.R.Q.^.^.^.^.^.^.^.^.^.].^.^.^.R.Y.Y.R.Y.R.R.R.G.R.Y.R.^.^./.^.^.^.^.^.^.^.^.^.Y.R./.^.^.^.^.^.^.].^.^.^.^.^.].^.^.].^.].^.^.^.^.^.^.^.^.R.Y.Y.R.Q.Q.Q.Q.^.Q.^.Q.^.^.^.^.].^.^.^./.^.^.^.R.Y.Y.Y.R.T.G.T.T.T.T.Y.R.R.R./.R.^./.^.^.^.H.H.T.T.R.R.R.G.M.( f 4 6 =                                                                                                                                                                                                   ",
"9 p V.T.R.Q.Q.^.R.^.^.^.R./.^.R.R.R.W./.R.W.T.Y.T.T.R.T.W.R.R.R.R.R.^.^.Q././.^.R.^.^.^.^.^.^.Y.Y.Y.R.Y.R.Y.R.R.Y.^.^.R./.^.^.^.].^.^.^.R.^.R.^.^.^.^./.^.^.^.^.^.^.^.^.^.^.^.^.^.^.^.^.^.^.^.^.^.^.Q.R.R.R.R.R.^.Q.Q.^.^.Q.^.].].].^.^.^.^.^.^.^.^.^.^.R.Y.R.R.H.T.T.Y.G.T.T.T.R.R.Q./.^.^.^.R.R.R.T.T.T.R.R.R.H.M.L 4 5 5 .                                                                                                                                                                                                   ",
"4 p V.Y.R.^.Q.^.^.^.W.^./.^.R.^.R.R.R.R.R.R.R.T.T.T.T.T.T.R.R.R.R.R.^.^.^.^./.^.^.Q.Q.^.^.^.^.R.Y.R.R.R.G.R.Y.Y.R.R.R.R.^.^.^.^.^.^.^.^.^.^.^.R.^.^.^.^.^.^.^.^.^.].^./.^./.^.^.].^.^.^.^.^.^.^.^.^.^.^.R.R.R.R.Q.Q.^.Q.Q.Q.^./.^.^.^.^.^.^.^.^.^.R.R.^.^.Y.R.^.R.T.T.T.T.T.W.T.H.R.R.Q.R.R.W.R.T.T.R.T.T.T.~.R.H.Z.L , 4 5 =                                                                                                                                                                                                   ",
"4 p V.T.R.^.^.^.R.R.R.R.R.R.R.Q.T.T.W.T.R.R.Y.T.Y.W.W.T.T.R.R.R.R.R.^./.^.^.^.^.^.^.R.R.R.R.^.^.R.R.R.R.^.R.R.R.Y.R.Y.R.R.^./.^.^.^.^.^.^.^.R.R.^.^.^.^./.^././.^.^.^.].^./.^.^.^.^.^.^.^.].^.^.^.^.R.R.R.R.R.R.^.Q.Q.Q.Q.^.^.^.^.].^.^.^.^.^.R.R.R.R.^.^.^.R.^.].T.R.R.T.T.G.T.T.R.R.R.R.R.T.T.T.T.R.R.H.R.R.R.S.M.( f 5 5 =                                                                                                                                                                                                   ",
"4 p V.T.T.^.^.^./.R.R././.R.R.T.T.T.T.T.T.T.Y.G.Y.Y.T.R.R.R.^.W.R.^.^.^./.Q.^.^.^.^.R.R.R.R.^.^.^.^.^.^.^.^.^.^.R.R.R.R.R.R.^.^.^.^.^.^.^.^.^.^.^.^.^./.^./.^.^.^.].^.^./././.^.^.^.^.].^.^.^.^.Q.^.Q.R.R.^.^.Q.^.^.Q.Q.^.^.^.^.^.^.^.^.^.^.^.^.^.Y.R.^.^.R.^.R.R.R.R.Q.Q.R.R.T.T.W.T.R.W.T.R.R.T.R.R.R.R.R.R.R.S.N.L f 5 5 =                                                                                                                                                                                                   ",
"4 p V.T.R.^.^.^.^.^.R./.R.^.R.R.Y.R.R.R.R.Y.Y.Y.Y.R.R.R.^.^.^.^.R.^.^.^.^.Q.^.^.^.R.R.Q.R.Y.^.^.^.^.^.^.^.^.^.^.R.R.R.R.R.R.^.^.^.^.^.^.^.^.^.^.^.^.^.].^.^.^.^.^.^.^.^.].^.^.].^./.^.^.^.^.^.^.^.^.^.Q.^.^.Q.^.Q./.Q.^.Q.^.^./.^.^.^.^.^.^.^.R.R.R.R.R.^.^.^.^.^.^.^.^.^.R.R.R.R.Y.Y.R.^.^.^.^.^.R.R.R.R.R.^.R.H.n.P 4 4 5 .                                                                                                                                                                                                   ",
"9 a V.Q.^.^.^.^.^.^.^.^.^././.R.R.R.R.R.R.Q.R.Y.Q.R.R.R.^.^.^.^.^.^.^.Q.^.^.^.^.Q.^.Y.R.R.Y.R.R.^.^././.^.^.R./.^.^.R.R.^./.^.^.^.^.^.^.^.^.^.^.^.].^.^.^.^.].^.].^.^.].^.^./.^././././././.^.^.^.^.^.^.^.^.^.^.^.^./.^./.Q./.^.^.^.^.^.^.Q.Q.R.R.R.Y.R.R.R././.^.^.^.^.R.R.R.R.R.R.R.^.^.^.^.^.R.R.Y.R.^.R.^.R.H.M.P 4 4 9 =                                                                                                                                                                                                   ",
"4 i L.Q.^.Q.^.Q.^.^.R././.Q.R./.^.R.Q.R.Y.R.R.R.R.R.Q.R.^.^.^.Q.^.^./.^.^.^.^.^.R.R.R.R.R.R.Y.R.R.^.^././.^.^.^.^.^.Q.R.^.^./.^.].^.].^.^.^.^.].].^.^.^.].^.^.^.^.^.^.^.^.]././.^.^.^./././.^.^.^.Q.^.^.^.^.^.^.^.^.^./.^.Q./.^.^.R.^.Q.^.R.Q.^.Q.R.R.Y.R.R.^.^.].^.^.^.^.^.^.R.R.R.R.^.^.^.^./.R.R.R.R.Q.^.^.^.H.M.( ; 4 6 .                                                                                                                                                                                                   ",
"4 A V.E.Q.^.Q.Q.^.^.Q././.R.T./.^.^.Q.Q.R.R.Y.Q.R.^.Q.R.^.^.^.^.^.^.Q.^.Y.R.Q.R.R.R.R.R.Y.R.Y.Y.R.^.^.^.^.^././.^./.R.R.^.^.^.^.].^.^.^.^.^.^.^.^.^.^.^.^.^.^.].^.^.].^.^.^.^./.^.^.^.^.^.^.^.^.^./.^.^.Q.Q./.^.^.^././.^.Q.Q./.R.R.R.^.^.R.R.^.R.Y.Y.R.R.R.R.^.^.^.^.^.^.^.^.R.Y.R.R.R.^.^.^.^.R.R.R.R.R.^.^.^.Y.M.L 4 4 6 .                                                                                                                                                                                                   ",
"4 a V.E./.Q.Q.T.R.Q.Q.Q.R.R.R.R./.Q./.^.Q.R.R.Q.R.R.^.^.^.^.^.^.^.^.^.R.Y.R.R.R.^.^.^.Y.Y.R.R.R.R.R.^.^.^.^.^.^.^./.^.^.^.^.^.].^.].^.^.^.^.].].].^.].^.^.^.^.^.^.].^.^.^.^.^././.^.^.^.^.^.].^.^././.^.^.^.^.^.^./.^.^././.^.^.R.Y.R.R.R.R.^.^.R.R.R.^.R.R.R.R.^.^.^.^.^.^.^.^.R.R.R.^.^.^.^.^.Q.Q.^.^.Q.^.^.^.H.N.L , 4 9 o                                                                                                                                                                                                   ",
"4 p V.T.Q.T.T.T.R.R.R.Q.Q.R.T./.Q./.Q.^.R.R.R.Q.R.Y.R.^.^.^.^.^.^.^.^.R.R.R.R.^.^.R.R.Y.R.R.R.Y.Y.R.^.R.^.^.].^./.^.^./.^./.^./.^.^.^.^.^.].^.^.^.^.].^.^.].].^.^.^.^.^.^.^.^.^.^.^.R.^.^.].].^././.^.^.^.Q.R.^.^.Q./././.^.^.^.R.R.R.R.R.Q.R.R.R.R.R.^.Y.R.R.R.R.^.^.].^.].^.^.^.R.Q.^.^.^.^.^.R.^.^.^.^.^.^.^.H.M.P 4 4 6 =                                                                                                                                                                                                   ",
"4 p V.Y.Q.T.Y.T.T.T.R.T.R.T.T.Q.^./.^.^.R.R.^.^.R.R.R.^.^.^.^.^.Q.^.^.^.R.R.R.^.^.Q.R.Q.^.^.R.Y.R.R.^.^.^.^.^.].^.^./.^.^.^.]./.^.].].^.^.^.^.].^.^.^.].].^.^.^.^.^.^.^.^.^.^.^.R.^.R.R.^.^.^.}././.^./.^.^.R.R.Q././././.^.^.^.R.R.R.R./.^.R.R.R.^.^.Q.R.R.R.Q.^.R.].^.^.].^.^.^.R.R.^.^.^.].^.^.^.^.^.^.^.^.^.G.M.L , 4 6 +   X                                                                                                                                                                                               ",
"4 a V.G.!.Q.Y.G.G.G.T.R.R.R.T.R.Q./.].Q.R.Q.^.^.R.R.R.Q.^.^.^.^.^.^.^./.R.R.Q.^.Q.R.^.^.^.^.^.^.^.^.^.^.^.].^.]./.^.^.^.^.^.^./.^.^.].^.^.].^.^.].].^.^.^.].^.^.^.^.].^.^.Q.^.^.^.^.R.R.R.^.].^./.^./.^.^.^.R.Q./././.^./.^.^./.^.R.^./.^./.R.^.^.^.^.^.^.R.R.Q.^.^.^.].^.^.^.^.^.Q.R.^.^./.^././.^.^.^.^.^.^.^.H.M.( , 4 9 o                                                                                                                                                                                                   ",
"9 p V.S.Y.E.G.G.G.Y.T.Q.R.R.R.R.Q.^./.Q.Q.^.^.^.^.^.^.^.^.^.^.^.R.^.^.Q.^.^.^.^.^.^.^.^.^.^.^.^.^.^.^.^.^.^.^.^.].^.^.^.^.^././.^.].].^.].^.].^.^.^.^.].^.^.^.].^.].^.^.^.^.R.^.].R.R.^.R.^.].^.^.}.^.^./.^.^.^.^./././.^.Q.^.^.^.^.^.^.^.^.^.^.^.^.^.^.^.^.^.^.^.^.^./././.^.^.^.].].H.].[././.^./.Q./.^.^.^.^.G.N.` f 4 7 o                                                                                                                                                                                                   ",
"4 p V.V.G.Y.Y.G.Y.Y.Y.R.W.T.R.W.Q.^.Q.^./.^.^.Q./.^.^./.^.^.^.^.R.^.^.Q.^.^.^.^.R.^.^.^.].^.].^.^.^.^.].].^.].^.^.^.].^././././.].^.^.^.^.].^.].].^.].^.^.].^.].^.^.].^.^.^.R.^.^.^.^.Q.^.^.^.].].^./.]./././././.^./.^.^.^.^.^.^.^.^.^.^.^.^.^.^./.^.].^.^.].^./././././.^.^.^.^.G.].^.H.H.].H.Q././.^.^.^.Q.R.V.N.` f 4 5 +                                                                                                                                                                                                   ",
"4 i m.V.S.Y.G.Y.T.Y.T.R.T.T.W.T.^./.^.^.^.^.^./././.].^.].^.^.^.Q.^.Q.^.^.^./.Q.^.R.^.^.^.^.^.^.^.].].^.^.^.].^.].^.^.].^./././.].^.^.].^.].^.].].^.^.].].].^.^.].^.^.^.^.^.^.^.}.^.^.Y.Q././.^.].^././././././././.^././.^.^.^././.^././.^.^.^./.^.].^.R.^.^.^./.^.]./.].^.].].^.^.^.].[.]././.^./.^.^.^.R.^.R.N.b.A 1 4 5 +                                                                                                                                                                                                   ",
"7 i V.V.S.S.Y.G.T.Y.G.R.R.T.W.T.^.^.^.^.^.]././.^.^.^./.^.^.^.^.^.^./.^./.^.^.^.^.^.^./.].^.^.^.^.^.^.^.].^.^.].^.].].^././././.^.].].^.].^.].^.^.^.^.^.^.^.^.].].^.^.^././.^.^.^.^.^.Q.Q.^.].^.^./.^.]./././././.^./.^./././././.^.^.^.^.^.^.]./.^.^.^.^.^.].^.^./.^.^.^./.^.].^.].^.].[.H././.^.Q.^.^.R.R.^.^.G.b.` 1 4 5 =                                                                                                                                                                                                   ",
"f p m.G.G.Y.Y.G.T.T.T.Q.R.W.W.T.Q.^.^.^././.]./.^.^.^.^.^./.^.^.^.].^.^.^.^.^.^.^.^.^./.^./.^.^.^.^.].^.].^.].^.^.].^.]././././.].].].^.^.^.].].].^.^.^.].^.^.^.^.].].^././.^.^.^./.Q.Q.^.^.].^././././././././.^./././././.}././.^./.^.^.^.^.^.^.^.^.^.^.^.^.].^.^.^.]././.]./././.^././././././.^.R.Q.R.R.^.^.G.N.S , 4 7 = X                                                                                                                                                                                                 ",
"4 p N.V.G.G.Y.Y.Y.Y.T.T.R.R.T.T.^.^.^.Q.^./.^.^./.^./.^.^.^./.^.^.^././.].^.^.Q.^.^.^.^.^./.^.^.^.].^.].^.^.^.].].^.].^././././.^.^.].^.].^.^.^.^.].^.].^.^.].].].^.].^.^./.].].^.^.^.^.^.^.Q.^././././././././.^././././././././././.^.^.^.^.^.].].^.^.^.^.^.^.].^.]./././.^././././././././.}./.Q.Q.R.Y.R.^.^.G.N.` , 4 < + X                                                                                                                                                                                                 ",
"4 p N.V.Y.G.Y.Y.T.Y.T.T.R.R.Q.Q.^.^././././.].^.^.].^.^.^.^.^./.^././././.^.].^.^.^././././.].^.^.^.].^.].].].^.].].^.]././././.].].^.].^.].^.].^.^.^.^.].]./.^.].^.^.].^.].^.^./././.^.^.^.^.]././././././././././././././././././././.^.^.^.^.^.^./.].^.^.].^.].^.^./.]././.]././././././././.^.Q.Q.R.G.Y.R.^.G.N.U f 4 7 + X                                                                                                                                                                                                 ",
"4 i V.Y.T.Y.Y.T.Y.T.Y.Y.T.T.R./.^./.Q.Q.Q./.^.^.].^.^./.^.^.^.^.^.^.^./.^.].^.^.^.].^./.^.^.^.^.^.].^.].^.^.^.].^.^.^.]././.}./.].^.^.].].^.^.^.].^.^.^.].^.^.]././.]./.^.^.^./.^.^.^.^./.^.^.^./.^./././././././././.Q././././.}.^./.^.].^.].^.].^.^.^.^.^.].^./.^.]././.].^././././././.}././././.Y.Y.G.G.Y.R.G.b.U f 4 7 + X                                                                                                                                                                                                 ",
"4 p N.V.E.Y.R.G.G.G.Q.G.Q.Q.G././././././.].G.]./.^.^./.^.^.^.^.^.^././.^.^./.^././.^./.^.^.^.].^././.^.].^.].^././.].].^./././.^.^.].^.^.^.].^.^.^.].^.].^.].].].].^.].^.].^.^.^.^.^.^.R.^.].]./.^.^.^.^.}././././.^.^.Q././././././.^.].^.^.^././.^.^.].^.^.^.]./.H./././.H.[.].].H.[.].}.Q.Q.].Q.R.Y.G.Y.Y.Y.S.M.L f 4 5 .   X                                                                                                                                                                                               ",
"7 i V.S.G.Y.T.Y.G.Q.G././.G.Q.G.G././.].Q./././.].^./././.^.^.^.^./.^./.^.^./.^.^.^.^./.^.^.^.].^./.^.^.^.]./././.^.^./.]./././.].].].].^.].^.].^.].^.].^.].].^.^.].].^.].^.^.].^.^.^.^.R.^.^.].].}.}.}.}.}./.Q.}./.^.^././.}./././././.].^.].^.^.].^.^.^.].].^.^.^.[.[./.]./.].H.[.].]././.Q.]./.Q.Y.Y.Y.Y.Y.R.S.M.( f 4 5 =                                                                                                                                                                                                   ",
"f p N.S.G.T.T.T.G././.G./.G.Q.Q./././.].^.Q././././.].^.^.^./././.^./.^.^.^.^.^.^./.^.^.].].^.^.^./.^./././.]././.}././././././.^.].^.].^.^.].^.].^.].^.^.].].^.^.^.^.].].^.].^.].^.^.^.^.].].^./.].].]..X}././.Q./.^.^.^.}.}./.].^.^.^.].^.^./.].].^.].^.^.^.^.^.].]./.H.]./.]././././.}.Q./.Q./.Q.R.Y.W.Y.Y.Y.V.n.K 4 4 5 =                                                                                                                                                                                                   ",
"4 p m.V.G.G.G.Q./.H./.Q.Q.Q./././././.H.^.].Q.]././.^.^.^././.^././././.^././.]././.].].^.].^.].].^./.]././././././././././././.^.^.].^.].^.^.].^.].^.].^.^.^.].].^.].^.^.].^.].^.^.^.^.^.^.^.]./././.Q.}.Q.Q.}././.Q.^.^.Q././.^.^.^.]./.].]./.^.^.].^.].^.^.].].].K./.[././.H.H./.G.^.Q.}.Q.^.].Q.Y.R.R.T.R.R.V.b.L f 4 5 =                                                                                                                                                                                                   ",
"9 i N.S.Y.Y.T.Q./.H.].]./.G./.[.G.^./././././.Q.^.^.].^.^.^.].^.].^.^.]././.].^.^./.].]./././.^./././././.]./.^.^.^.^.^.^.Q././.].^.^.^.^.^.].^.^.].].].].^.^.].^.].^.].].^.].].^.^.^.^.^.^.^.]././././.^.^./.Q.Q.Q.Q.Q.^.^.Q././.^././././.^.^.].^.].^.^.^.^.^.H.[.].].Q.Q.Q.^./.^.Q.Q.^.Q.}.R.T.Q.T.T.W.R.R.R.V.b.L f 4 5 =                                                                                                                                                                                                   ",
"f i N.S.T.Q.T.^.].H./.H./././.H./.^.Q././././.^.^.^.^.].].^.^.^.^.^.^.^.^.].].^.^./.^.^.^./././././.}././././.^././.^.^.^./.^.Q.].^.].^.^.].^.].].^.].^.].].^.].].].].].].].^.^.].^.^.].^.^.^.^.^.].]./.Q.Q.Q.}.}.Q.R.^.^.Q.^.^./.^././././././.^.].^.].^.].].]./.].].H./.Q.Q.^.R.^.^.Q.Q.Q.Q.G.T./.Q.T.R.R.R.W.S.n.L f f 5 .                                                                                                                                                                                                   ",
"f A N.Y.^.Q.^.Q.H.].H././.H./././.^.Q././././.Q.^.].].^.^.^.^.^.^.^.^.].^.].^./.^././././.^.^./././.}./././.^.^.^.^.Q.Q././.^.^.^.].^.].].^.].^.^.].^.].].].].^.].^.].].].^.].^.^.^.].^.].^.^.^.].Q.^.^./.}.Q.^.Q.^.R.R.Q.R.^.^.^./././.}././././.^.^.^.^.].].^././.Q.^.^.^.Q.^.G.Q./.Q.Q.Q.Q.R.R././.R.Q.Q.R.R.S.m.K , 4 5 =                                                                                                                                                                                                   ",
"< i G.G.^.^.^.^./.]././././.].H.^./.Q./././././.^.^.].^.].^.].^.^.].^.^.^./.^.^.^./.^.^././.^.^./.}./.}././.^.^.^.Q.^.^./././.^.^.^.^.^.^.].].].^.].].].^.^.].].].].^.].^.].^.].].].].^.^.].^.].^.].Q.Q./././.^.Q.^.R.Q.^.^.Q.^./.^././././././.].^.].^.^.^.^.]././.^.R.^.^.^.Q.Q.Q./.Q.Q.!.Q.Q.T.R.R.]./.Q.R.R.G.N.P f 4 6 .                                                                                                                                                                                                   ",
"4 i V.T.^./.^.^.^./.^./.H.[.].]././././././.Q.}.Q./././.^.].^.].].^.].^.^.].^.^.^.].^.^.^.].^.}./././././././.^.^.^./.^.^./.}./.].].].^.^.].^.].].].].].^.^.].].].].^.^.].].^.].].].]./.^.].^./.].^.Q.^.Q.^.^.^.Q.^.^.Q./.Q.}.Q.^.^.].^.^./.}.^././././.^././././.^.^.^.^.R.Q./.Q.Q././.}././.R.T.T.R.Q.R.].^./.H.A.P f 4 9 o                                                                                                                                                                                                   ",
"4 a S.T.^.^.^.^./.^././././.H.].Q.Q.Q././.^.^./././././.].^.].^.].^.^.^.].].^.^.].^.].].].^.}.^././././././././.^.^.^.^.Q./././.^.^.^.^.^.^.].].].^.].^.].].].^.^.].].].].^.].].].^.]././.^./.Q.^.^.R.Q.^.Q.Q.^.R.R.R.Q.}.Q.Q.^.^.^.].^.R././.]./.].]./.]./.^.^.^.Q.^.^./.Q.Q./.Q.Q.!./.Q./.R.R.T.T.T.Q.].R.R.].H.A.P f , 9 =                                                                                                                                                                                                   ",
"4 p V.T./.^.^.^.H./././././././.G.^.^././.Q./.Q./.^.^.^././././.].^.].^.^.^.].^.^.].^.].].^.^.}././././././.].^././.^.^.^./././.].^.^.^.^.].].^.].].^.].^.[.].].].].^.].].].].].^.].^.]./.^.^./.Q.^.Q.Q.Q.Q.Q.^.R.R.Q.^.}.Q.Q.Q.^.^.^.^.R.^.}.^./.^.]././././.^.^.Q.Q././././.Q.T.Q.!.}./.Q.Q.Q.R.T.T.Q./.R.].].T.V.P f 4 5 .                                                                                                                                                                                                   ",
"4 p V.T.^./.^.^.]./././.[.H.].H./.Q.Q./.Q.Q././.^./././.^.^././.^.].^.^.^.].^.^.^.^.].^.^.}./.^././.Q./././.^.]./.Q.^.^././././.].^.^.^.^.].^.].].].].].[.[.].^.].].].^.^.].^.].^.].].].].^./.^.^.^.Y.Q.^.Q.Q.^.R.R.R.^.^.Y.Q.Q.R.Q.^.Q.R.Q./.^.^.]./.}.}./././.Q.^.^./.}./.}.Q.Q.Q.Q.Q.}.Q.Q.Q.R.Q.R.Q././.].R.T.A.L f 4 5 o                                                                                                                                                                                                   ",
"4 i G.Y.Q./.^./.].H././././.]./././.^.Q.^.Q./././././.^./././.^.^.]././././.].^.].^.^.^.].^.].^./././.Q././.].^././././././.}./.].].^.^.].^.[.].].^.].^.].].].^.].].^.].].^.].[.].^.[.]././.]./.^.Y.Q.^.^.^.^.^.^.Q.Q.^.Q.Y.Q.Q.Q.Q.^.Q.Q.^.^.^././.}././.^.^.^.R.R.Q.}.}.}.}.Q.Q.Q.Q.Q.Q././././.Q.Q./././././.T.A.P f f 5 .                                                                                                                                                                                                   ",
"4 p V.T.Q.^.^.^./.[.^.]./././.]././.^.Q.^.^./././././.^.^.^././././././.]./.^.^.^.^.^.].].]./.^./.Q./.Q././.].]././.^./.Q./././.].^.].].^.^.[.].^.].].].].].].[.].^.].].].].].^.].].[.^./././.^.^.Q.Q.^.}.Q./.Q.^.^.^.^.^.Q.Q.Q.Q.}./.]./.Q.Q.Q././.}./.^.^.^.^.T.^.Q.].}.}./.Q.Q.Q.E.!.}./.}./.Q./.Q./././.]./.T.A.) & 4 5 #                                                                                                                                                                                                   ",
"4 p S.Q.^./.^.^.^.^.^.^././.H.H.^.Q./.^.^.^././././.^./.].].]././././././.].^.].].^.^.^.].^.^.^./././.}././././././.^.^.Q.R.^./.].^.].^.^.[.].[.].].].].].[.].^.].].].].].].].].[.^.^.[.]./.}./.^.^.Q./.}.].^.^.^.^.R.Q././.^.Q.Q..X.XQ.Q.^.^.^././.^./.^.^.Q.Q.^././.}.}.}./.Q./.Q.T.Q.R./././.]././.}.}.]././.T.A.) & 4 4 .   X                                                                                                                                                                                               ",
"f p V.T.^./.^./.^.].^.]././.[.].^.^.^.^.G.[././.^././.^.^.^.^.^./.]././.^.].].^.^.^.].].^.].^.Q.Q././././././.}./././.^.Q.^.^./.].].].].].].].^.].].].].].[.^.[.[.^.].^.].].[.^.].[.].]././.^././.^.^.^.^././././.^.R.Q./.].].^.Q.^.}.}.^.R.Q.^.^././.}.^.Y.Q.^./.].}./.].}.}.Q.Q.E.Q.Q././.].].]./././.}.}././.R.A.L & 4 4 .                                                                                                                                                                                                   ",
"f A V.Y.R./.Q.Q.^.Q././.].^.Q.].].Q.^.^.].H.]./.[.H.].[./.].H././.].].^././.].^.^./.^./.^././././.]./.].].].].]./.Q./.Q.Q.Q././.^.].].[.].^.[.].].].].].].].].].].].].^.].[.].].].].].].^.].].].^.^.^.].].].^.]./.].^.^./.].].]./.].^./.Q.Q.Q.R.Q.R.Q.].Q.R././.[./.[./.[./.Q.Q.Q.G.Q.Q.Q.Q./././.}.[./././.}./.R.A.P f f 5 o                                                                                                                                                                                                   ",
"f A V.Y./.^.^.R.Q./././.^.[.^.^.^.Q.^././././.[.].].].H.].[.[.[.]././.].^.].].]./.Q./././././.^./.].].].]./././.Q.Q./.}.}.}./.Q.^.[.^.[.].^.].].].].].^.].[.].].[.].].].].^.[.^.].].].^.].].^.^.^.].^.^.].^.].].].[.}.[.].]./.].].]./.^.}..X/.R.Q.Q./.].R.Q.]././.[././.}./.Q.Q.}./.Q.G.Q.G.Q./.]././.}.[./.[.].H.A.L f 4 5 o                                                                                                                                                                                                   ",
", n V.R.^.^.R.^.^./././././.}.Q.^.Q.^.^./.].].H./.]./.].H.[.[.[.^.].^.].].]./.^././././.^././.^././.]./.]./.]./.]./././.}././.Q.^.].].].].].].].].].].].].^.^.].].^.].].[.].[.].].].].].[.^.^.^.^.^.].].].].[.].]..X[.[.].].].].[.^.Q././.}.}.Q.Y.Q./.].^./././.[./././././.H././.Q.Q.Y././.Q.}.].]././.].}././.T.V.L f , 5 o                                                                                                                                                                                                   ",
"& A N.R.^././.R.^././.[././.[.G.R.^.^.^./././.]./.].]./.].[.H.].^./.].].^./.].]././././././.]././.].]./.].].]./././.Q.Q./././.Q.].^.^.].].[.^.].^.^.].].[.].].[.].].].].^.[.].].].].[.^.^.^.^.^.^.].].].].[.[.].].[.[.[.}.].].].].^.Q.Q.].Q.}.Q.R.R./.]./.^./.]././.}.[.[.].[./.Q.Q.Q.Q.G././.Q./.].]././././.Q.T.V.K f f 9 +                                                                                                                                                                                                   ",
"f e N.G./.^.^.^././././.].].H.].Q.^.Q.^./.].]././.H.[.]././././.].^.]././././.^.^././.^./.]././././.]./././.].].]./././././././.^.].].].].].].^.^.^.].].[.].].].].].].].].].].].^.].].].].^.^.].^.^.].].].].].].].].]..X[.[.].].[./.Q.R./././.R.^././.].^.R.].]./.}.[./.Q./.}.Q.Q.}.}.Q.Q.Q././.].[./.]././././.T.A.P f , 5 o                                                                                                                                                                                                   ",
"f A G.G.^.^./.^.^./././.].[.[.].Q./.^.^.G.]./././.]./.]./.].[./.].].].]././.]./././././././././././././././.^./././././././././.^.].^.].^.].].].[.].].^.].].[.^.].].].].].].].].[.].].[.[.^.].^.^.^.].].].[.].].].].[.[.[.].].[.]./.R.Q.^.Q.R.R.^.Q.]./.R.Q.].Q.Q././.G./.}.}.}./.Q./.Q./././.}./.H.].]./.]././.T.A.L f 4 9 =                                                                                                                                                                                                   ",
"f p N.G.^./.^.^.^./././.].H.].[.Q.^.Q.^.].]././.].[././.[./.]./.]./././././././././././.^.]./.]././././././././././././././././.].^.].^.].].].^.].^.].].].].].].].].].].].].].].[.].].^.].^.].].^.^.].].].].[.].].[.[.[.[.[.].[.]./.^.R.R./.R.Q./.^.].]./.^.R.Q.Q././.G.Q./.Q./.Q.Q./.}././././.H.]././././.Q.G.T.V.P & f 5 +   X                                                                                                                                                                                               ",
"f A V.G.^././.^./././.]./.].].H.]./././.H././.].].[.H.].[.[.H././././.].]./././././././././.].]./.Q././././.]././././.Q././.]./.].].].^.].].].].[.[.].].^.].[.].^.].].].^.].].].[.].].].].].].].].^.].].].].].].[.[.[.].].[.].].].].^.^././.R.^./.Q./././.^.Q.Q.Q.G./.Q./././././.}.}.Q.Q.}././././.]./.[./././.G.V.L f f , .                                                                                                                                                                                                   ",
"f A V.G.].^.^./././.H.]./.].[.].Q././././././.[.]./.]./././.]./.].].].].^.^.].].]././././././.]./././.^.R./.^././.]././.].].]./.^.].].^.].].].].].].^.].].].].^.].].].].].].[.[.[.].[.].].].].].].[.[.].[.[.].].[.[.].].].].].].]././.].[.].].H./.^./.[.[././././.G.Q.}./.}.}./.Q..X%X}.}.Q././././.].[.].H.[.G.G.N.` - , 4 .                                                                                                                                                                                                   ",
"f e V.Q.^.}././.].H.[.]././.[.H./.^./././././././.]./.]./.[.]./.].^.^.].].].].^./././././.].].].}./.Q.^.Q./././.]././.].].].[./.].].^.].].^.].].].].].].].].].].].].].].[./.^.[.].].].].].].].].].[.[.].[.[.[.[.].[.].[.].].^.].]./.]./.].[.H.]././.[.[.[./.^.R.G.Q.G././.}.[.}.%X%X%X%X}.[././././.H./.].[.[.].G.G.P f 4 , X                                                                                                                                                                                                   ",
", p N.G.^./././.Q.Q././././././.^.Q.]././.].]./.]./.]./././.[./.].].].]./.]./././.]././.]./.].]././.Q.^.^./././.].]./.].].}.]./.].].^.].].].].].].].].^.^.].[.[.].].].].[.].].[.].].].^.^.].}.[.[.[.[.[.[.[.[.].[.[.].].].].].]././././.Q./.H.[.Q.[.[././.}.^.R.G.G.Q.Q././././.}.%X%X.X}./.].]././.[.[.H.[.].[.H.N.A - f 4 .                                                                                                                                                                                                   ",
"f p N.G.Q./././././.^././.]././.Q./.^.].]././.]./.]./.].[./.]././.^.^.]./.^.].^./././.]./.]./.]./.Q./.^.^./.}././././.].[.[.[.}.].].].].].].].].].].].].].].[.[./.].[.].].[.]./.].].].].].].[.}.[.[.[.].[.[.[.[.]./.[.[.].].].^././.].].].G.^.^./././.[.]./.Q.Q.Q.G././.}.}./.}.!.}..X}.}.}.[./.].].].].].].].H.H.N.` - 4 4 o                                                                                                                                                                                                   ",
"f p V.G.Q.^././.}./.^.Q./.Q.^.^.H././.]./././.]./.].]./.^.[./././.]././.^.^.^.].]./././.]././.]././.^.}.Q././.}././.[.[.[.[.}.[.].].].].].].].].].].].].].[.].^.].].].[.[.].].].^.].^.].]./.}.[.[.[.[.].[.[.].].[.]./.[./.[.].^./.].]./.G.[.[.].].[.^.^.[./.Q.^././.Q.Q.}.}./.}.}.}.Q.}.}..X}.].].].H.[.[.].].].H.G.P f , , .                                                                                                                                                                                                   ",
"f i V.G.Q.^./././.Q.R.G.R.R.R.^./.]./././.]./././.]././.[./.[././././././.].].].].]././././.[./././././././././.[././.}.[./.[./.[.].].].].].].].].].[.[.].^.[.[.].].]./.]././.Q.^.].R.^.^.].[.[.[.[..X[.].].[.].].[.[.[.]./.].].].H./.].].].[.].^.^.^.].]./././././././././././.}.}.}./.].}.}./.].].].].].].[.[.H.N.A f , 7 . X                                                                                                                                                                                                 ",
"f i N.G.Q.^.^.R.G.G.G.R.G.Y.G./.].].]./.]././.].].].[././.[.]./././.[./.^./.].^.[.]./././.[.].].]./.[.^.^././.]././.].}.].].].].].].].].].].].].].].].^.^.[.[.^.]./.]././.^.^.^.^.R.R.R.}.[.[.[.[.[..X[.].[.[.[.].[.[.[././.].].[.G.].].[.].].].^.^.].].].].[././.G.Q./././.H.[.}.}.}./././.[.[.].H.[.].].[.].[.H.N.U f f , + X                                                                                                                                                                                                 ",
"f i N.V.Q./.G.Q.Q.Y.R.Y.G.Q.^.]./././././.]./.]./.]././.[.^./././.[././.]./.].].].[.].[././.].[.].]./.[././.}././.]./.].].].].^.].[.].].].].].].].].[.[.[.[.[.^.^.].].]./.].^./.Y.R.^.].[.[.[.[.[.[..X[.].[.[.[.[.[.[././././.].].].].].].[.[.[.^.].].].].].[.[./././././.[./.}.}.[.}./././.[.[.].].[.].H.[.].H.H.N.P % f f . X                                                                                                                                                                                                 ",
"f i N.S.R./.Q.Q./.Q.^.R.R.Q./.].].].^././.].]./././.]././././././.[.[.].[./.].[./.[.[./.[.[.[.[.[./.[.[./.[.H.[.[.[.[.].[.].].].].[.[.].[.].].].[.[.[.[.].].].^.].].].].[.].^.].^.Q.].[.[.}.[.[.[.[..X[./.[.[.].].].].].G.].^.].].].].].[.[.].[.[.].].].[.].].].[.[.[.[.[.[.H.[.#X.X[.[.[.[.[.[.[.(.]./.^.].].].G.N.( & & 4 .   X                                                                                                                                                                                               ",
"4 y N.G.^./././././.^.Q.R.Q././.^./.[././././.]./././.^./.^./././.H.^.]./.[.].[.[./.[.[.H.[./.[./.[././.[./.].[.[.[.[.H.[.].].].[.[.].[.[.[.].[.[.[.[.^.].[.[.[.].[.].[.[.[.].^./.^.].[.}.}.[.[.[.[.[.}.[./././.].[.G.^.[.].^.[.].].[.].[.[.]./.].].[.[.].].].].[.[.H.[.[.[.[.[.[..X[.[.[.[.[.[.[.[.[././.].]./.H.V.K f 4 f .                                                                                                                                                                                                   ",
"f i N.G././.Q./.^.^.^.R.^.Q./././.^./././././.^./././././././.]./././.].]./.[.[.[.[.[./.]./.].[.[.[./.[.[.].].].[.H.[.[.[.].[.[.[.[.[.[.[.].].].[.[.[.[.[.[.[.[.].[.[.[.[.[.[.^.Q.^.].}.[.].].].[.[././././././.H.].[.].[.].^.[./.].].[.[.[.[./.H.[.].H.].].^.].[.[.[.[.[.[.H.[.[..X.X[.[.[.[.[.].].[.].].].[./.T.N.L & , 4 .                                                                                                                                                                                                   ",
"f i V.Y.Q./././././.^.G.R.^././././././.^.^././.^.Q.^././.^.]././.^.^.^.[.[.^././.H.[.[.]./.[././.[.[./.].].].].[.[.[.[.].].].[.[.[.[.[.].[.].].[.[.[.[.[.[.[.[.[.].].[.[.[.].^.R.^.^.].}.].].].[././././././././.].H.].].].^.^./.].[.]./.[./.[.[.[.].].].].].[.H.[.[.[.[.[.[.[.[.[.[.[.[.[.[.[.[././.].].].]./.T.A.K & , f .                                                                                                                                                                                                   ",
"f i C.G.Q././././.Q.Q.T.T.Y.Q./././.Q././.Q././.^.^.R./.^././.^.^.]./.Q.[.[././.].[.[.[.]./.[.H.[.].].[./.].].].[.[.K.[.[.[.[.[.].[.[.].[.].].[.[.[.[.[.[.[.[.[.[.].].[.[.[.].^.R.Q.R././.}.].].]./.^.]./.Q.G./././.]./.[.].].].H..X[.[.].].[.^.].].^.].].].].[.[.H.[.[.[.[.[.[.[.[.[.[.[.[.[.[.[./.[.]./.[.(.].T.V.L & 4 4 X                                                                                                                                                                                                   ",
"f i N.G.R.Q./././.Q.R.Y.G.R.^.Q.^./.^.^.R.R.R.R.R.^.R./././././.^./.Q.^.]./.[./.K.[.[.[.].[.[.[.].].[.[.[.].[.[.[.[.[.[.[.[.[.[.].].[.[.[.].].[.[.[.[.[.[.[.[.[.].].].].[.].^.^.Q.R.R.^.].].].]./.Q.R.^././.]./.].]././.^.^.^.H.H.[.[.[.].[.[.[.].[.[.[.].].[.[.[.[.[.[.[.H.[.[.].[.[.[.H.[.[.[.[.].[./.].[.]./.H.A.P & & 4 .                                                                                                                                                                                                   ",
"f y V.G.G.Q./././.^.R.T.T.T.R.Q.Q./.^.Q.R.R.R.Q.Q.Q.^./././././././.^.^.^./.]./.[.[.[.H.[.[.[.[.[.].[.[.[.[.[.].[.[.[.[.[.[.[.[.].[.[.[.[.[.[.[.[.[.[.[.[.[.[.[.].].].^.[.].].^.Q.Q.R.^././.].Q.Q.^.Q.R./././.Q./.].]./.[.].^.^.[.].].[.[.[.[.[.[.[.[.[.].].[.[.[.[.[.[.[.[.[.[.[.[.H.[.[.[.[.H.[.[./././.].]./.T.N.L & & 4 .                                                                                                                                                                                                   ",
"f t N.V.G.R.Q.^./.Q.Q.T.Y.G.G.R.Q.Q.^.Q.R.R.R.Q.Q././.^./././././.^.^./././.[.].[.[.[.[.[.[.[.[.].[.[.[.[.[.[.[.[.[.[.[.[.[.[.[.[.].[.[.[.[.[.[.[.[.[.[.[.[.[.[.].].].].].].].^.^.Y.Y.Q.^./.].^.Q.R.R.Q././././././.]./.^.].^.^.].].H.[.].[.[.[.].[.[.[.[.].[.[.[.#XK.[.[.[.[.[.[.[.[.[.[.[.[.[.[.[.].].].].].].T.N.( & 4 & .                                                                                                                                                                                                   ",
"f i C.Y.G.R.^././.^.T.T.G.G.G.G.Q.Q.Q./.R.R.^./.Q./.Q./././././.^.^.^././.[./.].[.[.[.[.[.[.[.[.].].[.].].].[.].[.[.[.[.[.[.[.[.].].].[.[.[.[.[.[.[.[.[.[.[.[.].^.].^.].[.[./.R.R.Y.Y.R.R.Q.}.Q.].^.^.^././././.].^.].^.].^.^.^.].^.^.].[.[.[.[.[.[.[.[.[.[.[.[.[.[.[.K.[.[.[.[.].[.].].K.].].].[.[.(.].].].].).T.N.L & f , .                                                                                                                                                                                                   ",
"f d N.V.G.^.^.Q.^.Q.R.T.T.E.G.Q.T.Q.Q.^.^.R.Q.]././.^./.]./.]./.Q.Q.^.Q./.H.].[.[.[.[.[.[.[.[.[.[.].[.[.].].[.[.].[.[.[.[.[.[.[.].].[.[.[.[.[.[.[.[.[.[.[.[.].^.].].].].[.[.R.Q.R.R.R.Y.Q.Q.}.Q.}.Q.^.^././././.^.[.].[.[.^.^.^.^.].^.].[.[.[.[.].[.[.[.[.[.[.[.[.K.[.[.[.[.K.[.[.[.].].[.].].]./.[.].].].].].].R.V.L & f 4 .   X                                                                                                                                                                                               ",
"f d N.V.G.Q.Q.].^.Q.G.Q.Q.G.G.Q.Y.Q.Q./.Q././.Q.]././././.[././.R.R.^./.]./.[./.[.[.H.[.[.[.[.[.[.[.[.[.].[.[.[.[.[.[.[.[.[.[.[.].].].].[.[.[.[.[.[.[.[.].].].].].].].].[.].^.R.Q.Q.Y.Y.R.R./.}.}.}.].].].].}.].[.].].[.].^.^.^.].^.].[.[.[.[.[.[.[.[.[.[.[.[.[.[.[.[.[.[.[.[.[.[.].].].].].].]./.]./.].].].{.].T.A.K & f f .                                                                                                                                                                                                   ",
"f i N.Y.G.Y.^.].^.T.Q.G.G.Q.G.G.T.Q.]./.].Q.].].].].[./.[./.].].^.Q.^./.]./.[.^.].[.[.[.[.[.[.[.[.[.[.}.[.[.[.[.[.].[.[.[.[.[.[.].].].].[.[.[.[.[.[.[.[.[.[.[.[.^.].].].[.^.Q.R.Q.Q.Y.R.R.Q.^.}.}.].}.].].[.[.[.].[.[.[.].^.^.^.[.[.[.[.[.[.[.[.].[.[.[.[.[.[.[.[.[.[.[.[.[.[.[.[.[.].].].].].K.]././.[.].].].].T.V.P & f , .                                                                                                                                                                                                   ",
"f p N.G.G.Y.}.Q.Q.Y.Q.Y.G.T.Y.Q.R.Q.]././././.]./.].].].].].].^.Q.].Q./././.}.[.[.[.[.[.[.[.[.[.].[.[.[.[.[.[.[.[.[.[.[.[..X[.[.].].[.[.[.[.[.[.[.[.[.[.[.[.[.[.].^.^.[.[.^.R.R.R.Y.Y.R.Q.^.Q.].}./.].}.].].[.[.[.[.[.[.[.^.[.^.^.].^.[.[.[.[.[.[.[.[.[.[.[.[.[.[.[.[.[.[.[.[.[.K.[.[.[.].].].].].].].].].].].^.R.A.L * & 4 .                                                                                                                                                                                                   ",
"- d N.N.G.Q.Q.Q.Q.Y.Q.Q.Q.T.Q.T.R.Q./.Q.Q.Q.].]././.]././.]./.^./.]././././.].[.[.[.[.[.[.[.[.[.].].].].[./.].[.[.[.[.[.[.[.[.[.].].[.[.].[.[.[.[.[.].[.[.[.].].].].].].^.^.R.^.Q.R.Y.R.R.^./.].]./.].[.[.[.].].[.[.].^.^.^.[.^.^.^.^.[.[.[.[.[.[.[.[.[.[.[.[.[.[.[.[.[.K.[.[.[.[.[.[.[.].].].].].].].].].].].].H.N.L & 4 & .                                                                                                                                                                                                   ",
"f p m.V.Y.Q.Q.Y.Y.Y.Q.Y.R.Y.Y.E.R.Q././.Q././././././.].^.]././.].}.]./.[.[.[.[.[.[.[.[.[.[.[.[.].].[.[.].].[.[.[.[.[.[..X[.[.[.].].].].[.[.[.[.[.[.[.].].].].].].].].^.^.^.R.^.R.R.Y.Y.R.Q./.].^./.].].].].].].].].[.^.].].[.[.^.^.[.[.[.[.[.[.[.[.[.[.[.[.^.[.[.K.[.[.[.[.[.[.K.[.[.[.].].].].].K.K.{.].].].].T.M.K & & 4 .                                                                                                                                                                                                   ",
"f d N.V.G.Y.Q.R.G.Q.T.T.Y.T.G.G.Q.R.Q.Q.^.^./.]././.]./.].]././.]./.}./.^.[.}.[.[.[.[.[.[.}.[.[.].].[.[.^.[.[.[.[.[.[.[.[.[.[.[.].].].^.[.[.[.[.[.[.[.].].].^.].].].].^.^.R.R.R.R.Y.Y.Q.R.Q.Q.}./.]./.}.[.].].[.[.[.[.].^.].[.[.[.[.[.[.[.[.[.[.[.[.[.[.[.^.[.[.[.[.[.[.[.[.[.[.[.[.[.[.].].].].].].].].].].].].G.N.L & & 4 .                                                                                                                                                                                                   ",
"& d m.V.Y.G.Q.G.T.T.Y.W.Y.Y.Y.R.R.R././././././.}./.]./.].]./.].].]./.].].].|.[.[.[.].].[.[.[.].].Q.Q.].].].[.[.[.[.[.[.[.[.[.[.].].].].].[.].[.[.[.[.[.].[.].Q.].R.Q.Q.Q.Q.Q.T.T.W.T.T.W.^././.]././.}.[./.}.[.[.[.[.].].].].].].].].[.[.].[.[.[.[.].].].].^././.].[.].[.[.[.].[.].[.].].]././.].].[.].].[.[.[.T.N.L & & f .                                                                                                                                                                                                   ",
"- i N.V.G.Y.Y.Q.Y.Y.Y.Y.T.T.T.T.T.Q././././././././.].].]././.].].].].].]./.}.[.[.[.[.[.[.}.].Q.Q.Q.].].].].[.[.[.[.[.[.[..X.X[.]./././.].].].].[.[.[.[.].[.]./.].Q./.R.T.T.T.T.T.T.R.R.^.^./.]./.].[./.[.[.[.[.[.[.[.[.].].].].[.]./.[.[.[.[.[.[.[.].].].^.R.R.^./.].[.[.[.[.[.[.].[.].].]././././././././.[.].R.N.L & & , .                                                                                                                                                                                                   ",
"f t N.G.G.G.G.Q.W.Y.Y.Y.T.T.R.R.Q.Q././././././././.[.].].]././.].].].]./.].[.].[.[.[.[.[.[.].Q.Q./.Q.Q.].[.}.[.[.[.[.[.[..XoX[.[././././.[././.].[.[.[.[.[.oX].].]././.Q.Q.R.T.W.T.W.W.^./.].}.}.}.[.[.[.[.[.[.}.[.[.].].].].[.].].[.[.].].[.[.[.[.[.].Q.T.R.R.R.W./.].].[.[.[.[.].].[.].]./.Q./././././.(.[.].R.A.L & , f .                                                                                                                                                                                                   ",
"f t N.G.G.Q.G.Y.R.T.T.W.W.R.Q.Q.Q././././.].}./.}.]./.[.].]./././.].[.[.].].[.].[.[.[.[.[.].Q.Q././.Q.].]..X}.[.[..X[.[.[..X[.[././.Q.Q.[./.^.Q.].[.[.[.[..X[.[.].Q./.Q.Q./.R.T.R.R././.W.(.].].[././.[.^.[.[.}.[.[.[.]./.].].[.[.].[.[.[.[.[.[.[.[.[.].R.Q.R.T.W.^.^.].[.[.[.[.[.[.[.[.].].Q.W.R./././.R./.[./.T.N.L * & 4 .                                                                                                                                                                                                   ",
"f p N.V.Q.G.Q.Q.T.Y.T.R.^.W.^.W././.Q././././././.].].[.].]./././.].].[.[.[.}.].].[.[.[.[.]././.].Q.].[.}..X}.|.[.[.}.[.}.|.}.]./.Q.R.Q././.Q.Q.].[.[.[.[.[.[.[.].Q.R.Q.Q.Q.T.R./.Q././.].].].].]./.].].].].[.[.[..X[.].].].[.}.|.[.[.[.[.[.[.[.[.[.[.Q.Q./.R.T.R.W./.[.].[.[.[.[.[.[.[././.R.R.Q.Q.]./.~./.].].T.A.L & & 4 .                                                                                                                                                                                                   ",
"f d C.Y.G.G.G.G.T.W.R.R.^.W.^.^.Q.Q.T.Q.T.Q./.}.}.}.}.}.}.]././././.}.}.[.[.].}.[.[.[.].].].].[.].].}..X}.}.[..X.X[..X[.[.|.}.]./.Q.Q./././.Q.Q./.[.[.[.|.[.|.[.[.].R.].Q.R.Q.Q././././././.Q.Q.^././.}..X].[.[.[.OX|.[.].].].[.[.[.[.[.[.].[.[.[.[./././.Q./.Q.^.R./.].[.[.[.[.[.[.[./.(.^.R.W.Q.Q.Q.Q.R.].[.].T.N.K * & & .                                                                                                                                                                                                   ",
"& d N.Y.G.G.Q./.W.W.^.^.^.W.^./.Q.R.T.T.T.T./.}.].}..X].].].].]./.].[.[.[.[.]./.].[.[.]./.].[.}.}.[.}.}.].].[..XoX[.|.[.[.}.}.}./.R.Q./.Q.^.T.R.[.[..X[.[.|.|.[.]./.[.].Q.Q././././.Q./././.Q.R.R.T.^.[..X[.[.[.].}.}.].]./.].[.|.|.[.[.].].[.[.[././.]./.]./.]./.R./././.[.].[.[.[.[./././.W.R.Q./.R.Y.T.].].].R.Z.K & , f .   X                                                                                                                                                                                               ",
"- d N.G.Q.G.Q.Q.W././.^.^.^.W././.T.T.Y.T.Q.}./.].].}.}././.].].].].[.[.[.[.].].[.[.[.].Q.].[.}.[.].}.}.}.].].[.|.|.[.|.[.}.|.}./.Q.R././.T.T.^./.[.[.[.|.[.[.[.Q.].[.]././.}.}.]./.Q.].].].Q.R.Y.R.^.[.[.}.}.[.[.].].}.].].[.[.[.[.[.[.].].[.[.[././.].[.].].].]./.^././.].].].[.[.].]././.W.R.R./.R.T.T./.[.].R.A.K & ; f .                                                                                                                                                                                                   ",
"f d N.G.T.Q.Q.Q.R.Q.]./.^.W.^.^.Q.R.W.T.W.W./.(.].}.}./.].].].].].].].].].].].[.].[.[.[.].].].|.[.}.}.|.}.].].}.}.}.}.}.].}..X/.Q.Q.R./.W.T.T.Q.W.^.|.|.[.[.}.[.].[.].[././.].]././././.].Q.Q.Q.R.T.Q.}.}.[.[.[.[.].[.}.[.[.[.[.[.[.[.[.[.[.|.[.[./.].[.[.[.}.[.[.[./.(./././.].].].].}./.W.R.Y.R.R.T.T.W.^./.(.H.N.L * ; f .                                                                                                                                                                                                   ",
"% d N.G.R.]./././././.Q./.^.^.^.Q.R.R.W.W./././.].}.}.Q.].].}./.[.[.].].[.].].].[.[.[.}.].].].[.|.|.}.|.}.(.].Q.}.]./.(.].].|./.Q.Q.Q./.W.T.T.Q././.(.].[.|.[.[.].[.}.].].(.]./.(.].Q././.]./.Q.Q.R./.].[.[.|.[.].].].[.[.[.[.].[.[.[.[.|.[.[.[.}.}.[.[.[.}..X}.[./.^.^.R.W.Q.]./././.}.Q.R.W.R.R.T.T.T.R.^././.T.A.L * & f .                                                                                                                                                                                                   ",
"& t m.G.R.Q.Q././.Q.Q.].W.^.^./.].Q.R.W.R.Q./._.].}.}.].].].].].[.].].].[.}.|.].[.|.|.[.[.[.}.|.}.}.oX.X_././././.Q./././.}.(.^.T.T.Q.R.Q.Q.Q.Q./.^././.[.|.[.}.].]./.].(.}./.]._.]././.].}.].].R.Q./.].}.[.[.[.].}.].}.].}.[.}.[.[.[.[.[.|.[.[.[.}.].[.[.[.[.[.[./.W.W.R.R.R.W./.].}.[./.R.W.R.T.W.W.T.R.^.).^.G.N.L & & 4 .                                                                                                                                                                                                   ",
"f d m.V.Y.E.Q.W.W.Y.R.T.W.W.W.U.Y.W.W.E.Y.Y.W.W.Y.Y.W.W.Q.E.W.W.W.Q.Q.Q.Q.Q.].}.].W.Q.Q.Q.Q./.Q././..X}._.W.W.Q._./.}.}..X|._.W.Q.Q.E.R.Q.E.T.T.W.^.!._..X].].].}.}.}.}./._./.Q.W.W.Q.W.W.W.W.E.Y.Q.Q.Q.Q.Q.Q.W.W.Q.Q./._.(.}.(.].}.|..X.X]..XOXoX@XoX}.[.}./.].|.).E./._.W.W.].Q.W.Q.Q.Y.Y.Y.Y.Y.Y.Y.Y.T.E.W.E.S.N.K & & & .                                                                                                                                                                                                   ",
"& d m.E.Q.Q.].}./._.`.(._._.)././._._.W.).W./.W.Q././.].}.Q./._.}.}._._.}.}.}.}.}.}._._.`.`.|._.}.}._.|.}._._._.}.}.|..XOX X`._._.Q.W._.}././.}._.`.`.|. X|.|. X X.X|.|..X.X|.}._._._._._.(._._.}./.]./././.].}._._._.|.|.|.|.}.}..XoX+X+X|.OX+X+X@X+XOX.X}.]./.}._.^._.|._./._.Q.Q._.W.Y.E.E.T.E.R.W.W.W.W.W.^.W.F.L & & f .                                                                                                                                                                                                   ",
"% d m.Q.[.}.|.|.|.|.|.|.|.|.XX|.|.|.|.|.|.`.|.|.|.|.OXXX.XOXOXOXOXOX|.+X+XOX+XoXOX+XOXOXOXOX X+X.X}.(.}.|.|._.|.}.|.|.|.XX|.`.`.|._.(.|.|..X}.}.`.|..XOX+X+X+X+X+X+X+X X+X+X+XOX+X+X X+X|.OX+X+X.X.X}.}..X.X+X+X+X+XOX+XOXOX+XOX+X+X+XoX|.+X+X+X+X+XOXXX.XoX}.].`.`.|._._._.`.(.|.|.|._.(.(.).).].[.`././.(.(.`./.S.K * ; ; .                                                                                                                                                                                                   ",
"% d m.Q..X|.|.XX|.|.XX|.OXOXOXXXXXXX|.XX|.OX|.XX X+XoX.X.XOXOXOXoXXX X+X|.OXXXoX+X+XOX+X XXX|.XX[.].}._.|.|.`.`.`.`.}.`.XXXX`.|.|._.(.|.XX|.}.|.|.|.OX+X+X+X+XOX+X+X+X+XOX+X+X X+X+X+X+X+X+X+X|..XoXoXoXoX+X+X+X+X+X+X+X+XoX+X+X+X+XoX+X+X+X+X+XOXOXoXXX X|.].}.(.`.|.`.(._.}._.|.|.|.(.(.`._.)./.|.(./._.`.(.`.(.S.L & ; f .                                                                                                                                                                                                   ",
"f e m.G./.[.|.|. X|.|.XXXX|.|.OX`.|.XX|.|.XX|.XX|.|.OXXXOXOXOX|.XX|.|.|.|.|.XX.XOX.XoXOXXX|.`.OX|.]./._.`. X|.`.|.|.`..X|.|.|.|.`.`.|.|.|. X|.|. X|.+XOX+X+X+XXX+X+X+X+X+XXX+X+X+X+X+X+X+X+X+XXXoX.XoXoXOXOX+X+X+X+X+X+X+X XOXXXXX.X.XoX+X+X+X+X@X|.|.|.|.|././.(.`.|.(.(.`.(.(.(.(.|.`.`.`._.).(.}.(./.`._.(.`.[.D.L & & f X                                                                                                                                                                                                   ",
"& 8 l.I.W.W.~.`.|.XX|.|.|.|.XX|.OX|.|.XX|.|.XX|.|. X|.XX|.|.|.`.`.`._._.(._. XXXXX|.OXOX{.`.OXOXOX|.`.`.`.|.|._.`.`.(.(.OX|.OX X X_.`.XX|.|.|.|.|.|.XX|.OXOXOX+X+X+X+X+X+X+X+X+X+X+X+X@X@X+X+X+XOXOXOX+X XOXOX&X#XOXOXOXOX|.|.`.].}.|.XXOXXXXXOXOX|.`.|.XXXX`.`.`.`.`.|.(._.`._.`.`.`.|.`.`.`._.(.(.(.(.(.(.(.|.(.D.K * & f .   X                                                                                                                                                                                               ",
"& 6 a.E.W.~.W._.|.XX X|.|.|.|._.`.`._.`._.(.(././.(._.(._.(.(.).).I.W.~./.).`.`.`.`.|.`.`.`.`.`.|.`.`._._.(.`.(._./.^.(.|.|.|.}._.(.(.`.}.(.|.`._.(.(.(.|.`.`.|. X|.XX|. XOXXXXX|.OX X|.|.|.|.|.XX|. X`.`.`.{.`.|.`.|.`.`._.)./././.(.|.XX|.|.XXXX|.|.`.|.XX|.`.`.`.(.`.(./._.).).(.(.|.`.).).(.).(.^.(.(.(.^.(.).F.V * & & .                                                                                                                                                                                                   ",
"; 4 X.t.s.l.x.x.x.F.N.m.x.x.m.x.x.j.z.x.B.C.m.m.x.C.m.x.x.x.z.z.x.x.x.B.B.V.P.P.P.F.F.P.P.L.I.W.T.I.P.W./._.(._.W.W.E.(.|.+X@X+X&X|.`.|.|.`._.|.|.^.W.W.W.W.W.^.^.(./.].|.`.XXOX X_.`./.W.W.W.T.^.~.~.~.^.W.).).).W.T.T.E.I.I.I.W.)._.|.oX#X@X&X@X*X&X*X@X&XOX|.`.`./.(._.^.~.T.T.W.(.(.`.(.W.I.E.T.W.W.W.^.^.|.].S.L & & f .                                                                                                                                                                                                   ",
"; & 4 8 d i p i i i i p i p a i i p i p a a s a a p a a s p s s a V V V V V K K V V V V K K K / ( / / ) ) ) [ [ ) ) ( [ [ O.o.X. .[ [ [ [ [ _ | [ ) ) ) ) ' ) ) ) _ _ _ [ [ [ | [ _ ' ) L ) ) ) ) ) ( ) ) / ( ( ) ) ( ( L ( ) / ( ) ) ) [ [ | | X.|  .| | | [ ' ) ) ) ) / ( / / K ( ( ( L ( ( K K / L / / ) ) ' ' K 8 & & & .                                                                                                                                                                                                   ",
"; ; & f & & & & ; & & f & ; & & & ; & f & f & f f ; f ; f ; f f f 4 ; ; 4 4 f f f f 4 4 f 4 f f 4 4 4 4 4 f 4 4 4 4 4 4 4 f 4 , f 4 4 , 4 4 4 , f 4 4 f 4 4 4 f 4 4 , < 4 f 4 4 4 , f 4 4 f , 4 f 4 f 4 f f f f 4 4 f 4 f f f 4 , ; ; & f ; & & & & & & ; & & & & & & & & & & & - & & & & & * ; & & & & & & * * & & & & & & .                                                                                                                                                                                                   ",
"& & f & - f f f ; f f f 4 f 4 f 4 4 f 4 , 4 4 f f f 4 4 4 4 4 4 4 4 4 4 4 4 4 4 5 4 4 4 4 4 5 5 4 4 4 4 9 6 4 5 4 5 5 4 5 5 5 9 5 5 5 9 5 5 9 6 6 6 6 5 4 6 4 6 5 9 9 9 5 5 5 5 5 5 5 5 5 5 5 5 5 4 6 4 5 5 5 5 4 4 4 4 4 4 4 4 4 5 4 4 4 4 4 4 4 4 4 4 4 4 ; 4 4 f 4 f 4 f 4 , f f f f ; ; f f ; ; & ; & & , & & & & & & f .                                                                                                                                                                                                   ",
"& & ; & & f ; & & ; ; ; ; & & ; & & f f f f , f ; f 4 4 4 4 4 ; 4 4 f 4 4 ; 4 4 4 4 4 4 4 4 4 5 4 4 4 5 4 4 4 4 4 4 5 4 4 5 5 5 5 5 5 5 4 5 4 4 4 9 4 9 6 5 4 6 4 5 5 4 4 5 4 4 5 5 4 5 4 4 4 4 4 4 4 4 4 4 4 4 4 4 4 4 4 4 4 4 f 4 f 4 f f 4 4 4 & 4 ; f 4 f ; f f & f & f & ; ; ; & f & - & & & & & ; & & & & & & & & & & .                                                                                                                                                                                                   ",
"4 4 4 4 4 ; 4 4 4 4 4 4 4 4 4 4 5 4 5 4 4 5 5 4 5 4 4 4 4 4 4 4 4 5 4 6 5 4 5 5 4 6 4 6 6 5 6 5 5 5 5 6 6 6 7 6 6 6 6 6 9 6 5 5 9 5 9 5 9 6 9 6 6 6 9 6 6 6 7 6 6 9 6 6 6 7 6 6 9 5 5 6 9 6 6 9 6 6 6 6 9 5 5 5 5 5 6 4 5 5 5 5 5 4 4 5 4 6 4 4 5 5 4 5 4 4 4 5 5 4 4 4 4 4 4 4 4 4 4 4 4 4 4 4 4 4 4 f 4 4 f 4 f 4 f , 4 ; X                                                                                                                                                                                                   ",
"$ * * $ * * * # $ * * * * # * * # * * * # * * $ $ * * * * # * # $ * * * # # $ * # * # * * * * $ # * $ * * * # # $ * * * # # $ * # * * $ # * * * # * * * # * # # $ * * * # # $ * # * * * # * * $ * # * * * * # # $ * * * # # $ * # * # * * * * $ * # * * # * # # $ * * * # * * * * * * * * $ * * # * * $ * $ * # $ * $ * * =                                                                                                                                                                                                     ",
"                                                                                                                                                                                                                                                                                                                                                                                                                                                                                                                                ",
"                                                                                                                                                                                                                                                                                                                                                                                                                                                                                                                                ",
"                                                                                                                                                                                                                                                                                                                                                                                                                                                                                                                                ",
"                                                                                                                                                                                                                                                                                                                                                                                                                                                                                                                                ",
"                                                                                                                                                                                                                                                                                                                                                                                                                                                                                                                                ",
"                                                                                                                                                                                                                                                                                                                                                                                                                                                                                                                                ",
"                                                                                                                                                                                                                                                                                                                                                                                                                                                                                                                                "
};
