/* XPM */
static char *comp_monitor[] = {
/* columns rows colors chars-per-pixel */
"256 256 184 2 ",
"   c #000000",
".  c #080707",
"X  c #080807",
"o  c #0C0B0B",
"O  c #190105",
"+  c #100F0D",
"@  c #12110F",
"#  c #161414",
"$  c #191616",
"%  c #1A1817",
"&  c #1D1A1A",
"*  c #2B0F14",
"=  c #2F1518",
"-  c #221E1E",
";  c #2A1316",
":  c #341218",
">  c #331D1F",
",  c #23201F",
"<  c #262322",
"1  c #2A2625",
"2  c #2C2926",
"3  c #2F2C2C",
"4  c #312E2A",
"5  c #322422",
"6  c #35322E",
"7  c #363225",
"8  c #332F30",
"9  c #3C3634",
"0  c #3E3837",
"q  c #3E3939",
"w  c #47282B",
"e  c #422327",
"r  c #532E30",
"t  c #4F3735",
"y  c #423C3B",
"u  c #4F3E3C",
"i  c #553033",
"p  c #47403F",
"a  c #49413F",
"s  c #474040",
"d  c #4D4544",
"f  c #4E4944",
"g  c #4D4648",
"h  c #4F484A",
"j  c #504746",
"k  c #504946",
"l  c #544C4A",
"z  c #584F4D",
"x  c #56504D",
"c  c #59504E",
"v  c #554F50",
"b  c #565051",
"n  c #5B5353",
"m  c #5F5853",
"M  c #5E5758",
"N  c #5F585A",
"B  c #634E4A",
"V  c #6A5C4C",
"C  c #605654",
"Z  c #635B55",
"A  c #6D5E57",
"S  c #635C5C",
"D  c #685F5A",
"F  c #666057",
"G  c #67615B",
"H  c #6A645C",
"J  c #6E685F",
"K  c #786854",
"L  c #71635C",
"P  c #70695F",
"I  c #726453",
"U  c #665F61",
"Y  c #676062",
"T  c #6B6463",
"R  c #6E6963",
"E  c #6E6668",
"W  c #706761",
"Q  c #736C63",
"!  c #796D65",
"~  c #706768",
"^  c #746E68",
"/  c #786F68",
"(  c #777166",
")  c #797267",
"_  c #76716A",
"`  c #7C756A",
"'  c #7F786D",
"]  c #777370",
"[  c #7E7770",
"{  c #7E7972",
"}  c #7E7B78",
"|  c #83745E",
" . c #807763",
".. c #80776D",
"X. c #817A6E",
"o. c #8A7E6C",
"O. c #847D72",
"+. c #887F74",
"@. c #8E826D",
"#. c #878074",
"$. c #8A8276",
"%. c #868078",
"&. c #8E8579",
"*. c #8F887B",
"=. c #90877B",
"-. c #928A7D",
";. c #988D7E",
":. c #9C8A72",
">. c #A3937A",
",. c #AC9A7F",
"<. c #8A8681",
"1. c #968D81",
"2. c #988F82",
"3. c #938F8A",
"4. c #979082",
"5. c #9C9285",
"6. c #96928E",
"7. c #9F9688",
"8. c #9F988A",
"9. c #999590",
"0. c #9F9A95",
"q. c #A19686",
"w. c #A49887",
"e. c #A09789",
"r. c #A49B8D",
"t. c #A89E8F",
"y. c #A79E90",
"u. c #A99F90",
"i. c #A39F9A",
"p. c #A7A096",
"a. c #ADA294",
"s. c #A6A19D",
"d. c #ADA49A",
"f. c #B0A697",
"g. c #B2A897",
"h. c #B1A798",
"j. c #B3A99A",
"k. c #B9AE9E",
"l. c #BBB09F",
"z. c #AAA5A0",
"x. c #AEA9A4",
"c. c #B4ACA2",
"v. c #B9AFA2",
"b. c #B4AEA9",
"n. c #BBB1A2",
"m. c #B6B1AB",
"M. c #BCB4AB",
"N. c #BCB6B0",
"B. c #BEB9B4",
"V. c #C0B7AD",
"C. c #C3B9AE",
"Z. c #C4BCB3",
"A. c #C8BFB4",
"S. c #C4BEB8",
"D. c #C9C0B6",
"F. c #C6C0BB",
"G. c #CCC4BB",
"H. c #D0C7BD",
"J. c #D1C9BE",
"K. c #CCC6C1",
"L. c #CEC9C3",
"P. c #D3CCC4",
"I. c #D5CEC9",
"U. c #D8D1C7",
"Y. c #D7D0C9",
"T. c #DBD4CD",
"R. c #DFD8CF",
"E. c #DDD7D0",
"W. c #DFD8D1",
"Q. c #E0D7D2",
"!. c #E3DCD5",
"~. c #E6DFD8",
"^. c #E7E0D7",
"/. c #E7E0D9",
"(. c #EBE3DD",
"). c #EEE7E0",
"_. c #EFE8E1",
"`. c #F1EAE4",
"'. c #F6EEE9",
"]. c #F7F0EA",
"[. c #F9F2ED",
"{. c #FCF6F0",
"}. c #FFFCF7",
"|. c #FFFFFD",
/* pixels */
"                                                                                                                                                                                                                                                                                                                                                                                                                                                                                                                                ",
"                                                                                                                                                                                                              . q y y q y y y y y y y y y y y y y y y y y y y y y q y q q q y y q y q q y q q q q q y q q q q q q q q q q q q q q q q q q q q q q q q q q q q q q q q q q q q q q 9 q o                                                                                                                                         ",
"                                                                                                                                                                                                              o N S M S N N N N U n M U N N N N N N N N S M n S N N M M M M M M M M n m M M M n M M M M m n M n M m M n n M m M n n n m M n n n n n M n n n M n n n m n n n b n n n M +                                                                                                                                         ",
"                                                                                                                                                                                                              . b n n b n n v M n v v v b n v b v b n v n b b b v v v b b b b v n b b v v v v v v v v v v v v v v b v v v v v l z z v b v z v l v v z v v l v l b v v l l v l z l z v +                                                                                                                                         ",
"                                                                                                                                                                                                              . v M n b M v M v b n n v M n b M M v M b b n n b v v n l v v v v v v v z v v v l v v l b v l z l l v l h v h v v l l v k l v z v v z v z v x b z v v b l v v l v l v v o                                                                                                                                         ",
"                                                                                                                                                                                                              . b v M M v M M n M v b M v b n b M b n b b b S / ..O.` J ` ` ^ ` ^ ` ..D ` +.O.` &.&.' ~ ` ^ ` ` ~ H T ! O.[ ..&.Q R ~ Q ` ^ l v v v v z v v b l z z b v v l l v v v v o                                                                                                                                         ",
"          .       .       .     .         .         .       .     .       .     .         .         .       .     .       .     .       .           .       .     .       .     .         .         .     .   . n M v n n b v M v n b n b n M b v b M n n v / =.&.&...X.&.+.&.-.+.1.2.O.e.7.7.r.y.a.2.` &.&.O.&.O.` +.-.2.2.5.5.+.O.` $.-.&.v v z b v v z b b v v x l v v l v z z l v +                                                                                                                                         ",
"                                                                                                                                                                                                              . b b M v M M n v M v M v M b b n b n b b M v [ =.O.$.` ` ` ` #.+.O.-.1.O.y.1.2.7.r.7.1.` &.O.` ..#.X.&.1.$.5.1.2.1.&.` O.-.$.l b v l v z v l b z v v b l v v l v v v v +   .                                                                                                                                     ",
"    & 1 < < < < < < < < < , < < , < < < , < , 1 < < < < < < < < < < < < < < < < < < 1 < < < < < < < < < < < < < < < < < < < < < < < < 1 < < < < < < < 1 < < < < 1 1 < 1 1 < 1 < 1 1 1 < 1 < < < < < < < < 5 - . n M v n M b n M M b b n M b b n b M n b b l [ &...<.O.` ` / &.+.X.&.&.O.a.2.;.r.5.5.2.O.=.&.X.O.*.$.4.7.&.r.=.;.7.&.O.#.&.#.n l v z z v b b v z z b v l v l v v l v b o                                                                                                                                         ",
"    y c l x l z z l l l l z z z c l x z z c z x z z z b z b c b c z c c c c v c c c c c b c c n n c c c c c n c n b n c C c C c n n n n n B n n C n n n C n C n n c C c n n n n n c n n n n C C C C C C n Z s   M b M n v M n v b v n b n b b M b b b n n v +.2.&.1.&.&.#.#.-.=.=.;.1.2.e.5.r.1.7.&.J ;.r.5.e.=.7.4.e.t.7.r.5.7.7.2.=.=.1.4.N l x v v z z b l v v l l b z v l v v l b +                                                                                                                                         ",
"    9 k s s a u a d k l x l l k d d d d j j j d j d j g j j f d g j g d j j j j j j h j j j j j j j j j l l j j k j l l h j j h j j h j h j l j j k k k l j l j l k k k k l k l z z c c z z l k j j j l l c y   v n M b b n M v n M n b b n n b M b b n b n -.r.r.w.e.e.r.r.y.e.r.t.t.t.r.a.a.7.t.r.q.t.t.r.a.r.t.a.u.t.u.t.u.u.t.r.5.1.q.7.S l b v x v v l z v v x b l z l v z l v b o                                                                                                                                         ",
"    9 l k c m m c J O.( ` ' ( ! m G m d k k j k k j l k k l l k k l l k l h j l h l l l l l l l l l l l l l l l l l l l z z l z z v l l z z l z l z z z l z l l z l z z k m O.' 2.r.r.q.2.+.n z C C C n z c y . M v b M M n M b b v M n n b M b b M n n n n 5.a.r.r.r.u.a.r.r.y.t.r.t.u.t.t.t.u.a.a.t.t.t.r.t.a.a.t.t.7.e.7.r.u.t.t.7.5.t.a.H l b z b b b b v v x v b b v z v v v v c +                                                                                                                                         ",
"    0 l d -.y.r.4.7.*.` ( ! Q ) Q O.l k s d d s d d s j f a f d d d s d d d d a j j u d d d d d g d d a d d d d d d d d d d d d d d d d d d d d j d d d d d d d j j j j k A *.+.2.&.#.-.5.1.+.1.w.e.e.+.l c y   n n b v v v v n c v v v b b v v b v v v h n r.u.u.u.t.a.a.a.a.a.a.f.a.a.t.t.a.t.y.a.a.a.f.j.j.j.g.f.j.j.j.g.a.a.a.a.r.a.f.k.~ h b l l h k v v l l l k l h l g j l v v +                                                                                                                                         ",
"    9 l d 7.y.7.r.7.8.e.u.f.a.r.5.5.&.;.&.&.&.-.=.&.&.O.&.$.#.-.-.1.-.-.1.-.-.=.=.<.;.=.-.1.-.-.1.1.=.=.-.-.-.&.&.-.&.-.1.&.&.1.1.1.1.-.1.1.-.-.=.=.&.=.-.1.-.=.-.-.=.;.-.-.-.5.e.-.-.7.r.1.r.u.h.a.k.5.l n y   n b S ` ^ [ R v H Q ^ ..D l R J M ] ~ R [ ` 2.5.&.2.=.&.7.5.2.5.e.&.&.=.2.2.#.5.4.*.X.` #.O.X.#.O...#.-.&.#.1.5.#.1.1.#.O.O.X.Z m J H E ` F c ! T R R ` R E O.` T l v +                                                                                                                                         ",
"    9 l f q.t.4.e.7.e.y.f.g.a.a.h.u.g.e.r.f.f.g.h.a.a.r.g.y.r.g.d.j.k.j.j.j.j.j.f.h.k.h.h.j.j.k.c.v.j.j.j.j.h.a.h.u.h.j.j.j.h.j.j.j.j.j.h.j.j.j.j.f.f.h.j.j.j.k.j.j.j.f.g.f.a.t.f.w.r.u.a.r.7.e.r.a.h.5.l c y   M v S 2.-.5.O.O.=.O.;.2.` X.+.O.-.e.#.2.e.+.-.1.` &...` 1.-.$.-.2.&.X.-.-.#.Q 5.2.` O.;...` =.Q X.&.) O.2./ -.1.X.-.&.Q =.+.X.#.O.' ` ' #.-.O.&.X.O.#.1.O.X.7.=.` h b +                                                                                                                                         ",
"    9 l d e.7.e.e.e.7.t.a.a.f.a.a.y.h.4.5.a.u.a.t.u.u.r.a.r.7.a.u.a.a.a.f.a.j.f.h.j.j.a.u.d.a.f.a.u.a.a.u.u.e.5.e.u.y.y.u.u.u.u.a.a.f.a.u.u.a.u.f.a.u.t.a.u.f.f.f.f.f.u.a.a.t.r.r.e.r.e.a.7.7.r.r.r.h.e.l b y . n b Z 2.5.5.+.+.-.#.2.-.` =.=.+.4.e.&.2.e.+.+.2...&...` &.&.&.-.1.-.&.5.1...Q 5.&.' 4.a.&.&.r.` &.5.X.2.r.#.7.r.*.5.;.` 7.;.` &.&.` ` ` ` &.+.O.` +.-.O.` ` 2.-.O.l b +                                                                                                                                         ",
"    9 l j 5.5.2.1.2.5.r.h.a.u.f.u.u.f.r.r.t.t.e.r.j.g.a.a.g.a.a.a.u.a.w.r.:.o.f.w.L A 5.a.a.f.a.a.j.h.u.e.r.2.5.5.r.y.t.a.a.u.u.a.f.a.a.a.f.f.u.f.f.u.u.a.a.h.h.f.a.a.f.a.a.t.a.7.r.e.r.a.7.5.r.u.r.a.e.l c y . M v S 7.e.r.$.O.-.&.7.7.O.&.2.$.1.e.#.&.q.&.-.2.` +.O.` #.&.&.&.4.&.&.7.;.+.J 5.&.O.5.f.2.&.u.` =.r.1.7.t.2.t.a.;.8.5.#.t.5.&.#.#.` Q ` X.O.X.#.O.#.1.O.! O.7.5.%.l b o                                                                                                                                         ",
"    9 l d 5.r.5.-.2.5.r.h.u.u.h.h.f.g...H g.u.t.7.m 7.f.j.` ' j.a.a.a.w.o. .| q.L * =  .g.a.f.h.q.A u.u.r.e.2.2.e.e.r.a.a.u.u.t.a.f.a.a.a.a.f.r.u.u.u.f.f.a.j.f.a.a.u.f.a.a.t.e.t.u.e.a.a.e.5.e.u.u.a.7.l z y   n n S 7.r.y.-.1.1.#.5.r.+.&.2.&.&.7.#.=.e.-.2.2.` &.&.X.2.=.&.1.q.&.-.t.4.*.Q 5.-.O.7.g.e.;.a.O.2.f.5.e.t.1.a.a.5.t.8.*.f.r.-.#.' ( J ( X.#.&.+.O.-.+.O.( ` 4.7.#.z b o                                                                                                                                         ",
"    y k d 5.r.5.5.2.5.e.f.a.u.u.u.u.f.1 o e.;.` J   f ;.&., , $.+.q.j.f.o.w.>. .B r w u a.e./ X.l   / j.u.r.e.1.e.u.u.a.a.a.a.a.t.t.a.t.u.f.a.u.u.u.f.f.a.a.h.a.a.a.u.a.a.a.a.u.r.7.r.r.h.e.5.5.u.u.h.e.l z y   n b S t.y.g.1.&.5.+.5.e.X.&.2.&.-.e.#.&.r.-.1.2.` &.&.X.2.=.&.-.r.&.-.r.1.1.! 7.-.#.7.a.t.4.f.#.r.f.e.r.a.e.a.a.5.t.y.4.a.7.#.#.$.` P ` X.&.&.X.+.&.X.` Q ` 5.t.$.l z & 0 0 9 9 9 9 q q q 9 q q 9 9 9 9 q q q 0 y y 0 y 9 y y y y 0 q q y q q y y 0 y y y q y q y y y q y y y 0 q y y y q q q q y y y y y y s # ",
"    9 l j 5.7.5.e.e.5.r.a.a.u.u.f.r.u.k o 1.t.e.#.. m f.t.9 , w.q.u.j.j.o.:.:.o.B r e j a.a.e.a.Z   X.u.r.u.r.e.e.u.u.a.a.u.t.a.a.a.t.f.a.a.f.u.u.f.u.u.a.a.a.t.a.t.u.f.u.a.u.u.e.7.r.u.a.5.5.r.u.u.j.e.l z y . n b G a.a.h.1.X.2.+.1.5.` &.1.+.-.r.+.#.u.1.1.2...=.&.O.2.;.-.-.e.-.2.r.5.-.Q r.-.#.7.a.t.5.a.5.a.f.r.t.a.t.a.a.7.a.a.8.f.7.#.*.;.` ) ' O.-.*.&.$.+.` ) ! ` q.5.O.l l - a p y p y y y y y y y a s f s s p y y y y y y y y y y y y y y y y s y y y y y s y y y y y y y p y p p a y s s y s s s u s s s d s s l % ",
"    9 l j 5.5.2.7.e.5.y.a.t.r.u.a.t.a.7.#.f.a.a.g.=.r.f.f.5.-.j.a.h.a.f.=.V I q./ * > =.f.a.a.f.e.O.a.u.a.f.u.r.w.r.u.u.a.a.t.u.f.a.u.a.f.f.f.r.r.r.r.a.f.f.a.a.a.a.t.u.u.t.y.t.y.r.r.a.u.5.5.u.u.a.k.e.l B y   M v U a.a.a.1.O.-.O.=.-.` 1.5.+.1.7.#.&.r.-.4.5.X.-.=.&.e.4.2.5.r.2.1.5.-.&.` e.;.O.e.g.r.7.f.e.a.g.r.u.a.e.g.f.8.a.a.8.j.;.#.*.5.( ` #.&.-.-.4.$.+.` ` / ..e.1.] l v & p a l z c c Z Z D Z Z H Q ( ( J F F F F G Z D D Z Z D Z G Z G S F F F F G D Z G F S F D D D Z Z Z Z Z Z Z Z Z Z Z Z Z Z Z Z C x x f f & ",
"    9 l d 7.5.5.7.e.5.r.f.r.r.u.a.t.f.f.r.e.a.a.a.j.g.a.a.h.g.a.h.h.a.a.f.;.-.a.f...+.u.a.f.f.a.a.j.f.a.f.u.a.u.a.f.a.f.a.a.u.a.a.a.a.t.u.u.f.u.r.r.r.u.u.f.a.t.t.a.a.a.t.t.a.r.a.r.8.7.a.2.5.a.u.f.f.2.l z y . n b Y f.a.a.#.+.5.O.&.2.O.$.2.#.1.e.&.-.e.&.-.-.X.;.&.#.e.-.5.a.r.5.1.2.#.&.O.7.-.#.7.a.y.e.p.7.f.a.t.u.f.e.g.f.8.a.g.8.j.;.#.*.-.#.#.*.&.-.$.1.-.$.$.X.` &.u.2.O.l l - y f Q ( ( ` #.-.1.1.4.$.-.&.*.*.-.-.-.-.;.1.1.1.;.1.1.;.1.4.4.4.4.4.;.;.2.2.;.4.4.;.1.-.-.=.&.&.=.#.&.=.-.-.&.&.=.=.&.+.#.X...J P Z d % ",
"    9 l d 5.u.r.5.r.e.w.f.t.e.a.u.e.4.e.e.r.u.a.a.d.a.a.u.a.a.a.a.a.a.a.f.j.j.f.f.j.f.u.h.f.a.f.a.a.a.u.u.u.h.h.a.f.a.j.f.a.u.f.f.t.a.t.u.f.a.r.u.a.r.t.r.t.u.t.t.u.a.u.t.t.u.u.r.7.5.r.u.2.5.u.f.a.f.2.l n y   n v G a.y.a.r.7.r.-.-.a.7.7.r.7.5.e.r.7.u.2.4.5.2.r.5.-.1.2.e.t.e.7.r.e.4.5.e.e.e.;.7.y.u.a.a.t.a.a.u.r.y.r.t.a.a.a.a.u.a.a.8.;.-.7.;.5.;.5.-.;.1.1.5.5.1.r.u.2.` v v & y x ! ) ( ( O.*.&.&.*.$.*.#.&.&.*.*.*.*.&.&.&.&.&.&.&.&.*.*.*.*.*.*.$.*.*.=.*.*.*.&.&.&.#.#.#.#.#.X.#.$.#.+.O.O.X.O...` ` ( P H ) H d # ",
"    9 l d 7.a.e.e.5.e.r.f.r.e.a.f.a.a.u.t.f.a.f.a.a.j.a.a.a.a.f.a.f.a.f.j.a.h.a.f.u.u.f.g.j.h.f.f.f.f.f.j.u.j.j.a.a.f.u.r.u.u.a.f.a.t.t.r.f.d.e.r.u.u.t.r.a.a.a.a.a.u.a.a.a.a.a.y.y.r.y.f.5.e.u.f.u.h.5.l n y   n b Y u.e.y.a.h.a.t.t.a.a.d.a.y.e.r.r.r.u.r.a.a.r.r.5.5.4.7.t.e.a.u.t.u.8.t.t.7.e.7.y.t.r.a.a.a.u.p.u.t.a.t.r.y.a.t.t.u.t.y.t.y.8.r.r.5.7.4.5.7.5.5.7.y.e.y.7.&._ l v - y c Q ` ' ` #.&.-.*.*.*.-.*.*.&.*.*.-.*.-.-.-.-.-.*.=.=.*.*.*.*.*.*.*.*.*.-.=.=.=.=.*.=.=.=.&.&.#.&.$.$.&.&.+.+.$.o.` ) ` ( J Q X.R s & ",
"    y l j e.a.u.e.r.1.1.r.5.1.r.a.r.r.t.e.r.w.r.e.r.r.e.8.t.e.t.r.r.u.r.u.u.u.r.t.r.e.t.a.t.t.y.t.y.t.t.u.e.r.u.e.e.5.2.e.r.q.e.r.e.5.2.e.e.r.5.2.e.e.5.e.r.e.e.e.e.e.r.t.r.r.e.5.5.-.2.r.2.-.5.r.u.f.2.l c y . n b U r.r.u.h.h.f.a.f.a.a.f.a.t.e.r.e.e.a.a.a.a.r.r.q.7.r.r.t.r.a.a.a.a.r.t.t.8.7.r.a.r.a.y.y.a.t.a.a.u.a.r.u.r.a.a.8.8.y.y.t.a.a.w.r.r.r.r.5.5.1.5.7.7.7.4.4.=.` l v & y m J J ..#.$.*.-.&.-.-.-.-.-.-.-.-.-.-.-.-.*.-.-.*.-.-.*.-.-.*.-.*.*.*.=.-.-.-.*.-.-.*.-.-.&.&.&.-.*.*.=.&.&.$.&.#.' ) Q ( ( ` $.J s % ",
"    9 l d e.a.y.e.r.7.5.7.7.5.e.5.r.5.e.e.r.8.e.e.5.;.5.7.1.e.7.q.q.e.5.e.e.e.e.e.e.e.4.5.q.q.4.5.7.e.7.r.2.-.e.r.5.q.5.2.2.2.5.2.=.-.=.=.=.2.5.2.1.1.-.=.5.7.7.;.e.1.5.5.4.w.-.1.5.2.2.q.5.1.5.u.u.u.2.z c y   n b S r.u.f.g.g.f.f.a.f.a.f.f.t.r.u.t.r.f.a.a.g.u.t.a.r.t.u.u.u.a.f.a.t.t.a.y.8.7.w.r.r.r.a.a.r.r.u.r.a.r.r.g.r.r.r.r.y.t.t.u.a.t.r.a.u.y.a.r.5.5.5.7.7.2.7.e.q.{ v l , y m J J #.$.&.-.-.-.-.-.-.-.-.-.-.*.-.-.-.;.-.-.-.-.-.-.-.-.-.-.-.*.*.-.-.-.*.-.-.-.-.-.-.-.*.-.-.*.-.-.=.&.&.&.$.#.' ` ( ` ` X.*.Q d % ",
"    9 l d 5.u.u.e.y.u.a.a.h.u.a.t.a.q.t.a.y.a.a.g.r.y.a.r.5.a.a.q.u.u.r.r.7.e.a.e.e.u.q.r.y.t.7.r.a.a.t.t.e.2.a.a.y.a.r.5.e.e.r.r.1.-.-.1.2.2.u.q.5.q.2.=.5.t.e.1.t.5.7.u.5.t.1.2.u.u.r.2.a.y.y.f.u.j.5.l c y   n b D u.a.h.h.h.h.g.f.a.a.f.d.a.y.t.8.t.a.a.g.g.a.r.u.u.t.t.a.a.a.f.a.t.t.a.r.e.r.r.r.a.a.a.r.r.u.y.r.a.r.r.r.r.y.t.u.t.t.a.a.t.t.t.y.a.a.a.y.w.8.7.7.7.5.7.t.t.{ l v & y m ! ( #.$.&.-.=.=.;.-.-.-.-.-.-.-.-.-.-.1.-.-.-.-.*.-.-.-.-.-.-.-.-.-.-.-.-.-.-.-.-.-.-.-.*.-.-.*.-.-.-.=.*.&.$.X.( `  .#.O.#.*.! s & ",
"    9 k j e.f.u.a.y.t.u.a.a.f.h.f.u.7.q.a.t.u.t.a.t.y.u.5.5.r.r.r.r.r.r.r.u.r.u.t.t.a.q.7.r.t.t.a.u.y.t.u.e.5.a.e.r.u.e.e.r.r.t.e.1.1.-.1.e.r.u.2.2.e.4.-.7.5.e.7.r.5.2.r.e.r.1.2.y.y.r.r.u.e.u.u.a.h.5.l c y . b c U j.a.h.f.h.g.a.g.g.f.a.f.a.a.y.t.y.a.a.a.a.a.f.f.f.t.r.f.a.g.a.g.r.a.u.r.e.y.a.a.y.a.g.w.r.a.u.a.a.r.r.r.a.t.t.t.t.t.a.t.t.t.a.y.y.a.a.u.y.y.7.7.a.t.t.t.r.+.l z - y Z ' ' $.&.*.=.=.=.=.-.-.-.-.-.-.-.-.-.-.-.*.-.-.*.*.-.-.-.-.*.-.-.*.-.-.-.-.*.-.-.*.-.-.*.-.-.-.-.-.*.-.=.*.$.#.` ` ' #.&.$.$.4.( s & ",
"    y k d w.h.f.a.u.a.t.a.a.a.f.t.a.f.a.t.r.t.e.y.7.a.a.7.7.a.t.u.u.u.2.r.u.f.u.u.t.a.r.t.a.a.a.t.a.t.t.a.t.e.a.a.a.h.u.r.u.u.f.y.2.u.2.5.r.5.a.u.e.u.e.4.r.e.q.7.y.e.r.t.r.r.7.e.t.r.t.t.a.u.f.u.u.a.e.l c y   n b D u.a.d.a.d.d.f.f.f.f.f.h.a.a.f.a.a.f.a.7.y.a.f.h.f.a.a.f.a.a.a.f.t.u.r.r.u.t.a.g.r.a.a.y.r.g.a.a.a.r.a.r.t.y.t.u.t.8.y.r.t.t.t.a.a.u.a.g.a.y.r.r.u.a.a.r.e.+.l l - y F O.+.$.$.&.&.=.&.=.-.-.-.-.-.-.*.-.-.-.-.-.-.*.*.*.*.-.-.-.*.-.-.-.-.-.-.-.-.-.-.-.;.-.*.-.-.-.*.-.-.-.*.$.$.' ` ' ' #.*.*.*.1.( s & ",
"    9 k d r.j.f.a.a.a.u.a.a.a.a.a.f.f.a.u.r.a.r.t.r.a.u.5.;.7.5.2.7.5.1.7.7.e.2.7.7.4.7.5.7.e.4.7.5.7.5.2.5.2.7.5.e.e.5.2.2.4.5.1.1.1.1.&.-.$.2.2.2.1.1.-.1.4.r.e.y.7.t.a.t.y.r.r.t.t.a.u.a.f.a.a.u.j.5.l n y . n b S r.e.r.e.u.f.a.f.f.a.a.h.g.f.f.g.f.a.a.7.t.f.f.a.a.a.a.a.u.u.a.a.a.r.r.y.r.y.a.a.r.a.a.y.r.t.t.r.t.a.r.t.a.t.y.a.t.y.a.t.a.t.a.y.t.r.a.a.a.a.r.e.a.a.a.y.a.%.l v & y Z &.&.&.$.&.&.=.&.=.-.-.-.-.*.-.-.-.-.*.-.-.-.-.-.-.-.-.-.-.-.*.-.*.*.*.-.-.-.-.-.-.-.*.-.*.*.*.-.-.*.-.*.$.' ` ' ' O.&.-.-.*.4.Q s & ",
"    y l d r.k.h.d.a.a.t.g.g.a.f.g.h.f.f.a.f.a.a.u.f.a.q.e.e.r.r.e.e.r.e.e.e.e.e.7.5.e.e.7.7.7.7.7.7.7.7.7.7.e.7.5.7.7.7.r.5.5.e.5.7.5.5.5.5.5.e.e.e.e.8.7.;.$.r.r.a.p.t.a.u.a.a.t.a.a.f.a.a.a.u.a.h.h.5.l n y   n v U r.r.r.r.u.f.f.f.j.g.g.g.g.f.a.f.f.f.a.a.a.f.a.f.h.h.h.a.a.a.a.a.a.f.a.u.a.a.a.y.a.a.a.a.a.r.a.t.t.a.t.a.a.t.u.a.t.t.a.a.a.t.t.y.y.y.y.a.a.f.y.t.a.a.t.t.a.&.l k - y Z +.&.&.&.=.&.&.&.=.-.-.-.-.-.*.*.-.-.-.-.*.-.-.-.-.-.-.*.*.-.-.-.-.*.-.*.*.-.-.-.-.*.-.-.-.*.-.-.*.*.*.&.#.X.' ' #.&.*.-.-.*.4.Q s & ",
"    9 l d r.k.h.f.a.a.a.g.h.h.f.h.h.h.f.f.f.a.a.a.a.a.4.-.5.5.8.e.r.r.e.e.e.e.7.7.e.e.e.e.e.e.e.e.e.e.e.7.e.e.5.7.5.5.7.r.e.e.w.e.e.7.8.8.8.5.e.e.5.5.5.4.&.#.a.u.t.r.u.a.a.a.a.a.a.u.f.a.a.t.j.h.h.j.5.j c y   M v U r.e.e.r.u.a.f.f.f.f.f.f.a.a.f.a.f.g.a.a.a.h.a.a.h.h.f.h.f.a.a.u.a.a.a.r.a.a.g.r.r.a.t.g.a.t.t.t.r.a.t.r.a.a.a.a.w.y.a.a.t.t.t.y.t.r.r.a.g.a.u.u.a.a.e.r.e.#.l l - y Z +.#.&.=.&.=.=.&.&.=.*.-.-.*.-.-.-.-.-.-.-.-.-.-.-.-.-.-.-.*.-.*.-.-.-.-.*.-.-.-.*.*.*.-.-.*.-.-.*.&.*.&.#.#.#.&.*.-.-.-.-.-.1.( s & ",
"    9 l j r.c.f.f.f.f.a.f.a.f.f.f.f.a.a.a.a.a.u.u.f.u.r.1.+...+.1.2.5.2.-.1.5.2.1.2.5.e.5.e.e.u.u.r.e.2.5.5.e.e.r.e.r.e.e.a.r.e.r.8.7.7.1.-.-.5.7.1.-.-.-.O.+.u.f.a.f.a.u.a.u.f.a.a.a.f.a.f.a.f.h.a.h.e.l c y . n b D r.e.e.t.f.f.h.h.a.a.u.a.a.a.a.a.f.a.f.h.j.g.a.f.h.a.h.h.a.a.a.f.a.a.a.a.a.u.a.u.t.a.u.a.a.u.u.t.a.a.t.t.u.a.a.t.t.a.t.r.r.y.a.t.y.a.r.a.a.t.u.t.a.a.r.w.7.#.x l & y Z #.&.&.=.&.=.&.&.&.*.*.*.-.-.-.-.-.-.-.-.-.-.-.-.-.-.-.-.=.*.-.-.-.*.*.-.*.-.-.*.*.*.*.*.*.*.*.*.&.&.&.&.#.#.#.-.-.*.-.-.-.*.;.) f % ",
"    y l j r.h.a.u.a.u.u.a.t.u.f.h.f.a.a.a.h.a.a.h.f.h.e.5.1.+.&.1.e.e.5.2.5.e.r.5.e.e.e.5.r.r.u.u.u.u.e.u.u.r.u.t.e.a.r.t.a.u.t.a.t.r.8.5.1.5.5.r.5.2.-.-.+.O.u.h.h.f.u.u.u.u.f.f.f.f.f.a.f.f.t.a.h.j.2.z c y   b b S r.t.t.f.f.h.h.h.a.a.f.f.a.u.a.f.f.f.f.f.a.f.f.a.f.h.h.h.a.a.f.f.h.f.a.a.g.a.u.f.t.f.a.u.a.a.a.a.a.u.a.a.t.u.a.a.a.p.r.t.t.a.a.a.a.r.a.a.a.a.t.r.a.g.t.r.r.&.l l - y J &.&.&.&.&.&.&.&.&.*.*.*.-.*.*.-.-.-.-.-.-.-.-.-.-.-.-.-.-.-.-.*.*.*.-.*.*.-.*.*.*.-.*.*.1.-.-.*.&.*.&.&.*.*.*.*.*.*.*.-.-.*.-.' l $ ",
"    9 j d 7.h.h.f.u.u.u.u.u.u.f.u.a.h.a.a.h.a.h.h.a.d.e.2.1.&.&.2.e.e.r.5.5.5.e.e.5.r.r.5.e.u.d.a.a.u.r.r.u.r.e.t.r.u.a.t.a.a.u.a.t.7.7.5.5.r.5.y.5.1.&.-...O.u.h.h.f.a.u.u.f.f.f.f.f.f.a.a.a.a.a.j.h.q.l c y   n b S t.t.a.f.f.h.a.a.a.a.f.h.f.a.f.j.h.a.a.u.a.g.d.g.g.h.g.a.h.g.f.a.f.f.a.h.f.f.a.a.u.u.a.a.a.t.t.t.u.a.a.t.t.a.a.f.t.e.r.t.t.a.a.a.a.a.u.a.a.r.a.u.a.f.t.r.t.*.l h , y ! #.&.&.o.&.=.&.#.*.*.*.*.*.*.-.-.-.-.-.-.*.-.*.*.*.*.-.-.*.*.*.*.&.&.-.*.*.*.&.&.&.&.&.&.*.*.*.-.&.*.#.*.&.*.*.*.*.#.&.*.*.&.&.#.x # ",
"    9 l j 7.a.a.f.f.f.u.u.a.u.u.a.a.h.a.a.a.a.h.f.u.u.e.5.1.&.=.r.e.r.u.y.e.5.u.r.e.r.e.5.5.y.h.u.e.u.r.t.a.f.r.r.r.u.a.a.a.a.u.t.t.t.7.5.r.t.7.y.w.1.#.$.` O.y.u.u.u.u.a.f.f.f.u.f.u.u.a.a.f.a.a.h.h.e.l c y . n v D t.r.r.t.a.a.f.a.h.h.a.a.a.f.h.j.j.f.f.u.h.h.g.h.g.g.h.h.a.f.a.a.f.a.a.h.a.a.a.u.f.t.a.a.a.r.a.a.a.a.f.a.a.a.a.a.t.r.t.r.a.g.a.a.t.a.t.a.a.a.t.a.a.t.a.g.a.&.h b & d X.+.#.&.+.#.=.=.=.-.*.-.*.*.*.-.-.-.-.;.-.*.-.-.&.&.-.-.*.*.*.-.*.$.*.-.-.*.*.&.*.&.&.$.*.*.&.*.-.-.-.-.#.*.-.;.-.#.#.#.*.*.#.*.*.n # ",
"    9 l d 7.h.a.a.f.u.u.t.t.a.u.u.a.h.u.u.u.u.a.h.h.u.w.8.5.1.-.r.u.u.f.d.u.e.u.e.e.u.r.e.2.w.a.h.e.7.h.a.a.h.u.t.t.u.a.a.u.a.a.t.t.t.8.7.e.e.q.u.y.5.&.&.` ` r.u.a.r.e.u.f.f.f.a.f.u.u.f.a.a.f.h.h.h.2.l c y   b v U y.r.r.a.f.a.f.f.h.h.h.a.a.a.a.j.j.h.h.f.h.h.h.a.g.g.h.a.g.f.a.a.a.f.a.a.a.u.u.u.u.t.a.a.a.r.a.a.f.f.f.t.a.a.u.y.y.u.f.a.a.f.a.y.u.a.u.a.y.u.a.t.u.u.a.r.a.<.l v % g ` _ ) ` ` ! ` ` ` ` ` ' ' ` ` ' ' ' O.#.{ ' { X.` ` ' X.' ' ` ' ` ) ` ` O.' ' ' ' ` ` ` ` ' ' ' X.{ { ' ` ` ' { { ' ` ) ' ' ` ' #.x $ ",
"    9 l j e.a.u.u.a.a.a.a.a.a.f.u.a.f.u.a.u.h.h.u.h.u.r.5.2.1.1.e.h.h.h.f.f.u.a.r.u.a.u.u.u.r.a.f.h.u.a.a.h.a.u.a.t.u.f.a.a.a.a.a.a.a.e.5.t.t.r.u.y.2.-.-.! ` r.a.a.r.e.u.a.u.t.a.a.u.f.a.a.a.a.u.u.h.2.l n y   M v H a.a.a.a.f.h.a.h.a.a.h.f.f.a.f.h.g.h.f.h.h.j.g.f.f.h.h.h.f.g.f.a.a.g.j.a.a.a.u.a.a.a.a.a.a.a.t.r.a.a.a.u.a.a.a.a.a.a.a.a.a.a.a.a.y.a.u.y.u.u.a.u.a.y.e.7.r.&.l v & g -.-.-.-.-.1.1.4.4.4.4.;.5.;.-.=.-.-.;.-.-.;.;.4.5.4.;.4.5.;.4.;.5.1.1.-.-.;.;.-.-.;.;.*.4.4.4.-.4.;.4.4.-.4.4.5.;.-.-.4.-.4.4.4.-.x # ",
"    9 l u ] e.5.e.u.r.u.a.f.a.u.h.a.a.a.h.u.u.h.u.u.h.1.2.5.-.r.u.h.f.f.a.f.f.f.u.r.a.a.f.a.a.a.a.h.j.a.u.h.a.f.t.r.f.f.a.a.a.a.a.a.a.e.7.a.u.u.a.u.2.-.1.$.` r.u.a.r.5.e.r.u.t.t.u.a.a.a.a.a.t.y.1...A l b y . n v S a.t.f.f.a.f.a.h.h.h.h.h.f.a.h.a.h.j.f.f.h.h.h.d.h.h.g.j.g.h.h.a.a.h.a.a.a.u.a.a.a.u.a.a.g.f.t.4.e.a.a.a.f.a.a.a.a.g.a.u.a.a.a.a.u.a.a.u.u.a.a.r.u.a.u.r.r.&.h v & k u.h.j.g.k.a.d.j.k.k.j.k.j.j.j.f.f.h.h.j.j.c.g.c.k.k.j.j.k.j.g.j.j.g.j.c.g.g.g.g.g.j.c.g.g.j.j.g.g.g.j.j.j.j.j.j.j.j.y.a.j.j.j.j.a.m $ ",
"    9 l j C 5.2.2.e.r.r.u.f.a.r.f.a.a.a.h.u.u.u.u.u.h.=.y.a.-.u.a.a.f.f.a.f.f.f.a.u.f.f.h.a.a.f.a.a.a.a.u.u.a.a.a.a.g.a.a.a.d.a.f.a.a.a.e.t.a.t.u.u.4.2.1.2.O.e.t.t.r.2.2.e.t.u.u.a.a.f.a.a.u.a.a.+.j l l n q   n v G a.a.a.a.a.f.f.f.a.a.g.a.h.a.a.f.h.f.h.f.h.a.a.h.a.d.f.h.h.h.a.a.a.a.a.a.a.a.a.a.a.a.f.a.g.t.t.q.r.f.f.a.a.a.u.a.a.a.u.u.a.f.f.a.a.y.u.a.a.u.f.a.u.g.a.r.e.&.v v % k h.h.h.a.a.g.a.a.g.f.f.a.a.h.g.a.f.f.f.g.g.g.g.h.g.g.h.h.f.f.a.a.a.a.h.a.g.p.g.a.a.a.g.f.f.g.f.f.f.f.f.g.g.g.g.f.a.y.f.g.a.a.h.h.a.m # ",
"    9 l s m 7.7.e.r.t.t.a.a.f.f.a.a.u.u.u.u.u.u.a.r.u.&.r.u.&.2.e.r.a.h.a.a.f.f.f.f.f.a.a.a.t.w.a.f.f.u.u.f.u.u.u.h.f.u.u.f.f.u.a.a.a.a.u.a.f.a.t.y.7.-.2.r.X.r.r.e.e.1.;.7.u.y.a.g.a.a.r.a.u.r.u.+.a l l n y   n v U a.f.f.h.a.f.f.f.f.a.a.f.f.a.h.u.h.h.h.j.j.f.f.f.u.f.f.f.h.h.h.a.a.a.a.h.a.a.a.f.f.a.g.a.a.a.a.a.a.a.a.a.a.a.a.a.a.r.g.y.a.f.a.a.r.a.a.a.a.p.t.a.t.a.t.e.y.<.h v & d r.j.a.a.g.j.j.d.a.j.d.h.f.h.h.d.f.a.h.j.g.a.g.g.g.g.d.f.g.g.h.h.a.a.g.d.a.a.a.a.f.f.f.f.f.f.f.f.a.a.a.a.f.f.a.f.h.j.j.j.h.t.f.f.g.m # ",
"    9 l d L e.r.t.u.t.e.a.f.d.a.u.a.r.u.u.a.u.r.r.u.w.+...2.=.1.q.r.a.u.f.a.f.f.a.f.f.f.f.f.t.t.j.j.j.u.a.f.a.f.h.f.h.h.f.j.j.u.a.a.a.a.a.a.f.f.a.u.7.$.;.O.` e.t.t.8.;.5.5.y.a.t.r.a.a.t.u.u.e.u.5./ J l z y . n v Y h.u.h.a.f.a.f.a.a.a.f.f.a.h.h.h.j.h.h.j.h.f.t.f.f.f.a.f.a.a.a.a.f.a.a.h.f.a.a.a.a.a.a.a.a.a.a.a.a.u.u.a.f.f.a.a.u.r.r.a.a.g.a.t.r.r.a.a.a.t.t.f.a.8.t.t.p.1.h v - d 2.j.h.j.g.j.j.g.a.j.g.j.h.f.h.f.a.a.f.g.g.d.a.a.g.g.a.a.f.g.g.h.a.f.h.a.a.a.a.f.f.g.h.f.f.f.f.d.f.g.g.a.f.a.a.a.a.j.j.j.j.a.y.f.a.m # ",
"    y l d -.t.t.u.u.a.u.u.f.a.t.u.a.u.r.u.u.u.u.u.u.e.+.+.-.1.e.u.u.a.u.f.a.t.t.t.a.a.u.u.a.f.f.a.f.f.f.u.u.u.u.u.u.u.u.a.a.h.u.r.u.u.a.r.t.a.a.a.t.-.+.2.L / e.t.a.7.5.8.5.r.u.r.u.a.a.a.a.t.u.a.u.d.5.l C y   n v H a.t.f.a.h.f.a.f.f.t.a.a.a.h.h.a.h.f.f.h.f.f.f.f.u.u.f.f.a.a.u.a.a.f.h.f.u.t.a.u.a.a.t.t.y.a.t.t.t.u.t.a.u.a.a.a.a.a.a.g.g.u.a.u.t.a.a.t.t.a.a.a.a.t.r.r.r.&.l l & y 1.j.h.j.j.j.j.h.d.j.j.h.g.g.f.f.a.a.h.d.a.g.g.a.a.a.d.a.f.f.f.a.a.a.f.a.a.a.a.p.g.f.g.g.f.f.g.g.f.f.g.f.a.h.h.u.e.j.j.j.c.p.r.j.e.c # ",
"    9 l d +.r.r.u.u.a.u.a.a.u.u.a.a.u.u.a.a.a.u.u.u.u.O.H Q / y.u.=.r.j.h.a.a.f.a.f.f.a.a.a.f.f.a.r.r.u.f.h.h.j.j.C.C.V.A.A.V.M.M.n.c.j.M.Z.a.a.1.a.7.*.e.X.) w.t.r.e.e.y.w.t.r.u.r.a.a.u.t.a.a.u.1.R C l c y   b v H t.y.a.h.g.j.f.f.f.f.f.a.a.f.f.f.f.h.f.f.f.f.f.f.f.f.f.a.f.a.a.h.f.f.a.u.a.a.a.a.a.a.t.7.r.a.t.e.r.u.a.u.u.a.a.a.g.r.a.g.a.u.r.a.a.a.a.a.r.y.t.t.u.r.7.7.t.<.l v & u 1.k.h.j.j.j.j.a.r.k.j.j.h.h.h.f.f.f.h.g.d.g.g.g.a.a.a.a.f.f.f.a.g.a.h.a.a.g.g.f.f.f.f.g.f.f.g.g.f.f.g.h.g.h.g.u.e.v.j.j.j.f.a.g.5.x $ ",
"    9 l u m r.r.a.a.a.a.u.f.a.f.u.u.a.a.r.u.a.u.u.a.r.+.5.e.2.u.h.=.r.h.f.j.C.H.U.U.P.P.H.H.H.A.A.C.A.H.P.Q.~.!.~._._._.).).).).(.(.(.`.[.[.D.f.1.h.u.7.r.u.O.r.a.r.u.r.a.r.y.u.u.u.a.a.a.r.u.u.j.&.d l l B y   n v S 7.e.t.a.f.f.f.j.f.f.f.f.f.a.f.h.u.a.h.d.g.f.f.f.f.f.f.a.f.a.u.a.f.a.u.u.u.u.t.u.u.p.r.t.t.r.t.u.u.u.u.u.t.u.t.a.a.t.a.t.t.t.a.t.t.r.a.t.a.y.u.e.u.y.t.r.r.-.l l & s 1.k.a.a.j.j.j.a.7.j.j.j.d.g.f.g.h.a.a.g.a.g.a.g.g.a.a.a.g.h.a.a.g.f.f.g.a.g.g.d.a.g.g.d.f.f.g.f.f.f.d.h.h.a.g.g.y.h.j.j.g.a.a.j.-.f $ ",
"    9 l s Z a.a.u.a.a.f.u.u.a.u.u.a.a.a.u.a.u.u.a.a.r.=.u.c.e.r.a.&.w.f.v.Q._.`.`.`.`.`.`.`.).)._._.`._._.S.m.M.M.b.m.b.L.).U.b.m.N.S.F.Z.P.'.f.-.f.t.-.-.t.+.e.a.t.a.u.u.u.a.a.u.a.a.a.a.a.a.u.j.#.j z l z y   n v Y e.7.a.f.f.f.f.j.f.f.t.t.f.h.a.a.a.h.h.g.g.f.f.f.u.f.h.a.u.f.u.f.a.f.u.u.a.t.r.u.u.r.t.t.t.p.t.u.u.u.u.f.f.a.a.t.a.t.a.a.t.r.r.a.t.a.r.t.a.t.t.a.u.a.t.r.a.-.l h - s 2.j.h.a.j.c.j.a.d.g.j.j.g.g.d.a.g.a.a.a.g.a.g.g.f.p.a.a.f.h.a.a.h.a.g.g.g.g.g.g.g.a.d.f.f.a.f.f.f.f.g.a.h.f.d.g.y.u.j.j.a.a.a.k.-.d $ ",
"    9 l s Z a.a.u.a.f.a.f.a.a.u.a.a.t.a.a.f.u.a.a.a.u.1.X./ +.u.u.+.r.j.!.[.[.'.).).).).).).).).`.'.[.`.'.b.m.I.S.S.P.z.S.`.G.i.W.} v ).Z.B.[.M.-.a.5.=.=.X...e.a.p.r.r.u.a.u.a.a.a.r.a.a.a.a.a.j.-.l l z c y . n v Y r.r.a.f.f.f.f.f.f.f.f.a.f.h.a.a.a.a.f.g.h.f.f.f.f.f.u.u.u.f.a.f.a.a.u.u.u.a.a.u.a.r.r.a.a.t.a.t.u.u.u.u.f.y.a.a.a.t.8.r.a.a.a.r.a.5.a.a.t.u.u.t.a.a.a.a.h.5.h v - d 2.j.h.g.a.#.-.h.f.g.j.g.g.h.g.a.g.g.a.g.a.f.p.a.f.f.a.a.d.a.a.a.f.a.g.d.g.g.a.g.g.f.g.f.f.f.a.a.g.g.d.f.a.f.f.d.j.a.8.5.p.g.h.c.&.d & ",
"    9 l j 5.f.u.u.f.f.a.u.f.u.r.f.a.a.a.f.a.a.a.u.a.u.2.1.1.e.u.h.&.e.V.'.[.[.`.).).).).).).~.).'.[.{.[.[.Y.N.'.K.T._.b.Q.~.!.b._.x.<.|.K.~.{.M.-.t.-.O.#.Z ` e.a.a.a.r.r.g.g.r.a.a.a.g.a.a.r.r.u.r.e.&.l n y   n v H u.u.a.f.f.a.a.f.j.f.f.f.f.a.h.a.h.h.a.g.a.f.f.f.f.f.f.f.f.h.u.u.u.u.u.u.f.a.f.f.a.u.t.a.a.t.t.e.t.u.u.u.u.a.a.a.t.r.r.r.t.a.t.t.a.5.t.t.t.u.r.a.a.y.t.a.a.3.h v & s 2.j.h.g.f.a.a.g.h.g.h.a.g.f.d.g.h.g.g.g.f.f.a.a.f.f.f.a.h.g.a.h.a.a.f.a.a.g.d.g.g.f.d.f.f.f.a.a.g.g.g.f.g.a.g.g.g.g.a.a.h.h.g.k.$.d $ ",
"    q l d $.h.a.a.a.f.h.f.f.u.f.a.u.a.a.a.a.f.a.a.a.u.2.1...+.u.u.&.5.A.].[.].'.).).).).).(.(.(._.[.[.[.'.).x.E.N.P.I.m.(.!.(.F.0.<.6.9.B.{.[.C.-.a.-.#.O.` ..r.u.a.a.t.r.g.a.t.a.t.f.a.r.u.r.r.a.1.H c l C y   n c T t.r.r.a.a.a.a.a.j.g.d.a.a.f.a.u.f.f.a.f.a.a.f.g.f.a.u.a.f.a.f.a.a.u.u.h.a.u.h.f.u.r.u.u.f.a.t.e.r.a.u.r.f.t.a.a.r.r.r.t.t.a.a.a.a.a.e.r.a.a.u.g.u.a.u.r.u.1.h v & s 5.k.f.h.g.g.h.d.h.h.f.f.f.f.f.f.f.f.f.g.a.a.h.h.a.h.f.a.h.f.f.f.a.a.a.f.f.f.g.f.a.f.a.f.f.f.a.a.d.f.a.a.f.f.g.g.h.h.g.g.h.f.h.k.&.d $ ",
"    9 l s Z a.f.a.a.u.d.f.u.u.f.a.u.a.a.h.a.a.a.a.a.h.+.y.f.2.a.f.-.r.G.[.[.].`.).).).).).)././.(.'.[.[._._.S.m.0.G.N.I.).!.~.~.] E 9.b E.{.[.D.*.a.5.*.=.e.O.r.a.a.a.a.a.f.a.a.t.a.f.u.r.u.t.t.f.+.j z l z y   n c Y w.e.e.t.t.a.a.a.a.a.a.p.a.f.a.f.a.a.h.a.f.a.f.f.a.a.a.u.u.a.h.a.a.a.a.a.u.a.a.h.u.u.f.j.u.u.u.r.a.f.u.u.u.r.a.a.u.a.5.t.a.a.a.u.u.a.u.a.a.r.t.a.a.a.u.y.a.1.l h - d 5.v.h.d.g.h.j.h.h.j.j.f.a.f.f.f.f.a.f.j.a.a.g.g.g.h.g.f.a.f.f.a.a.f.f.f.f.g.g.f.f.f.f.a.a.f.a.a.g.g.f.a.f.g.g.g.a.a.h.h.h.h.h.k.*.d $ ",
"    9 z u Z a.u.a.a.a.h.a.f.u.f.a.u.u.h.a.a.a.f.a.f.a.+.u.h.7.u.f.-.e.L.[.[.].`.).).).).).).(.(.(._.'.`.(.).!.b.z.S.m.(.~.(.(.).m.D./.z.).].[.G.-.r.5.1.5.e.O.y.a.a.a.u.a.a.a.u.a.a.f.a.u.f.r.t.f.+.j l l n y . b v U r.r.r.t.t.a.a.a.a.a.t.a.a.a.f.f.a.h.a.f.a.a.f.f.f.u.f.f.a.f.h.a.f.f.a.a.a.u.a.u.u.a.u.u.u.t.u.t.u.a.u.u.u.a.r.g.y.a.w.t.t.u.a.u.u.t.a.a.a.t.t.a.a.y.y.r.r.&.v v & s 1.c.h.h.h.h.h.h.h.h.h.f.a.f.t.g.f.f.g.g.h.f.f.d.f.f.f.f.f.a.f.f.h.h.h.f.f.f.f.f.u.f.f.a.u.a.a.f.h.f.a.h.h.h.g.f.a.a.f.d.f.g.f.k.-.d $ ",
"    9 l d G a.u.h.a.h.a.a.u.f.f.a.a.a.a.a.j.h.a.a.a.a.2.e.u.2.r.a.=.e.L.{.[.]._.).).).).).).(.(.(.(._._.).(.`.Z.m.x.G._.(.(.~.(.I.B.L.Z.].].[.L.1.e.7.1.-.-.O.r.a.a.a.u.a.a.a.a.a.a.f.u.r.f.t.u.a.-.m c l b y   M v T u.r.r.a.a.h.a.a.a.a.a.r.t.g.f.u.f.g.f.a.a.f.a.a.a.f.f.f.f.g.a.a.u.a.a.f.u.u.u.h.h.f.u.u.a.a.r.t.t.f.u.u.f.g.y.a.y.a.a.a.a.a.f.a.a.a.t.a.5.t.t.t.g.g.r.5.w.&.h v - s 1.j.h.g.a.h.h.h.h.j.g.f.f.a.a.f.a.f.g.g.a.f.a.h.f.h.h.f.a.f.a.f.a.h.g.f.f.f.f.f.f.u.g.f.a.f.a.f.a.f.f.d.h.g.d.f.f.a.f.f.g.h.a.j.-.g $ ",
"    9 l d 5.f.u.f.f.a.f.f.f.h.f.a.u.u.a.a.f.u.a.a.a.a.7.5.e.q.5.f.-.5.P.{.].].`._._._.).).).).)._._._.(._.).`.T.x.x.!.(.(.(./.(.(.m.0.E.].'.[.P.1.a.e.=.-.P ` u.f.f.a.a.a.a.a.t.t.a.a.u.r.f.r.r.r.a.f.1.l c y   c v H r.7.e.a.a.a.a.a.g.a.r.u.a.g.a.f.f.f.f.d.h.f.f.a.f.f.f.f.f.h.a.h.a.a.a.a.a.u.u.f.h.a.h.h.u.a.r.u.t.u.u.u.u.u.t.t.u.a.a.a.a.u.a.a.a.a.r.r.;.u.u.a.u.a.r.5.7.$.v h & p 1.k.a.g.h.h.h.g.g.g.h.f.f.a.h.a.a.a.f.g.f.f.a.f.f.h.h.f.g.h.a.a.a.g.h.f.f.f.a.f.f.f.f.f.f.g.a.a.a.f.f.f.g.h.a.a.h.f.f.h.a.a.a.j.-.d $ ",
"    9 l d +.f.f.f.f.f.f.f.f.f.f.h.u.a.h.u.a.u.f.a.f.a.2.....+.q.u.&.q.P.[.].'.`._._._.).).).).(._.(.(.)._.(.(._.i.M.`.(./.(./.~.).J.s.).`.].{.T.1.y.e.-.=.H ) a.h.u.h.a.a.a.a.u.a.t.a.u.t.f.a.r.t.5...Q l n u   n v R t.e.t.a.a.a.5.t.a.a.t.u.u.g.a.f.a.f.f.h.g.f.f.f.f.f.f.a.f.h.h.a.a.y.a.u.a.u.f.f.h.h.u.a.f.f.u.a.a.a.f.a.f.u.u.a.u.t.t.a.t.a.a.y.a.g.a.y.r.g.r.w.g.y.a.r.8.$.l v & p 1.j.h.h.j.d.h.j.j.g.h.a.f.a.h.h.a.a.a.d.h.f.h.a.h.a.g.h.g.h.a.j.g.a.f.f.f.f.f.f.f.u.a.f.f.f.g.h.f.f.f.g.g.h.a.a.f.a.f.h.a.a.h.j.&.d $ ",
"    q k s Z h.h.f.u.f.f.f.f.j.f.h.h.u.u.h.u.u.a.f.h.h.1.1.1.=.u.a.+.5.Y.'.]._._.).)._.).).).).).~._.).(.(.(.~.(.T.T.~.~./.~.~././.Q.!.(.`.[.{.R.$.5.<.&.O.&.X.u.j.u.a.a.a.u.a.h.f.a.a.a.u.a.t.u.f.&.j j l C y   b v R t.t.u.a.a.a.q.7.u.u.a.u.a.a.f.f.a.f.g.g.g.f.f.a.f.f.f.f.a.a.a.a.a.a.a.a.a.a.f.f.h.u.u.f.u.a.a.f.f.f.a.f.u.a.u.u.a.a.t.t.a.a.a.a.g.a.a.a.u.r.r.t.a.a.r.r.r.1.k v & y 1.k.f.h.j.h.h.h.h.j.h.a.a.a.g.a.f.a.g.h.a.h.h.f.g.a.f.h.h.a.a.g.h.f.a.f.a.a.f.f.u.a.a.f.a.f.a.f.a.f.g.g.h.d.h.h.f.h.j.g.h.f.f.v.&.d $ ",
"    9 z d Z h.h.f.f.f.f.a.a.f.u.u.h.u.f.u.f.a.a.h.a.h.1.a.V.e.u.f.&.e.T.'.'.~.E.~.!.~.(.W.Y.~.~.Q.!.~.Q.!.~.Q.Q.(.Y.T.E.Q.!.T.!.Q.Q.~.(.`.[.[.Y.+.1.&.#.X.q.#.t.h.h.a.a.a.u.a.a.f.a.f.h.f.f.r.f.g.=.d l l z y   n v R a.r.t.t.f.a.1.7.t.t.a.f.f.f.a.f.f.f.g.g.g.g.f.a.f.f.a.a.f.h.h.g.a.a.t.a.a.a.f.a.a.h.h.u.u.a.f.u.f.u.a.f.u.a.a.t.a.u.t.r.a.u.a.a.a.a.r.r.y.;.7.f.a.a.a.r.r.<.l l - y &.j.h.h.j.j.h.j.g.j.d.a.a.a.h.g.h.g.g.g.a.h.a.h.g.h.h.a.g.g.a.h.d.f.f.f.a.f.f.f.f.f.a.a.f.f.f.h.g.a.a.h.j.h.h.h.f.a.h.d.g.h.a.c.&.d $ ",
"    9 l d ~ h.h.f.j.f.f.f.f.f.f.a.h.a.a.u.a.a.f.h.a.f.=.-.7.5.a.f.&.w.Q.`.'.`.).`._._._.).).).)._.(.).(.(.(.).).(.(.(.(.(.(.(.(.(.(.~.).`.[.[.P.O.1.&.O.O.O.' a.h.f.f.a.h.a.a.u.f.f.f.j.f.u.a.u.j.2.D Z l z y . M v W u.r.y.u.h.a.5.=.e.u.a.f.a.f.f.a.f.g.g.g.d.f.g.h.g.h.a.a.f.g.h.h.a.a.a.a.a.f.f.f.a.a.h.u.u.f.u.u.u.u.f.u.u.a.a.g.u.t.a.r.t.a.a.t.a.a.a.r.w.*.-.a.g.f.g.u.e.&.l l - y +.j.h.h.h.j.j.h.h.g.a.g.a.a.g.h.g.a.h.g.h.h.h.h.h.h.h.g.f.f.d.f.f.f.a.a.u.f.f.a.g.f.u.a.a.f.f.a.f.f.f.a.g.f.f.f.f.f.f.a.f.f.a.j.$.s & ",
"    9 l d 5.j.h.f.f.f.f.f.f.f.f.a.f.a.a.a.a.u.f.f.f.a.q.&.&.e.a.f.&.r.!.`.`.`.`.`._._._.).).).)._.(.).(.`.).(.).(.(.(.(.(.(./.(.(.(.~.(.`.'.].P.$.5.1.O.*.Z ( a.j.u.u.a.u.u.a.u.a.a.f.h.f.a.u.a.f.h.k.e.l z y   b v T e.e.u.u.f.a.2.#.1.e.a.a.a.f.g.f.h.g.g.j.g.f.g.h.h.f.f.f.f.f.g.h.f.a.a.h.a.f.j.f.f.a.a.u.h.f.a.u.f.f.h.f.u.a.u.g.a.a.a.8.t.a.f.f.a.a.u.y.5.&.&.r.f.a.a.a.a.1.k h - q O.v.h.h.h.j.g.a.h.a.f.f.d.f.f.g.g.f.d.a.h.a.a.a.h.g.h.a.f.f.g.f.f.a.f.g.f.u.f.f.f.f.f.f.a.f.f.f.f.f.g.h.h.f.f.h.h.f.f.h.f.a.a.j.&.s % ",
"    y j a &.u.u.r.u.f.f.a.j.f.f.a.f.a.a.a.a.a.f.f.a.f.7.=.5.t.g.j.-.u.~.`.'.).).).)./.(.).).).).).(.`._.(.(.(.(.(.(.(.(.(.).(.(.(.(.~.).`.'.'.Y.$.y.-.&.4.J ! a.h.u.u.a.u.a.a.a.a.a.a.a.f.f.u.a.h.2...! l C y   b b W e.e.r.u.u.e.-.#.=.e.t.a.f.a.a.a.t.d.a.g.g.h.f.h.h.f.a.f.a.f.f.h.h.a.h.g.u.u.f.f.u.a.f.f.a.a.a.f.f.a.u.d.a.a.u.a.a.t.a.a.a.a.a.g.a.a.r.r.;.O.#.-.a.p.r.8.t.1.l v - q ..n.h.h.h.h.h.g.g.h.f.f.f.f.f.h.j.f.a.h.h.a.f.f.h.a.a.g.g.g.h.a.g.f.a.f.f.f.f.f.u.f.g.a.f.f.f.g.g.a.a.h.a.f.f.f.f.h.f.h.h.a.a.j.&.s & ",
"    9 l a Z u.u.u.u.u.f.f.f.f.u.a.a.a.a.a.a.a.d.a.f.a.5.e.7.e.f.j.-.r.~.`.`.~.E.~.W.T./._.).).)._._.(.).(.(.(.(.).(.).(.(.(.(.(.).(.(.(.`.[.'.P.+.5.;.=.1.;.! r.h.u.u.u.u.a.a.a.a.f.f.a.a.r.r.u.f.=.j l l z y . b b T r.r.r.r.y.2.+.O.+.5.a.f.f.f.a.a.t.a.f.a.g.h.f.f.d.a.a.h.f.f.f.f.h.f.h.a.a.u.f.f.u.f.f.a.f.a.u.f.u.f.u.u.a.a.a.a.a.t.a.t.a.a.a.a.f.u.y.t.-.O.X.*.8.r.r.r.a.<.h l - 9 X.k.h.g.h.d.j.j.h.f.a.f.a.f.f.a.a.a.g.g.f.f.f.a.a.h.g.j.g.g.a.a.f.f.f.f.f.u.f.u.u.u.f.a.f.a.a.f.a.f.a.a.f.f.f.f.f.f.f.h.a.a.f.j.#.s & ",
"    y l a A u.u.t.u.a.a.a.f.f.a.t.a.t.t.u.f.a.a.a.a.f.2.r.p.e.t.g.$.y./.`.`.).(.).).)./.(.W.^.(.^././.^.!.!.(././.^.W./.!.!.E./.!.~.!.T.`.'.`.H.-.u.1.-.5.r./ q.u.u.u.f.u.u.f.u.a.f.a.a.u.u.r.u.f.+.d l l C y   b v Q t.r.u.u.r.2.=.O.&.5.u.a.a.f.a.t.8.a.a.a.a.a.a.t.t.a.a.a.h.g.f.a.f.f.f.h.a.u.u.u.a.f.h.a.u.u.a.a.f.a.u.u.a.a.a.a.a.a.a.a.t.a.a.f.f.a.y.r.-.X.O.4.r.7.r.e.8.&.l h , q { v.a.j.d.g.g.h.f.a.h.a.f.f.g.a.a.a.f.f.f.a.f.a.a.a.h.g.j.f.a.f.f.a.f.f.f.f.a.f.u.a.u.t.a.a.f.h.h.g.g.h.f.f.a.f.u.j.h.h.u.f.a.k.O.s % ",
"    9 l a Z u.u.t.t.a.f.u.f.f.a.a.u.e.u.a.a.t.a.a.h.f.7.r.r.8.a.d.&.a./.'.`.(.E./.(././.W.Y.E./.R.!./.!.E.E.^.E./.E.T.~.!.Q.Y./.T.!.T.I.`.[.`.G.1.y.e.1.5.-./ t.u.r.w.u.u.u.a.u.a.f.f.f.a.u.u.u.u.1.T Z l z y   n z T a.u.u.a.r.5.&.X.&.5.e.e.u.t.e.e.7.t.a.a.e.r.e.r.r.y.u.a.a.a.f.a.a.t.a.a.f.r.u.y.r.u.r.u.2.e.j.a.h.f.h.a.u.a.g.a.a.a.a.a.a.a.a.t.f.a.a.e.*.O.X.;.e.t.8.7.e.&.l v , 9 O.k.h.j.h.g.h.d.j.g.f.g.f.f.f.a.f.f.a.f.a.f.f.f.f.a.f.d.h.g.d.f.a.f.a.f.f.t.a.f.f.a.a.a.a.a.a.a.a.g.a.a.a.a.h.f.f.f.f.a.h.f.a.k.O.s % ",
"    9 l d +.u.w.w.a.a.a.f.t.f.f.a.a.e.t.a.a.t.a.t.5.4.7.5.7.r.t.h.-.a.(.'.`._.)._.).(.(.).(.(.(.(.).(.(.(.(.(.(.(.(.(.(.(.(.(.(.(./.~.(.`.`.).Z.1.a.u.7.e.Q ) r.a.u.u.r.u.u.u.u.u.u.u.f.u.f.u.u.u.u.a.2.l n y   n v ~ j.u.a.f.r.e.&.` &.1.1.-.5.4.4.8.r.t.7.e.e.5.5.q.t.r.y.a.a.a.a.a.r.7.7.r.u.e.e.7.5.2.&.2.-.e.h.u.r.a.a.a.u.a.g.f.t.a.a.8.r.a.t.y.y.g.a.5.$.#.O.-.1.t.r.8.7.&.v l - q ..v.a.g.h.h.h.h.j.g.h.h.a.f.a.g.g.f.a.f.f.h.h.f.f.h.f.a.h.j.f.f.a.f.a.a.f.a.a.g.g.u.a.f.f.a.f.a.a.g.a.a.a.a.a.f.f.f.f.j.j.f.f.k.O.s % ",
"    9 l d 1.u.u.r.u.a.f.a.f.f.f.a.a.u.a.u.a.u.a.t.t.t.7.;.1.t.u.f.&.u./.`._.'._._.).).).).(.(.).).(.(.(.(.(.(.(.(.).(.(.(.(./././.(./.(.`.`.).M.1.a.a.2.5.Q ) r.e.r.u.u.u.r.u.u.u.f.u.r.u.u.u.u.u.u.q.+.l c y . b v W a.y.a.a.e.5.#.O.-.1.&.-.5.5.5.e.r.r.e.7.2.5.4.7.7.e.t.e.t.e.t.u.7.4.4.e.e.5.5.5.5.&.O.-.=.;.e.5.e.u.u.u.u.a.a.a.r.t.a.7.4.8.r.8.8.u.a.7.&.#.` ;.7.t.r.r.7.&.h h - q [ k.a.j.a.a.h.h.h.g.h.g.f.f.d.g.g.f.a.f.f.d.g.g.a.f.a.f.h.g.g.f.a.a.a.a.a.a.a.f.g.f.f.f.a.a.a.f.a.d.a.a.h.t.a.h.a.f.f.h.f.h.f.j.+.s & ",
"    9 l s Z f.a.f.f.f.f.f.f.j.f.a.f.a.u.u.u.h.u.u.j.h.e.r.e.2.r.p.#.t.!.`.`.(.!././.!.(.~.E.~.W.E.!.T.E.(./.(.(.(.(.`.(.(.(.(././././.(.`.'.(.M.1.r.5.1.+.1.O.e.r.r.u.u.a.t.a.t.u.u.u.u.u.a.a.r.r.5.c h v c y   n c ~ u.r.r.r.5.8.+.+.&.+.*.$.5.t.e.q.r.t.r.e.5.e.e.e.e.5.5.2.e.e.r.e.5.e.5.r.2.2.e.7.e.&.&.1.+.=.1.-.u.u.r.r.e.y.a.t.e.5.u.5.-.5.y.r.e.t.a.e.#.&.` &.r.a.y.7.t.1.h l - q ..k.f.h.h.a.h.a.h.g.j.g.d.j.f.f.f.j.f.h.h.h.g.h.a.a.a.g.j.g.j.h.a.a.f.a.a.a.h.a.h.a.a.a.a.f.a.f.f.h.h.u.a.u.a.a.a.f.f.f.f.g.d.k.O.s & ",
"    9 l d Z f.a.t.f.f.f.f.f.f.f.j.f.a.f.u.u.a.h.a.h.u.e.h.u.2.e.t.$.r.!.`.`./.Q.~.!.W.~.!.T.~.E.E.!.T.E.(././.(.(.(.(.(.(.(././././././.`.`./.k.&.r.2.1.+.2.O.r.y.u.u.t.u.a.a.a.a.u.u.r.u.a.u.r.r.1.c h v B y . n v ~ r.7.r.r.7.5.X.#.O.! #.O.7.q.4.y.1.e.r.5.1.r.5.-.5.2.e.e.-.5.5.&.-.e.r.u.w.5.5.e.7.1.+.&.&.X.=.2.u.e.5.e.2.-.1.5.5.5.2.-.-.5.r.1.1.r.e.5.O.&.` -.t.a.r.7.e.<.v l - q ..k.f.h.h.y.a.f.h.g.j.g.g.f.d.h.f.j.f.a.h.h.h.a.h.f.a.g.g.h.h.g.a.f.f.a.f.f.h.g.a.a.a.u.f.h.f.a.h.h.f.j.r.r.a.f.g.a.f.a.f.g.f.k.O.y & ",
"    0 l a Z f.f.f.f.f.f.j.j.f.f.f.a.f.u.u.u.f.a.u.h.a.1.1.-.1.r.a.&.e.R.`.`.`.`._.).).(.(.(.(.).(.(.(.(.(././.(.(.`.`.(.(.(.(.^./././.^.`.`.!.h.-.r.5.=.O.&...r.u.e.a.t.r.u.h.a.t.u.u.r.r.a.a.e.e.5.W c l n y   n v Q r.r.e.q.e.7.+.O.` ` ` +.t.&.&.f.#.5.a.2.;.5.1.&.r.-.e.h.-.5.r.` &.r.r.f.u.1.y.r.e.u.#.+.w.` &.u.h.e.y.r.2.1.5.2.7.r.-.1.7.1.u.*.-.t.5.-.O.+.` *.r.y.t.r.r.-.h l - q ` k.f.h.g.a.a.f.h.j.j.j.h.h.h.f.g.f.j.h.h.h.f.h.h.f.f.a.h.h.d.h.f.f.h.f.f.g.a.a.a.g.a.f.f.h.a.f.h.a.f.f.u.a.u.a.a.a.a.f.g.a.a.f.O.s & ",
"    9 l d #.a.a.f.f.f.f.j.f.j.f.f.f.f.e.r.r.h.h.h.h.a.e.+.+.-.e.a.$.t.!.`.(.`.`.).).(.).(.~.(.~.(.~./././.(.(.(.`.(.(.(.(.(.(.^./.(./.(.`._.T.f.$.e.5.#.+.H ` u.a.t.a.t.a.a.f.a.u.a.t.t.u.a.a.t.y.e.r.2.l c y   n l ! a.r.r.7.5.7.&.X.O.X.O.&.t.&.#.a.&.7.a.2.7.5.1.#.u.1.2.f.1.2.r.X.=.e.5.r.e.1.r.e.e.a.-.+.a...&.u.u.u.u.a.e.a.r.5.7.r.1.e.e.1.a.-.1.y.5.1.X.O.` *.7.r.5.1.4.&.l l - q ..j.f.a.a.g.f.d.g.g.j.j.h.h.h.f.f.f.h.f.f.h.a.f.f.f.f.g.h.h.g.f.f.f.h.f.g.g.f.f.a.h.h.f.j.f.h.f.u.h.j.j.a.a.u.g.j.f.a.g.f.g.a.j.+.a & ",
"    9 l d =.g.a.f.f.u.f.h.a.h.h.f.f.a.u.r.r.u.j.f.a.r.2.2.O.O.5.d.&.r.Q.).).~.E.W.(.W.W.E.T.W.~.Y.T.T.T.T./.(.(.(.(.).(./././././.(.~.(.).).Y.u.+.5.1.O.O.R ( t.u.t.y.u.a.a.a.a.a.a.e.t.a.a.u.u.u.y.5.O.z c y   b v ~ r.t.t.5.4.7.&.X.O.#.&.#.u.O.#.u.#.5.r.-.7.r.1.` u.5.2.a.&.-.e.` &.e.2.7.5.2.5.5.5.f.-.=.j...+.r.u.r.u.u.e.r.r.7.e.r.2.r.r.2.h.1.2.h.7.5.O.O.O.5.r.t.r.7.7.&.h l - 9 ..k.h.d.t.a.f.a.h.h.j.g.h.f.f.f.h.g.g.h.h.h.a.h.g.h.h.g.g.h.f.f.f.a.a.h.h.g.a.a.u.a.a.h.h.f.f.h.a.h.j.j.f.u.a.j.j.h.h.g.g.a.f.v.+.u & ",
"    9 l y C j.a.a.f.f.f.f.f.d.a.a.u.u.u.r.r.u.h.h.j.a.e.u.5.&.e.h.&.y.Q.).).(.!.!.(.~.W.E.E.E.!.T.Q.T.T.Q.(.`.(.(.`.(.(.(.(.(./.^./.!./.`.).P.u.&.u.1.O.X.$.( t.a.t.r.u.a.f.a.t.a.a.t.t.u.u.u.u.u.e.c g z c y . n v R -.5.5.-.-.-...&.&.#.+.+.t.&.-.f.O.5.e.&.7.r.-.` y.2.e.j.-.O.2.` #.5.2.5.2.2.e.2.5.f.-.;.j.` +.r.u.u.u.u.r.r.y.5.t.y.2.u.y.5.h.5.5.g.e.5.+.&.` -.u.y.t.t.5.+.v v - y ..k.u.h.f.u.h.a.a.h.g.g.a.f.h.f.f.f.h.g.h.h.f.h.h.f.f.h.h.h.a.f.a.f.f.h.g.g.h.a.a.f.a.u.a.f.f.f.f.j.j.h.f.t.u.g.f.a.h.g.a.y.a.j.+.s % ",
"    9 l s Z f.f.u.f.a.f.f.u.a.a.a.f.u.u.a.u.a.f.h.f.f.r.j.v.e.e.g.*.t.!.).).).`.).(.).).).(.(.(.).(.(.(.(.(.(.(.(.(.(.(./.(././.~./.~.(.`.).P.a.&.y.5.#.X.;.` t.a.u.r.u.u.a.u.t.y.t.a.t.t.t.u.a.y.5.B l z c y   b v Y &.&.&.&.-.;.` +.&.#.+.&.r.-.=.h.+.2.7.$.e.e.&.` u.5.5.j.1.&.7.! #.r.1.5.2.1.r.e.r.f.-.-.f...-.u.u.u.a.u.7.a.r.-.a.r.1.u.r.2.a.2.5.h.7.5.O.&.` O.r.t.1.-.5.&.h l - y ..j.f.f.h.h.g.g.h.h.a.h.h.a.h.h.f.a.f.h.a.h.h.a.h.g.h.d.f.g.h.f.f.a.a.h.d.g.h.a.a.a.f.u.f.f.f.a.a.f.a.f.h.a.u.a.a.a.g.h.d.a.a.k.O.s & ",
"    9 k d D f.a.u.u.f.f.f.a.u.a.f.u.h.a.u.h.f.f.a.f.h.e.u.r.1.y.g.&.t.Q.).).).(.(.(./.(.).~.~.~./.~././.^.(.(.`.`.(.).(././.!.~.~.~.!.(.'.).G.a.$.e.4.-.&.#.( u.a.u.a.a.u.a.a.u.y.y.t.t.t.a.e.e.e.5.D z l c y   n b D ( O.#.&.&.' Q #.&.#.X.+.e.O.&.h.' -.&.O.5.5.../ r.#.-.r.O.=.r.G -.y.#.a.7.$.a.u.5.j.=.X.a.` O.u.e.5.a.u.+.a.r.` a.2.O.a.5.+.a.-.+.a.5.+.+.=.` W &.+.O.` ..^ v l - y X.k.f.f.f.g.h.h.g.h.a.a.f.a.f.h.f.f.f.h.h.h.a.h.g.h.f.f.f.g.a.g.a.a.a.a.a.a.a.f.a.a.a.f.a.a.f.a.u.a.a.h.f.t.u.a.a.f.h.g.g.r.f.c.O.s % ",
"    y l d +.f.u.a.a.f.f.u.a.a.u.a.a.a.h.u.u.u.u.a.f.h.e...H ..r.g.-.y.T.`.).!.P.T.!.T.E.E.Y.Y.!.I.Y.Y.Y.T.).)./.).)./.).(././././.~.~.(.'.(.G.a.=.r.5.-.-.L ` e.a.a.t.t.u.a.a.t.a.t.r.a.t.t.7.e.y.5.2.=.l c y . b c U &.1.2.2.2.2.X.X.O.-.#.O.8.$.*.r.+.1.1.$.7.e.$...5...1.5...7.a.` 7.a.O.a.a.-.a.d.2.h.1.&.u.+.+.f.u.e.u.u.<.a.5.O.a.1.1.j.2.&.a.-.+.a.4.-.O.#.) ` -.&.+.` &.+.l l - 9 [ v.f.f.g.d.h.f.h.h.h.f.h.h.f.f.g.f.h.j.j.h.a.h.h.a.f.h.f.h.h.h.f.a.a.u.a.u.a.f.u.u.f.f.f.a.h.f.u.a.f.j.f.u.a.u.a.h.f.h.h.e.h.k.+.s & ",
"    9 k d e.f.u.a.u.f.a.t.a.u.t.a.a.u.u.u.u.f.r.u.a.u.w.+.R &.r.g.=.u.E.).(.(.!.~.(.~./.!.!.!./.E.!.!.E.W.).).)./.)./.)./././././.^.^.).'._.G.u.&.e.e.-.-.G ( t.a.a.a.r.r.a.t.t.a.r.t.t.8.7.t.r.u.2.....l n y   n c / e.2.e.r.u.u.7.#.&.1.4.&.a.-.5.5.&.t.r.7.r.u.1.#.u.&.5.r.2.r.h.-.r.g.-.d.a.5.h.u.y.j.2.=.h.+.+.d.h.u.a.a.2.a.y.1.a.5.7.n.e.4.a.1.1.a.5.e.X.X.Q ;.r.r.7.#.1.&.l v - q X.k.f.a.f.g.h.f.h.f.f.f.h.f.f.a.f.h.g.j.g.h.h.h.a.f.h.f.a.f.f.h.a.a.a.f.a.u.f.f.f.f.f.a.j.h.j.h.f.u.h.j.g.a.t.t.a.h.f.h.h.r.h.k.+.y & ",
"    9 l d W a.h.a.r.t.t.t.t.a.t.a.a.u.u.h.u.f.r.h.f.f.e.5.&.-.y.a.=.a.R.).(.`.`.).(.).(.(.(.(.(.).(.(.(.).).).`./.).)./.(./.(.(.~.(.(.).'.`.G.w.+.e.1.-.-.&.` r.a.a.a.a.u.g.u.r.y.a.r.t.u.r.t.e.u.1.c j l c y   b v [ 1.2.u.e.1.5.r.&.=.t.1.( -.-.{ +.1.-.t.t.t.y.y.5.d.r.t.a.r.y.a.1.5.e.1.7.r.r.8.5.y.1.&.1.+...7.-.1.u.1.2.u.&.1.r.&.$.e.5.&.e.-.#.e.1.O.7.#.` O.r.a.a.y.1.&.&.v v - q ..v.u.a.g.g.h.f.f.f.f.a.f.h.h.a.h.h.h.j.g.h.h.h.h.h.f.f.a.a.h.h.a.f.a.f.f.f.a.u.f.f.u.a.a.f.f.h.f.u.a.f.f.a.r.t.f.f.f.g.h.e.h.v.#.s & ",
"    y k s Z a.a.a.t.r.u.y.7.r.u.u.a.a.h.a.a.f.u.f.u.u.r.k.n.7.u.g.&.u.Q.(.).)./.(.(.(././././.^.!././.~.W.).W.W.)./.)./.!.~.W./.(.~.(.~.`./.D.q.#.5.1.=.#.q.O.t.a.a.a.a.r.u.a.w.t.t.a.a.a.a.t.p.u.e.c l v c y . b v ` -.1.e.2.&.=.4.;.2.7.5.$.$.*.$.1.7.-.-.4.e.8.5.2.2.2.7.5.7.7.r.e.1.&.2.5.1.2.1.1.5.2.e.e.&.=.5.2.5.r.2.2.2.1.5.r.e.7.7.7.5.r.-.-.e.e.e.5.1.&.&.e.t.t.5.-.-.-.b h - q ..v.u.f.j.h.h.h.g.h.h.a.f.j.j.h.h.h.h.a.a.h.h.h.a.h.h.f.a.a.f.h.g.h.a.u.h.h.h.f.f.a.u.a.u.f.j.h.f.u.f.f.f.u.a.f.a.f.h.g.d.1.h.v.#.y & ",
"    9 l a Z h.a.a.u.a.a.u.a.e.r.u.a.a.a.a.u.t.a.a.a.a.7.e.2.&.t.f.&.a.Q.).(.).W./.W.(.(.R.T.E.E.T.!.!.!.E.E.E.T.W.W.W./.T.E.E./.(.~.~.(.`.~.D.r.&.r.1.-.&.+.) t.a.a.u.r.u.r.a.r.u.u.u.a.a.t.e.a.u.r.W C z n y   b v [ -.1.-.-.=.&.$.=.5.5.1.4.-.&.-.5.4.&.#.&.5.5.-.*.&.O.-.;.1.1.7.5.*.#.&.2.2.-.-.&.-.1.2.2.-.+.+.1.5.2.2.=.+.#.1.2.5.5.-.&.-.&.+.#.&.-.e.5.2.5.-.;.5.1.=.#.*.O.v l - y ..j.f.f.h.h.f.h.h.a.f.d.g.f.g.a.a.h.f.a.a.a.h.f.f.f.a.a.f.g.h.f.f.f.a.f.f.f.f.f.f.f.f.h.f.h.j.f.a.f.a.a.f.a.a.h.h.a.h.h.h.2.h.k.+.s & ",
"    9 l d +.h.u.u.a.u.u.u.a.y.5.r.a.u.a.f.a.u.a.a.a.a.5./ J O.r.d.&.r.E./.).)./.(.(.~.(.(.!.!.(.~.(.~.~.~.~.).~.)._.).W.W.W.W./.Q.~.(.(.`.(.H.f.-.a.e.5.5.Z J e.r.a.a.a.r.u.a.t.u.f.u.u.a.r.r.u.u.e.e.1.l c y . b b X.7.r.t.q.2.;.=.-.e.t.e.8.5.e.t.8.r.7.5.8.8.7.4.5.5.2.7.5.5.5.8.r.5.5.5.5.r.r.e.e.y.e.y.e.1.=.2.5.r.e.5.=.=.5.e.1.1.7.1.O.5.5.X.O.&.-.5.2.5.5.5.2.r.5.&.#.&...v l - y O.j.f.h.h.h.h.h.a.f.a.a.h.a.g.a.f.a.h.j.f.g.g.f.f.a.a.f.g.h.a.h.h.f.a.a.a.a.h.f.h.f.f.h.h.f.h.j.h.f.a.a.a.t.a.a.a.h.h.f.u.2.h.l.+.y & ",
"    0 k j y.h.a.a.a.r.u.u.u.a.r.r.u.a.a.a.f.a.a.f.h.a.e.-.-.4.5.y.$.8.W.(.).~.W.(.(.E./.E.Q.!./.W.~.W.~.~.~.).~.W././.E.W.E.W.~.R.~.~.(.`.!.H.f.=.a.y.5.5.J Q r.a.u.a.u.t.u.u.a.a.a.t.u.u.u.u.t.r.e.+.+.l c y   n v +.r.r.u.r.u.u.7.e.7.a.a.e.r.a.a.a.a.a.a.a.a.r.2.5.a.a.a.a.a.t.t.a.a.y.t.r.u.a.u.a.a.a.a.u.e.e.u.q.a.u.e.e.e.u.y.5.;.5.=.-.5.1.-.-.+.=.2.1.5.r.e.r.t.2.&.=.=.O.l j - y ! a.u.a.f.g.h.g.h.h.h.a.f.a.f.a.a.h.f.h.a.f.f.f.f.f.f.a.d.g.h.f.g.h.f.h.u.h.f.f.f.f.a.a.f.a.f.h.h.f.f.f.a.a.a.a.a.h.h.a.u.2.h.k.O.s & ",
"    9 l u H a.a.u.y.u.a.f.r.y.y.a.u.u.h.f.f.f.f.f.h.f.1.2.r.1.2.r.+.8.E.(.(.).W.~.W./._.(.(.(.(.(.(.(.(._.`.).).)./.).).).(./.(.~.(.~.(.`.~.H.f.-.r.r.2.2.-./ r.a.u.u.u.u.a.f.u.t.u.u.a.r.r.u.e.u.2.C c l c y   n v +.r.a.u.a.a.g.a.a.a.a.a.a.a.a.r.a.a.t.a.a.g.a.e.7.a.d.g.g.a.a.a.a.a.a.a.a.u.a.a.a.a.a.u.y.e.r.u.u.u.a.u.a.f.u.a.u.5.r.5.-.e.2.-.2.5.2.e.r.r.f.u.u.u.r.e.4.7.+.j l - y ..h.a.f.f.g.d.h.g.h.g.f.g.f.f.f.a.a.f.h.f.f.f.h.g.f.f.f.h.j.h.h.h.a.h.h.h.f.u.a.a.f.f.f.u.a.f.f.j.f.a.f.a.f.a.u.h.h.f.h.u.5.f.j.O.s & ",
"    9 l a C a.u.r.a.a.a.f.a.u.e.a.a.u.a.a.a.f.a.f.h.h.1.a.c.q.1.r.o.5.E.(.(.(.W.~.!.(.).(.(.).).(.(.(.)._._.).).).(.)././.(.^./.(./.(.(.(.Q.G.a.#.r.7.;.&.1.` 8.a.u.u.a.a.a.a.a.r.r.r.r.r.r.r.r.y.2.c l l c y   n v +.u.a.f.f.a.f.a.f.f.f.h.a.a.a.a.h.u.u.f.h.f.a.d.r.f.g.d.f.a.f.a.a.a.h.h.a.a.a.f.a.a.a.a.a.r.r.t.a.a.f.a.f.a.t.a.a.r.f.r.5.u.r.e.u.u.y.u.f.f.a.a.u.a.r.a.t.r.&.l z - y ..h.a.a.f.g.g.h.g.j.j.h.h.d.d.g.g.a.h.h.h.g.h.g.j.h.h.g.f.f.f.f.f.h.h.f.f.f.u.u.f.h.a.a.a.a.f.a.f.f.f.f.f.f.a.a.a.a.f.a.u.r.a.j.O.p % ",
"    9 l u D c.a.u.u.a.a.u.a.a.u.a.a.a.f.a.a.f.a.f.f.f.1.-.2.=.r.a.+.7.E.(.(.(.!.(.~.W.(.^.!./.!.~.E.T.~.~.(.E.(./.E.E.!.Q.T.Q.^.Q.R./.!.!.R.D.u.#.t.7.#.O.;.` e.a.a.u.a.a.a.u.u.r.a.u.g.u.r.y.w.e.2.T c z c y   n v &.u.u.h.h.f.h.f.f.f.j.j.f.a.h.a.a.f.h.a.f.a.a.g.a.h.g.h.a.f.f.a.h.a.u.a.a.a.a.a.a.f.a.u.f.r.r.t.f.u.a.a.f.a.a.u.u.a.u.y.e.u.e.u.f.a.a.f.a.u.a.a.a.a.u.a.a.r.O.k l - y ..k.a.a.f.g.f.a.h.h.h.j.j.g.h.a.h.h.a.a.h.h.a.g.j.d.h.f.f.g.f.a.f.g.g.f.u.f.f.f.f.a.f.a.f.u.f.a.a.f.a.f.a.a.a.a.a.a.a.u.a.a.g.n.#.p & ",
"    9 h d 1.j.a.a.u.u.u.r.a.a.a.u.r.a.a.u.r.r.f.a.f.a.q.....+.e.t.#.t.R.(.(.(.!.!.~.W.~.!.Q./.Q.~.E.E.~.~.(.W.(./.Q.E.!.R.R.R.!.R.Q.!.!.Q.T.G.u.&.r.;.+.O.J Q t.f.a.a.a.a.t.r.a.u.a.r.r.a.r.y.y.r.e.r.;.l c y . b v +.u.u.h.h.a.j.a.a.f.h.j.f.f.a.a.a.f.a.a.a.a.f.u.u.f.f.a.a.f.a.a.h.a.a.u.a.u.u.a.a.a.a.a.f.t.r.a.a.a.a.u.a.u.a.u.a.h.u.u.e.r.r.r.f.a.u.f.a.a.t.a.a.a.a.a.a.a.&.n h , y ..j.a.a.f.f.f.f.f.h.h.h.j.j.a.g.h.h.h.g.h.a.a.f.h.f.a.f.f.f.t.a.a.f.g.f.u.f.a.u.u.u.f.f.a.a.u.a.a.f.f.a.a.u.f.u.t.u.r.y.a.r.a.c.+.s & ",
"    9 j d 5.u.u.u.u.u.u.u.e.u.a.a.u.u.a.f.a.u.f.f.d.u.e.+.1.1.e.t.&.t.T.).(.).~.~.!.(.!.E.T.!.T.W.E.E.(./.W.(.~.^./.!.!.Y.R.R.T.R.!.T.!.Q.U.A.a.&.e.=.#.O.m Q r.a.f.f.u.a.t.u.u.u.a.w.r.w.r.t.y.r.e.r.1.l c y   b v O.5.r.h.h.h.j.h.a.a.f.f.f.f.f.u.a.a.a.a.u.a.a.a.a.a.a.t.a.u.u.r.u.h.a.a.a.a.a.a.a.a.u.a.u.t.u.u.a.t.a.a.u.a.a.a.a.h.h.u.u.u.u.y.a.f.u.f.f.f.a.u.u.a.d.a.a.a.1.D h - y ..j.u.a.a.f.g.f.f.d.h.h.g.h.h.g.j.h.a.h.h.g.h.f.g.h.a.f.f.f.f.g.f.a.f.f.f.f.a.f.u.a.a.f.f.a.a.a.a.a.a.a.a.a.a.a.u.a.a.a.t.7.7.g.+.p % ",
"    q l s C r.e.e.r.u.a.a.t.q.u.u.a.u.a.f.f.u.u.f.a.u.7.2.1.2.5.r.&.r.J._.(.(.!.!.W.!.~.~.E.~.!.~.Y.W.).(.(././.(./.E.Q.T.R.!.!.R.!.R.R.!.U.Z.u.O.2.-.&.O.! ( r.a.a.u.a.a.u.a.u.a.t.t.r.r.8.y.t.r.2.C l z c y . n b / 1.r.h.a.h.f.a.u.a.a.a.a.f.a.a.a.f.u.a.f.f.a.a.f.u.a.u.u.r.u.a.a.f.a.u.a.u.a.f.a.t.a.a.a.a.a.a.f.r.r.a.u.a.u.a.u.f.a.f.f.u.a.a.h.f.f.f.g.a.r.a.a.a.a.a.u.t.5.H k - y ` k.u.a.f.f.f.f.f.g.f.h.g.h.g.h.g.f.f.a.f.h.a.f.h.h.f.f.f.a.f.f.f.f.h.f.f.u.f.j.h.a.h.f.a.u.f.a.f.a.a.a.a.a.t.t.u.a.a.u.t.X.a.k.+.s & ",
"    9 l u M r.u.r.u.u.a.a.a.u.r.u.u.a.a.u.u.e.u.u.u.a.5.h.j.7.7.t.$.r.H._.(.(.!.!.E.E.!.E.!.Q.T.Y.!.E.~.E.E.E.T./.(.^.^.!.^.^.!.^.!.!.!.T.U.j.2.` &.+.+.X.-.` r.a.u.a.a.u.u.r.u.y.r.y.y.a.a.a.r.u.r.c l z c y   b v ..e.h.u.h.a.a.a.a.a.a.u.a.a.a.a.f.a.a.f.a.f.a.r.r.r.r.r.t.a.a.h.g.a.a.a.a.u.a.a.a.u.a.f.a.f.f.u.u.u.a.u.u.a.a.a.a.a.a.a.f.u.a.h.f.h.h.f.f.a.y.a.f.f.a.a.a.e.u.Y g , y ..j.u.a.a.f.f.a.f.h.f.g.a.a.h.h.f.f.f.h.f.a.h.h.f.h.f.f.f.f.f.f.f.a.a.f.f.f.f.a.f.u.j.u.a.a.f.f.a.f.a.a.a.a.t.a.a.a.h.u.f.X.j.k.O.y & ",
"    9 l u U u.e.e.a.a.a.a.a.a.a.u.a.a.u.u.r.u.a.a.h.a.7.a.a.2.u.f.&.r.C.).(.(.^.!.E.E.E.!.Q.E.T.T.E.T.~.!.!.Q.Q.(./.^.!.!.^.!.^.!.!.R.!.T.P.d.&./ #.+.+.O.&.` r.a.w.r.r.r.r.r.a.8.r.8.r.a.a.a.r.u.r./ z l c y   n v O.2.u.u.a.a.h.a.a.u.u.u.f.u.a.f.a.a.f.f.f.a.f.t.u.u.f.a.u.u.f.a.f.h.a.h.h.a.a.a.u.u.a.f.f.a.a.a.a.u.u.a.u.a.d.f.u.f.u.u.u.u.a.f.h.f.f.f.a.a.a.h.a.a.a.a.u.t.t.H g , q X.v.f.a.a.h.j.f.d.a.g.g.h.f.f.h.h.f.f.f.f.a.f.f.j.a.u.f.f.u.f.f.u.a.f.f.f.u.f.f.a.f.f.f.u.f.f.f.a.f.u.a.u.a.a.u.a.f.f.u.f.` j.M.+.s & ",
"    9 k u +.u.w.t.a.a.u.a.a.a.f.f.u.a.f.f.f.u.a.u.h.a.5.7.7.2.u.t.&.r.M.(.(.(.`.).~.).).(.~././.^.E.!.).`.).).(./././.^.!.!.!.!.^.R.!.R.Y.J.d.-.` #.+.-.#.Q ! e.r.u.y.w.r.a.u.a.y.r.r.8.w.r.a.r.u.e.u.=.l c y . b v ..1.u.u.u.u.u.a.a.a.u.t.f.a.a.a.a.f.f.t.a.a.a.f.f.f.a.j.h.f.a.a.f.h.h.f.d.a.a.a.f.d.a.a.d.a.u.r.d.a.u.u.a.a.a.f.a.f.f.h.h.h.f.u.f.f.f.f.f.f.a.g.a.a.a.a.t.a.a.R g , y ..v.a.a.a.f.f.f.a.h.g.f.f.a.h.h.h.h.f.f.f.f.h.h.f.h.a.f.f.a.f.f.f.f.f.f.a.f.f.f.f.h.h.f.f.f.a.f.f.f.a.a.a.y.a.u.a.h.a.f.u.` f.k.$.y & ",
"    9 k j 5.a.e.r.a.a.a.a.a.f.a.a.f.u.f.a.f.t.t.a.a.a.q.5.5.5.e.a.&.5.d.!.(.).)./.^./.(./.!.^.!.!.T.!.(.`.(.(./.~.^.!.!.!.R.!.!.R.R.R.R.U.G.a.5.O.-.&.-.&.G ) r.a.a.a.r.u.a.u.a.a.7.w.r.r.y.r.a.u.u.u.r.l c y   n v / 1.t.u.t.t.a.a.f.u.a.a.f.a.f.f.u.f.f.f.f.a.a.a.h.a.a.a.f.h.g.a.a.f.a.a.u.f.a.a.a.a.f.a.a.a.f.f.a.a.a.a.a.a.f.f.h.a.a.a.a.f.f.f.h.f.f.f.j.f.f.h.f.a.a.t.e.e.q.T h , y O.k.f.f.f.f.f.f.f.g.h.h.f.f.g.h.d.h.f.a.a.f.j.a.f.a.a.a.t.u.h.h.h.a.f.u.a.a.a.f.a.f.j.f.a.a.f.f.a.a.a.a.f.a.a.a.f.h.h.g.a.) f.j.+.a - ",
"    9 l d ;.a.e.r.u.a.a.a.a.f.f.a.a.f.f.u.u.u.r.a.a.a.e.5.2.7.t.a.=.1.r.!.(.(.`.)./.(.(.!.^././.Q.E.Q.(.(.`.(././.^./.!.R.!.E.Q.R.R.T.U.U.G.h.u.#.e.-.2.2.H ` w.a.u.a.r.u.a.u.a.a.y.a.r.y.g.a.a.u.u.u.5.l c y   n v / 2.t.e.u.u.a.a.u.r.a.u.a.d.f.u.u.f.f.u.u.t.a.h.a.a.a.a.a.a.h.f.a.a.a.u.u.u.u.u.a.f.u.f.a.a.f.h.u.a.f.a.a.a.f.h.a.a.a.u.a.a.f.h.a.f.j.f.f.f.f.a.f.f.a.t.t.e.q.T h - y X.k.f.a.f.h.g.f.a.h.h.a.a.a.h.h.h.h.f.a.a.f.f.a.f.u.a.u.a.a.a.u.u.u.a.u.r.f.a.a.a.a.f.a.f.f.f.a.a.a.a.f.a.f.f.a.h.g.h.f.t.) j.v.+.u $ ",
"    y k d 2.a.t.t.a.f.a.a.a.a.f.a.a.f.f.h.u.f.t.u.d.a.e.2.<.e.u.j.=.-.e.U.(.!.!.!.T.Y.!.Q.Y.P.G.P.L.Y.T.!.!./.T.P.Y.Y.T.U.L.L.P.R.T.U.U.P.G.t.&.' y.r.e.7.H ) r.u.t.t.a.u.a.a.u.a.a.y.r.r.t.a.a.u.u.a.e.z c y . n h ..2.e.r.u.t.u.r.r.u.u.u.u.u.u.u.t.f.u.u.f.u.f.h.a.a.a.a.u.a.a.f.a.f.f.a.h.u.u.f.f.a.u.a.u.a.f.f.a.f.u.a.f.f.f.f.h.a.a.a.a.u.h.h.h.a.t.t.f.f.a.a.a.h.a.t.r.e.r.W j - 9 X.k.f.f.f.f.f.f.f.a.h.a.h.f.g.h.h.h.h.a.f.u.u.a.u.a.a.a.f.a.a.a.h.a.u.f.a.u.f.a.u.u.a.a.f.f.a.u.a.a.a.a.f.h.h.f.f.h.h.f.u.) j.v.+.s $ ",
"    9 k d e.a.t.a.f.f.a.u.a.a.f.f.u.u.f.h.a.u.u.u.a.u.e.2.1.e.u.f.&.2.5.Z.(.Q.T.K.G.D.!.T.P.L.A.P.G.P.P.T.T./.G.G.Y.P.P.J.G.D.G.Y.T.U.P.P.G.a.2.+.a.e.4.2.F ) t.f.r.r.a.t.f.a.a.r.a.y.r.t.r.a.a.u.y.u.e.l c y   n l ..5.e.t.t.u.a.u.u.u.t.f.a.t.u.t.f.f.r.t.u.f.a.a.a.r.u.a.u.a.f.a.u.a.u.u.u.f.r.t.f.a.a.a.a.a.u.a.a.f.f.a.a.f.f.a.a.f.a.a.a.h.f.a.f.a.u.a.a.a.h.f.h.f.t.r.r.r.r.U g - y ..k.f.a.a.f.f.f.f.a.f.a.d.g.g.g.j.h.h.f.f.f.u.u.a.a.a.f.h.a.a.a.a.u.a.f.f.u.u.t.t.r.a.a.a.a.u.a.f.a.f.a.u.f.f.f.h.h.u.f.a.) j.k.O.s & ",
"    9 l a 7.f.a.a.a.f.f.a.a.a.f.a.u.u.f.f.u.u.t.a.a.a.e.2.2.t.u.f.&.1.2.d.J.R.Q.E.T.T./.Q.T.T.Y.T.T.T.R.!.!.!.Y.Y.T.T.P.Y.I.J.L.P.Y.T.G.Z.G.u.e.&.q.4.;.;.J ` u.a.t.u.a.r.u.a.u.w.r.t.r.a.r.t.r.u.u.h.e.l n y   n v ..e.u.a.a.a.u.t.a.t.u.u.u.u.u.u.u.u.u.u.a.u.u.a.a.u.u.a.u.a.u.u.h.u.u.u.h.u.r.u.a.f.a.a.a.a.h.u.u.f.u.u.h.h.f.f.f.f.h.a.a.a.f.j.u.f.a.f.a.f.h.h.a.f.h.u.u.r.r.W g - y / h.f.f.g.f.a.g.a.a.f.f.f.j.g.h.h.g.j.f.a.f.a.r.u.h.f.f.f.a.a.f.f.a.a.a.u.u.u.u.a.a.a.f.a.a.a.f.u.a.u.u.a.u.u.h.h.u.h.j.u.` j.v.+.s % ",
"    9 k d q.a.u.a.u.u.a.a.a.a.f.f.a.u.a.u.u.f.h.f.f.u.e.q.2.r.u.f.&.-.2.e.g.D.Q.R.P.P.P.A.A.J.L.H.H.J.R.E.T.P.T.T.T.Y.P.Y.I.P.Y.H.P.H.v.a.V.r.5.#.;.2.;.-.H ) e.t.r.t.r.y.a.y.u.r.r.a.r.r.a.a.r.u.u.u.e.z c y . v h O.e.u.a.u.a.t.t.t.u.f.u.t.t.u.u.u.u.u.u.u.f.u.a.u.a.u.h.a.a.a.f.f.u.a.u.u.f.a.u.u.f.u.u.u.a.f.t.u.u.u.a.f.f.f.h.h.h.a.a.u.f.f.h.u.u.a.a.a.a.h.u.a.a.h.h.a.y.u.W j - y ` f.f.h.g.g.a.f.a.a.d.h.f.g.g.a.d.h.g.f.u.u.u.j.h.a.f.a.f.f.f.a.a.a.a.t.a.f.t.u.f.a.t.a.a.f.a.f.f.a.a.h.a.f.a.u.u.h.h.j.u.=.f.j.O.s & ",
"    9 k d r.g.a.f.w.r.a.a.a.a.a.a.a.a.a.a.f.f.f.a.f.u.e.5.2.2.u.f.#.-.4.t.t.u.V.v.h.k.k.u.u.j.a.f.a.j.C.C.M.k.c.M.D.G.G.P.P.L.M.d.j.j.a.r.f.r.2.#.5.;.$.&.H ) r.a.u.u.t.a.a.t.t.t.r.a.r.t.a.a.r.e.r.u.7.l c y   v l ..1.u.f.a.a.t.u.u.u.u.u.t.u.u.r.u.f.a.f.a.u.u.u.u.a.a.u.h.h.u.u.u.u.u.u.h.u.u.r.r.r.u.u.u.a.u.a.a.u.a.u.a.u.a.f.f.a.h.a.u.u.u.h.a.f.a.a.a.a.f.f.a.h.a.a.a.y.u.W g - y ` k.f.a.t.t.e.a.a.g.j.h.h.h.a.f.f.f.a.r.r.a.u.f.f.f.a.h.h.h.f.f.f.a.f.f.f.f.u.t.a.f.f.u.u.f.h.h.f.h.h.u.f.u.f.u.a.u.e.r.u.u.f.k.+.s % ",
"    9 j d e.j.a.d.r.a.a.r.a.u.a.a.a.u.a.a.f.a.a.f.a.a.r.2.1.q.r.u.-.) ) ' X...` ) O.X.X.+.O.` P ( ..X.X.+.+.X.` { O.O.%.%.&.+.` ` ..X.X.` ..) ` #.q.$.$.&.F ) e.u.u.r.a.8.y.a.a.a.t.a.w.a.t.a.a.e.5.a.q.l c y   n v O.2.t.f.u.u.t.f.f.u.u.a.u.a.u.u.f.u.u.u.a.u.a.a.a.u.a.u.u.u.u.u.u.u.f.f.u.u.u.u.r.e.a.u.u.r.u.u.u.a.a.a.a.u.a.a.f.a.h.h.u.u.h.u.u.f.a.a.u.a.h.h.u.h.a.a.a.u.u.~ g - y ..j.a.r.a.d.a.a.f.g.g.f.h.a.f.f.f.f.f.f.u.u.f.u.f.u.f.f.f.f.a.a.f.f.f.f.f.a.a.f.a.a.f.a.a.a.h.h.h.f.f.f.h.u.u.u.u.5.h.f.r.e.j.v.+.s % ",
"    0 l s e.f.f.a.a.u.u.t.r.u.f.r.u.a.a.a.a.a.f.f.a.r.e.1.-.r.a.r.7.5.-.5.q.7.-.-.e.r.t.r.r.2.-.;.4.7.a.t.t.u.e.5.e.e.7.7.e.;.1.r.u.r.2.t.r.-.=.5.&.$.O.#.F ) 8.t.7.r.y.t.a.a.a.h.a.u.r.t.a.u.u.u.u.a.e.l C y . z n -.u.r.a.h.a.a.a.u.t.u.a.f.a.u.a.u.t.u.a.u.u.t.u.a.u.a.u.u.a.a.u.u.u.u.g.a.t.a.a.a.a.u.a.u.t.t.t.r.a.a.a.a.u.a.a.a.a.g.a.u.a.a.a.a.t.a.a.a.a.h.a.a.a.a.a.a.t.a.~ f , y ` k.u.d.j.j.k.a.a.g.g.g.g.g.g.a.f.f.a.t.f.a.f.f.u.f.f.u.h.a.f.a.f.f.a.a.u.f.a.u.a.a.f.h.a.a.h.g.h.f.f.f.a.a.a.a.7.a.k.j.g.a.h.c.+.p & ",
"    9 k d q.f.f.u.a.r.r.u.r.u.u.u.u.a.a.a.a.a.a.a.a.a.e.-.+.+.&.5.2.5.1.&.=.1.&.O.;.5.-.-.5.-.O.#.4.e.t.4.*.5.5.#.&.4.=.$.&.;.*.O.#.e.-.O.1.$.` P ' ` ! ) G ) r.t.7.8.r.t.u.a.a.a.u.u.r.r.y.r.u.f.u.e.2.l c y   c C 1.f.u.u.f.a.a.a.g.f.a.a.a.a.a.f.a.u.a.u.u.u.a.a.a.u.t.a.u.u.f.u.u.u.u.t.a.u.t.t.r.a.a.y.a.a.t.t.t.a.a.a.r.a.r.a.u.u.a.u.a.u.u.a.a.u.t.a.a.a.j.a.a.a.a.a.a.e.u.W g - y O.v.u.h.j.g.j.d.r.g.f.j.g.a.a.a.a.f.g.a.f.t.f.f.f.f.f.f.a.u.u.a.a.a.f.f.f.f.u.a.f.f.j.h.h.h.h.a.a.f.j.f.a.a.f.a.a.g.g.j.j.a.a.n.O.s % ",
"    9 l d q.f.f.a.u.r.t.r.u.u.u.a.a.a.a.a.f.a.a.a.a.a.e.2.&.` ..1.$.-.=.` X.7.X.) &.;.` Q -.+.G #.7.e.7.-.1.' #.2.-.#.O.1.X.#.5.-._ 5.5.! ` #.#.Z Q X.=.#.J ` r.t.t.e.7.t.t.a.u.a.a.u.u.t.r.y.u.a.a.a.7.l c y . v S 1.u.u.f.h.a.g.a.g.a.t.a.a.a.a.h.a.a.d.a.u.a.a.a.a.a.a.a.a.u.u.u.u.f.a.a.a.a.u.a.t.t.a.a.a.a.r.t.y.a.a.a.t.t.u.u.r.a.a.a.u.u.a.u.u.a.t.a.t.u.a.a.a.a.a.a.a.a.a.T g - y ` h.e.g.j.j.k.a.r.g.a.d.f.a.f.a.a.a.a.f.t.f.t.f.a.f.f.u.f.a.f.f.a.a.a.a.f.f.a.f.f.f.j.f.g.f.f.g.f.f.f.u.a.u.f.u.e.h.g.g.k.y.t.v.O.s & ",
"    9 k d r.j.a.a.a.t.t.u.r.u.f.a.a.a.h.a.f.a.a.f.a.a.r.1.=.=.1.*.O.1.;.+.=.a.X./ -.-.` J #.X.! =.4.a.e.5.t.#.#.t.u.&.#.a.&.#.t.f.#.e.t.#.+.;.4.) ! #.5.*.J ) r.t.t.a.t.a.a.a.a.a.u.u.r.r.y.u.u.a.a.f.e.l z y   l S 1.5.u.a.f.a.a.a.a.a.a.f.f.t.u.f.f.f.a.h.a.a.a.f.a.a.a.f.u.a.u.u.a.f.a.r.r.u.u.a.u.t.a.a.u.a.u.u.a.f.r.a.a.t.r.y.a.a.a.a.u.u.f.a.u.r.t.a.a.a.a.a.a.a.g.a.e.e.u.R g - q ` f.y.j.g.j.j.a.7.a.a.f.f.f.g.u.u.u.a.t.a.f.f.f.u.f.f.h.u.h.h.j.a.a.a.t.f.f.u.f.a.f.j.g.f.h.j.d.f.a.f.a.a.a.f.a.e.d.g.j.j.d.a.j.+.p % ",
"    9 k j e.j.a.a.a.a.u.u.u.a.u.a.u.h.u.u.h.a.f.u.a.u.e.2.+.&.1.&.` 1.1.` #.r...` &.-.` F &.&.Q 4.t.u.7.4.e.&.#.e.a.&.' t.O.X.r.f.+.e.a.#.&.2.q.` ( *.5.*.J ) 8.a.r.a.t.t.u.u.a.h.u.t.r.w.r.e.e.t.t.a.e.l n y . c Z -.5.u.a.u.e.u.y.a.a.g.a.a.a.a.f.f.h.u.r.h.a.a.a.f.a.f.a.a.a.a.u.a.a.u.y.u.a.u.a.a.a.t.t.u.a.a.a.a.u.u.a.t.r.r.r.u.r.a.a.t.a.f.f.a.t.a.y.t.e.a.t.g.a.a.u.t.t.r.H g - y ..j.r.a.h.h.j.a.e.g.a.a.h.g.h.a.u.y.a.f.t.f.j.f.a.w.f.f.f.f.f.a.h.h.f.a.h.h.h.f.f.f.j.f.f.f.f.u.u.f.f.a.a.a.a.f.a.f.h.h.a.u.u.j.+.s & ",
"    9 l d e.f.u.a.a.a.u.r.a.a.a.u.a.a.a.a.a.f.u.a.f.f.e.e.+.+.2.4.' -.;.$.-.a.#.$.;.7.X.) -.;.X.y.f.u.e.5.e.&.*.a.a.' ` a.&.X.u.j.X.4.g.-.=.5.a.#.Q -.8.$.H ` 8.y.y.r.a.t.u.t.t.h.a.u.r.r.u.q.2.q.7.a.e.l c y   v Z &.2.u.f.u.e.r.a.a.g.g.a.a.y.r.f.f.f.t.e.a.u.a.f.a.a.f.a.a.u.a.u.u.u.u.a.u.y.r.t.a.f.a.t.a.u.t.t.r.a.a.a.t.r.a.t.y.a.a.y.a.t.a.u.a.a.a.y.e.e.p.a.a.a.a.r.u.8.t.W g - y ..j.u.u.h.j.u.y.a.a.a.a.f.a.a.g.r.r.f.f.f.u.f.f.a.q.r.f.f.a.r.f.a.a.h.h.h.f.h.f.f.f.f.f.f.f.f.a.r.f.a.f.a.a.f.a.a.u.j.d.a.5.h.k.+.s & ",
"    y k d 7.f.a.a.f.u.e.a.a.a.r.r.a.u.f.f.a.h.u.a.f.f.e.+.W +.e.O.H &.-._ Q ` F Q ' #.Q F *.=.( -.r.;.` ` O.Q Q 7.7.J F #.Q G ' =.G Q *.X.Q ` &.` F ' ;.#.H ( 7.y.y.r.u.a.a.t.t.u.u.r.r.r.f.r.2.7.7.a.7.l n y . v C =.5.u.f.a.u.5.y.a.a.a.a.a.7.u.a.f.a.r.5.e.u.u.a.a.f.u.e.2.7.t.a.r.u.y.u.7.e.e.t.7.e.t.7.y.t.t.r.2.r.t.t.e.e.a.8.8.8.8.r.4.7.r.y.a.u.t.a.e.4.e.t.e.a.a.4.-.-.5.~ g - q ` h.u.u.r.1.e.u.a.a.g.u.r.f.j.y.f.g.a.f.f.k.V.j.k.V.r.u.j.h.j.a.h.h.a.f.f.a.f.f.a.h.f.f.f.g.f.f.f.f.a.a.a.f.a.a.a.e.r.a.u.5.a.j.+.s $ ",
"    9 k d q.g.a.a.a.u.a.a.h.u.q.a.f.f.h.u.f.f.u.u.u.u.1.! W ....Q R ` ( J G H H J ( ( J H ( ( H Q ` ( J H J J R ) ) Q P J P J J ! Q J J J J J H H H H J H F Q r.u.7.u.y.t.a.y.u.u.u.t.r.u.u.u.r.a.a.a.7.l c y   v Z -.r.j.f.f.u.5.7.r.a.f.a.r.5.u.u.r.a.u.5.e.7.e.u.a.a.u.5.2.q.r.r.r.e.e.4.7.a.r.t.4.;.&.1.e.r.a.r.4.4.4.7.p.e.8.8.;.;.t.y.7.-.;.;.8.7.e.r.5.4.e.e.r.t.e.e.;.-.2.T g - y ..j.r.u.5.-.+.;.g.2.Z 5.t.O.4 u.H 6 j.r.g.B % z y @ H j.h.q.1 5.u.u.u.t.a.a.u.u.u.u.u.t.u.u.u.r.u.u.r.u.a.t.u.a.u.7.e.u.r.1.a.k.+.s & ",
"    9 j j e.h.u.r.r.u.a.a.a.u.a.a.f.h.j.a.u.u.f.h.u.a.u.e.r.r.r.e.7.2.e.r.r.r.r.e.r.r.e.8.7.e.r.r.r.r.r.e.e.r.r.e.e.u.y.r.r.a.u.u.a.e.e.u.u.r.u.t.t.u.u.t.t.e.r.y.e.a.r.8.y.y.y.y.a.y.w.u.u.u.u.a.r.u.e.l c y   c M =.;.1.4.4.;.=.&.&.=.;.4.-.&.*.;.&.=.;.=.=.$.+.-.&.+.5.-.$.$.&.*.O.O.#.X.*.4.*.&.$.#.#.#.@.*.;.-.$.' ' #.-.-.-.4.*.#.;.;.*.' ' #.-.*.;.&.$.&.-.-.&.$.*.#.#.#.4.Q d - y / h.5.e.2.5.r.r.j.&.6 5.j.(   a.x @ l.r.a.K 7 ` 5 O V k.j.2.  5.u.u.u.u.r.u.u.r.u.a.u.u.u.u.a.p.u.r.u.t.t.t.u.u.y.e.y.a.e.&.t.a.O.s & ",
"    9 l a r.u.u.u.u.u.a.a.j.a.a.u.r.u.u.u.a.a.h.a.a.a.u.r.r.a.h.t.y.e.r.u.a.a.a.t.y.a.y.t.p.e.a.a.r.r.u.r.r.u.r.e.u.r.y.r.r.a.a.u.u.2.r.u.a.f.f.a.y.a.g.a.a.a.t.y.r.r.7.7.e.u.r.r.u.e.e.u.u.u.u.f.d.h.w.z c y . v C ` H Z J R H F F F H F H F H F F F H F F H H U L J W J J J J J J H J J J J J J H H J J P J P J H H G F H J H F H H H J H H H J J J P J F J J J H H H H H J J X.R g - y ` f.u.5.e.a.u.u.f.#.9 5.k.! X a.c # k.e.u.o.K @.t : A j.j.2.. 5.f.a.u.a.a.u.r.r.f.f.a.u.u.u.y.u.t.u.a.a.y.u.a.a.u.5.5.a.t.&.7.f.O.s $ ",
"    9 l d 5.y.e.r.e.u.u.h.u.r.h.u.e.r.u.u.f.u.u.u.h.a.u.r.e.u.u.e.e.7.r.u.a.u.a.t.e.y.t.e.a.u.t.u.u.a.y.5.e.y.5.5.7.5.8.r.r.a.a.u.e.2.e.r.u.f.u.t.t.u.u.y.y.p.e.r.e.5.2.5.e.r.r.7.5.r.5.r.r.y.u.u.f.f.q.l z y   v S ( ` X.&.#.#.X.#.+.X.#.' ' #.' ` #.#.X.` X.&.&.#.&.=.*.*.*.&.*.-.=.-.;.-.&.&.&.*.*.*.-.*.-.*.#.*.&.-.-.-.-.-.*.#.$.$.*.-.-.-.-.*.&.*.*.&.&.*.&.*.;.;.-.4.-.&.&.H g - y ` j.e.e.e.a.u.t.a.&.y 7.k.P o a.x @ k.r.t.q.q.q.o.! -.a.j.2.  e.h.a.u.a.h.u.u.a.u.u.h.u.a.u.a.t.t.a.f.a.d.u.u.u.a.8.e.u.r.;.u.j.O.s & ",
"    9 j d 1.e.r.e.e.r.r.a.e.u.f.r.q.a.u.a.h.u.r.r.f.u.u.r.r.a.a.r.r.r.r.r.u.u.a.a.r.e.8.r.y.t.u.r.u.u.e.5.7.y.5.7.e.e.5.r.r.r.a.u.2.1.2.e.u.f.u.e.u.e.u.r.t.y.r.e.r.1.1.5.e.e.7.7.2.5.1.5.e.y.u.f.a.f.q.l C y . n v Q X.O.&.=.#.O.O.+.X.#.X.#.X.' #.X.#.#.#.#.$.&.+.&.&.$.*.$.&.&.*.&.&.&.*.&.#.#.&.*.&.&.&.$.$.$.$.$.$.*.$.#.#.#.#.@.$.&.#.*.*.*.*.&.&.&.&.&.&.&.*.*.*.*.*.*.*.-.R h - y ..u.2.e.7.u.u.r.u.q...e.a.2.X.y.;.' 5.r.t.u.y.u.f.f.f.u.u.r...r.u.u.a.u.a.a.a.u.u.u.a.a.a.a.a.t.a.t.u.f.a.y.a.a.u.e.5.t.e.1.r.j.O.s % ",
"    y k d 1.5.5.5.e.r.r.r.u.a.r.e.7.r.f.a.h.u.5.r.u.a.r.e.e.u.a.r.y.r.t.a.u.y.u.7.t.5.2.r.r.8.8.e.e.r.5.2.5.e.2.2.5.r.5.e.e.r.a.5.1.=.2.2.r.u.r.4.r.7.r.t.r.r.r.r.r.2.1.5.5.1.5.5.1.5.-.2.q.r.u.u.u.h.e.l n y   b l ( #.#.=.=.&.&.+.+.+.$.$.$.&.$.$.&.$.&.#.#.&.&.#.&.#.&.=.=.=.*.*.&.*.*.*.&.&.*.=.-.&.$.$.$.$.*.&.&.*.-.*.&.$.$.$.$.$.*.=.*.*.*.-.-.&.-.=.=.&.*.*.-.-.-.=.-.*.1.Y g - y ` u.r.e.4.e.5.u.a.y.7.t.t.t.r.7.r.u.r.u.u.u.r.r.u.r.r.r.r.u.f.u.u.u.u.a.a.r.u.u.j.u.u.a.a.a.u.a.a.a.a.t.u.a.f.a.u.e.y.e.5.2.u.f.X.a & ",
"    9 l a =.e.2.5.2.2.1.r.e.e.2.2.-.-.r.u.u.u.2.2.r.u.r.e.e.5.5.e.t.5.7.u.e.r.y.y.7.5.r.1.5.r.7.2.e.u.5.2.e.r.1.1.r.u.2.e.u.5.e.r.5.=.5.r.1.r.u.r.e.4.e.y.5.4.7.-.-.-.1.&.1.5.1.1.-.2.$.1.-.-.1.u.u.u.e.l n y   b l ! O.#.&.=.=.&.+.+.+.o.$.&.$.$.$.=.=.&.=.=.=.&.=.&.&.&.&.=.=.*.$.$.&.*.&.&.*.*.*.*.&.=.&.&.$.&.$.*.-.-.&.*.&.$.=.*.*.*.*.$.-.*.&.*.-.&.&.=.;.-.*.=.-.-.-.=.*.-.G g - y ` u.r.r.5.w.w.r.u.u.r.r.r.r.7.r.5.r.e.5.r.u.u.u.a.r.r.r.r.u.u.u.u.r.r.u.u.u.u.r.r.y.y.r.f.a.u.t.u.e.r.u.t.t.u.u.y.r.e.e.r.5.r.u.O.p & ",
"    9 k d -.2.1.5.-.+.X.7.1.e.u.&.+.=.=.2.e.e.2.1.r.a.r.2.r.-.O.7.r.&.&.e.&.&.a.g.&.1.h.O.-.t.5.+.w.f.5.-.e.j.=.#.h.j.#.2.v.2.1.u.j.=.-.j.-.-.u.k.r.&.a.a.e.=.r.+.[ -.8.O.8.y.1.1.1.e.1.-.2.+.O.a.u.f.e.l c y . n x Q #.&.&.=.-.=.+.#.+.+.+.$.&.@.$.=.$.=.=.=.=.=.=.=.&.&.=.=.=.&.&.$.&.&.*.=.=.*.=.*.&.*.*.&.&.*.*.-.*.*.-.-.-.=.&.=.*.*.=.$.*.*.&.*.-.&.&.=.=.*.=.-.=.=.*.&.-.&.Z h < q ` r.1.e.e.a.e.u.t.u.u.r.5.r.a.e.e.t.e.r.r.u.u.y.u.w.e.r.e.r.r.u.r.r.e.e.r.q.u.e.q.5.5.r.r.t.t.r.t.7.r.a.r.r.e.r.y.e.2.5.5.2.r.r...s & ",
"    9 l s 1.2.1.2.1.2.=.7.2.2.e.&.&.2.=.2.r.r.1.2.u.u.u.2.e.=.+.1.r.O.$.7.O.O.y.y.$.$.h.X.O.y.5.O.e.u.2.&.5.f.-.#.a.h.&.1.v.2.$.y.h.-.+.u.=.-.r.j.q.X.a.a.r.4.e.+.O.1.2.O.e.e.5.1.5.8.&.=.5.1.O.a.u.u.2.l c y   b b ! X.+.&.=.=.&.&.=.#.o.+.$.#.#.$.=.*.=.=.=.=.=.=.=.=.&.&.-.=.=.&.&.&.&.=.=.&.=.*.&.*.=.*.*.=.=.&.&.&.-.&.-.*.*.=.=.*.=.$.$.=.*.*.*.&.=.&.&.&.*.*.*.&.*.=.&.#.#.m g - y ` y.e.5.5.t.e.u.f.u.a.a.5.a.f.a.2.r.r.r.u.r.u.r.u.5.2.r.2.u.r.r.r.r.2.e.2.r.r.r.5.2.2.e.r.q.e.7.5.2.r.y.e.u.a.u.e.y.e.r.7.7.u.a...p & ",
"    9 k d -.5.;.q.2.2.2.e.-.&.e.-.&.5.#.5.a.r.;.7.t.u.y.7.r.=.X.5.r.` $.r.X.` e.5.` O.j...` t.7.X.5.a.=.#.q.r.&.+.h.h.+.-.n.1.` r.j.$.` a.$.O.2.v.2.` u.u.5.-.e.+...&.1.[ 5.8.1.&.1.7.$.O.1.1.` 5.5.w.1.l c y   b x Q X.#.&.&.&.&.+.&.$.+.$.o.+.o.&.&.=.=.=.=.=.=.=.=.&.=.=.&.&.&.&.&.&.&.-.*.&.=.&.=.=.*.=.=.=.*.*.=.=.=.*.=.=.&.*.*.=.&.&.&.*.*.*.*.*.=.=.&.=.&.&.=.=.*.*.&.X.' M h < y ` a.7.5.#.;.=.1.5.1.5.1.#.1.5.1.1.y.8.e.u.r.r.r.u.5.2.u.5.u.u.u.u.r.e.r.e.r.2.r.q.2.5.7.r.y.e.5.7.-.&.-.&.=.5.1.&.&.1.1.&.-.a.a.' s & ",
"    9 l d X.7.;.-.&.2.-.;.O.$.2.&.&.5.#.=.+.` &.1.7.r.5.1.1.=.) #.*.` X.&.{ #.-.-...O.7.' ` 4.=.' 2.2.#.&.7.r.=.#.7.r.&.-.k.1.O.r.u.-.$.u.1.O.2.v.5.O.=.5.2.+.-.$.+.O.+.+.1.7.1.&.&.5.&.O.1.1.&.2.&.` H l c p   n b H ' #.#.&.#.+.&.$.&.$.&.+.+.+.&.#.&.&.=.=.=.=.&.&.&.=.=.=.&.&.&.-.*.&.*.*.&.=.=.&.=.*.=.-.*.*.*.-.=.=.*.=.=.-.-.=.*.&.&.&.&.$.&.=.&.&.$.$.&.&.&.&.&.*.*.#.#.#.M h & s l F Z C p y y y y y y y y y y q $.h.d.h.u.a.f.f.a.f.h.u.f.f.u.u.a.h.u.f.f.f.u.a.u.a.f.a.a.a.a.u.a.` y p p s y s s s y s y l T H n d $ ",
"    0 k d l H #.e.7.t.t.e.7.r.t.e.r.r.e.q.&.$.7.r.r.r.y.r.e.a.e.4.5.y.5.4.r.t.7.e.r.r.5.e.r.r.r.7.e.7.7.t.a.u.t.u.7.5.u.a.y.r.a.u.r.u.u.y.r.a.a.u.y.y.5.e.r.e.5.e.5.5.5.r.y.5.1.e.e.e.y.8.1.1.O.^ Z l l z n y   b b Z ( X.X.+.+.+.+.&.+.+.$.+.+.#.&.&.&.&.&.=.&.&.&.&.&.&.=.&.&.&.&.-.*.-.*.*.&.=.*.*.*.=.=.*.=.*.*.*.=.=.&.&.=.-.-.&.&.$.&.&.&.#.&.&.&.&.&.&.&.&.$.=.=.*.&.&.#.' m h , s s y y y a p a s s s s s d s d y ! j.u.a.f.a.d.u.u.a.a.f.f.u.u.h.h.u.u.f.a.f.r.a.u.u.f.a.a.a.t.t.u.D y d d s d d d g s g d s y s s k % ",
"    9 l d d s z J #.O.&.-.-.=.#.7.a.f.r.O.&.d.5.+.a.5.O.5.y.#.u.a.5.2.a.4.#.a.1.O.a.u.+.1.r.#.1.t.=.4.f.t.-.e.t.%.-.r.$.1.7.*.4.u.r.&.1.y.&.-.y.O.e.u.5.-.5.=.+.2.5.1.u.h.e.1.` -.-.-.O.+.1.D h j l z z l c p   c x Z ! ....o.O.O.&.+.$.+.&.+.+.&.=.&.&.=.=.&.=.&.=.=.&.$.$.#.&.&.=.&.&.*.&.&.&.=.*.-.*.=.=.=.=.*.:.=.*.=.-.=.&.&.-.&.&.&.*.*.$.&.=.&.&.=.&.*.-.&.&.#.&.&.$.$.#.` m h & s s s s s p p p p p s p s s s s y H h.f.a.u.a.a.u.u.a.a.f.u.u.f.h.u.h.u.u.w.f.u.u.r.r.f.a.a.u.t.u.y.m s d d s d s d s d s d s d d s f % ",
"    9 k d d j a c =.;.4.5.4.e.e.1.2.t.5.&.O.r.e.+.y.$.` 4.a.*.a.a.1.1.j.-.X.j.+.+.j.u.-.1.r.$.&.u.&.2.h.a.-.y.a.O.&.r.+.1.y.&.5.u.r.2.e.a.1.5.g.` a.j.5.&.y.+.+.y.e.1.1.5.&.<.-.e.7.;.O.-.2.C l z z z l l n y . c b G P ! ..O.+.O.+.#.+.$.+.O.+.&.&.&.#.&.&.-.=.&.=.&.&.&.$.#.$.#.&.#.&.$.&.&.&.=.*.*.*.*.*.$.*.&.-.=.=.-.=.=.=.-.&.-.-.&.-.&.&.&.&.&.&.=.&.&.=.&.&.&.&.&.&.$.#.{ m h & s p s p p p a a y s p p s s s s q H a.e.y.u.a.a.u.y.a.a.u.u.u.u.f.u.u.u.e.r.u.u.r.t.r.u.t.a.a.t.a.r.l s s s d s d s d s d s d s s s j $ ",
"    9 l d d d d b 1.e.7.e.r.r.t.5.5.&.-.u.` $.2.O.1.O.` ` 5.r.5.5.7.e.q.e.-.2.O.y.5.2.2.$.%.5.$.%.+.e.-.4.1.O.O.O.! ` O.-.O.+.1.O.&.r.O.$.7.$.$.` e.+.1.2.O.` 1.&.O.1.1.1.&.+.u.u.u.r.&.=.;.z l l z l z l c y   n b C J Q ` X.#.+.+.+.+.+.o.O.&.#.+.#.&.+.&.&.&.$.=.=.$.&.#.&.&.#.#.&.#.#.&.$.&.=.=.&.&.$.&.&.*.-.-.=.&.&.=.-.=.-.*.-.&.&.&.&.$.$.&.&.&.=.&.=.&.=.=.&.=.&.$.#.X.' m h - s p p p p s s s s s s s s s s s y S r.e.y.a.h.u.7.r.r.y.y.w.r.e.u.a.r.2.-.e.u.u.u.e.r.r.e.e.e.r.r.7.d s d d s d s d s d d d s d s d k $ ",
"    9 k a j d d z &.;.4.a.7.-.;.r.5.1.5.t.O._ &.*.$.&.2.O.&.r.1.&.7.7.#.7.e.=.-.a.1.&.5.$.` 1.$.` &.e.[ $.8.O.+.e.O.Q 2.1.^ 1.e.[ +.u.O.O.u.&.O.1.2.` 1.y.~ $.u.-.+.5.2...O.e.a.h.a.e.1.1.-.z l l z l l z c y   b b x F H ) ..O.X.+.+.+.O.+.+.&.&.+.#.#.#.&.#.#.$.&.=.$.#.&.&.&.#.O.&.&.&.#.#.&.*.$.$.$.&.$.$.*.&.&.&.$.&.*.-.=.&.-.-.&.&.&.&.&.&.=.&.&.&.&.*.*.-.&.=.&.#.' X.{ ' b h , s s s s p p s s s u s s s s s s y Z 5.5.7.r.u.r.1.-.5.7.1.e.5.1.r.2.-.=.1.-.5.2.2.2.1.-.e.1.1.5.5.5.l s s d s s d s d s s d d s d s k $ ",
"    9 k j d d d k X.&.2.7.2.=.&.1.5.5.5.7.e.4.-.-.1.7.r.7.-.;.q.t.e.5.5.-.-.q.e.2.5.y.7.1.&.O.-.2.&.$.-.&.$.1.5.-.&.+.+.O.&.-.&.&.+.X.&.+.O.&.&.O.O.+.O...O.` / X.O./ ^ ! R ! / / ! T D H A z z l l l z l z y . c m c F L ) ` ..X.+.X.&.#.+.&.&.&.&.&.=.&.&.&.&.$.&.=.=.&.#.&.&.&.O.&.&.$.$.&.*.;.&.$.&.&.*.*.-.*.&.&.&.&.=.-.*.-.-.&.&.&.-.*.&.=.=.*.&.&.&.-.-.-.=.;.$.` ` ` O.' b l & s s s s p a y s a a s s s s s s s k $.-.5.5.2.1.2.&.5.5.2.2.5.e.2.q.2.e.e.e.e.5.2.5.2.1.-.1.2.&.1.&.f s d s s d s d s d d s s d s s g & ",
"    y k d j d d d k l k l l l l l k l l z l l l l l l l l k l l l l l l z l l z z l z z z k l z z z l k k z k k l l k l l l l l h l l l h l k l h l l l l l k l j h l l l l j l h l l j k l l l z z l z v c y   c v l n n C S Z D S D Z S S D Z S Z S S S S D S F F S D D Z S S S S D Z S S S S Z S S S Z M C S Z m Z N m Z N S S S m N Z Z N m Z N m N m N Z N Z Z Z m m n n n n l h - y y y y s y y y p y s y s s y s p y d d d f d d d d d d d d f h d k k k j j d k g g d k d d d d d d s s s s s s s s s s s s s s s s d $ ",
"    9 k s d d d d d d d d s d a d d d d s d d d d d a j d d d d d d d d g d d d d d d d d g d j g g h k k k k k h j j j k k j k h l h j l k j l l j j j k l l l l l l h l l l l l l l l l l l l j l l j h c y   S S C S S Z M M C S N M m M M M M M m N m M M m n m M N M n n N n m n M M n m M m m n M n n m n n M n n m n n n n n n n n n M n n n n n n n n n n n n n n M n n n n n , g g g d d j j j d d k j h f f f d h d d d d d d d d d d d d d d d j j k j d j g d j h d j k f g h k k k l k l k l k l k k k k k l f c & ",
"    y c l l l l l z l l z l z z l l l z z l z z z z x x z l z z x z z c z z b b c b v z b c v c c c b c c c b b b z b n c c b b c n n n v n n n n c n c b n n n n n n n n n n n n n n n n n m n n B B C n C d   1 1 1 1 1 1 1 < 1 1 1 1 1 1 1 1 1 1 1 1 1 1 1 1 1 1 1 1 1 1 1 1 1 1 1 1 1 1 1 1 1 1 1 1 1 1 1 1 1 1 1 1 1 1 1 1 1 1 1 1 1 1 1 1 1 1 1 1 1 1 1 1 < 1 1 1 1 1 1 < 1 < < + - - - - , - - - , - - - - , , , - , , - , - , , , - - , - < - - < - , , - , , , , , , - , , , < < , , , , , , , , , < , < < - , < , < o ",
"    @ # # # # # # # # # # # # $ # # # # # # # $ # # # # # # # $ # # # # # $ $ # $ # $ # # $ # $ $ # $ $ $ $ $ # $ # $ $ $ $ $ & $ # $ # $ $ $ % $ $ $ $ $ $ # $ $ $ $ $ $ $ $ $ $ $ $ $ $ $ $ $ $ % % % $ $ #                                                                                                                                                                                                                                                                                                                   ",
"                                                                                                                                                                                                                1 v d j j d j j f d d k d k k j g j j j d d j j d d d d f d d d d j d d d d d d d d d d d d d d d d d d s d d s d d d d d d s d d d d s d d s d s d d s d d s s s d a s a d a a s s d a d a s a a a a a s a a a a a a a a a a y y d &   .           .                     .         .     .           .         ",
"o - & & & & & & & - & & & & & & - - - & & & & & & - & & & & & - & - & - - & - & & & & - & - & - & & & & & & & & & - & & - & & & & - & & - & & & - - & & - - - & - - - & - - & - - - - - - - - - - - - & - & - # 1 n l z z z z z z z z l z l l l l z l l l l z l l z z z z l z l l l l l k z k z l l z k l l k l k l k l l l l l l l k k k l l k k k k k k k k l l l k k h k l k k k k k k k k k l k k k k k k k j k j k k k j k j j j j k k k j d z &                                                                           ",
"8 ~ S U Y U U U S U U T E U U S S T U U Y Y Y Y Y U Y U Y Y Y Y Y Y T Y Y Y E Y Y Y Y Y E Y E Y T E Y E E E Y E T E Y E E E Y E E Y E E E E E E E E E E E E E E E E E E E E E Y T E E E E E U E E E E E E E ~ N 1 C l l l l l l l l l l l l l l l l l l l l l j k l k k l k k l l l l k k k l k k k k k k l l j k k k k k k k k k k l k k k k k k j k k f j j f j k j k k k k j j f d k j j d k d j j j f d f d d d d f d d d d j d j d j d d j d k %                                                                           ",
"3 S n M m M n U ` -.1.+.#.1.+.~ ^ b C M N M M M m M M M M M M N M M M M M M M M S M M M M N M M N N N M N N N M M N S N M N N N N S N N N N M M N N M S N N N S C U M N N N U ~ +.7.2.7.5.5.1.Y N U S U U N Y b 1 n l l l l l l l l l l l l l l l l l l j l l l z k z k l l l k k l l l k l k l k z k k k l k l j l k k l k k k k k k k k k k k h k k j k j k k j k k k k d k k d j k d k d k d k j d j j d j j j d d j d j d d d d d d d j d d d l &                                                                           ",
"3 U G ' ' #.#.#.&.=.=.$.#.&.$.$.&.O.O.O.O.O.#.#.#.#.#.$.#.$.#.#.#.#.O.O.#.#.{ #.#.#.#.#.{ #.#.#.O.O.{ O.O.+.O.O.#.X.O.O.X.X.X.X.O.O.O.O.X.X.X.X.O.X.' X.O.' ' ' ' X.X.O.X.' O.#.$.;.&.=.&.*.;.X.' ` ` ( G U Y v 1 n l l z l j z l z B a l l l l l l l l l l l k k l l l l l l k l j l l l j j l j l j k k l j k l j k k k k l k l j j j h j l j l j j j k k k f j k k k k j f j k j d k d k d k d j f j j d k d k d d d j f d j j j f d j d j d a l %                                                                           ",
"3 Z G ( ( ! ( ) ` ) ` ` ) ` ' X.X.O.X.+.#.#.#.#.#.#.#.$.#.#.#.#.#.$.$.$.#.#.&.&.$.$.#.&.&.&.#.#.$.#.#.#.#.#.#.#.$.$.$.$.&.$.$.#.#.#.#.#.&.#.$.$.$.$.$.#.#.#.#.#.#.#.#.X.#.#.#.#.X.X.#.X.' ` ( ) ( Q F F Z N E b 1 B l l l l z l l l l l l l l l l l j l j l l l l k k l k l l l l j l j j l l j l j k l l j l k k l k l k k k k j l h l l j j l j j j j k d j k j k d k k k k k k d k d k d j k k d k d k d d k d k d j d d d d a j d d f d d d j l &                                                                           ",
"3 S F F F J ` ` ' ' X.X.#.#.X.O.O.X.X.X.X.O.X.#.X.X.X.X.' X.' ' X.X.X.' #.' #.' O.#.X.X.X.#.#.X.X.O.O.O.O.X...` ' #.X.#.X...X...X.X.X.X...' ....` ` ` ` ' ` ` ) ` ` ) ( ) ` ` ` ` ` ` ` ) ( P F C m m x x n Y n 1 B l l l l l l l z l l l l l l l l j z l l j l l l l l l k k l l l l l l l j l k l l k j l k l l f l k k k k k j j j l j j j j k k j j k k j k f k j k j f j h k j d f j d k d j d d k d k d j k f j d d j d j d d d d d a j d d l &                                                                           ",
"3 Y H J P ' #.#.#.X.O.#.$.$.&.&.&.&.+.&.#.#.$.*.&.*.*.&.&.&.&.*.&.*.&.*.-.*.&.#.&.$.*.*.*.*.-.*.&.&.-.-.&.&.&.=.*.*.-.-.-.=.=.=.=.&.=.=.=.&.=.&.$.*.*.*.*.$.$.#.&.O.#.#.$.*.&.&.&.;.*.-.=.$.#.Q P P J F Z Z Y b 5 n l l l l z l l l l l l l l l l l l l l l l l l k l k l l l l l j l j l j l j k k l k l k l k j l j k k k l k j l j j j l l j k k g j j k f k j k f j k j k k k k k k d k d k f j k d k d j j d j d d d d d d d j d f d j j f a l &                                                                           ",
"3 S F R J #.#.#.&.$.&.=.-.-.-.-.=.=.=.&.$.$.$._ _ #._ ^ _ { $.' ` R #._ ^ _ ' $.` #.R ] *._ _ #.#.#.=.=.&.+.+.+.*.*.*.&.&.&.&.&.&.&.#.&.$.&.+.$.#.$.&.&.&.$.#.#.O.X.O.O.X.' ' #.#.$.$.$.&.#...Q Q P P F z m T b 1 n l l l l l l l B z l z j l l l z j l l l l l l l l l k l l l l l l l l j j l l l k l k l l l l k l k k k l k h h j j j j g g k k k k k k j j k k k k k k k k k j d d d j j j k k d k k k k k j j j d d d f d f d j j d d j j j l &                                                                           ",
"3 S Z J ) X.' H P P P ( ` _ _ ) ) ) ! ) X.$.` Y Q ` R { _ _ _ _ R _ ^ E ' ] ` _ ^ ^ R R ] _ R ] =.&.&.&.&.+.$.o.$.*.&.&.$.&.=.&.+.#.+.&.&.$.+.$.&.&.#.&.#.X.#.X.X.` ' ' #.#.#.#.$.$.$.$.#.#.` ) ) ` ( H x m Y x 1 n l l l l z l z a l l l l l l l l l l l l l z j f l x c c c k j l l z l l l l j j j j l l k k d j l k k k d k g h l j j j j g l l j d d j l j k d d d j k d d k l l c l d d d a d k d d d s d d d f j j d d j d d a j j d f a a l &                                                                           ",
"3 Y Z H ( #.G b s.s.d.z.z.z.s.s.i.6.6.G J *.^ O.*.%.Y _ } Z N #.R R R R R } { b ' _ %.' { { Y ` &.&.&.&.&.$.&.#.&.=.&.&.&.&.*.$.+.&.&.=.&.&.&.$.&.&.&.&.#.#.` H G J J J R P H ` ' O.$.$.#.X.` ' ' X.) F x Z E v 1 b l l l l k z z l l l l l l l l l l l l k k d ` &.;.5.7.5.-.X.C l a u u j l z C Z Z n a k c m Z m j d l n Z C B s u B M A B B d z c Z Z b y d c c Z Z l a n G ` #.-.` Q A C Z C C j f c m Z D c f j d f j d d d j j j d d d j j l &                                                                           ",
"3 Z m F ( #.m ] |.|.|.|.|.|.|.|.}.I.I.} G -._ #.-.$.T { { R _ ^ ^ ^ E R _ #.] R _ R %.{ R T { *.$.&.&.&.$.$.$.&.&.&.&.#.&.$.*.*.&.&.+.&.&.&.+.&.&.&.&.&.#.#.J ( 4.;.4.1.-.4.J 3.Z.n.X.$.#.X.' ..X.X.` I m Z U v 1 n l z l l z z l l l l l l z z j l l j k c J #.g.a.a.g.g.g.j.j.e.5.1.=.<.1.2.7.e.r.t.r.=.;.7.e.r.5.-.-.2.e.r.r.=.=.3.q.6.u.q.;.-.2.e.r.t.5.-.2.7.e.u.t.4.#.1.u.a.f.a.5.4.e.2.w.7.e.;.;.5.q.t.a.4.k d f j j a j d d f a j d d f a x %                                                                           ",
"3 S Z J ) #.F x Y.L.E.).I.E.E.I.W.L.L.} G 4.) _ ` _ _ *.] ^ } R ] } R R *.*.] ` _ R #.' R ` ' { -.&.&.&.#.#.&.&.&.&.&.$.&.&.*.*.&.=.&.&.&.+.$.$.*.&.&.$.#.#.( -.j.j.g.g.f.l.O.x.[./.{ *.%.#.' X.#.X.` L Z F Y b 2 c z l l x z k l l l z l k k l x x Z ! ` ` $.t.a.a.a.h.f.f.f.g.g.j.k.j.k.k.k.f.f.f.f.j.k.c.j.f.j.f.j.j.f.f.f.f.f.f.f.f.f.f.f.f.k.f.j.j.j.f.f.k.j.j.j.j.j.a.w.f.f.f.t.t.a.f.r.f.u.a.f.f.t.f.f.f.t.l d j d k d d j a j d d d j d d l &                                                                           ",
"3 S Z J ) #.G h B.K.T.E.E.W.!.Y.W.E.T.<.F -.*.R R &.H Y _ H H #._ S #.R S R ] N ` ' { { } R R &.$.$.&.#.&.&.&.&.*.#.#.&.#.#.%.*.&.&.$.$.&.&.$.&.*.#.$.&.&.#.` ' 4.;.;.1.-.4.( <.m.j._ &.#.{ X.#.X...) Q H H Y b 2 c l l z l l l l z l z j z C G ( X.$.X.X.X.$.7.a.g.j.j.j.j.g.g.h.h.a.h.a.a.f.a.a.a.a.f.f.f.f.a.f.u.u.t.a.u.a.a.a.a.a.a.u.a.u.a.a.u.a.f.a.f.f.f.a.a.f.f.a.t.r.u.u.t.t.u.a.f.t.t.r.a.t.r.r.r.r.u.e.l d d k d k d d d j f d j d d d k &                                                                           ",
"3 S R P ( ' ( ( 4.8.8.p.i.s.s.p.s.7.6.%.` *.*.1.;.-.-.-.*.*.-.&.*.*.&.*.*.*.*.4.*.&.&.&.$.&.*.&.&.$.$.O.#.=.&.&.&.#.#.$.#.' #.#.&.&.+.#.&.&.$.$.#.*.#.#.$.$.#.( J R J J J J Q ' ` ..$.$.#.#.X.X.X.` ) P H H Y b 5 c l l l z l l l k k c F ( #.#.#.O.O.' ' ' *.e.a.f.j.h.f.f.f.f.h.a.a.f.a.a.a.f.f.a.f.f.a.f.f.a.u.f.f.u.u.u.a.t.u.a.u.a.a.u.u.f.f.a.f.a.f.a.a.a.f.f.a.f.f.r.r.t.a.t.a.t.a.t.u.r.r.a.r.f.a.f.u.j.a.l d j d f j d d f d d d a j d d l &                                                                           ",
"3 Y ( ` ( ' O.' ( ` ' ` _ ` ` ' O.%.#.#.$.#.$.$.$.*.&.$.*.*.*.*.*.#.#.$.&.*.*.*.&.&.&.#.$.*.$.#.&.&.#.o.#.&.&.&.*.#.#.#.#.#.#.@.&.+.#.+.#.&.$.#.#.#.#.#.$.$.&.#.#.' #.O.#.#.$.$.&.&.#.#.#.X.#.$... .Q J J T Y b 1 C l l l l l x V H P ` X.X.X.#.X.X.X.' ` ` $.7.t.a.d.h.f.f.j.f.f.h.u.f.a.a.f.a.a.f.f.f.a.a.f.a.f.f.u.u.a.f.t.t.t.a.a.a.u.u.f.a.u.f.a.f.u.f.f.a.a.f.f.a.f.r.t.f.r.f.f.t.w.u.f.f.u.t.f.t.u.f.f.f.t.z d f k j d j d j d j d j j f a l &   .                                                                       ",
"3 Y ` ' J Q ( ` ` ` ' X.X.X.X.X.#.#.O.O.' _ ` ' ..X...' ' ' X.' ' ' ` ' ' ' ' ' X.' ' ` ` ' ' ` ` ` ` ` ` ` ` ` ' ` ` ' ` ( ) ) ` ` ` ) ` ..` ` ` ` ) ) ( ` ` ) ( ( ( ( ( ) _ ` ` ' ' ` ` ` ` ` ( ( H G H J U v 1 C k l l x I P ( ( ` ) ....X.#.#.X.O.' ` ` #.2.7.a.a.a.a.a.a.f.f.h.a.a.u.f.h.h.f.a.f.f.f.a.a.a.f.a.a.u.u.u.r.r.u.a.a.a.u.u.a.u.u.f.u.a.u.f.f.f.u.u.f.t.u.t.f.a.t.f.a.t.t.f.u.a.f.u.f.r.t.a.u.f.t.x d j j f d k j d f d d j d j j l &                                                                           ",
"3 S ` ' ( ` ` O.X.#.#.&.$.&.#.$.&.$.&.*.&.O.#.$.$.&.&.&.#.#.&.*.*.#.#.#.$.$.*.*.=.$.$.$.#.&.&.$.&.#.$.&.$.#.@.$.&.&.*.*.&.#.$.&.$.$.#.@.#.$.#.$.#.#.#.{ #.#.*.$.#.#.{ $.$.$.#.#.$.$.$.#.#.$.#.O.#...P Z G G Y v 1 c l z l m ( Q ( ( ( ` ..' X.` X.O.X...` ` O.2.t.e.a.a.a.a.f.f.u.f.a.f.h.a.a.j.f.t.f.f.a.f.a.u.a.a.f.a.t.f.f.a.u.a.u.u.u.a.u.u.a.a.u.f.u.a.u.a.f.a.a.f.t.a.u.a.f.t.r.f.t.a.f.r.u.f.f.u.f.t.r.u.t.x d j d j d j j d d d d d d d a z &                                                                           ",
"3 S ' O.( ) ( ) ` ` ` ' ' ' ` ` ` ` ' ' ' ' ` ) ` ` ..` ` ' ' O.#.' ' ` ` ` ' ' #.' ' ' ' ' ' ` ' ' ` ' ' ) ) ` ' X.{ #.#.' ' X.#.' X.' ` X...X.` ` ` ' ` ' ' #.X.' ) ' X.' ` ` ' ' ..' X.X.O.{ ` ( ! F G D T v 2 C l l x x Q ) ) ) ` ' ' ` X.X.X.O.X.X.X.' O.4.e.7.a.a.a.a.a.a.f.u.f.u.a.a.a.a.f.a.a.f.a.a.a.u.u.a.a.a.a.a.a.a.t.a.a.u.u.u.a.u.u.a.u.a.a.a.a.f.u.f.u.u.f.a.f.u.u.t.t.u.a.a.a.r.u.r.5.w.f.u.t.a.a.C a k k d k d f d j d f d d d d l &                                                                           ",
"3 U ' X.( #.-.*.$.&.$.$.#.#.&.$.&.*.-.-.=.*.*.&.&.&.&.&.#.&.&.&.&.$.#.*.#.&.$.&.$.*.&.*.*.-.-.*.&.*.*.&.&.$.$.$.&.&.*.&.&.%.&.&.#.&.&.$.$.$.$.$.&.&.*.#.&.#.*.*.*.-.-.-.-.*.&.&.*.=.-.=.*.=.&.-.=.=.) Z J T Y v 2 c l l l f F ' ' X.X.#.X.#.#.#.#.#.+.O.#.X.#.7.4.t.a.a.u.a.a.a.f.a.f.f.a.a.a.a.a.f.a.f.a.a.a.u.a.u.r.r.a.u.a.u.u.u.a.u.u.u.u.t.u.u.u.u.a.a.a.f.u.u.u.u.a.f.t.t.t.f.t.a.f.a.t.f.f.u.r.e.r.a.t.f.f.Z d k d k d k j j d d d j j d d k &                                                                           ",
"3 Y ' O.( $.y.7.4.*.&.;.-.1.4.1.1.7.5.r.r.8.5.7.5.4.5.7.4.5.1.1.-.-.4.-.;.1.4.5.5.5.5.5.7.e.e.7.;.1.7.7.2.4.4.5.5.1.1.5.4.;.1.4.;.-.;.-.-.-.;.5.5.5.4.1.4.2.7.e.7.r.t.r.r.8.5.1.5.r.8.8.5.5.1.5.5.r.` F Q R Y b 1 n l z z k P X.' X.#.#.#.$.#.#.#.&.#.&.&.X.X.4.2.r.a.u.a.f.a.f.f.u.f.u.a.a.f.u.u.f.a.a.a.a.a.a.u.u.u.t.a.u.t.u.u.t.u.t.t.t.a.a.a.u.a.a.u.u.u.a.a.a.a.f.f.f.a.u.r.f.u.u.f.u.u.u.u.u.f.u.r.f.r.f.j.D d j j d d k j d k d d d d d a l &                                                                           ",
"3 S ` O.( #.5.$.' ' ` X.$.*.-.&.&.1.1.4.5.4.4.-.-.-.-.;.4.*.&.*.*.*.*.*.-.*.-.4.5.;.5.4.-.-.;.-.$.&.4.5.-.1.-.1.;.*.*.-.-.-.*.-.-.*.*.*.-.&.*.-.1.4.5.5.7.e.e.e.7.5.7.5.7.7.-.*.1.5.7.5.4.*.$.&.-.;.` H ( R Y b 2 c k l l k P X.X.' #.#.$.$.&.&.&.#.$.&.=.+.O.;.q.r.a.a.a.u.u.a.u.u.f.a.a.r.r.a.a.f.a.u.f.a.a.f.a.r.u.u.a.u.5.w.u.u.u.u.t.u.f.a.a.u.u.a.a.u.u.f.u.a.f.f.f.f.f.a.u.u.h.h.u.u.u.u.u.r.f.f.u.u.f.f.f.G a j d k k d d k d k d j d j d l &                                                                           ",
"3 S ` O.) #.1.' ( Q Q ' #.&.;.-.&.1.1.2.5.4.4.4.5.-.-.5.1.&.-.-.$.*.4.4.4.;.4.;.5.*.-.1.;.-.-.-.&.-.4.1.1.1.-.1.1.;.4.1.1.4.1.4.4.4.4.;.4.1.4.4.4.5.7.8.r.y.t.e.7.7.7.7.7.7.-.-.1.4.5.5.1.&.$.$.-.4.` H ` E Y b 1 c l z z l Q ..X.#.#.&.$.&.&.#.+.$.&.$.*.#.X.=.0.a.u.a.a.u.f.a.u.f.a.u.u.u.u.a.u.u.a.f.a.a.a.f.a.r.u.a.u.u.e.u.t.a.u.t.u.d.f.h.u.u.u.a.f.u.a.a.a.f.f.u.a.f.a.a.u.a.u.a.u.r.r.a.f.r.r.f.f.u.u.f.f.Q s k k j d k k f j d d f d d d l &                                                                           ",
"3 S ` O.` %.;.O.` ( ( ' #.&.*.-.1.1.5.5.5.5.5.5.5.5.-.4.4.1.4.4.*.*.-.5.5.4.7.5.5.4.-.1.1.4.-.-.-.1.4.1.-.-.1.2.1.4.4.5.5.5.5.5.4.5.5.5.1.;.7.8.7.7.e.e.8.e.t.e.r.e.r.7.7.-.&.-.1.1.-.-.&.&.-.1.5.;.` H ` E Y b 1 m l z z k Q X.X.#.$.&.*.*.*.&.$.$.&.&.&.#.` ;.u.u.f.f.u.f.a.f.a.f.u.u.u.u.a.u.a.a.a.f.a.f.d.f.d.u.u.u.u.a.r.u.e.u.u.t.a.u.h.h.u.a.a.u.a.u.a.a.a.a.a.a.a.f.u.a.u.u.f.u.u.y.a.u.f.u.a.f.u.u.u.a.a.! s k d k k d d j d k j d d j d k &                                                                           ",
"3 Y O.#...+.1.$.#.` ) ' #.1.4.5.r.r.r.y.a.t.r.r.r.8.7.8.y.a.a.a.r.r.r.y.a.a.a.p.t.r.e.r.e.r.r.8.t.r.r.r.e.e.t.u.y.y.t.r.t.r.y.a.p.y.p.r.e.t.a.a.a.t.a.u.t.r.u.y.a.t.r.7.5.4.;.7.5.-.*.-.&.#.&.1.;.5.` H ' Q Y b 1 m k z l l P o.X.$.&.=.-.=.=.=.&.=.$.&.$.o.` &.w.u.f.f.a.f.f.a.u.u.a.a.a.u.u.u.t.u.u.f.a.a.a.a.u.u.r.u.u.e.a.u.e.u.a.a.a.a.f.f.a.r.u.a.a.a.a.a.a.a.a.d.a.a.f.a.u.u.f.a.u.u.u.u.u.h.h.a.f.a.h.u.j.` u k d k d j k d d j j d d d d l &                                                                           ",
"3 S ` #.O.#.;.&.#.) ( H H Q ( ) ' X.O.' ' X.` ' ' ) ) ` ` ' ' X.' ` ` ` ` ` ` ` ) ) ` ) ( ) ( ( ( ) ( ( ( ` ` ` ` ` ) _ ( ( ` ` ` ' ' O.X.O.#.#.+.O.O.O.' X.O.O.O.O.X.' ' ` ' O.` _ ` ` ` &.&.&.*.;.' J ' ( Y b 1 B l l z k D O.#.&.&.=.-.;.=.&.&.-.=.&.&.+.X.&.q.f.a.f.f.a.a.u.u.f.a.u.f.a.a.u.u.a.t.t.a.a.f.u.e.t.u.u.a.a.a.e.u.u.u.a.a.f.f.a.a.u.a.a.f.a.f.a.a.f.a.a.a.u.u.f.a.u.a.a.u.u.u.y.a.h.a.a.h.h.j.u.f...s d k d k f j f j f f j d d d l &                                                                           ",
"3 S ' #...O.1.=.#.` ( 4 . .                                                                                                                             .   .   . X X o o o o o o o + % F &.&.-.-.4.' R ' ! Y b 1 n l z z l z ..X.$.&.=.*.*.&.&.&.=.&.$.&.+...=.q.a.0.f.f.u.a.a.q.a.a.f.f.f.a.q.r.u.f.u.a.f.f.u.u.r.u.u.u.a.a.a.a.a.u.u.a.a.a.a.a.a.a.f.f.f.f.f.f.d.u.a.a.f.f.a.a.a.a.u.u.u.u.u.u.u.h.u.f.h.f.u.j.X.a k d k d j d j d j d f j d d k &                                                                           ",
"3 U ` &...#.5.-.*.#.' 3                                               .       .     .     .     .     .                     .                                                         o J #.&.;.-.-.' ( X._ Y b 1 C l z k z c ` #.$.=.*.&.&.&.&.&.$.$.&.&.+...&.q.w.u.u.a.f.a.u.e.r.u.a.a.a.a.u.u.u.h.f.f.f.a.f.a.u.a.u.a.a.u.u.a.u.a.a.a.a.a.a.f.a.a.f.a.a.f.f.a.a.f.f.f.h.a.a.u.a.a.u.u.u.h.h.a.a.u.f.h.h.h.u.k.X.a k d j k d d f f j j j j d d l %   .                                                                       ",
"4 S ..#.X.$.r.4.-.;.$.4                                                                                                                                                               X F &.#.-.&.$.X.( +./ U b 1 c l z l l c  .X.#.&.&.&.#.&.$.#.&.&.&.$.X.X.&.r.a.u.u.u.a.u.a.u.t.u.u.a.a.a.u.u.t.t.f.f.f.f.u.a.a.a.t.u.a.u.a.a.u.u.a.a.a.a.f.a.f.a.a.a.f.f.f.d.f.a.a.f.f.a.a.a.f.a.f.f.f.h.u.a.a.u.j.f.f.h.f.k.+.y l k k f j k k d k k j d k d l &                                                                           ",
"8 S ` #.' *.e.4.*.4.-.3                                                                                                                                                                 T 1.1.2.-.&.O.) +.^ Y b 2 B l l l l c ..X.o.&.&.=.&.&.#.&.&.&.&.#.X.' &.q.a.a.u.u.r.u.u.u.u.u.u.u.a.a.a.f.u.a.f.f.u.f.a.a.u.u.t.u.a.a.f.a.u.u.u.a.a.a.f.a.h.h.f.f.f.f.a.a.f.a.f.f.a.f.a.a.a.a.u.u.f.h.a.u.a.a.h.h.f.h.h.j.+.l j a d d k j d k d d f k d d k &                                                                           ",
"3 U ` &.` &.8.4.*.1.1.3   X                                                                                                                                                           X J 7.5.5.;.-.O.( O.^ Y b 1 n l z z l n ) ..X.+.&.=.&.=.&.&.&.*.&.#.' ` =.q.d.a.f.u.u.u.u.a.a.u.f.a.a.a.a.u.u.u.f.f.f.f.f.a.a.u.a.a.a.a.a.u.u.u.a.f.a.a.u.a.a.r.f.a.f.a.f.a.f.f.f.a.a.f.f.f.f.f.a.u.u.j.a.a.a.a.f.f.h.h.h.j.u.e.+.` ! k d d k d j d j k d d l &                                                                           ",
"3 S ` #.` &.r.5.;.5.4.6                                                                                                                                                                 H 5.5.5.1.-.X.Q ` ~ Y b 1 m l l l z c ....X.+.&.=.=.&.&.$.$.*.*.#.' ' 1.q.a.d.a.u.u.u.u.a.u.f.f.f.f.f.a.f.f.f.f.f.f.h.f.a.a.a.u.t.t.w.a.a.a.u.u.a.f.a.u.u.a.w.a.a.a.a.f.f.f.f.f.a.a.f.f.h.h.f.a.h.f.h.u.a.a.a.a.y.a.h.j.f.u.f.h.f.r.c d k d f j j k d k d l &                                                                           ",
"3 S ` #.( $.5.4.4.5.7.6                                                                                                                                                               . H 7.5.5.1.;.O.Q X.~ Y b 1 C l l l l B ` X.+.+.&.=.=.=.=.=.&.&.-.+.` ..;.q.u.a.u.r.f.u.f.a.a.u.f.u.f.a.f.f.h.f.f.a.f.f.h.f.a.u.a.u.t.u.u.a.a.u.a.a.a.a.a.f.a.u.e.r.a.a.f.f.f.a.f.a.u.a.f.h.j.f.f.h.a.u.u.a.u.r.e.r.f.h.a.u.u.f.u.r.e.c j k j j d j f f d d l &                                                                           ",
"3 U ` +.( $.8.4.5.7.5.6                                                                                                                                                                 H t.e.8.1.;.#.( X.^ Y b 2 c l z l z l P +.+.+.&.-.&.&.=.-.&.&.&.&.X.' ;.q.a.u.w.u.u.a.f.f.f.f.a.f.f.f.f.f.f.f.f.f.f.f.a.d.a.a.u.t.u.a.a.a.f.a.f.a.a.u.u.f.a.a.e.1.q.u.f.f.f.u.f.a.u.a.f.a.a.u.t.a.a.u.r.r.7.2.2.t.u.w.e.u.u.u.u.e.e.n d k d k d k d j j k l &                                                                           ",
"4 U { #.! $.r.5.5.5.4.6   .                                                                                                                                                             J t.r.8.4.1.#.( O._ U b 1 C l l z l k P +.X.+.=.=.+.=.-.-.=.&.&.$.X...=.2.e.a.f.f.u.f.f.f.f.f.d.f.f.f.f.f.f.f.f.a.f.f.f.f.f.f.u.u.u.u.u.u.a.a.f.a.a.a.u.a.r.e.t.e.u.u.r.a.a.a.r.a.e.e.e.7.4.-.&.5.r.r.5.5.e.2.q.r.f.r.w.u.r.u.h.j.a.C d k k j f j d k d d l &                                                                           ",
"3 S ` +.( #.5.-.;.5.4.6                                                                                                                                                                 J y.7.5.-.*.O.( O./ U x 2 c l z l z k P &.+.&.=.=.+.+.+.=.o.&.&.$.X.) #.2.q.u.f.u.u.f.f.f.f.u.f.f.h.f.f.f.f.f.f.a.a.f.f.f.f.a.u.a.a.a.u.a.u.u.f.f.f.f.d.t.q.e.5.5.r.r.e.e.e.r.e.e.q.q.5.5.7.1.&.2.5.5.&.+.+...~ Q ! / ) +.&.r.e.-.+.c d k d d j d k d k j l &                                                                           ",
"3 S ` O.` +.5.-.2.2.2.6                                                                                                                                                                 Q t.5.4.;.-.O.) O.! U b 1 n z l l z k Q =.&.$.&.&.+.+.=.&.&.&.&.+.o.( &.0.0.a.f.u.f.a.a.a.a.a.f.f.h.f.c.f.f.c.a.f.a.f.f.f.f.a.u.a.a.a.a.a.a.a.a.a.a.a.a.a.u.q.;.;.2.q.;.1.-.&.-.&.X.` J H J G ! ` O.+.O.O.#.#.O.O.O.O.#.=.&.5.e.e.#.j j d j f j j f k d d l &                                                                           ",
"3 U ..O.` &.r.5.4.e.2.6                                                                                                                                                                 Q r.5.5.5.4.#.( { ! Y b 1 m l z l z k Q &.$.$.$.o.&.&.&.=.&.$.$.+.../ &.r.r.a.f.a.u.f.f.u.u.a.f.d.a.a.f.f.f.f.f.f.f.f.c.f.f.a.u.a.a.a.a.a.a.a.a.a.f.a.u.u.u.+.~ L ~ L ~ ! ` ` O.$.$.#.#.+.+.$.O.+.&.-.&.-.2.5.;.2.;.4.7.4.;.j.k.l.=.f k k k d d d j d j d l &                                                                           ",
"3 U ` O.` $.r.7.q.7.-.4   .                                                                                                                                                             J e.5.5.5.7.#.Q ' ^ Y b 1 m l l z z k Q $.+.+.$.&.o.&.+.&.&.&.&.&.+...+.q.f.f.a.f.a.u.a.f.f.f.f.f.a.a.f.a.f.f.f.a.f.f.f.f.f.a.a.a.a.a.a.a.a.a.a.f.f.f.w.q.q.=.=.=.2.2.=.=.-.&.&.-.-.&.-.-.&.1.-.#.&.$.O.#.+.+...X.O.#.#.#.#.` ..X.J d k d j k j k d d k d l &   .                                                                       ",
"3 S ` +.` $.r.7.5.5.-.4                                                                                                                                                                 G 7.5.5.4.5.X.( ' Q Y b 1 b z v l z k P $.+.+.$.&.+.&.+.&.&.=.&.&.+.X.X.q.u.a.u.a.a.u.u.f.a.f.a.a.u.f.f.f.f.f.f.f.a.f.a.f.f.a.a.a.a.a.a.f.f.f.f.f.f.f.c.u.2.=.=.;.2.2.=.-.&.+.O.O.` ` ! ` ` ' ` O.O.&.&.#.O.#.X.O.&.&.#.=.=.` ) ' ..c d k f d k d k k d k l &                                                                           ",
"3 U ` O.` +.8.5.4.1.-.4                                                                                                                                                                 F 5.4.5.5.5.X.( ` ^ Y v 1 C l z l z l C +.+.&.o.+.=.+.&.$.&.&.&.&.&.X.X.q.0.a.u.a.f.a.f.a.f.f.f.f.a.a.a.f.f.a.a.f.a.f.a.f.a.f.f.a.a.f.f.f.a.a.a.f.a.f.f.f.u.=.~ ~ ~ ! ! ` O.-.&.$.$.+.+.+.&.&.&.&.2.5.7.5.5.q.7.5.5.7.4.7.=.X.O.` J k d d f d j d k j f d l &                                                                           ",
"3 U ` O.` +.7.5.4.1.-.4                                                                                                                                                               . G ;.=.;.5.8.O.` ' ~ Y b 1 n z l z l l l +.&.+.+.+.=.&.&.$.+.&.&.&.&.O...q.u.u.u.a.u.a.f.a.a.u.a.f.f.a.a.a.c.a.a.a.a.a.a.a.a.a.a.a.w.a.a.f.a.f.a.a.a.f.a.a.u.2.=.=.=.;.;.&.-.1.-.2.1.-.-.-.1.-.-.5.5.r.e.q.5.e.r.a.t.e.5.q.4.u.u.7.1.l d j j k d k d d j d l &                                                                           ",
"3 S ` +.` +.7.5.-.-.=.3   .                                                                                                                                                             G -.$.;.4.5.O.` O.^ Y b 2 C l z l z l l O.+.+.$.+.&.+.+.&.&.&.#.$.$.X...;.q.u.d.a.u.f.u.a.a.u.u.a.f.f.a.a.f.a.a.a.a.a.a.a.a.a.u.a.a.a.a.f.a.a.a.a.a.f.f.f.u.=.=.=.=.;.=.-.&.-.&.2.5.1.2.7.5.t.a.r.4.r.a.e.u.f.j.a.a.r.7.e.1.r.e.1.O.k d j k j f d k k d j l &                                                                           ",
"3 S ` &.` #.7.1.;.-.-.6                                                                                                                                                                 H 5.*.-.4.1.X.` +.^ Y b 1 C l z z l c l X.+.+.+.&.&.&.+.#.&.=.&.O.o.) ` =.q.u.u.u.u.u.u.a.a.a.u.u.f.a.u.a.a.a.a.a.a.a.a.a.u.u.a.q.a.a.a.a.f.a.a.a.f.a.f.a.u.=.=.2.2.2.2.5.1.1.1.5.7.2.5.e.e.u.u.y.u.r.e.2.2.q.2.7.t.a.t.t.e.7.7.&.O.Z d k d j d k d j j d l &                                                                           ",
"3 U { &.' $.r.5.4.5.1.3                                                                                                                                                                 ! r.4.;.5.7.X.` X.( U b 2 C l l z l z l X.+.+.+.+.&.$.$.$.=.&.+.+.O.` ` =.u.a.a.u.q.a.a.a.a.u.a.f.f.f.a.a.a.a.a.f.a.a.f.u.u.u.u.u.u.a.u.a.a.a.a.u.f.a.a.f.u.=.2.q.q.2.q.e.2.1.&.+.O.O.+.1.5.r.r.u.u.t.e.7.r.r.q.e.r.r.e.r.y.u.a.7.e.Q d k d d k d d j f j l &                                                                           ",
"3 S O.&.' &.r.8.7.5.1.6   .                                                                                                                                                             J a.8.5.5.8.X.` O.Q Y b 2 B l z z z l z X.X.X.X.+.+.+.&.&.=.&.$.+.O.X.` =.w.f.f.a.u.u.a.u.u.a.f.a.a.u.a.a.a.a.a.a.a.a.a.u.u.q.u.u.a.a.a.a.a.a.f.f.f.u.u.a.u.=.+.=.0.u.q.e.y.2.2.1.&.1.-.&.&.-.1.2.5.1.+.&.&.` / Q J Q ..&.1.&.1.=.-.c d k k k d k j k d d l &                                                                           ",
"3 S O.&.{ #.r.8.7.7.1.3                                                                                                                                                                 J a.8.5.7.r.X.( ' ^ Y b 2 c l z z l l z ..o.+.+.+.&.+.&.=.=.&.=.&.+.O.X.=.u.a.f.a.a.w.a.u.a.a.f.a.u.a.f.a.a.a.a.a.a.f.u.u.u.q.u.u.a.u.a.u.u.f.f.f.f.a.a.a.0.;.+.=.=.=.=.-.-.-.1.1.+.O.` ! W ! ` O.$.&.=.1.5.5.q.5.e.5.r.r.a.g.h.t.a.m d k k k k j k j d d l &                                                                           ",
"3 S O.&.O.&.r.r.8.e.;.3                                                                                                                                                                 J e.4.4.e.u.X.P ' Q Y b 2 C l z z z z z ` +.+.+.&.&.o.$.=.&.@.&.=.#.X.O.2.w.f.c.a.a.a.u.u.a.f.a.u.u.f.a.a.a.a.a.a.a.f.a.q.q.u.u.u.a.a.a.u.a.a.f.f.f.f.a.q.q.;.+.+.~ +.=.+.1.-.2.e.y.u.d.y.y.y.r.e.e.5.2.5.e.2.2.-.-.&.&.O.&.2.1.&.1.D s k k k d d d f j d l &                                                                           ",
"3 S O.&.O.&.r.8.7.7.;.2                                                                                                                                                                 J 5.=.4.7.r.X.( ' ^ Y b 1 c z z l z z l L &.&.+.&.$.+.$.+.+.&.=.=.&.+.O.2.q.d.c.d.u.u.u.a.a.u.u.u.a.u.a.a.a.a.a.u.a.a.u.0.q.u.a.a.a.a.a.a.u.u.a.f.f.a.u.u.w.2.q.a.0.w.u.5.e.5.5.e.r.r.e.5.2.1.&.&.+.O.O.&.-.-.1.1.;.=.-.-.=.e.e.e.1.` d k k k d k d k d j l &                                                                           ",
"3 U O.&.} &.8.4.4.4.=.2                                                                                                                                                                 J 7.-.4.7.e.O.` O.! Y b 2 C l l z l z j Z &.+.+.+.&.+.&.&.&.+.=.=.&.+.+.=.q.a.a.f.u.a.a.a.u.q.u.a.a.u.d.d.a.a.a.a.a.a.u.a.u.u.a.a.a.a.a.u.a.a.a.f.f.a.u.u.0.2.=.q.q.;.=.=.+.+.O.&.-.2.5.5.5.5.5.5.5.-.-.2.2.5.5.2.2.1.5.-.-.u.t.7.7.W d k k k j d k j k d l &                                                                           ",
"3 U O.&.O.$.8.-.;.-.&.3   X                                                                                                                                                             P e.-.-.5.r.O.` O.^ Y v 1 C l z z z z l G &.X.&.$.o.&.+.&.o.=.+.&.&.+.+.;.w.a.a.f.a.a.a.a.d.a.u.a.u.a.d.a.a.a.u.a.a.a.a.u.u.u.a.u.a.a.f.a.a.a.f.f.a.a.f.a.q.2.=.q.q.2.2.5.2.1.1.-.1.e.e.e.e.r.e.7.e.5.5.2.1.2.;.5.r.e.5.r.r.g.f.e.7.Z d k k f k k j d j d l &                                                                           ",
"3 S O.&.X.#.5.-.;.1.-.2                                                                                                                                                                 Q e.-.;.4.7.X.` X.^ D x 1 C l z z z z j H &.X.+.$.+.+.&.&.&.+.=.+.&.+.o.=.q.a.f.a.a.a.u.u.u.a.f.a.a.f.a.a.a.a.a.a.a.a.u.u.a.u.u.u.a.a.a.u.w.f.a.f.f.a.u.0.q.=.+.2.q.0.q.e.5.1.1.-.-.2.5.e.y.u.u.u.a.a.r.a.r.r.u.r.a.u.e.a.a.g.g.r.7.H d k k j k k k d f d l &   .                                                                       ",
"3 S ' *.{ #.5.-.*.;.-.2                                                                                                                                                                 Q 7.-.5.4.5.' ( X.( U b 1 n l z z l z l A +.X.X.$.+.+.&.&.&.&.&.#.&.&.#.=.0.u.a.a.a.a.u.u.u.u.u.u.0.f.a.a.a.a.u.a.a.a.u.a.a.a.u.a.a.a.a.a.a.a.a.a.f.a.w.q.2.=.+.e.d.a.f.a.w.q.a.r.q.u.r.r.u.r.r.u.r.r.r.a.u.y.u.y.t.r.e.r.r.r.f.r.5.O.d k k k j k h k d d l &                                                                           ",
"3 G X.&.#.$.5.-.-.;.-.3                                                                                                                                                               . H 5.2.5.7.5.' ( ' ! Y b 1 m l z z l z l D +.+.&.+.+.+.&.&.=.=.$.#.&.$.$.;.q.u.u.a.a.a.u.a.u.u.u.u.a.a.f.a.a.f.f.a.a.a.a.f.a.a.a.a.a.a.f.f.f.a.a.a.f.f.u.2.2.=.;.u.f.a.a.a.u.a.a.u.u.w.0.r.e.7.e.e.5.5.e.a.u.r.u.a.a.r.r.r.r.7.h.r.5...d k k k k k j d j d z &                                                                           ",
"3 G ' $.#.&.7.5.7.7.1.1   .                                                                                                                                                             H 7.4.q.5.4.` ( ' ^ Y b 1 m l z z z z l D +.X.+.$.o.o.&.$.=.=.&.&.=.&.#.2.a.a.a.a.a.u.a.d.u.q.w.u.a.a.a.f.a.f.f.a.a.a.a.a.a.u.u.u.a.a.a.f.f.f.f.f.f.d.a.q.2.=.2.u.f.f.a.u.a.f.f.h.h.f.u.r.2.2.-.-.-.-.&.-.2.2.5.2.7.1.1.&.+.=.a.2.2.J s k k j k k k k d d l &                                                                           ",
"3 S ` #.#.#.7.7.7.r.5.2                                                                                                                                                                 J q.4.5.5.5.` ` O.^ U b 1 C l l z l z z x ..+.&.+.+.$.&.=.=.=.=.&.=.#.#.;.w.d.d.a.a.a.a.a.u.a.a.a.a.f.a.f.f.f.f.f.a.f.f.f.a.u.a.u.a.a.a.f.a.a.f.f.f.a.a.u.6.=.q.u.f.0.q.;.=.=.=.=.;.2.;.1.2.2.1.-.-.-.=.&.-.-.5.5.2.1.u.t.u.t.f.q.5.G d k j f k d k k k d l &                                                                           ",
"3 S ` %.' $.4.7.7.5.1.1                                                                                                                                                                 Q e.;.4.7.4.` ( { ^ Y v 1 C l z z z l z k ` &.+.#.$.#.$.=.=.&.&.&.=.#...=.u.c.f.a.a.a.a.u.u.u.u.a.a.a.f.a.f.f.f.f.a.f.f.a.u.a.a.a.u.a.a.f.f.a.f.a.a.a.q.q.e.q.+.;.q.r.q.2.2.5.=.;.2.;.;.q.e.r.h.a.u.a.h.y.w.r.y.r.1.1.e.5.5.5.r.-.+.` d k k d k k j j k d l &                                                                           ",
"3 U { #.' &.8.5.1.;.=.3   .                                                                                                                                                             Q 7.-.4.7.7.` ` #.^ Y v 1 n l z z l z z k ..$.+.#.&.$.$.=.=.*.&.&.&.#.` +.u.f.f.a.a.a.u.a.a.w.a.d.a.a.f.f.f.f.a.a.a.a.a.a.a.u.u.u.u.a.a.a.f.a.a.f.f.a.u.2.2.2.=.q.u.u.u.r.u.u.e.0.u.r.2.2.2.e.5.1.=.1.2.-.1.5.7.2.-.+.+.X.` &.h.5.2.$.j j f k k j f k j k l &                                                                           ",
"3 S O.#.' &.8.5.;.*.$.3                                                                                                                                                                 ! r.-.-.4.4.' ' #._ U b 1 C l z z z l l l ..$.$.&.&.$.$.$.=.*.=.=.&.$.X.=.w.a.f.a.u.a.a.a.f.a.f.f.a.a.a.a.f.c.f.a.a.f.a.a.a.a.a.a.a.a.a.a.f.a.a.d.a.a.q.2.2.2.=.e.2.;.=.+.+...+.+.+.;.=.=.=.+.&.X.X.O.+.+.+.&.1.2.-.+.O.O.` #.a.2.-.` j k j j f h k k f k z &                                                                           ",
"3 S O.&.' $.7.5.;.;.-.2                                                                                                                                                                 Q q.-.-.;.5.' ' #._ U b 1 C l z l z z z l  .$.$.&.&.@.$.=.=.&.=.=.&.$.X.+.q.u.a.a.a.a.a.f.a.a.f.d.a.f.f.f.f.f.f.a.a.a.f.a.u.u.u.a.u.a.a.a.a.f.f.f.f.s.q.6.2.2.2.e.2.2.;.=.=.=.+...+.=.=.=.+.O./ ! W / ..O.+.-.-.1.&.+.` _ ! &.a.e.2.O.d k j k k j k j k d l &                                                                           ",
"3 U O.$.' $.5.-.-.5.1.2                                                                                                                                                               X ! 4.=.4.5.7.' #.#.) U b 2 B j B l z z z l ..$.$.&.+.$.$.&.&.&.&.&.&.#...+.q.q.a.f.f.a.a.f.a.a.f.f.a.a.f.f.a.f.f.a.a.a.a.u.a.u.w.a.a.a.a.f.a.a.f.f.f.q.q.q.2.q.6.q.;...~ | | U U ......=.=.+.+.+...O.+.<.&.-.5.e.r.r.a.u.e.a.a.d.7.-.` d k k k k j k k h d z &                                                                           ",
"3 N { &.' $.8.4.;.5.1.2                                                                                                                                                                 J ;.;.5.5.7.X.' $._ Y b 2 C l l z z l l l ` &.&.$.$.$.$.&.&.$.+.&.&.#.` =.q.a.a.a.a.a.a.a.a.u.w.u.f.a.a.f.f.f.a.f.a.a.a.a.u.u.a.a.u.a.a.f.a.f.f.f.a.u.q.q.2.2.;.q.q.q.2.<.<.2.2.2.q.0.e.e.e.e.u.u.e.e.e.r.e.4.-.&.&.=.-.&.;.7.y.=.O.! k j k j f d k j k f l &                                                                           ",
"3 S O.$.` &.r.4.1.5.4.3                                                                                                                                                                 J 1.-.4.4.7.O.X.#._ Y b 2 m z z z l z z l L &.$.$.&.$.=.&.&.&.#.$.&.$.X.=.q.a.a.u.a.a.a.u.a.a.a.a.a.a.a.a.a.f.f.f.a.a.a.a.a.a.u.f.a.u.a.f.a.f.u.f.a.a.u.q.2.q.q.k.u.w.u.e.e.e.5.5.q.1.=.......+.+.=.=.=.=.O.` Q P Q W Q ` O.-.5.4.5.#.x d k k j k k j j d z &                                                                           ",
"3 Y { $.' &.8.*.-.4.;.2   .                                                                                                                                                             J 1.-.;.$.5.' ' #.( G b 1 m l l z z l z l C =.$.@.$.$.&.=.#.&.#.+.&.$.X.=.q.a.a.a.a.f.f.u.a.a.u.a.a.u.a.a.f.f.f.f.u.u.a.a.a.a.a.a.a.f.f.a.f.a.f.f.f.a.a.a.q.0.2.+...~ ~ ....+.+.+.<.+...../ ! ..+.+.2.2.e.5.5.7.r.t.y.2.1.5.5.5.*.O.) l h k j f k k k f d z -                                                                           ",
"3 G { &.{ &.8.4.1.1.-.2                                                                                                                                                               . J 5.1.1.*.*.X.' #.Q Y b 1 C l z l z z z k C =.$.=.&.&.&.*.*.*.&.&.&.$.#.=.e.u.d.a.a.f.a.a.u.w.q.a.c.a.a.f.f.f.a.a.a.u.a.a.f.u.w.a.a.f.f.a.a.f.f.f.c.a.f.u.q.q.2.<.+.......+.=.=.=.e.u.u.r.7.7.r.r.2.7.r.w.5.5.5.7.5.7.7.r.e.t.k.f.q.#.l d k k k f k k k f z &                                                                           ",
"3 G { &.' &.7.4.1.;.&.1                                                                                                                                                                 Q e.5.4.*.*.' X.$.! U b 1 C l z z z z z l Z &.$.&.=.=.&.*.*.*.&.$.$.$.#.=.6.a.a.a.f.f.a.a.u.u.a.a.a.a.a.a.a.f.a.a.f.a.u.a.f.f.w.a.a.a.f.f.a.a.f.f.u.a.f.0.2.q.q.d.q.q.2.2.=.=.=.=.;.;.=.2.2.2.7.e.e.y.e.e.e.u.r.r.e.e.a.a.a.t.8.1.O.Q l j k k k j j k k d z &                                                                           ",
"3 N O.&.' &.e.5.1.-.&.1   .                                                                                                                                                             ` e.5.2.&.*.' { %._ U b 1 C z z l z l z l Z &.$.$.&.=.&.*.*.*.&.&.*.@.' ;.2.2.0.a.f.f.a.u.a.a.a.a.f.f.f.a.a.f.f.f.f.a.a.a.a.u.u.a.a.a.a.f.a.u.a.f.a.f.a.q.2.;.6.a.u.a.u.u.u.t.u.e.u.t.5.r.e.e.5.7.7.2.1.&.-.&.+.$.$.$.1.5.5.;.8.e.4.=.C d k k k k k k d d z &                                                                           ",
"3 Y O.&.O.$.r.8.4.;.$.1                                                                                                                                                                 ` r.4.-.&.-.' ` $.! U x 1 C z l z z z z l Z $.$.&.&.-.=.*.*.&.&.&.$.#.#.;.2.2.q.a.f.a.u.a.a.a.a.a.f.q.a.a.a.f.f.f.a.u.a.u.a.u.u.u.a.a.a.f.a.a.a.f.f.a.u.q.2.=.q.a.f.f.f.u.e.=.=.=.=...........O.+.=.+.+.O.+.[ ` ` [ O.$.5.a.a.7.r.;.-.m d k j j f j k k f l &                                                                           ",
"3 G } *.X.&.r.7.;.;.&.1                                                                                                                                                                 ` r.1.-.-.1.' X.&.^ Y b 1 m z z z z l z l C #.#.&.&.&.&.=.=.&.&.&.&.$.#.+.q.q.a.a.a.f.u.u.a.f.a.f.a.u.u.f.f.f.f.a.u.a.a.u.u.u.u.u.f.f.a.f.a.h.f.h.a.a.u.q.2.2.=.! ` ` +.1.1.2.-.-.&.O.O.$.+.&.1.5.1.5.;.5.e.e.e.5.-.2.7.e.u.a.u.r.e.5.C d k k j k k k j d z &                                                                           ",
"3 N O.*.{ $.r.7.5.-.$.2                                                                                                                                                               . ` e.;.-.1.5.` ' #.Q Y b 1 m z z z z z l l m O.&.&.=.=.=.=.=.&.&.&.*.&.#.<.q.w.a.a.f.a.u.u.u.a.u.a.f.a.a.f.f.f.a.f.a.a.a.u.u.u.w.a.a.a.f.h.f.h.f.a.u.u.y.5.-.-.-.-.-.2.5.2.e.u.5.2.5.2.e.e.2.1.2.2.-.1.2.5.2.2.5.5.7.q.u.a.f.u.7.e.e.5.Z d k j f f j j f h z &                                                                           ",
"3 S ' &.X.$.t.7.5.4.$.2                                                                                                                                                               . ( 5.-.-.5.5.` ' #.Q Y b 1 C z z z z z l c k ! &.#.&.=.=.&.*.&.&.$.&.&.#.+.2.a.a.a.a.a.a.u.u.u.a.a.a.u.u.a.a.f.a.f.a.a.f.q.0.u.u.a.u.a.a.f.a.f.f.a.u.r.e.5.-.=.=.-.-.2.-.-.1.e.2.-.-.-.1.y.5.e.e.r.e.2.5.e.5.r.u.t.r.u.a.a.f.e.-.1.-.;.D d j k j j j f k d z &                                                                           ",
"3 S ' &.' &.t.5.4.*.#.1   .                                                                                                                                                           . ) 7.-.1.5.;.) ' O.~ Y b 1 C l z z z z z x f Q &.&.&.=.=.*.&.&.-.&.&.*.$...=.w.a.a.a.f.a.u.u.u.u.f.a.u.f.a.a.a.a.a.f.u.a.u.a.a.u.a.u.u.a.a.a.a.h.f.u.y.r.5.-.=.&.-.5.5.5.5.5.5.5.1.1.1.1.e.5.2.r.e.5.2.-.=.&.-.5.5.5.7.e.u.a.e.-.O.O.O.Z d k k k k k k j f l &                                                                           ",
"3 U ' &.` *.p.4.&.*.#.2                                                                                                                                                                 / r.-.-.4.1.` ' X.E Y b 1 m z z z z z z z k ! &.$.$.$.=.*.*.-.-.&.&.*.&...=.0.a.f.a.f.a.a.u.a.a.f.f.a.f.a.u.u.a.a.a.u.w.a.a.a.u.u.a.d.a.f.a.u.h.a.r.r.7.5.1.-.&.-.2.2.5.5.5.2.2.&.+.+.+.&.+.+.1.2.2.2.-.=.&.-.-.1.2.2.e.u.a.u.-.&.+.+.Z d k k k k j j k d z &                                                                           ",
"3 N ' &.` &.t.1.-.-.&.2                                                                                                                                                               . ` r.1.-.7.4.` ` X.R Y b 1 n z z z z l z z k ) &.o.$.&.&.=.*.-.-.-.&.&.$...2.a.u.a.f.a.a.u.u.a.a.a.f.f.a.a.a.u.a.a.a.a.u.a.u.u.u.a.u.u.a.u.f.u.u.a.r.7.5.e.1.1.=.&.-.=.-.5.e.5.2.-.&.$.&.-.+.$.1.2.-.&.#.$.O.O.` ` ! Q / +.-.-.2.1.-.1.D d k k k f k h k d z &                                                                           ",
"3 U { &.` &.r.1.;.;.*.2   .                                                                                                                                                           . / r.2.1.4.5.` X.' J Y b 1 C l x z z x z z l ! #.&.+.$.-.&.&.-.*.*.*.=.$...q.u.u.a.a.a.a.f.f.a.a.a.a.a.u.a.f.f.a.a.f.a.a.u.q.u.u.u.u.a.a.h.u.u.h.r.e.t.u.r.2.2.-.&.O.X.+.&.+.+.+.+.O.X.` ` ` ^ ` O...X.+.&.-.2.e.5.5.2.5.u.j.a.-.O.X.O.Z g l k j j k f j f z &                                                                           ",
"3 S O.*._ &.8.1.5.4.-.2                                                                                                                                                                 ) q.-.1.5.7.` ` ` J Y x 1 C z z z z z z z k Q O.+.=.&.-.&.=.&.&.&.&.*.$...2.q.u.a.u.a.u.a.a.u.a.a.a.u.a.a.a.a.a.a.f.u.u.u.a.a.u.u.a.u.u.h.f.u.f.r.r.u.f.t.5.2.-.X.) ` ) ` ..O.+.-.2.2.5.e.r.e.e.r.w.e.q.1.2.w.r.e.5.1.1.1.5.&.&.O.` &.J d k k f k j k j d z &                                                                           ",
"3 S O.&.` #.7.-.5.7.;.1                                                                                                                                                               . ` 7.&.-.;.4.' ' ` T Y v 1 C z z z z z z x z L O.#.&.&.&.&.&.&.&.&.&.&.#...6.0.u.w.a.u.e.0.u.u.a.a.a.u.u.u.a.f.a.u.a.a.u.a.u.u.u.u.q.q.0.a.f.a.u.u.a.a.f.a.5.1.1.5.e.e.5.2.2.5.e.5.2.2.1.1.1.+.+.+...` P J Z F F H R ! O.+.-.-.2.-.-.-.Z d l k k k k j k d z &                                                                           ",
"3 Z O.*.' #.-.-.1.5.;.2                                                                                                                                                                 ` r.-.-.*.4.` ` ` R Y z 1 C z z z z z z x l G X.X.#.&.-.=.&.$.&.&.&.$.O.+.2.2.2.q.u.u.u.a.u.a.u.u.a.u.u.u.a.j.a.u.a.a.u.u.u.u.u.u.u.u.u.u.u.a.a.u.a.a.a.u.1.-.=.+.&.#.+.X.X.` ! R D m Z S A T L ` +.+...O.X.X.' O.O.&.1.1.-.&.e.u.u.u.D d k k k k k f k k l &                                                                           ",
"3 U O.*.' #.5.4.1.4.-.2                                                                                                                                                               . ` e.-.1.=.4.) ( ) R Y v 1 C z z z z z z x z x X.&.&.&.&.&.-.&.&.*.&.#.O.+.;.;.2.u.u.e.u.u.u.u.u.u.u.u.u.u.a.a.a.u.0.u.u.t.u.a.a.a.a.u.a.a.a.u.u.a.a.f.a.r.-.&.&.C Z H ) ..=.+.&.O.X.O.X.+.+.+.+.+.=.+.+.) P P ! ! ` O.1.5.1.1.1.&.-.1.C k k l k k k j j d z &   .                                                                       ",
"3 N ' *.' &.r.-.-.4.-.4   .                                                                                                                                                           . ` 5.-.-.&.;.` ( ` R Y b 2 C l z z z z z x x c O.&.&.&.&.&.*.-.&.&.&.&.O.+.;.;.q.u.u.u.u.u.q.u.u.q.u.q.u.u.a.a.a.u.u.q.u.a.a.a.u.u.u.u.a.u.u.u.a.a.u.u.q.1.-.&.-.O.O.&.#.&.&.+.X./ Q L Q ~ ..+.=.-.-.1.2.5.4.4.7.7.1.2.5.5.2.e.+.` ` ` ! k k k k k k k k f l &                                                                           ",
"3 U { &.X.$.e.5.;.=.&.4                                                                                                                                                               X ` 7.-.-.&.-.` ( X.Q U v 1 C l z z z z z z l c X.#.&.&.&.&.*.&.-.&.&.&.#.+.2.q.q.q.q.u.u.u.u.u.u.q.u.0.u.u.u.u.a.q.0.q.u.a.u.q.r.q.u.a.f.a.u.r.a.a.u.u.e.1.-.&.&.O.` +.&.&.-.&.1.;.4.4.5.5.2.-.2.5.2.2.5.1.-.5.2.1.-.2.-.-.+.+.r.j.j.y...k k k k k k j k k z &                                                                           ",
"3 S O.&.X.#.7.5.4.-.=.3                                                                                                                                                               X X.e.2.1.1.&.) ( X.T U v 1 m z z z z z z z z n X.#.#.&.-.&.&.&.&.&.&.#.O.+.2.q.w.2.e.u.0.u.u.u.u.u.u.a.q.u.a.u.a.q.w.a.u.r.r.r.u.u.u.u.a.a.a.r.u.a.a.u.r.7.1.&.&.-.1.-.&.&.-.-.-.=.-.=.=.-.-.=.-.-.+.....` ` X.O.O.+.-.1.-.&.-.r.u.u.5.O.l k k k k k k k d z &                                                                           ",
"3 S ' &.O.#.1.4.4.5.1.4   .                                                                                                                                                           o #.r.5.1.;.&.( ) X.Q U v 1 C z z z z z z z z z O.&.#.&.$.&.&.*.-.#.&.&.#.+.2.q.0.u.u.u.r.u.u.q.u.u.u.u.u.u.w.u.u.u.w.q.q.u.u.q.u.a.u.u.u.u.u.a.a.u.u.u.r.e.2.-.&.+.#.$.&.&.+.+.O.X.' X.+.+.&.=.-.5.-.2.2.1.2.5.2.1.2.y.w.5.5.2.r.a.u.e.+.k k l k k k k k d z &                                                                           ",
"3 N O.*.O.O.=.=.;.5.1.4                                                                                                                                                               o #.t.5.5.-.-.( ( X.~ U z 1 C l z z z z z z z b O.+.#.$.#.#.&.&.*.&.&.&.O...3.2.q.q.q.u.u.u.u.w.u.u.u.u.q.0.u.q.u.a.u.0.u.a.u.u.u.u.q.u.u.u.a.a.a.u.a.u.r.u.5.1.-.#.#.#.-.5.5.5.2.5.1.1.;.q.1.1.5.1.2.5.2.2.2.-.2.2.2.e.e.e.r.2.5.u.r.r.-.k k k k k k k k f l &                                                                           ",
"3 U { &.O.O.-.&.-.2.1.3                                                                                                                                                               o #.y.r.1.&.&.` ) O.R Y b 1 C z z z z z z z z c ..+.#.O.O.&.&.&.&.&.=.&.#...=.e.0.q.5.t.a.t.u.u.t.r.u.u.u.u.u.a.u.u.t.w.u.a.u.q.u.u.q.u.a.a.u.u.u.r.a.u.u.t.2.1.2.2.1.1.2.7.e.2.;.q.2.2.2.2.2.5.0.5.2.2.5.2.2.2.1.5.5.5.7.e.r.e.1.7.a.t.;.k k k k k k l k j l &                                                                           ",
"3 N O.*.O.O.4.1.1.2.1.4                                                                                                                                                               o #.y.5.1.*.-.` ` ' R Y x 1 C z z z z z z z z l H #.+.#.#.&.&.=.=.&.=.&.#.+.+.q.u.u.u.t.u.u.t.r.r.t.r.u.a.a.u.u.u.u.u.u.u.u.u.r.r.u.u.u.a.u.a.u.a.a.a.a.a.r.e.r.r.e.q.2.5.7.r.r.0.e.q.5.5.q.7.t.u.e.q.e.r.e.r.e.5.5.7.7.e.e.e.a.5.7.7.e.-.k k k l k k k k k z &                                                                           ",
"3 S ' &.' #.7.5.1.1.-.4   .                                                                                                                                                           o +.r.5.1.-.1.` ` X.R Y b 1 C z z z z z z z z l G #.O.&.&.&.&.=.=.=.=.&.&.+.;.u.u.u.u.u.a.u.u.u.u.u.u.r.a.u.q.u.a.u.u.u.0.u.u.r.r.u.u.a.a.u.u.a.f.a.a.u.a.u.u.a.a.u.e.e.t.r.r.r.t.r.r.u.r.e.e.a.a.a.u.u.a.a.a.u.u.y.8.8.r.e.t.f.7.5.5.2.&.l k k k k k k k k x &                                                                           ",
"3 U ` *.' #.8.5.-.-.-.4                                                                                                                                                               . +.r.5.1.-.5.` ` #.E Y b 1 n z z z z z z z z l H #.O.&.&.&.&.=.=.&.=.&.&...5.e.u.t.u.a.a.u.a.a.u.u.u.e.a.u.u.u.u.t.u.q.r.q.u.a.u.u.u.a.a.a.a.a.a.f.a.a.a.a.a.u.f.f.u.u.u.a.u.5.t.d.f.a.a.u.w.u.a.a.a.a.a.f.f.a.f.a.a.r.u.t.a.f.5.-.1.-.&.l k k k k k l k k l &                                                                           ",
"3 S ' *.` #.e.5.5.1.-.4                                                                                                                                                               o #.y.7.5.5.7.` ) ' R U v 1 C z z z z z z x c l H X.X.&.&.+.&.=.&.&.-.&.&...=.u.u.a.u.u.u.u.u.u.u.u.u.u.u.a.u.a.u.r.r.r.r.r.0.u.u.u.u.a.a.a.f.u.h.h.h.a.a.a.a.a.a.f.f.u.a.a.a.r.t.a.a.a.a.f.a.u.a.d.f.f.f.f.f.f.f.h.h.u.u.a.f.f.q.2.2.2.-.c k k k k l k k k z &                                                                           ",
"3 S X.*.' $.r.4.2.1.-.6                                                                                                                                                               o #.y.8.r.7.8.' ) ` J U v 1 C z z z z z z z x l G ..` #.#.&.&.&.&.$.-.&.$...=.q.e.u.t.u.a.f.u.u.u.a.u.u.u.u.f.a.a.u.u.u.w.u.a.w.u.u.u.u.a.u.f.u.f.f.f.a.a.a.f.f.f.f.u.a.a.u.f.a.a.f.f.a.a.a.f.f.f.f.f.f.f.f.g.h.f.u.a.a.a.a.a.h.e.5.5.5.-.l k k k k k k k d z &                                                                           ",
"3 U X.=.X.#.8.4.;.-.=.6   .                                                                                                                                                           o O.r.7.7.7.y.' ) ` T U v 1 C z z z z z z z c l F ) ` X.#.#.+.+.&.&.-.&.$.+.+.2.q.0.u.a.f.u.u.u.f.f.u.a.u.a.u.a.u.a.a.u.u.a.u.u.u.u.a.a.u.f.f.f.f.u.u.a.u.a.f.f.f.h.a.u.a.a.f.a.a.a.f.a.a.f.f.f.f.f.f.f.d.h.f.h.f.a.f.h.d.f.f.h.r.e.e.e.2.x k l k k k k k k z &   .                                                                       ",
"3 N X.*.X.#.8.4.2.-.-.6                                                                                                                                                               o +.t.5.7.7.8.' ` ` T U v 1 n z z z z z z z c l F ` ( ' X.+.+.#.-.-.&.&.&.....2.6.q.w.a.a.u.u.u.u.u.f.a.u.u.a.a.f.a.a.u.u.a.u.u.u.u.a.a.a.a.u.u.u.u.u.a.a.a.a.a.f.f.f.d.a.f.f.a.u.a.a.f.f.a.a.f.f.f.f.f.f.a.a.h.f.a.f.f.f.f.f.f.t.r.r.r.4.c f k k k k k l f z &                                                                           ",
"3 U { *.' &.5.1.5.4.2.6                                                                                                                                                               o $.a.7.7.5.5.#.) ' R Y v 1 m l x z z z z z z z c ` ` ` X.#.#.#.&.-.-.&.&.+.+.2.2.2.q.a.a.u.u.u.u.u.u.u.f.u.a.a.a.a.a.u.u.a.u.a.t.w.a.a.u.f.a.a.u.a.a.u.a.a.a.a.a.f.f.a.a.t.u.u.u.a.f.f.f.f.a.a.f.f.f.f.f.a.a.h.h.a.h.h.f.f.h.h.u.1.~ G D l k k k k k k k k c &                                                                           ",
"3 N { &.' &.8.4.-.-.5.6   .                                                                                                                                                           @ $.p.8.7.5.5.#.' #.R Y b 2 M z c z z z z z z c l X.X.' X.#.$.#.&.&.-.$.&.+.=.2.=.q.a.a.a.r.u.u.u.f.u.u.u.u.u.u.a.u.a.u.u.u.t.t.u.a.a.w.a.f.f.u.a.a.a.a.a.u.a.a.a.f.a.u.u.u.t.u.u.a.f.f.u.u.f.u.a.f.f.f.a.a.a.a.f.u.a.h.f.j.f.j.u.z g d d k k k k l k k k k c &                                                                           ",
"3 S O.#.` #.7.5.1.-.1.6                                                                                                                                                               o &.a.7.5.5.5.' ' #.R U v 1 m z z z z z z z z z z #.&.X.X.#.#.#.=.*.*.*.&.+.=.6.q.u.u.a.a.u.u.f.u.u.u.u.f.a.u.u.a.a.d.a.a.t.t.u.t.w.a.u.a.a.a.u.a.a.a.a.f.f.f.a.a.a.a.u.u.u.u.u.a.d.a.f.a.f.a.a.a.a.j.a.u.a.a.a.h.a.a.f.h.j.u.h.r.j l l j k k k k k k l k f z &                                                                           ",
"3 S O.&.' #.4.;.1.&.;.6                                                                                                                                                               o $.y.5.;.5.r.' #.*.E U v 1 m z z z z z z z z z z #.=.#.' O.O.+.&.&.*.&.&...=.q.u.u.a.a.u.a.r.u.u.u.a.u.f.f.a.a.a.u.u.a.u.u.u.w.u.a.a.u.u.f.a.u.a.a.a.f.h.f.a.t.a.a.a.a.a.a.a.a.u.a.a.f.u.u.f.f.a.a.a.a.f.h.a.h.f.u.h.a.a.u.u.h.e.k l j l k k k l k k k k j z &                                                                           ",
"3 N { &.` #.7.4.1.$.-.6                                                                                                                                                               o &.r.5.5.5.7.#.#.*.Q U v 1 C v z z z z z z z z z X.-.&.' ' O.#.&.&.&.&.&.+.=.q.0.u.a.a.a.a.u.u.a.a.a.a.a.a.a.a.a.a.u.a.u.w.u.u.a.u.a.u.u.a.a.f.a.u.a.f.a.f.a.u.u.f.f.a.a.u.t.a.u.a.f.t.a.f.f.a.f.a.a.a.a.a.a.h.u.h.h.a.a.h.h.j.u.j l k k k l k k k k k k h z &                                                                           ",
"3 S O.$.' #.7.5.-.&.=.6                                                                                                                                                               # 1.y.5.1.;.5.#.#.-.R U v 2 C c c z z z z z z z z X.-.&.X.' O.#.$.&.$.&.&.+.;.2.q.u.f.a.a.u.u.u.u.a.a.a.u.f.a.a.u.a.a.u.a.u.t.a.f.f.f.a.a.a.a.a.a.f.a.a.a.a.a.u.f.f.f.a.a.t.u.f.f.f.f.f.f.f.a.u.a.a.a.f.u.u.f.h.f.u.h.h.h.f.j.h.u.l j l k k k k k l k k k f z &                                                                           ",
"3 U { &.' #.e.5.&.=.&.6                                                                                                                                                               # 1.y.2.-.-.5.#.#.-.Q Y v 2 C c c c z z z z z z z X.=.$.#.X.X.' #.#.&.&.&.+.=.2.q.a.a.a.a.a.a.a.a.a.a.a.f.a.a.a.f.a.u.u.u.u.a.a.a.a.a.a.f.f.f.a.f.f.f.f.f.a.u.a.f.h.j.f.a.f.a.a.a.f.a.f.f.a.a.f.a.u.a.a.a.u.a.f.u.u.h.h.a.j.f.u.w.l l k k l j l k k k k k d z &                                                                           ",
"3 S O.-.' #.e.1.#.-.1.6   .                                                                                                                                                           # 4.r.1.&.-.5.#.#.-.( U v 1 C c c c c z z z z z l ! =.#.#.O.O.O.#.&.#.$.&.=.+.=.e.f.a.a.u.a.a.a.a.a.u.a.a.a.a.a.a.u.u.a.u.a.a.a.f.a.a.a.a.f.f.a.a.a.a.f.a.a.f.f.f.j.f.f.f.f.f.a.f.f.f.f.t.a.a.f.f.a.a.u.u.h.a.u.h.u.u.u.h.u.u.r.e.l j k l j l g k k k k l k z &                                                                           ",
"3 S O.-.` #.r.1.#.;.4.6                                                                                                                                                               # 4.t.5.1.-.;.#.#.&.E Y v 5 C z z c c c z z z c l Z &.#.+.#.o.+.+.$.$.&.&.=.+.=.a.d.f.f.u.a.a.f.a.a.a.a.a.a.a.f.f.u.u.r.u.u.f.u.f.f.f.f.f.h.a.a.f.a.f.f.f.a.a.u.f.h.f.f.f.j.a.a.f.f.f.a.f.f.u.f.a.h.f.a.a.f.r.u.a.d.a.a.a.u.u.u.w.c k k k k g l k l k l k f z &                                                                           ",
"3 N O.*.' #.8.-.#.=.4.6                                                                                                                                                               # 4.r.5.5.4.;.X.X.*.R U v 1 C z z c z c z z z z l A &.&.&.&.$.$.$.+.$.&.&.=.=.;.u.f.f.f.u.f.a.a.a.f.f.f.a.u.f.f.f.f.u.u.u.u.f.f.f.f.a.f.f.f.a.f.a.a.a.a.f.f.f.u.f.h.a.a.f.f.a.f.f.f.a.f.f.u.f.h.a.a.h.u.a.u.u.a.u.u.a.a.a.a.r.r.e.z k l l k l j g k k j k j z &                                                                           ",
"3 N O.*.' #.5.*.#.-.4.6   .                                                                                                                                                           # 4.e.7.7.8.5.X...$.R U v 3 C z v c c c z z z c l F $.&.&.&.+.$.$.&.&.&.&.=.+.2.a.f.f.f.u.f.a.f.f.f.q.u.f.w.u.f.d.f.u.u.f.a.a.a.f.f.a.a.a.a.f.u.a.a.a.f.f.h.f.f.j.h.f.u.f.f.a.a.f.f.f.f.u.a.f.u.u.h.h.u.a.a.u.a.u.r.a.a.u.a.e.4.5.c k l k l k j l l g k k f z &   .                                                                       ",
"3 S O.*.O.O.7.4.;.;.5.9                                                                                                                                                               # 1.8.7.7.7.8.X.' &.~ U v 1 C z c c c c z z z c l G #.#.#.&.+.&.&.&.&.$.&.=.+.=.u.f.j.j.f.a.f.f.f.f.u.r.a.f.f.f.f.f.a.h.h.f.f.a.f.f.f.f.a.f.h.f.f.a.a.f.f.f.a.h.j.f.a.u.a.f.f.f.a.a.f.f.a.u.u.e.r.a.r.r.u.r.f.a.u.w.e.u.a.u.r.-.=.m k k l k l k l k k j l d z &                                                                           ",
"3 N O.*.X.#.8.5.5.2.1.9                                                                                                                                                               # -.7.5.5.4.7.O.` O.W U z 1 C c c c c c c c z c l A #.#.&.#.$.&.&.&.&.&.+.=.+.=.r.f.f.j.f.a.f.u.u.a.f.j.f.f.j.f.f.f.a.a.u.f.f.f.u.u.f.a.a.f.f.f.f.a.f.a.a.a.u.f.f.h.f.u.a.a.a.a.u.a.f.a.u.a.r.7.r.f.u.u.u.a.r.u.e.e.2.r.e.1.2.-.2.Z g k k k l k k l g k k k z &                                                                           ",
"3 U O.-.O.O.4.;.5.1.1.6   .                                                                                                                                                           # =.5.5.5.4.4.X.` +.W U v 1 Z v c c c c c c z z l Z #.O.#.&.+.+.&.&.&.&.&.=.+.5.u.a.f.f.f.a.a.u.u.a.u.a.f.f.h.f.a.f.f.a.a.f.a.f.f.a.a.a.a.a.f.f.u.a.u.a.a.u.a.a.a.f.a.u.a.a.a.a.u.f.f.a.u.u.5.2.r.r.r.e.e.e.1.-.2.5.2.7.1.+.O.` D l l l k l k k l k l k k k z &                                                                           ",
"3 S O.*.' #.4.-.5.-.-.9                                                                                                                                                               # -.7.5.2.4.4.X.' +.~ U v 1 C z v c c v c c z z z C X.O.+.$.+.+.-.&.&.&.&.=.+.;.e.f.a.f.a.a.a.a.u.a.a.a.a.f.f.j.f.f.f.a.d.a.u.u.a.a.a.a.f.f.f.f.h.h.u.u.r.u.a.a.a.a.a.u.a.a.a.u.u.f.f.u.u.e.2.2.e.-.=.-.r.r.1.+.&.&.O.! D l l j j k k l k k l k l k k l k f z &                                                                           ",
"3 N O.*.' #.r.4.4.;.;.9                                                                                                                                                               # ;.e.5.1.5.7.X.' O.T U c 2 C z z z z z c c z z z k / X.o.+.+.$.&.&.&.&.&.1.+.;.t.f.a.a.a.f.f.a.a.u.u.a.f.f.a.f.a.a.a.a.u.u.a.r.a.f.u.a.f.u.a.u.f.f.h.t.t.a.a.t.u.a.u.r.a.a.a.f.a.f.f.u.q.1.1.5.e.;.&.-.-.&.O.D z l d g j k k k l l k k k k k l k l k k k d z &                                                                           ",
"3 S O.*.{ #.r.r.8.4.4.6                                                                                                                                                               # -.r.5.2.;.7...` X.H Y l 2 C z c c c c c c z c c z Q X.X.+.$.&.&.&.&.=.&.=.+.1.6.u.a.d.a.a.a.u.t.u.u.u.u.f.u.f.f.a.a.a.u.u.a.u.u.f.u.f.f.a.u.a.a.a.u.r.y.u.a.t.r.a.t.r.a.a.u.r.r.u.u.u.2.-.5.e.1./ G G m d d j k l l k l k l k k l k k l l k l k l k k k k z &                                                                           ",
"3 N O.*.X.#.e.r.8.;.5.9                                                                                                                                                               # 1.e.7.7.e.r.' ` X.J Y b 2 C z c c c c c c c c c l / O.O.+.+.&.$.$.$.$.&.+.=.;.q.u.u.a.a.a.a.a.a.t.u.u.w.u.u.u.u.a.a.a.a.a.u.u.f.f.a.f.u.t.u.f.a.u.r.5.e.u.r.e.e.r.t.r.e.u.q.1.2.e.u.1...` D m n k d j k l l l l k l k k l l l k k l l k k l k k k l k k k z &                                                                           ",
"3 S O.&.' #.t.r.4.-.5.9                                                                                                                                                               # 1.r.r.7.e.t.X.` ' T Y l 1 C z n c c c c c c z c l ) #.O.+.&.&.+.+.o.&.=.=.+.;.q.u.a.a.u.u.u.a.t.t.q.t.u.u.a.u.f.a.u.a.u.q.u.a.f.u.u.a.u.a.a.a.a.u.t.2.-.e.5.=.=.5.r.w.t.t.+.....L D B l l j d j l l l l l j l l l l l k g k l k k k l k l l k l k l l k g z &                                                                           ",
"3 S O.$.{ +.r.r.8.;.5.9   .                                                                                                                                                           % 4.7.5.2.5.e.#.` X.T Y v 1 C z z c c c c z c c c l ( #.X.+.+.+.&.$.$.=.&.+...2.e.u.a.a.e.a.u.a.u.u.u.u.a.a.f.u.f.u.f.u.u.q.u.u.a.a.u.u.u.r.r.t.e.e.e.;.&.5.w.4.;.2.#.X.X.L l j j l j l l l l l l l k l l l l l k k k l l l l k k l k k l k k l k k k k l k z &                                                                           ",
"3 S { *.' $.r.e.e.5.7.6                                                                                                                                                               & 5.7.7.;.-.5.X.` X.R U l 1 C z z c z z c c c c c z Q O.X.X.+.X.+.+.&.&.&.+...5.e.a.a.a.a.u.a.r.a.a.u.a.u.u.a.a.d.u.u.a.u.e.0.e.e.u.0.u.u.2.2.5.;.1.2.2.1.2.1.` H L x j d j h l l l l l j l l h l l k l k l l l k l l k l l k l l l k l k l k k l l k k l k v &                                                                           ",
"3 Z X.&.' #.7.5.;.=.;.9                                                                                                                                                               & 5.7.q.4.-.;.X.` O.T Y b 4 C z z c c c c z c c c z R X.X.X.X.O.&.$.+.&.+.+...=.r.a.a.a.a.u.a.u.u.u.a.u.a.a.f.a.u.t.e.u.a.f.r.5.r.q.;.2.q.1.1.1.1.1.+.` Z C m j d j l z l l v l l l l l l l l l l l l l k l k l l l k k l k l l g k l k k k l k k k l l k j v &                                                                           ",
"3 S X.&.' #.4.=.#.+.#.9   .                                                                                                                                                           & 5.5.4.4.4.4.X.` ' T U l 1 C z n c z z c c c c c l m X.......X.+.$.$.&.+.+...;.r.a.a.f.a.u.u.a.a.a.u.u.u.a.u.u.w.e.u.e.u.u.u.q.e.5.6.2.=.&.^ Z n c z l l j l l z l l l l l l l l l l l l l l l l l l k l k l l l l k l l z k k l k l k l l k k l l k k k k c &   .                                                                       ",
"3 N ' &.' #.=.#.X.' ` 4                                                                                                                                                               - 7.4.-.=.*.4.' ) ` Y Y v 1 C z z c c c c c z c c x c ` ` ` ....o.+.$.#.+...+.=.5.e.a.a.a.a.u.a.u.u.u.e.t.a.a.u.u.e.u.r.u.e.r.e.5.=...B B z l k l l l l l v l l l l l l l l l l l l l l l h l j l k l l l l l k l l l l k k l k k l k l k l k l k k l k l k c &                                                                           ",
"3 S { $.' #.*.' ' ' ` 2                                                                                                                                                               & 7.1.-.-.&.-.X._ ` H U v 1 m z z c c c c c c z z z C ` ) ) ` ..O.#.$.+.X...O.-.2.e.t.r.f.a.u.a.u.a.t.e.t.f.u.u.r.e.t.e.y.e.y.2.1.S u l z z l l l z l l l l l l l l l l l l l l l l l l l l l k l l l l k k k l l k l l l k l l l f l k l k l k k l k l k k b -                                                                           ",
"3 S O.$.) #.-.#.' ` ` 9 X o X X o                                                                                                                                           o o X o o 3 5.5.1.;.=.;.' ( ) Y U z 1 m v c c c c c c z c c z C ) ( )  .X.X.#.X.o.O.O...-.e.e.e.r.r.u.u.u.u.t.e.e.e.f.r.r.q.e.e.e.e.e.e.7./ l z z z l z z l z l l z z l l z z l l l l l l l l l l l l l l z l k l l l l k l l l k l l f k l l k k f k l k l z k k l k b &                                                                           ",
"3 U [ $.` $.7.-.$.#.' ` X.X.#.#.&.&.=.&.-.&.#.O.X.#.#.#.#.X.X.' X.X.' X.X.' ' ' ' ' ` ` ' ` ' ` ) ` ` ` ` ) ` ` ` ` ` ` ` ` ` ) ` ' ' ' X.X.X.X.' ' ' X.X.X.X.O.#.&.&.&.=.-.*.<.-.=.1.+.#.r.7.4.-.&.` ( _ G Y v 1 C c c z v c c c c c z z C P P L ) X.X.....X.X.O...&.2.1.e.u.y.u.u.a.r.t.r.5.e.a.r.r.q.7.y.y.r.6.2.+.n l l l l l l z l l l z l l l l l l l l l l a l l l l l l l l l k k z l l k l l l l k l k l l l l k l l k l k k l k l k k k c &                                                                           ",
"3 S ` #.' $.7.;.-.-.-.*.-.;.5.r.r.t.t.p.t.e.e.e.7.r.a.a.a.t.7.7.e.y.t.a.p.t.r.a.a.t.r.r.y.a.t.8.e.e.r.r.r.r.e.e.r.e.r.e.e.t.e.7.7.7.r.y.t.r.p.u.r.e.7.e.7.e.e.e.e.r.r.r.e.t.r.r.t.t.y.r.7.7.e.8.4.;.` P ` G Y v 2 C c c z c c c z c c c z c H F J ! X...` ' ..X.X.X.O.&.=.5.e.r.u.u.t.r.a.r.2.e.u.u.e.e.7.e.e.e.2.2...l z l z l z l l l l l l l z l l z z l l l z z l l l l l l l l l l l k k l l l l k l k l l l f l k l k k l k k l k k k k l k c &                                                                           ",
"3 S ` $._ $.7.4.;.2.2.1.=.1.7.7.r.r.8.8.8.8.8.5.5.r.p.y.y.7.4.7.7.r.7.8.t.r.r.y.t.t.e.7.8.r.8.5.5.5.7.e.7.7.7.7.7.r.8.1.4.7.5.7.8.7.8.7.5.5.8.r.7.4.1.7.7.5.7.5.5.5.8.7.7.8.7.8.r.8.8.7.5.8.e.7.5.7.) J ( G Y v 2 C z z z c c c c c c c x c F Z Z P ` ` ` ( ` X...` X.&.&.2.r.r.u.r.q.e.t.t.5.e.u.e.q.e.6.u.u.e.-.+.C l l l z l l z l z l z k z l l l l l z l l l l l l l l l l l l l l k l l l l l l l k l k l k l k l k k l l k l k k k k k k k c &                                                                           ",
"3 S ` O.! +.7.4.-.2.5.4.;.5.e.7.r.e.5.7.8.8.7.;.5.e.r.r.r.4.-.5.7.r.8.r.e.e.r.r.e.e.7.7.4.7.7.5.5.4.7.8.r.e.7.7.7.7.7.5.4.7.7.e.r.8.r.e.5.;.5.r.7.7.7.7.5.4.5.7.5.7.7.5.7.r.r.r.e.7.7.5.5.5.4.;.4.r.) F P S Y l 5 C z z c c c c c c z c c x m Z Z H Q Q K ( ` ' ` ` X.&.-.5.r.r.r.e.e.e.r.u.e.e.a.r.1.3.+.+.L S C z l l z l z l l z l l l l z z z l l z l l l z l l l l l l l l l l l l l l k l l k k l k l l k l l l l l k l k l l k l l k z l k c &                                                                           ",
"3 S ^ ..R #.5.1.$.&.-.-.4.7.t.t.y.r.7.7.8.e.5.5.5.7.r.r.e.5.;.4.8.r.7.r.5.4.8.r.e.7.7.7.7.5.-.5.7.7.5.7.r.r.7.7.5.5.7.5.5.e.7.e.8.7.y.r.7.5.4.7.7.r.7.5.-.1.7.7.5.7.5.5.7.r.y.y.8.5.5.5.5.4.&.$.;.r.Q Z F S Y v 1 C z v c c c c c c c c c z m C C F F H P ! ) ` / ! O.&.-.2.w.a.u.r.y.2.q.1.&.X...U M v B v j h k l z l l B l l l l l z l z z k l l z l l l l l l l l l l l l l l l l l k l l j l l l l l l l l l k k l l l l h k k l k k k k k k c &                                                                           ",
"3 S ` ` J O.8.4.-.1.;.4.4.5.r.r.t.r.8.e.7.8.5.7.e.t.r.t.e.5.5.8.8.7.7.5.5.7.7.8.t.t.r.r.8.4.;.5.5.7.7.7.r.8.e.7.5.5.8.5.5.e.e.e.r.8.8.y.y.8.5.4.5.7.e.5.4.7.r.7.5.7.7.8.r.r.r.r.r.5.5.5.5.;.*.&.-.5.J m Z D Y l 3 C z c c c c c c c c x c z m F B F F F J ( ` ..` ) ` -.5.1.2.2.-.O.` ~ Z l k l i B v B v l B v z z l z l l l z l l z l l l l l l l l l z l l l l l l l l l l l l l l k l l l l k l k l l k k l l l l k h k l k l l k k k z l k k c &                                                                           ",
"4 N ` ' H #.y.8.7.7.5.5.5.5.7.e.r.r.r.r.r.5.;.7.r.y.r.r.8.5.7.r.r.5.5.5.5.w.r.r.t.t.p.y.r.7.7.5.8.r.w.r.7.7.r.e.7.8.7.8.r.7.4.5.5.w.8.y.r.7.8.5.5.8.r.8.e.e.r.7.7.e.r.r.e.r.r.r.r.r.8.7.7.5.7.5.5.;.J C H S Y v 1 Z z c c c c c z c c n z z n B l m m c m D H J Z A Q ` Q D Z m l k k l l z l z z z z z x l z x z l z l z l z z l z l l z l l z l l l z l z l l l l l l l l l l l l l k l l l l l l l l l l l l l k l l f f k l j l l l k k k l k c &                                                                           ",
"3 S ( ` R ) ' X.#.&.-.*.-.*.&.*.*.$.#.#.&.*.&.$.&.&.&.&.*.$.$.$.#.%.&.*.&.$.&.$.#.#.$.&.*.&.*.-.$.$.*.-.*.*.*.$.&.&.&.*.*.&.#.*.&.#.#.#.&.&.-.#.&.&.*.&.*.*.*.$.#.$.#.$.$.$.$.$.&.&.#.#.#.#.#. .' ` F m F S Y l 1 C z c c z c c z z c z z z z z z z z z l l l z k l c l j l l z c c c c c l z z l z l z z z l l l z l c l z z l l z z l z l l z z z l l l l l l l l l l l l l l l l l l l l l l l k l l k j l k l l l k l l l k l l g k k l k l k c &                                                                           ",
"3 S ` ' m a p p f f l k a x f a f f a s f f f f a a f k f f f f f k f k f a a a f f f f f a f f f a f f l f l f f f f f f a a l k f a f f f f f a a a f f f l f s f f f a a f a f a a f a a a p p p p m J Z U v 3 C c c c c c c z n z c c C z z c c z z z z z z c c l z z z z z z z x x c z l z z z z l l z z z z l z l z l l z l l z z l l l l l l l z l z l l l l l l l l l l l l l l l l k l f l l f l l l l l l k l k l l h h k l k l l k k k c &                                                                           ",
"3 S J ` ( ) Q ( X.#.$.#.@.$.*.$.#.$.X.O.#.#.#.O.@.*.#.$.#.#.+.&.$.#.$.#.$.#.#.X.O.#.O.#.$.#.$.@.' #.#.#.&.$.#.{ X.$.#.#.$.' #.#.#.#.O.{ #.#.$.@.#.#.' #.#.#.#.O.O.O.' X.#.X.#.#.X.X.#.{ ' ' ` Q P F H H G S Y v 2 C v c c c c c c c c c c z z z c z z z z z z z z z c z z z z z z z z l z l c l l z z z l z l z l z l z z z z l z l l l l z z l z l l z l l l l z l l l l l l l l l l l l l l l k l l l l k k l k l l l l l l k l k l l k k k l h c -                                                                           ",
"3 U n m Z S Z S G S Y G H G G G S G G S G U G G G G G G S G G S Y G G G H G G G S G Y G Y Y G Y G G T G Y H G G G Y T G H G G Y Y H Y G Y G Y Y H G G G Y H G Y Y G G Y H G G Y Y G G S G S Z N F Z m N M S Y v 5 C c c c c c c z n z z c c c z c c c z z z z z z z z z z z z z z z z z z z z z z l z l l z l l l z z l k z l z x l z z z l z l l z l l l l l l l l l l l l l l l l l l z k l l l k l l k l l l l l l l l l l l l k l k z k k l k c &                                                                           ",
"3 Y N N M M N N N N N N S N N N N M N N N S N N N N N N S N N S N U N S S S S N S S S N S N S S N N S S S S S U S S S S G N S G S S G U S U S S G S S G S U U S U U Y Y G Y G Y U U U U U Y Y Y G Y Y Y Y Y E v 3 C c c c c c c c c z c c z c c z c c b c c z z z z z z z z z z z z z z z z z l z z z z z z z z z b l z z z z l l l z l l z l l l l l l z l z l l z l l l l l l l l l l l l l l l l l k l l k l k f l k l k l f k h l h k k l k k c &                                                                           ",
"1 M h l l v b b v h v l v x x v v v l v v v b b b b n b v v v v v v b x b b b b b x b b b b b b b b b b n b b b b b n b b b b b b b b n n b n n n n b n n b b n b b n n n n n b n n b n b n n n n n n n n n M g 5 S z c B c c z c c b B z n z z c z c z c z z z z z z z z z z z z z z z z z z z z l l z z l z z l x l x l z l z l z z l z l z l l z z l z l l z l l l z l l l l l l l l l l l l l l l l k l k l l l l l l k l k l l l k k l k l k c &                                                                           ",
"                                                                                                                                                                                                                1 C v n v c c c c c c z z z n z c c c c c c z z z z z z z z z z z z z x x l z l z z l z z z l z l z z l z l z l l z l z l z x l l l l l l l z l l l l l l l l l l l l l l l l l k l l l l l l l k l l k l l l l k h l l k l k k k c &                                                                           "
};
