/* XPM */
static char *comp_keyboard[] = {
/* columns rows colors chars-per-pixel */
"256 256 256 2 ",
"   c #000000",
".  c #0A0905",
"X  c #1A140D",
"o  c #1C1A17",
"O  c #061114",
"+  c #26150B",
"@  c #231C14",
"#  c #261E18",
"$  c #311A0B",
"%  c #2D251D",
"&  c #2F281F",
"*  c #272119",
"=  c #30271E",
"-  c #31281F",
";  c #392619",
":  c #002233",
">  c #02283B",
",  c #1A2227",
"<  c #232323",
"1  c #2D2721",
"2  c #2E2921",
"3  c #2C2C2C",
"4  c #262829",
"5  c #342C23",
"6  c #392E25",
"7  c #332E2B",
"8  c #322822",
"9  c #3A3126",
"0  c #35312C",
"q  c #3C332B",
"w  c #393229",
"e  c #343333",
"r  c #3A3633",
"t  c #3C3935",
"y  c #3D3B3A",
"u  c #353939",
"i  c #2E3032",
"p  c #1D1E21",
"a  c #482D1C",
"s  c #41362D",
"d  c #41382E",
"f  c #463426",
"g  c #433B33",
"h  c #423E3B",
"j  c #483C35",
"k  c #4D3427",
"l  c #603529",
"z  c #45413C",
"x  c #4C433B",
"c  c #494237",
"v  c #51453C",
"b  c #55473B",
"n  c #5D4A36",
"m  c #6B4A38",
"M  c #043349",
"N  c #313D43",
"B  c #0C435B",
"V  c #304952",
"C  c #005272",
"Z  c #0B5977",
"A  c #0F4F6B",
"S  c #26566B",
"D  c #2A5A6D",
"F  c #2F6377",
"G  c #18607A",
"H  c #454342",
"J  c #4A4542",
"K  c #4C4945",
"L  c #4A494A",
"P  c #534C44",
"I  c #534D49",
"U  c #55514D",
"Y  c #5B544C",
"T  c #5C5446",
"R  c #5A5652",
"E  c #5D5955",
"W  c #585757",
"Q  c #494F53",
"!  c #645B4A",
"~  c #755D4C",
"^  c #785A47",
"/  c #635B54",
"(  c #625D5A",
")  c #685A55",
"_  c #745C52",
"`  c #684B46",
"'  c #65615C",
"]  c #6B635C",
"[  c #6B6454",
"{  c #746355",
"}  c #756659",
"|  c #76695B",
" . c #796A5C",
".. c #796658",
"X. c #6D6450",
"o. c #555C63",
"O. c #56666F",
"+. c #6B6662",
"@. c #6D6964",
"#. c #686867",
"$. c #736D67",
"%. c #74726D",
"&. c #7B7467",
"*. c #7A7673",
"=. c #7C7A75",
"-. c #787877",
";. c #6B7075",
":. c #645F61",
">. c #3F3F3F",
",. c #886656",
"<. c #AD7A5A",
"1. c #877C6C",
"2. c #837C73",
"3. c #847C79",
"4. c #92766F",
"5. c #A77D64",
"6. c #855C51",
"7. c #B56949",
"8. c #7E817E",
"9. c #8B806E",
"0. c #8C8273",
"q. c #84827D",
"w. c #8C877B",
"e. c #958A7A",
"r. c #9B917E",
"t. c #AB8262",
"y. c #A98878",
"u. c #D28F70",
"i. c #00719B",
"p. c #0A698F",
"a. c #007DB5",
"s. c #0378AA",
"d. c #2C718F",
"f. c #577E8A",
"g. c #497A8D",
"h. c #747C84",
"j. c #867E83",
"k. c #0085BA",
"l. c #0188BB",
"z. c #1A92BD",
"x. c #3493B4",
"c. c #3B819A",
"v. c #59818B",
"b. c #558898",
"n. c #77858C",
"m. c #4B93AC",
"M. c #71A7B4",
"N. c #639DB2",
"B. c #018EC5",
"V. c #0691C5",
"C. c #019DD6",
"Z. c #009ED9",
"A. c #0297D3",
"S. c #1495C4",
"D. c #2C9EC6",
"F. c #01A1DC",
"G. c #0DA5DC",
"H. c #18A5D9",
"J. c #1EA2CF",
"K. c #38A4C9",
"L. c #27A7D5",
"P. c #29A2CE",
"I. c #01A4E2",
"U. c #00ABEA",
"Y. c #09A8E2",
"T. c #07B5F6",
"R. c #31B0E3",
"E. c #51A6C4",
"W. c #68A9C3",
"Q. c #00C2FF",
"!. c #848483",
"~. c #8C8B84",
"^. c #8C8C8B",
"/. c #878786",
"(. c #938C83",
"). c #948D89",
"_. c #9D9483",
"`. c #94918C",
"'. c #9C948C",
"]. c #989487",
"[. c #888C94",
"{. c #949493",
"}. c #9C9A95",
"|. c #9C9C9B",
" X c #989797",
".X c #8F9194",
"XX c #A49C8B",
"oX c #A49888",
"OX c #A49D94",
"+X c #A49D99",
"@X c #AF978B",
"#X c #9EA19D",
"$X c #A9A18E",
"%X c #ABA494",
"&X c #A4A29C",
"*X c #ABA59D",
"=X c #AEA99C",
"-X c #AAA595",
";X c #B4AD9D",
":X c #B9AC9D",
">X c #B4A69A",
",X c #B5B09E",
"<X c #BAB49F",
"1X c #999DA3",
"2X c #8997A6",
"3X c #86A7AB",
"4X c #9CA3A5",
"5X c #92AAB4",
"6X c #A3A4A2",
"7X c #ACA6A1",
"8X c #ADAAA2",
"9X c #ABACAB",
"0X c #A5A9A8",
"qX c #B3ADA3",
"wX c #B9AEA3",
"eX c #B2AEAA",
"rX c #B3A6A2",
"tX c #ADB1AC",
"yX c #B6B0A5",
"uX c #B9B3A4",
"iX c #B5B2AA",
"pX c #BAB4AA",
"aX c #BBB9A9",
"sX c #AAADB4",
"dX c #ADB2B3",
"fX c #ABB3B9",
"gX c #B4B4B3",
"hX c #B9B6B4",
"jX c #BAB9B4",
"kX c #B5BABB",
"lX c #BABCBC",
"zX c #B5B7B8",
"xX c #B3AEB2",
"cX c #A69EA2",
"vX c #C5AA98",
"bX c #D0B099",
"nX c #C7B5A5",
"mX c #CBB7B0",
"MX c #D0A090",
"NX c #BCC0BE",
"BX c #C3C2BB",
"VX c #B6BCC2",
"CX c #B9BFC4",
"ZX c #B6BAC8",
"AX c #ABB6C6",
"SX c #8FB5CA",
"DX c #BBC1C4",
"FX c #BCC4CB",
"GX c #BCC6D2",
"HX c #A4C7E0",
"JX c #C3C6C7",
"KX c #C4CBD4",
"LX c #D0D0D3",
"PX c #DECFD6",
"IX c #C3BAC4",
"UX c None",
/* pixels */
"C U.C.F.C.C.Z.C.C.C.C.C.C.Z.Z.Z.F.F.F.C.C.C.Z.Z.Z.C.Z.Z.C.C.C.A.A.C.C.C.C.C.C.C.C.C.C.A.C.C.V.C.C.C.C.C.V.C.C.C.C.C.C.C.C.C.C.C.F.F.F.F.F.C.F.F.F.F.F.F.F.F.F.I.Z.Z.Z.Z.F.I.I.Z.Z.Z.F.Z.I.Z.I.I.I.U.I.I.I.I.I.I.I.I.F.I.I.I.I.I.Y.U.I.Y.U.I.Y.Y.U.Y.U.U.I.U.I.Y.U.I.Y.Y.U.I.I.I.Y.I.I.I.I.I.I.F.I.Z.Z.I.U.U.l.        UXUXUXUXUXUXUXUXUXUXUXUXUXUXUXUXUXUXUXUXUXUXUXUXUXUXUXUXUXUXUXUXUXUXUXUXUXUXUXUXUXUXUXUXUXUXUXUXUXUXUXUXUXUXUXUXUXUXUXUXUXUXUXUXUXUXUXUXUXUXUXUXUXUXUXUXUXUXUXUXUXUXUXUXUX.               .               ",
"C U.I.I.U.U.U.U.U.U.U.U.U.U.U.U.U.U.U.U.U.U.U.U.U.U.U.U.U.U.Q.Q.Q.Q.Q.Q.Q.T.Q.T.Q.Q.T.Q.T.T.Q.Q.Q.T.T.Q.Q.Q.T.T.T.T.T.T.T.T.T.T.R.Y.Y.R.H.T.H.L.L.L.L.L.L.L.L.L.L.L.L.L.L.K.L.K.K.K.K.K.K.K.K.m.m.x.x.m.m.m.m.m.m.m.m.m.m.m.m.m.m.b.b.b.b.b.b.b.b.b.b.b.8.n.b.b.b.b.b.b.b.N.m.m.m.m.m.m.m.m.x.K.E.K.K.m.c.S.V.        UXUXUXUXUXUXUXUXUXUXUXUXUXUXUXUXUXUXUXUXUXUXUXUXUXUXUXUXUXUXUXUXUXUXUXUXUXUXUXUXUXUXUXUXUXUXUXUXUXUXUXUXUXUXUXUXUXUXUXUXUXUXUXUXUXUXUXUXUXUXUXUXUXUXUXUXUXUXUXUXUXUXUXUXUXp.p.p.p.p.p.i.i.i.p.p.i.i.Z p.> ",
"C Y.O.O.W K R I I P P P K K L J x x K x K x H z H z H h y z Q V V >.V >.K V V N V >.N V V V N V V V V N N N N u u u N V N u >.V N u y V L N u w t 0 e e 0 q u 0 N y u e r e e 7 w w 0 w 7 0 0 6 f 6 q q 9 f ; a a a f a f a a k f a a a l a k a a k l a a a a a k a a a a a a ; ; ; a ; 9 - 9 & 2 8 q g l n.A.        UXUXUXUXUXUXUXUXUXUXUXUXUXUXUXUXUXUXUXUXUXUXUXUXUXUXUXUXUXUXUXUXUXUXUXUXUXUXUXUXUXUXUXUXUXUXUXUXUXUXUXUXUXUXUXUXUXUXUXUXUXUXUXUXUXUXUXUXUXUXUXUXUXUXUXUXUXUXUXUXUXUXUXUXUXU.R.M.b.n.n.n.n.n.n.8.8.8.S.U.B ",
"C H.c % $ + $ $ $ $ $ $ $ $ $ $ $ $ $ $ $ $ $ $ + $ $ $ $ $ $ $ $ $ $ $ $ ; $ $ $ $ ; $ $ $ $ $ $ ; $ ; ; ; $ & ; ; ; ; ; ; ; ; ; a ; - ; - ; - = % ; = * ; % % = ; # % # ; # # * * $ * @ $ * * # # # # * * * * # * # * * * # # * * * * * * * # # * # # # < # # * # * # @ # # # * o * @ @ @ + @ + X + o ; y.B.        UXUXUXUXUXUXUXUXUXUXUXUXUXUXUXUXUXUXUXUXUXUXUXUXUXUXUXUXUXUXUXUXUXUXUXUXUXUXUXUXUXUXUXUXUXUXUXUXUXUXUXUXUXUXUXUXUXUXUXUXUXUXUXUXUXUXUXUXUXUXUXUXUXUXUXUXUXUXUXUXUXUXUXUXUXC.{.4.,.,.~ ,.6...6.^ ^ ~ o.C.M ",
"C L.d X # @ @ @ # * * * # # % % $ * * * % * * * * % * % * * % % * & 2 2 & 2 2 0 2 7 7 3 8 7 5 7 9 w 0 0 0 0 0 w e w w w w w w w q r q 0 q q e q w w w 5 5 0 5 5 5 5 5 7 5 6 8 8 2 5 2 5 5 2 2 5 8 2 8 2 8 2 2 8 5 2 8 8 8 8 8 5 8 8 8 & 8 = 8 & = = & & = = 1 = 1 1 1 % & & & % % & * & & % & * * * * # a y.B.        UXUXUXUXUXUXUXUXUXUXUXUXUXUXUXUXUXUXUXUXUXUXUXUXUXUXUXUXUXUXUXUXUXUXUXUXUXUXUXUXUXUXUXUXUXUXUXUXUXUXUXUXUXUXUXUXUXUXUXUXUXUXUXUXUXUXUXUXUXUXUXUXUXUXUXUXUXUXUXUXUXUXUXUXUXD.'.1.| } | $.| | | | } [ m c.B ",
"C L.j @ o + # # # # = # % # * * % % % * * * * = * * * = & & = * 1 % & & & & 2 2 5 2 & 2 8 5 5 8 & & 5 5 w w w w w w w w w w w w q w q q r q w w w 5 3 5 2 5 5 2 2 3 5 5 5 8 8 8 & 8 2 2 & 2 & 2 2 & & & = & & 2 & - & 2 - - & 2 8 1 & & & % & & & = & & & & % 1 & % % % % & * % % % & % % % * * o   . X f oXA.        UXUXUXUXUXUXUXUXUXUXUXUXUXUXUXUXUXUXUXUXUXUXUXUXUXUXUXUXUXUXUXUXUXUXUXUXUXUXUXUXUXUXUXUXUXUXUXUXUXUXUXUXUXUXUXUXUXUXUXUXUXUXUXUXUXUXUXUXUXUXUXUXUXUXUXUXUXUXUXUXUXUXUXUXUXN.oX2. .}  . . . . .| | | X.D M ",
"C J.j X . . @ # * = * = = * = # % # # % = * = * * * * * * % % 1 % & & 2 & & 5 5 5 5 5 2 8 8 8 1 5 5 5 & 5 w w 2 0 5 5 w w w w w q r r w q q q 0 w 3 5 5 5 7 & 2 2 5 8 8 5 8 8 8 & 2 & & 2 & 2 - 8 = 8 & & & - 8 & 2 2 = - 2 2 & 8 & 1 = & & 8 & = = 1 & & & & % % 1 % % & & & & & % % % * % * * X     o a @XB.        UXUXUXUXUXUXUXUXUXUXUXUXUXUXUXUXUXUXUXUXUXUXUXUXUXUXUXUXUXUXUXUXUXUXUXUXUXUXUXUXUXUXUXUXUXUXUXUXUXUXUXUXUXUXUXUXUXUXUXUXUXUXUXUXUXUXUXUXUXUXUXUXUXUXUXUXUXUXUXUXUXUXUXUXUXM.@X&. .}  . . . . .| | | ~ U M ",
"C L.d .     o # # # = * # = * = % * % % * = * # % % = = & % = & % 1 & 2 & 5 2 5 5 - 3 7 5 5 5 8 5 w w w w w w w w w w w w w t g d q q q r q q q w 5 5 5 5 5 5 5 5 5 5 5 7 8 8 1 8 2 5 2 5 2 & & = 2 & 2 2 8 & = 8 & = 8 2 - & 2 = & 8 & 1 1 1 = 1 1 - & & % % 1 8 % 1 % % & 1 * * * % % % % # * X     o ; @XB.        UXUXUXUXUXUXUXUXUXUXUXUXUXUXUXUXUXUXUXUXUXUXUXUXUXUXUXUXUXUXUXUXUXUXUXUXUXUXUXUXUXUXUXUXUXUXUXUXUXUXUXUXUXUXUXUXUXUXUXUXUXUXUXUXUXUXUXUXUXUXUXUXUXUXUXUXUXUXUXUXUXUXUXUXUXE.@X1. .|  . . . . .| | } X.P > ",
"C J.d .   . * # % # # = # = * = * % * = * = * = # % % % % & 1 = & % 2 2 & 2 5 3 5 3 5 5 6 7 q 0 7 0 0 q q q r q r d d t q q t q r q s d r q q q q 0 w 6 6 6 7 6 0 5 0 5 5 5 2 2 5 2 2 2 2 5 2 & 8 & 2 & 2 - 2 - & 2 8 8 & & - 2 & & 2 & 2 & & 1 1 & 8 & = 1 % & & & 1 % % % % 1 % % 1 % & % # % X   . o a >XB.        UXUXUXUXUXUXUXUXUXUXUXUXUXUXUXUXUXUXUXUXUXUXUXUXUXUXUXUXUXUXUXUXUXUXUXUXUXUXUXUXUXUXUXUXUXUXUXUXUXUXUXUXUXUXUXUXUXUXUXUXUXUXUXUXUXUXUXUXUXUXUXUXUXUXUXUXUXUXUXUXUXUXUXUXUXM.oX1. . . . . . . .} | } { b O ",
"C J.j X . o = # # = = * = # = * % = % * = # = # % % * % % % = 1 % 2 2 2 2 5 5 5 5 5 0 5 0 q 0 6 q q q q q q d s t q d q c q c d q r q q q q q q q w w w 7 5 w 6 w 5 5 3 5 & 5 5 2 2 5 2 2 5 2 5 2 8 2 2 5 8 8 2 & 8 2 & 2 8 2 8 8 & - 8 & 2 2 & = 1 & 1 8 = 1 = & % 1 % & % & % % % % % 1 & % * # o % o f -XB.        UXUXUXUXUXUXUXUXUXUXUXUXUXUXUXUXUXUXUXUXUXUXUXUXUXUXUXUXUXUXUXUXUXUXUXUXUXUXUXUXUXUXUXUXUXUXUXUXUXUXUXUXUXUXUXUXUXUXUXUXUXUXUXUXUXUXUXUXUXUXUXUXUXUXUXUXUXUXUXUXUXUXUXUXUXrX'.1. .}  . . . . . . .{ { j . ",
"C P.g + @ # * * % % * = = # * = % # % % * * = = % % % % % & 1 = & & & 5 5 5 5 5 3 5 5 w 0 6 0 q q w 0 q q q q r q t q t t q q t d d s r r q q s 0 q w 0 w 7 6 7 5 0 5 5 2 2 5 5 5 & & 2 2 2 2 & 8 - 8 5 8 2 8 2 8 8 & 8 & 8 2 8 2 8 8 & 8 & 2 & 8 & & & & 1 1 1 & 1 % 1 % 1 1 % 1 1 1 % 1 * % * * = * @ f OXB.        UXUXUXUXUXUXUXUXUXUXUXUXUXUXUXUXUXUXUXUXUXUXUXUXUXUXUXUXUXUXUXUXUXUXUXUXUXUXUXUXUXUXUXUXUXUXUXUXUXUXUXUXUXUXUXUXUXUXUXUXUXUXUXUXUXUXUXUXUXUXUXUXUXUXUXUXUXUXUXUXUXUXUXUXUXrX'.1.$. .}  . . . . .} } } k . ",
"C L.j @ * @ $ * * % ; * * = = * % = # = = % * = * % % = % % & 8 2 & 5 2 3 5 5 3 5 0 5 5 6 0 w 6 w q q q q r q d t g g q d c q d s s r r s r q r q q q w 5 w 7 7 5 5 w 5 0 w 5 2 2 5 2 2 5 2 5 5 5 2 8 & 5 2 2 - 2 2 8 2 2 2 8 & 8 2 & - 2 - & 8 & 1 8 & 1 & & 8 1 % & & 1 % % % & * 1 * * % % # % # * o a *XB.        UXUXUXUXUXUXUXUXUXUXUXUXUXUXUXUXUXUXUXUXUXUXUXUXUXUXUXUXUXUXUXUXUXUXUXUXUXUXUXUXUXUXUXUXUXUXUXUXUXUXUXUXUXUXUXUXUXUXUXUXUXUXUXUXUXUXUXUXUXUXUXUXUXUXUXUXUXUXUXUXUXUXUXUXUX7XoX1. .|  . . . . . .| { } k   ",
"C L.h @ # # # * * = = * = * = * % % # # = # # = = % % % = = 1 = 5 & 2 2 5 5 0 5 5 5 7 5 w w w 0 q q q q q q r q t q q t q t q d g r d d s r r s q q 0 q 6 0 6 6 0 w 5 5 5 5 w 2 5 2 2 2 5 2 2 2 2 2 5 2 8 2 & 2 2 & 2 - 8 8 2 8 8 2 5 2 - 2 & 8 8 1 = 2 1 = 8 1 = & = & % 1 % 1 & % 1 % & % % % # # % @ k *XB.        UXUXUXUXUXUXUXUXUXUXUXUXUXUXUXUXUXUXUXUXUXUXUXUXUXUXUXUXUXUXUXUXUXUXUXUXUXUXUXUXUXUXUXUXUXUXUXUXUXUXUXUXUXUXUXUXUXUXUXUXUXUXUXUXUXUXUXUXUXUXUXUXUXUXUXUXUXUXUXUXUXUXUXUXUX0XoX2.$.| | .. . . . .| } { j O ",
"C H.j @ = # = * = # = = * = * = = # = = * = 8 = % = % % % % = 1 2 2 5 2 5 5 5 5 5 w 5 w w 0 0 w q 0 7 q w d d r q d d q d c d t s s r s r s q q r q 0 q q 0 6 7 5 0 w 0 5 7 2 2 5 5 5 2 & 5 2 2 & 5 2 8 2 - 5 2 8 2 5 2 1 = 8 & 2 & & 2 2 8 2 = & & - 1 & 1 & % 1 % 1 % 1 % 1 % 1 * % % % % & 1 1 % < # k %XV.        UXUXUXUXUXUXUXUXUXUXUXUXUXUXUXUXUXUXUXUXUXUXUXUXUXUXUXUXUXUXUXUXUXUXUXUXUXUXUXUXUXUXUXUXUXUXUXUXUXUXUXUXUXUXUXUXUXUXUXUXUXUXUXUXUXUXUXUXUXUXUXUXUXUXUXUXUXUXUXUXUXUXUXUXUXrX X1.,.| |  . . . .| ..} _ c : ",
"C L.j # * = = * * = = * = # = = % % * % = % % # % % % % % = 1 = 8 2 5 5 7 2 5 w 5 w 5 5 0 w w 6 7 q q q w r t q g g q t q q d t r s r g s s s r s q q q q 6 0 6 5 0 5 5 5 5 7 5 5 0 5 5 2 2 5 5 5 8 5 2 2 5 8 2 2 5 - 2 & 8 2 8 2 8 2 8 8 2 & 2 & 8 & 1 8 & & 8 8 = % & & % 1 % & % & % 1 1 % * % % % # k %XV.          UXUXUXUXUXUXUXUXUXUXUXUXUXUXUXUXUXUXUXUXUXUXUXUXUXUXUXUXUXUXUXUXUXUXUXUXUXUXUXUXUXUXUXUXUXUXUXUXUXUXUXUXUXUXUXUXUXUXUXUXUXUXUXUXUXUXUXUXUXUXUXUXUXUXUXUXUXUXUXUXUXUXUXUX7X X1.$.|  . . . . .| |  .~ J : ",
"C H.j # = = * = # = = * % = = * = = = % % = % % 1 % % = & = = = - 8 2 5 5 5 0 5 0 5 w 7 w w 0 w w 0 q q q q q q g q q q t c q q g r s s s r s r 0 q q 0 0 6 0 6 w w w 7 0 5 5 5 5 2 & 2 5 2 & 2 2 8 2 5 2 8 8 8 2 & 8 8 2 8 1 & 8 2 - 2 & 8 8 & 1 & 2 - = 1 & 1 & 1 & 1 = & % 1 & 1 1 % % % * & % 1 8 # f $XB.          UXUXUXUXUXUXUXUXUXUXUXUXUXUXUXUXUXUXUXUXUXUXUXUXUXUXUXUXUXUXUXUXUXUXUXUXUXUXUXUXUXUXUXUXUXUXUXUXUXUXUXUXUXUXUXUXUXUXUXUXUXUXUXUXUXUXUXUXUXUXUXUXUXUXUXUXUXUXUXUXUXUXUXUX7XoX1. .}  . . . . . ...| { z : ",
"C H.x # & * = % % % = = % * = % = % # = = = % % % = % & % = % % - 5 5 3 w 5 7 5 7 0 6 7 6 7 0 q q r q w 5 w 0 t q q r q q d q g q q g q 0 q t q q 0 q q q 0 6 0 5 0 5 7 w w 0 5 w 2 w 5 5 2 5 2 2 5 5 5 2 5 8 2 5 2 5 2 8 2 2 8 5 & 8 & 2 2 & 2 1 & 8 & 1 = 1 = 8 1 1 % % = 1 % = 1 % % = = % % 1 1 % # k %XV.          UXUXUXUXUXUXUXUXUXUXUXUXUXUXUXUXUXUXUXUXUXUXUXUXUXUXUXUXUXUXUXUXUXUXUXUXUXUXUXUXUXUXUXUXUXUXUXUXUXUXUXUXUXUXUXUXUXUXUXUXUXUXUXUXUXUXUXUXUXUXUXUXUXUXUXUXUXUXUXUXUXUXUXUX7X'.2. .{  . . .$.|  .{ { _ H : ",
"C H.j % & & = % % % * = = = = * = % % = % % 1 % = % % 8 & & * % 8 5 5 5 5 5 9 5 6 6 6 7 7 6 q 0 q q q w w 5 q q q q q g g t t q d q t q w q q q q q q q 6 0 q 6 0 5 w w 2 5 2 w 5 5 2 2 0 5 2 5 2 5 2 5 3 - 2 5 2 8 2 8 5 2 2 & 2 2 2 & 5 2 & & & - & 1 & 8 = 1 & = = & 1 1 = 1 % % 1 1 1 1 1 % % & 1 % k @XV.          UXUXUXUXUXUXUXUXUXUXUXUXUXUXUXUXUXUXUXUXUXUXUXUXUXUXUXUXUXUXUXUXUXUXUXUXUXUXUXUXUXUXUXUXUXUXUXUXUXUXUXUXUXUXUXUXUXUXUXUXUXUXUXUXUXUXUXUXUXUXUXUXUXUXUXUXUXUXUXUXUXUXUXUX7XOX2. ...$... ...|  .| | _ z : ",
"C L.h # = % % % % % % % = = * = % % % % % % = = % % & 8 = 8 % & 5 5 5 0 5 5 7 w 5 w 6 6 6 6 w q q q q q q w q r r q q d q g s d t d t q w 0 q q q q 0 q q 0 w w w w w 2 w 5 7 2 5 w w 2 2 5 5 2 5 2 5 2 2 2 5 2 5 2 8 8 8 5 & 5 8 & 2 5 & 8 8 & 2 2 8 & 1 & & & % 8 % 1 = % % % 1 = 1 = % = 1 & & & 1 % k %XB.          UXUXUXUXUXUXUXUXUXUXUXUXUXUXUXUXUXUXUXUXUXUXUXUXUXUXUXUXUXUXUXUXUXUXUXUXUXUXUXUXUXUXUXUXUXUXUXUXUXUXUXUXUXUXUXUXUXUXUXUXUXUXUXUXUXUXUXUXUXUXUXUXUXUXUXUXUXUXUXUXUXUXUXUX7X}.2.,...|  .}  ... ...{ { H : ",
"C H.x % = = = % = = % % % = = = % = % = = = % % & & & - 8 % % 8 8 5 5 5 5 0 5 5 7 6 0 w w 6 q w q q q w w q q q q t g q t d s r d d q q w q q q r q r q q q 0 6 w w w w w 5 w 5 5 2 5 w 5 5 2 5 5 5 5 5 5 5 2 5 8 5 2 8 & 8 2 8 - 5 8 2 8 2 8 2 = 1 & & & 8 & 1 & 1 = 1 = 1 & % % % % % % % % & % 1 8 # f @XV.          UXUXUXUXUXUXUXUXUXUXUXUXUXUXUXUXUXUXUXUXUXUXUXUXUXUXUXUXUXUXUXUXUXUXUXUXUXUXUXUXUXUXUXUXUXUXUXUXUXUXUXUXUXUXUXUXUXUXUXUXUXUXUXUXUXUXUXUXUXUXUXUXUXUXUXUXUXUXUXUXUXUXUXUX7XoX1.$.} | }  . .|  .| { { H : ",
"C H.x * = % = % = = % = = = = % % % % % = & & % & = = 8 & 2 = 8 - 5 5 5 5 7 7 w 6 w w 7 0 q q w q 7 w q 0 w q q q q d s q r s d q t q w q q w d q q r q q w q 0 5 0 9 w w 5 5 5 w 5 0 & & 5 w 2 5 5 5 5 5 2 8 2 2 5 2 2 5 2 & 5 & 5 2 & 2 2 8 & 8 1 & 1 8 = 1 & 1 8 % & & 1 % & 8 % & & % & % = & & & * f @XV.          UXUXUXUXUXUXUXUXUXUXUXUXUXUXUXUXUXUXUXUXUXUXUXUXUXUXUXUXUXUXUXUXUXUXUXUXUXUXUXUXUXUXUXUXUXUXUXUXUXUXUXUXUXUXUXUXUXUXUXUXUXUXUXUXUXUXUXUXUXUXUXUXUXUXUXUXUXUXUXUXUXUXUXUXeXXX4. .| | | } | | ..| | ~ z : ",
"C J.x * = & = = = % = % % % = = = % = = % = = 1 2 - = 1 8 - - 5 5 5 5 5 5 5 6 6 5 w 9 6 q 6 6 w q q q w w w q q q q r r q s q g c q q q q w w q q 0 q q r w w w w 5 0 5 w 0 w 5 5 0 5 5 5 w 2 5 2 2 5 3 5 5 5 5 5 5 5 2 2 5 2 & 8 & 5 5 & 8 8 2 = 1 8 & % 1 = 1 = % % & % & = & % & & % & & 1 % & % 1 % f %XB.          UXUXUXUXUXUXUXUXUXUXUXUXUXUXUXUXUXUXUXUXUXUXUXUXUXUXUXUXUXUXUXUXUXUXUXUXUXUXUXUXUXUXUXUXUXUXUXUXUXUXUXUXUXUXUXUXUXUXUXUXUXUXUXUXUXUXUXUXUXUXUXUXUXUXUXUXUXUXUXUXUXUXUXUXrX X2. .} |  .{ | | ....{ { z : ",
"C H.x * = = = = % = = = = = % = = = & & % = = = & & - - - 8 - 5 5 5 5 0 6 6 6 7 6 w 9 w q q 6 q q q q w w 7 w q q g q d r q r s q d t w q 0 w t q q q 0 w w w 7 w 5 5 0 5 5 5 5 5 5 w 2 0 2 5 5 5 5 5 5 2 5 2 5 5 2 5 5 5 & & 5 2 5 5 2 & 8 2 5 8 & & & & 1 8 & = = & & & % & = & = % & & % % & % % 1 * a OXV.          UXUXUXUXUXUXUXUXUXUXUXUXUXUXUXUXUXUXUXUXUXUXUXUXUXUXUXUXUXUXUXUXUXUXUXUXUXUXUXUXUXUXUXUXUXUXUXUXUXUXUXUXUXUXUXUXUXUXUXUXUXUXUXUXUXUXUXUXUXUXUXUXUXUXUXUXUXUXUXUXUXUXUXUX7X}.1. .| |  .|  .| | { | { H : ",
"C L.x # = = = % = % = % = = & & & = = & = & 8 = - & 8 & 8 - 8 - 5 5 5 5 7 5 6 6 6 w 7 6 6 0 w q q 0 q q q q q q q q g q d g q s t q q q q q w t q r q q w w 6 w w w w w w 5 w w w 2 0 w 5 5 5 w 5 2 5 2 5 5 2 5 5 2 & & 5 5 5 2 5 & 2 - 5 2 & & = = = 8 = = & = & 1 = % & % % & % % % & = 1 % & & & 8 % f @XV.          UXUXUXUXUXUXUXUXUXUXUXUXUXUXUXUXUXUXUXUXUXUXUXUXUXUXUXUXUXUXUXUXUXUXUXUXUXUXUXUXUXUXUXUXUXUXUXUXUXUXUXUXUXUXUXUXUXUXUXUXUXUXUXUXUXUXUXUXUXUXUXUXUXUXUXUXUXUXUXUXUXUXUXUX7X}.1. .}  . . . ...| | { X.H : ",
"C H.x * 8 & = * = = = = = = & = = % = = = 8 - = - & 8 - - 5 8 6 5 5 5 5 5 5 w 5 6 0 6 0 q 6 9 w w w w q q q q t q t q q d d q q c 9 w q q d q q e q q q q w 7 w w 5 w 5 w 5 0 5 5 5 0 5 2 5 5 2 5 5 5 2 5 5 2 & 5 - 5 2 5 & 5 5 & - 8 5 2 - 8 8 & & 8 & = & & 1 & & & % & & & % & & & & % = = % & & 5 * a %XV.          UXUXUXUXUXUXUXUXUXUXUXUXUXUXUXUXUXUXUXUXUXUXUXUXUXUXUXUXUXUXUXUXUXUXUXUXUXUXUXUXUXUXUXUXUXUXUXUXUXUXUXUXUXUXUX;.UXUXUXUXUXUXUXUXUXUXUXUXUXUXUXUXUXUXUXUXUXUXUXUXUXUXUXUX7X'.2. .{ |  . . .| | { { ~ H : ",
"C H.j = = = & & = = = = = & = = = 8 8 = & 2 - - = 8 - 8 5 5 5 5 5 5 0 5 w w 5 w 6 0 9 w 6 q 0 6 w q q q d d q q s q q d d t q q q q q t d q t d q q q q q w w w w w 5 6 5 w 5 w 5 5 5 w 2 w 5 5 5 5 5 5 2 5 5 5 & 5 5 - 5 & & 2 8 2 2 & & 8 & & & 8 - & & 8 & & 8 % & % % = = & & & & % & & & & & 2 2 & f @XB.          UXUXUXUXUXUXUXUXUXUXUXUXUXUXUXUXUXUXUXUXUXUXUXUXUXUXUXUXUXUXUXUXUXUXUXUXUXUXUXUXUXUXUXUXUXUXUXUXUXUXUXUXUXUXUXKX:.UXUXUXUXUXUXUXUXUXUXUXUXUXUXUXUXUXUXUXUXUXUXUXUXUXUXUX+XOX1. ...|  . . .| | } } _ H : ",
"C L.x * = = = & = = = = = = = = & = & = = & = - - - = 8 5 - 5 5 5 5 5 5 5 6 w 5 6 w w 9 0 6 6 q w q w w q d q q q q q t t d d q t d q t q q g q q q q q w q w w 5 w 5 w w 0 5 w 5 w w 2 5 w & 5 2 5 5 5 5 2 & 5 - 2 5 & & 5 5 2 - 2 8 - & & - 2 & - & - = = = & % = = & % & & % = = & & % & & = 8 & - * a @XB.          UXUXUXUXUXUXUXUXUXUXUXUXUXUXUXUXUXUXUXUXUXUXUXUXUXUXUXUXUXUXUXUXUXUXUXUXUXUXUXUXUXUXUXUXUXUXUXUXUXUXUXUXUXUXUXmX) UXUXUXUXUXUXUXUXUXUXUXUXUXUXUXUXUXUXUXUXUXUXUXUXUXUXUX6X}.2. .{  .| .. . .| { { ~ V : ",
"C H.j = = & = = = = - = = & = = = = = = = & 8 - - - - 8 5 - 5 5 5 5 5 w w 5 6 w 6 6 9 9 q q s q q q 9 c t q q t q g q t d d d t d q d q d q q q q r q q q w w w 0 w 0 w 5 5 5 5 5 w 5 5 w 2 2 5 5 5 5 2 5 - 5 2 5 5 - 5 5 - 5 - 5 8 & 5 8 - 2 - & & 8 & 1 = & & = 1 & & = = & = = = * = 1 = = 1 & & 5 * f OXV.          UXUXUXUXUXUXUXUXUXUXUXUXUXUXUXUXUXUXUXUXUXUXUXUXUXUXUXUXUXUXUXUXUXUXUXUXUXUXUXUXUXUXUXUXUXUXUXUXUXUXUXUXUXUXUXZX( UXUXUXUXUXUXUXUXUXUXUXUXUXUXUXUXUXUXUXUXUXUXUXUXUXUXUX6X}.1.$.{ } |  . .| | { | ~ c : ",
"C H.j % 8 = - = = = = = = & = & = = & = = = = - - 8 - 5 5 5 5 8 8 5 8 5 6 w 6 5 6 w w w q 9 q q q q q q q d q q t d q d q t d d t d q q d q t q q t q q q w w w w w w 5 w w 5 w 5 5 5 5 5 5 w 2 5 5 5 5 5 2 5 5 5 & 5 & 5 5 5 2 2 8 8 2 & 8 8 & 8 & 2 - & = 8 & & & = = & & % = = 1 8 % & & & & & & 8 * f @XB.          UXUXUXUXUXUXUXUXUXUXUXUXUXUXUXUXUXUXUXUXUXUXUXUXUXUXUXUXUXUXUXUXUXUXUXUXUXUXUXUXUXUXUXUXUXUXUXUXUXUXUXUXUXUXUXmX:.UXUXUXUXUXUXUXUXUXUXUXUXUXUXUXUXUXUXUXUXUXUXUXUXUXUXUX0.OX1. .} | | |  .| | { { { H : ",
"C H.x * = = = = = 8 & = = = = = = & = = - = - - - - 8 - - 5 5 5 5 5 6 7 5 w 6 6 6 w 9 q q q q q q q q t d q q q s d q q d d t d d q q c q q d q q q q q q 9 w 5 w 0 5 w 6 5 6 5 5 w w 5 w 5 5 5 2 5 2 5 5 5 2 5 2 5 & 5 5 & - 5 - - & 5 - - & & & 8 & 8 8 = & & = = 1 % & % & = % & & & & & - & & & 8 1 f @XB.          UXUXUXUXUXUXUXUXUXUXUXUXUXUXUXUXUXUXUXUXUXUXUXUXUXUXUXUXUXUXUXUXUXUXUXUXUXUXUXUXUXUXUXUXUXUXUXUXUXUXUXUXUXUXUXIXW UXUXUXUXUXUXUXUXUXUXUXUXUXUXUXUXUXUXUXUXUXUXUXUXUXUXUX1.OX2. .}  . .| ..| | | { ~ H : ",
"C L.h = 8 = = = & = = = = = = = = & = = 8 = - = - - 8 5 5 5 5 5 6 5 6 5 6 5 6 5 5 w w q w 9 d q q q q d q q w 9 q d d d t d d d q d q d d d t q q q q q q q 9 w w 5 5 w w 5 5 5 5 5 5 2 2 5 5 5 5 5 5 5 2 2 5 5 5 5 & 5 - - 5 & 5 5 & & 5 5 & & - & 8 & & = 2 & % 8 & & % & 1 & % 8 & & & & = 2 & & & * 9 @XB.          UXUXUXUXUXUXUXUXUXUXUXUXUXUXUXUXUXUXUXUXUXUXUXUXUXUXUXUXUXUXUXUXUXUXUXUXUXUXUXUXUXUXUXUXUXUXUXUXUXUXUXUXUXUXUXIXW UXUXUXUXUXUXUXUXUXUXUXUXUXUXUXUXUXUXUXUXUXUXUXUXUXUXUX1.#X1. .}  . . . .| ..| ..~ H : ",
"C H.x * - = = = = = = = 8 = & = = 8 = = & - 8 - 8 5 - 5 - 5 5 6 5 6 5 5 w w 5 w 5 6 q w q q q 9 q q q 9 9 9 w 9 9 d t d q d d q t d d t d q q t q q q q 0 w q w 6 w w 5 5 5 w w 5 w 5 w 5 5 5 5 5 5 2 5 5 5 5 5 5 5 5 - 2 5 2 5 & 5 5 & & & - 5 8 & & - & = = - & % = = 1 8 % = = % & 8 % & & & & & 8 2 a @XV.          UXUXUXUXUXUXUXUXUXUXUXUXUXUXUXUXUXUXUXUXUXUXUXUXUXUXUXUXUXUXUXUXUXUXUXUXUXUXUXUXUXUXUXUXUXUXUXUXUXUXUXUXUXUXUXmXR UXUXUXUXUXUXUXUXUXUXUXUXUXUXUXUXUXUXUXUXUXUXUXUXUXUXUX4.#X1. . .}  . . .|  .{ | ^ V : ",
"C H.x * 8 = - = = = = 8 = - = - - - - 8 - 5 5 - 5 5 9 - 5 5 5 - 5 6 5 w 6 5 w 5 6 6 w 9 q q q 6 q q q w q 6 6 0 s s s s s d d g d d d g q t q d t q q q q w w q 6 6 w 5 5 5 w 6 5 w 2 w 5 5 2 5 5 5 5 5 2 5 5 5 5 5 5 2 & 5 & & 5 & - 2 - 2 & & 8 & - 2 8 2 - & % = % 8 & & & = & 1 & & & 1 & - & & 5 % f @XB.          UXUXUXUXUXUXUXUXUXUXUXUXUXUXUXUXUXUXUXUXUXUXUXUXUXUXUXUXUXUXUXUXUXUXUXUXUXUXUXUXUXUXUXUXUXUXUXUXUXUXUXUXUXUXUXIXW UXUXUXUXUXUXUXUXUXUXUXUXUXUXUXUXUXUXUXUXUXUXUXUXUXUXUX1.#X1.| | | .. . . .| } { _ H : ",
"C H.j % 8 - - = = - = = 8 - - - - - - - - - - - - - - 8 5 - 6 6 6 5 5 9 5 w w 5 6 6 w w 6 q q 6 q q q q q q q q q 9 r q r d r d t d q q d q q q q w q q q w w w 6 w w 5 5 w 7 5 w 5 5 5 w 5 w 5 w 5 5 5 5 5 5 5 5 5 & 5 5 5 5 5 & 5 5 5 5 - 5 5 - 8 - & & - & - & % % & = 1 = 1 = = & & & = & & & - & % a OXV.          UXUXUXUXUXUXUXUXUXUXUXUXUXUXUXUXUXUXUXUXUXUXUXUXUXUXUXUXUXUXUXUXUXUXUXUXUXUXUXUXUXUXUXUXUXUXUXUXUXUXUXUXUXUXUXzXU UXUXUXUXUXUXUXUXUXUXUXUXUXUXUXUXUXUXUXUXUXUXUXUXUXUXUX4.$X9.| |  . . . . . .{ } _ H : ",
"C L.j & - - 8 = = 8 = = = - - - - - - 8 - 8 5 5 8 - 6 8 - 5 6 8 5 5 5 5 6 6 6 5 6 6 q 9 q q 6 q q q q 6 q 9 6 q q s q s s q s d g q q g q q t q q q q q q q q w 7 6 7 5 5 6 6 6 5 2 5 5 5 5 w 5 2 5 5 5 5 5 5 5 5 5 5 5 5 5 5 5 5 5 5 & 8 - - - & & - 8 = & & & & & 8 % & & & - 1 & & 8 = & - & & & 2 % a @XB.          UXUXUXUXUXUXUXUXUXUXUXUXUXUXUXUXUXUXUXUXUXUXUXUXUXUXUXUXUXUXUXUXUXUXUXUXUXUXUXUXUXUXUXUXUXUXUXUXUXUXUXUXUXUXUXmXR UXUXUXUXUXUXUXUXUXUXUXUXUXUXUXUXUXUXUXUXUXUXUXUXUXUXUX1.#X1. .}  . . . .|  . .| _ V : ",
"C H.x & - - = - = = - - = - - - 8 - - 5 - - - - 5 5 - - 5 6 8 - 5 9 6 5 5 7 6 6 6 0 6 9 q w s q q 6 q q 6 q w q q s s s d d s d g g q q d t q q t q q g q w 9 w w 6 6 6 9 7 6 6 w 5 w 5 5 5 5 5 5 5 5 5 5 5 5 5 5 5 & 5 5 5 5 5 5 & 5 - 5 & 8 & - 8 - 8 & 8 - & = & 8 = & - - & - = - & & - & 8 5 & 2 % 9 @XV.          UXUXUXUXUXUXUXUXUXUXUXUXUXUXUXUXUXUXUXUXUXUXUXUXUXUXUXUXUXUXUXUXUXUXUXUXUXUXUXUXUXUXUXUXUXUXUXUXUXUXUXUXUXUXUXIXW UXUXUXUXUXUXUXUXUXUXUXUXUXUXUXUXUXUXUXUXUXUXUXUXUXUXUX4.#X9. ... . . . . . .{ { ^ H : ",
"C H.x % 8 - - - - = = 8 - 8 - - - 8 - - - - 8 5 - 5 - 6 - 5 6 6 5 6 6 7 5 9 9 7 6 w 6 q 9 6 q 6 6 s q 9 q q 9 q q s s s s d d d d q q d g q q s w q q q t 9 q w w w 5 w 6 9 9 5 5 5 w 5 5 5 w 5 5 5 5 5 5 5 5 & 5 5 5 5 5 5 5 2 5 & 5 2 - 5 & & 8 2 - 2 8 & 2 8 = = & = 8 & 1 - & - & - - - & 8 & & - % f @XV.          UXUXUXUXUXUXUXUXUXUXUXUXUXUXUXUXUXUXUXUXUXUXUXUXUXUXUXUXUXUXUXUXUXUXUXUXUXUXUXUXUXUXUXUXUXUXUXUXUXUXUXUXUXUXUXxXR UXUXUXUXUXUXUXUXUXUXUXUXUXUXUXUXUXUXUXUXUXUXUXUXUXUXUX,.-X9.$.| |  . . . .| ..} ~ L : ",
"C J.z % - - - = = 8 - = - - - 5 - - - 8 5 - 5 - 5 - 5 8 6 5 - 6 6 5 6 5 9 5 6 9 6 6 0 6 q q q q q q q q 9 q 9 q q q s s r s s s s q d q q d q r q q q q 9 q w w 6 w w 5 6 7 5 w w 5 5 5 5 5 5 5 5 5 5 w 5 5 w 5 5 5 5 2 & 5 5 5 - 5 - 5 5 & - 5 - - 5 - - 2 - & 8 & & = & & - = - & - & & & & - 5 & 5 % s @XV.          UXUXUXUXUXUXUXUXUXUXUXUXUXUXUXUXUXUXUXUXUXUXUXUXUXUXUXUXUXUXUXUXUXUXUXUXUXUXUXUXUXUXUXUXUXUXUXUXUXUXUXUXUXUXUXxXQ UXUXUXUXUXUXUXUXUXUXUXUXUXUXUXUXUXUXUXUXUXUXUXUXUXUXUX9.#X9. .|  . . . . .| | } _ H : ",
"C H.x & - - 8 - - = - = - 5 8 - 5 - - 8 8 - - 5 5 - - 6 - 5 5 5 5 5 6 6 6 w 9 5 6 0 6 q q 6 q q 6 q q 9 q q 9 q s s d r d s r s d d d q q q s q w q q q q q 9 w w w w 6 9 9 w 5 w 5 5 5 0 5 5 5 5 5 5 5 2 5 5 5 5 5 5 5 5 5 5 - - 2 5 & 5 & - & & 5 & - - & 2 - 1 8 & & & & 8 = & - & - - & 8 - 2 - - % f @Xl.          UXUXUXUXUXUXUXUXUXUXUXUXUXUXUXUXUXUXUXUXUXUXUXUXUXUXUXUXUXUXUXUXUXUXUXUXUXUXUXUXUXUXUXUXUXUXUXUXUXUXUXUXUXUXO.fXo.UXUXUXUXUXUXUXUXUXUXUXUXUXUXUXUXUXUXUXUXUXUXUXUXUXUXUXy.&X1. .|  . . . . . .| | ~ V : ",
"C H.x % 8 - = = - 8 - - - - - - - - 8 - - - 5 5 - 6 - - 6 - 6 6 5 6 5 6 5 5 6 w 6 6 q 6 q q q q s q q q q q q s q s q q d s d d t g q q g q q q q q q q q 9 w 9 w 6 w 5 w 5 9 7 5 w 5 5 w 5 5 5 5 5 5 2 5 5 5 5 5 5 2 5 5 5 5 5 5 5 - 5 5 - 2 5 - & - - & 5 - 2 = = & - & = & = = & & 8 & & 8 - - - - % s @XV.          UXUXUXUXUXUXUXUXUXUXUXUXUXUXUXUXUXUXUXUXUXUXUXUXUXUXUXUXUXUXUXUXUXUXUXUXUXUXUXUXUXUXUXUXUXUXUXUXUXUXUXUXN j [.cXUXUXUXUXUXUXUXUXUXUXUXUXUXUXUXUXUXUXUXUXUXUXUXUXUXUXUXUX9.-X1. .|  . . . . ...| | ~ H : ",
"C J.x % - - - = - 8 = - - - - 8 - 5 8 - - - 8 5 - 5 8 - 5 6 5 5 6 5 6 6 5 w 6 9 6 6 q w 9 q q 9 q q q s q q q q s q q d d d g d g d q q d q s q q q s 9 6 q w 6 w 6 w 5 6 6 6 w 5 5 5 w w 5 5 5 5 5 5 5 2 w 5 5 5 5 5 2 5 - 5 & - 5 5 & - & & 5 - 8 & & - - & - 2 & & - = & & = 8 & & - & & - 5 5 & 5 % s @XV.          UXUXUXUXUXUXUXUXUXUXUXUXUXUXUXUXUXUXUXUXUXUXUXUXUXUXUXUXUXUXUXUXUXUXUXUXUXUXUXUXUXUXUXUXUXUXUXUXUXUXUXl ;.4.4. XUXUXUXUXUXUXUXUXUXUXUXUXUXUXUXUXUXUXUXUXUXUXUXUXUXUXUXUX`.OX2. . . . . . . . .} } ~ L : ",
"C H.x * 8 = - - = - - - = 5 8 - - - - - 5 - 5 - - - 5 6 - 8 5 5 6 5 5 w 6 6 6 w 9 w 6 9 q q s q q s q s q s s s g q q d g d g d q q d d r d q s q q q w q q 9 w 6 w 6 w w w 5 5 5 w 5 5 2 5 5 5 5 5 5 5 5 5 5 5 2 5 5 5 5 5 5 - 5 2 & 5 - 5 - & & 5 - 5 - 2 & 8 = - = & = & 8 & - & - & 8 - & & - & 2 % f @XB.          UXUXUXUXUXUXUXUXUXUXUXUXUXUXUXUXUXUXUXUXUXUXUXUXUXUXUXUXUXUXUXUXUXUXUXUXUXUXUXUXUXUXUXUXUXUXUXUXUXUXO.4.s N v h.UXUXUXUXUXUXUXUXUXUXUXUXUXUXUXUXUXUXUXUXUXUXUXUXUXUXUXUX}.OX1.&.| .. . . .|  .{ { { H : ",
"C H.x % 8 8 - = = - = - ; = 8 - 8 - 8 5 - - - - - 6 - 6 6 - 6 6 6 6 5 9 6 6 6 w 6 q q q 9 s q s s s q q s q s s d d s g d d g s d g q g s s s r s r q q w q w w 6 w w 5 w 5 w 5 w 5 5 5 5 5 5 5 2 5 5 5 5 5 & 5 5 5 5 5 - 5 - 5 - 5 - - 5 - 5 & & & 5 - 2 & - & - & 8 & & 8 & - & - & & & & 5 & - 5 5 * s @Xl.          UXUXUXUXUXUXUXUXUXUXUXUXUXUXUXUXUXUXUXUXUXUXUXUXUXUXUXUXUXUXUXUXUXUXUXUXUXUXUXUXUXUXUXUXUXUXUXUXUXUX;.JX[.j.O.A UXUXUXUXUXUXUXUXUXUXUXUXUXUXUXUXUXUXUXUXUXUXUXUXUXUXUXUX+X}.2.,... . . .|  .| ..| ~ V : ",
"C H.x = - ; - - 8 - - - 8 8 - - - - - - 8 - 8 8 - 8 - - 5 6 - 6 5 5 5 6 6 w 5 w 6 6 6 q q 9 q q q s s s q s d s q d q s s g d g s d g s s q s q s s r q w q q w w 6 w w 6 w 5 w 5 5 5 5 5 w 5 5 5 5 5 & 5 5 5 5 - 5 5 - 5 & 5 2 5 & 5 - & & 5 & 5 - & & - - & - & - = & - & - = - & 8 - - & 5 - - 5 - % f @XV.          UXUXUXUXUXUXUXUXUXUXUXUXUXUXUXUXUXUXUXUXUXUXUXUXUXUXUXUXUXUXUXUXUXUXUXUXUXUXUXUXUXUXUXUXUXUXUXUXUXUXG GXZX5X3.V UXUXUXUXUXUXUXUXUXUXUXUXUXUXUXUXUXUXUXUXUXUXUXUXUXUXUXUX&X}.1.$... ...$. . .| | | _ H : ",
"C H.c % - - - - - - - - - 8 - - 8 - - 8 5 5 - - - 6 - 6 - 6 5 6 6 5 6 6 6 9 9 9 9 q 9 q q s s 9 q s q s s s s d s d d d q q d d s s q q q q 0 q q w 6 w 5 w 6 5 5 5 5 5 7 5 2 5 5 2 5 5 & 5 & 5 5 & 5 5 & 5 5 & 5 - 5 5 - & - 2 5 - 5 5 - & 5 & - - & 5 - - & 8 - - & = 2 - & 2 & & - - - & - 5 - 2 8 & f @XB.          UXUXUXUXUXUXUXUXUXUXUXUXUXUXUXUXUXUXUXUXUXUXUXUXUXUXUXUXUXUXUXUXUXUXUXUXUXUXUXUXUXUXUXUXUXUXUXUXUXUXM h.[.2X3.h UXUXUXUXUXUXUXUXUXUXUXUXUXUXUXUXUXUXUXUXUXUXUXUXUXUXUXUX&XOX1. . . . ... .|  .| { { L : ",
"C H.c % - - - - ; - - = 8 ; - - - - - - - - - 8 - 5 8 - ; - 5 - 5 6 6 7 6 6 9 9 9 9 9 q s 9 q s s q s s s s q d j J x v v v v J x x x x h g g d s r r q w w 6 6 5 w w 5 6 5 5 5 5 5 5 & 5 5 5 & 5 & w 5 5 5 5 5 5 2 5 2 5 5 5 5 2 5 & - 5 & 5 - 8 - 2 - 2 - - & 1 - & - - 2 8 & - & 5 2 & 5 & & 8 - 8 & f @XV.          UXUXUXUXUXUXUXUXUXUXUXUXUXUXUXUXUXUXUXUXUXUXUXUXUXUXUXUXUXUXUXUXUXUXUXUXUXUXUXUXUXUXUXUXUXUXUXUXUXo.7.y W 3.j.D UXUXUXUXUXUXUXUXUXUXUXUXUXUXUXUXUXUXUXUXUXUXUXUXUXUXUXUX&X}.2. .} |  . . . . .| } ~ H : ",
"C L.x % - - ; 8 = - = ; - = - - - - - - - - - 6 5 - 5 - 6 5 5 6 5 5 9 6 6 5 9 9 9 q 9 s 6 9 s 9 s q s q s s s d j v v v v v v v x x j c j j g d d s q q w w 5 w 5 5 w 5 5 6 5 5 5 5 5 5 5 5 5 5 5 & 5 & 5 5 5 5 5 5 5 5 5 5 5 - - 5 5 & - & & - - 2 - & - - & = & - 8 & & - - & & - & - & 8 5 & 8 8 8 % 9 oXV.          UXUXUXUXUXUXUXUXUXUXUXUXUXUXUXUXUXUXUXUXUXUXUXUXUXUXUXUXUXUXUXUXUXUXUXUXUXUXUXUXUXUXUXUXUXUXUXUXUXf.xXh.:.h g.UXUXUXUXUXUXUXUXUXUXUXUXUXUXUXUXUXUXUXUXUXUXUXUXUXUXUXUXUX&X}.2. ... . . . .|  .{ | ~ V : ",
"C H.x = - - - - - - - - - - - - - - - - - 8 - - - 5 - 8 5 8 - 6 5 6 6 5 6 w 9 6 9 9 q 9 s q s s q d s q r s d s d v j v v v v v x x c j h j g d s r q q w w w 5 5 5 5 5 5 5 5 5 5 5 5 5 & 5 5 5 5 5 w 5 & 5 5 & 5 5 - - 5 & & 5 5 & & 5 5 5 - 2 - 8 - 8 & - & - & = - & - - & & 8 2 5 - - - - 5 8 8 5 % s @XB.          UXUXUXUXUXUXUXUXUXUXUXUXUXUXUXUXUXUXUXUXUXUXUXUXUXUXUXUXUXUXUXUXUXUXUXUXUXUXUXUXUXUXUXUXUXUXUXUXUXp.AXsXj.o.p.UXUXUXUXUXUXUXUXUXUXUXUXUXUXUXUXUXUXUXUXUXUXUXUXUXUXUXUXUX&XOX0. . ... . . . . .| .._ H : ",
"C H.c = - - - - - - - - - - - - - - - - - 5 ; 8 8 8 - - 5 - 6 5 8 6 5 6 6 0 6 6 9 s q 6 q s q q s s q q s d d d j b b x v v v x x c c x j g g d q q q q w w 5 w & w & 9 & w & 9 5 & 5 5 & 5 5 & 5 5 5 & 5 5 5 5 5 5 5 5 5 5 & 5 2 - 5 - 5 - - 5 & & - 5 = 8 - - - 1 - & - - & = 8 & - & & 8 8 8 - 5 5 % 6 @XV.          UXUXUXUXUXUXUXUXUXUXUXUXUXUXUXUXUXUXUXUXUXUXUXUXUXUXUXUXUXUXUXUXUXUXUXUXUXUXUXUXUXUXUXUXUXUXUXUXUXF h.1X4Xj.>.UXUXUXUXUXUXUXUXUXUXUXUXUXUXUXUXUXUXUXUXUXUXUXUXUXUXUXUXUX}.OX1. . . . . . .|  .} { _ L : ",
"C H.c = 6 - - - - - ; - - - - ; - - ; - = - 5 5 5 8 - 5 - 5 5 5 5 7 6 6 6 6 6 q 9 9 s 9 6 q s s s s q d s s d d j v x x v v v v x x c j j g d t d q t q w 5 5 w & & 9 - 9 & 9 & 5 5 5 5 9 5 5 5 5 5 5 5 5 & & 5 5 & & 5 5 & 5 & 5 - 5 & 5 2 & 5 & 5 & & - - & - 8 - = 8 = 8 & 8 - & - 5 - - - - & 5 5 & ; XXV.          UXUXUXUXUXUXUXUXUXUXUXUXUXUXUXUXUXUXUXUXUXUXUXUXUXUXUXUXUXUXUXUXUXUXUXUXUXUXUXUXUXUXUXUXUXUXUXUXW ` j W $.j.V UXUXUXUXUXUXUXUXUXUXUXUXUXUXUXUXUXUXUXUXUXUXUXUXUXUXUXUXUX~.OX1. . . .|  . . . .| | _ V : ",
"C H.j = 5 - - - - - - - - - - - - - - - = - 5 5 - - - 5 - 5 5 8 6 6 8 6 5 6 6 6 9 9 9 q s q s s s s d d s d d s j b x x v v v x x c z j g g q g d q q q w w w 5 9 w 5 9 & w & 5 5 5 5 5 & 5 5 5 5 5 w & 5 5 5 5 5 & w 5 & 5 5 & & 5 - 5 - - - & 5 - 5 & & - 8 & - - 8 - 8 = - 8 & 5 & 5 5 5 5 - 8 - 5 & a oXB.          UXUXUXUXUXUXUXUXUXUXUXUXUXUXUXUXUXUXUXUXUXUXUXUXUXUXUXUXUXUXUXUXUXUXUXUXUXUXUXUXUXUXUXUXUXUXUXUXg.cXQ y U d.UXUXUXUXUXUXUXUXUXUXUXUXUXUXUXUXUXUXUXUXUXUXUXUXUXUXUXUXUXUX3.%X2.&.| ..|  ... . .{ | ~ H : ",
"C H.x & 6 ; - - ; 5 - - - - 5 - - - - - - - - ; 6 - - 6 5 5 5 6 5 5 6 6 6 9 6 6 q 9 s 9 6 s 9 s s s d 9 s d d s j x x b v v v v x x j j j g g q q t q q q 9 w 5 w & w & 9 & 9 5 5 5 5 5 5 & 5 & 5 5 5 5 5 5 & 5 5 5 & 5 5 5 & 5 5 2 5 & 5 & 5 & - & 5 - 8 - - - = 8 = 8 & 8 & - & 5 - - - - & 5 - 5 5 & 5 oXV.          UXUXUXUXUXUXUXUXUXUXUXUXUXUXUXUXUXUXUXUXUXUXUXUXUXUXUXUXUXUXUXUXUXUXUXUXUXUXUXUXUXUXUXUXUXUXUXUXUXKXGX[.#.B UXUXUXUXUXUXUXUXUXUXUXUXUXUXUXUXUXUXUXUXUXUXUXUXUXUXUXUXUXUXw.+X1. .|  . .|  . ...| } _ H : ",
"C H.c % - - - - 6 - 6 ; - 6 - - - - ; - - - ; = - ; 8 5 - 5 ; 5 5 6 5 6 6 6 6 6 9 q 9 q s 9 s 9 s s s q d d d s j l P j x v v v x x j x c g g d d q q q q w w 5 5 w 5 5 w & 5 & 5 5 5 5 & 5 5 5 & w 5 5 5 5 5 5 5 & 5 & 5 5 & 5 - 5 2 5 5 - - - - 8 & - 8 - 5 & - 8 - & - 8 - = - 5 - - - 5 5 - 5 8 8 1 a '.B..         UXUXUXUXUXUXUXUXUXUXUXUXUXUXUXUXUXUXUXUXUXUXUXUXUXUXUXUXUXUXUXUXUXUXUXUXUXUXUXUXUXUXUXUXUXUXUXUXG [.sX5X4.N UXUXUXUXUXUXUXUXUXUXUXUXUXUXUXUXUXUXUXUXUXUXUXUXUXUXUXUXUXUXw.OX1.,.$. . .|  . . . .{ ~ L : ",
"C H.h = - - - - - - - - - ; - - - - 6 - - 8 8 5 8 5 8 6 - 5 6 - 5 6 6 6 6 6 q s q 9 6 q 6 6 s s q q s s d d j q h P j v v v j v b c c j g j q d c q q q 0 q w w 9 & 9 5 & 9 5 9 5 - 5 5 5 5 5 5 5 5 5 5 5 5 5 & 5 5 5 w 5 5 w & 5 - 5 - 5 5 - - - - 5 & - 8 - - 8 - 2 5 8 = - 8 - 8 - 8 - 8 - 8 8 8 8 8 6 '.B.          UXUXUXUXUXUXUXUXUXUXUXUXUXUXUXUXUXUXUXUXUXUXUXUXUXUXUXUXUXUXUXUXUXUXUXUXUXUXUXUXUXUXUXUXUXUXUXUX` 8 o.j.3.UXUXUXUXUXUXUXUXUXUXUXUXUXUXUXUXUXUXUXUXUXUXUXUXUXUXUXUXUXUXUXw.OX2. .}  . . . . .} } } { V : ",
"C H.c & 5 - - 6 - - - - - - - - - - - - - - = 5 5 ; 8 8 6 6 - 6 5 8 6 6 6 6 6 s q 6 q 9 s s s s s s s d d d d s j v j P v v v v b c c z g g t s q q d q w 9 w 5 w 5 & 9 9 & & 9 5 - 5 - 5 - 5 5 5 5 5 5 & 5 5 5 5 5 5 & & w & & - 5 5 & & 5 - - 5 8 - - & - 5 8 - & & & 8 - 8 - - - - - - 5 - 5 5 8 5 1 ; '.V..         UXUXUXUXUXUXUXUXUXUXUXUXUXUXUXUXUXUXUXUXUXUXUXUXUXUXUXUXUXUXUXUXUXUXUXUXUXUXUXUXUXUXUXUXUXUXUXUXrX:.I o.d.UXUXUXUXUXUXUXUXUXUXUXUXUXUXUXUXUXUXUXUXUXUXUXUXUXUXUXUXUXUXUX3.%X4. . . . . . .| | } } ~ H : ",
"C H.j ; - - - ; - - - - - 6 ; - - 6 ; - - 5 5 8 5 5 8 5 - 5 6 5 6 6 6 6 q 6 6 6 6 6 s q 6 s 6 9 9 s s s d s d s d b v v v v j P x c j j c g g d t q q q q 9 w 6 9 5 w & & 9 5 5 5 9 - 9 5 5 5 5 5 5 w & 5 5 5 5 5 & 5 & 9 & & w 5 5 & 5 5 & - - - - - 5 8 - - & - 8 5 - - - 8 - 5 - 8 - - 5 5 - 5 - 5 1 a oXB.          UXUXUXUXUXUXUXUXUXUXUXUXUXUXUXUXUXUXUXUXUXUXUXUXUXUXUXUXUXUXUXUXUXUXUXUXUXUXUXUXUXUXUXUXUXUXUXd.GXZXj.f.M UXUXUXUXUXUXUXUXUXUXUXUXUXUXUXUXUXUXUXUXUXUXUXUXUXUXUXUXUXUXUXw.OX2. .}  . . . .|  . .} _ H : ",
"C H.c = ; - - - - - 5 - - - ; 5 ; 8 - - 8 - 8 8 8 ; 5 5 5 5 6 5 6 5 5 6 9 6 9 w 6 6 s 9 s q s s 9 s s s d d d d j P v v v v v v v c j j j g d d s q t q q 9 w 6 5 9 5 5 5 5 5 5 & 5 5 9 & 5 9 & 5 5 5 5 & 9 5 & 5 5 5 - 5 9 & 5 5 5 5 & 5 & - - - & 5 - 5 & 5 & - 5 & - 5 & 2 - 5 5 - 5 - 5 - 5 - 5 5 - s ).B.  .       UXUXUXUXUXUXUXUXUXUXUXUXUXUXUXUXUXUXUXUXUXUXUXUXUXUXUXUXUXUXUXUXUXUXUXUXUXUXUXUXUXUXUXUXUXUXC p.;.2X2X4.i UXUXUXUXUXUXUXUXUXUXUXUXUXUXUXUXUXUXUXUXUXUXUXUXUXUXUXUXUXUXUX0.&X1. .}  . . . . . .{ } ~ Q : ",
"C J.c % 6 - 6 - ; - ; - - 5 - - 5 - - 5 ; 5 ; 5 8 5 5 5 5 5 5 5 6 6 6 6 6 9 6 q s 6 s 6 9 s 6 s s s s s d s s s j j x v v j v v b c c j j d d g q s q q q 0 5 6 & 9 9 5 w 5 5 5 w 5 5 5 5 5 5 5 - 5 w 5 & 5 5 9 5 5 5 5 5 & 9 & & 5 - 5 5 5 5 & 5 5 & 5 & & & 5 8 & & 5 - - 8 - 8 - 8 - 5 - 5 8 5 5 5 - f '.V.          UXUXUXUXUXUXUXUXUXUXUXUXUXUXUXUXUXUXUXUXUXUXUXUXUXUXUXUXUXUXUXUXUXUXUXUXUXUXUXUXUXUXUXUXUXUXO.l >.o.4.j.UXUXUXUXUXUXUXUXUXUXUXUXUXUXUXUXUXUXUXUXUXUXUXUXUXUXUXUXUXUXUXUXw.*X1. .}  . .| }  . .} } ~ Q : ",
"C H.c % 6 - 8 8 6 - - - - 6 5 - 5 5 - = 8 5 5 5 5 5 ; 6 5 5 6 5 6 6 6 6 6 6 6 9 s 6 q q 6 q s s s s s 9 s s d s j v v v v v v v x c c j g g d d q q q q q w w 6 w w - 5 5 w 5 5 - & 5 & 5 9 - & 5 5 5 5 w & 5 5 5 - 9 5 5 & & 5 5 5 5 5 & 5 5 5 5 & - & & 5 5 & 5 - & 8 2 8 - 5 8 - 5 - 5 5 - 5 8 5 5 - k '.V.          UXUXUXUXUXUXUXUXUXUXUXUXUXUXUXUXUXUXUXUXUXUXUXUXUXUXUXUXUXUXUXUXUXUXUXUXUXUXUXUXUXUXUXUXUXUXn.@X#.:.h.p.UXUXUXUXUXUXUXUXUXUXUXUXUXUXUXUXUXUXUXUXUXUXUXUXUXUXUXUXUXUXUXUXq.%X4. . . . . . . .| } } ~ V : ",
"C H.c = 6 - 8 ; - 5 - 6 - - 6 ; ; - 5 5 8 8 5 - 5 ; 5 5 5 5 5 6 6 5 6 5 6 6 w 9 6 q 6 6 s q 6 s 9 s s 9 s s d d j v v v j v v v b c j d d d q q q q q q 9 q q q w 9 9 9 w w w w w 9 5 9 5 - & 9 5 5 5 5 5 w 5 5 5 9 & 5 5 w & 5 5 & 5 & 5 & - - - 5 5 5 & 5 & 5 & 2 - - - 5 - 2 5 5 - 5 - 8 5 8 5 5 5 - s oXl.          UXUXUXUXUXUXUXUXUXUXUXUXUXUXUXUXUXUXUXUXUXUXUXUXUXUXUXUXUXUXUXUXUXUXUXUXUXUXUXUXUXUXUXUXUXUXg.ZX2XO.O.UXUXUXUXUXUXUXUXUXUXUXUXUXUXUXUXUXUXUXUXUXUXUXUXUXUXUXUXUXUXUXUXUXq.%X1.$.| .. . . . . .} } ~ L : ",
"C H.c ; 5 5 ; 5 5 5 8 8 - - - ; 6 - 6 5 8 8 8 8 8 5 5 5 5 5 5 5 6 6 6 6 6 9 w 6 q 6 s s s 9 9 s s s q 9 s s d s j P v v P j P j x q q s d 9 d q q d q d q q q q q d q q 9 q q f 9 5 5 5 5 & 5 5 5 5 9 & 5 5 5 5 9 & 5 5 5 5 5 5 5 5 & 5 5 & & 5 5 & 5 5 5 5 & & - 5 - 5 - 5 & 5 - 5 5 - 5 5 5 5 8 5 5 - s ].V.          UXUXUXUXUXUXUXUXUXUXUXUXUXUXUXUXUXUXUXUXUXUXUXUXUXUXUXUXUXUXUXUXUXUXUXUXUXUXUXUXUXUXUXUXUXUXp.sXAX5Xj.UXUXUXUXUXUXUXUXUXUXUXUXUXUXUXUXUXUXUXUXUXUXUXUXUXUXUXUXUXUXUXUXUX~.OX1.,. . . . . .|  . .} ~ V : ",
"C H.c & 5 8 8 8 ; 8 ; 5 5 5 5 5 - - ; 8 8 ; 5 6 8 5 5 5 6 5 6 5 5 5 6 6 9 6 6 w 6 q 6 q 9 s 9 s s 9 q 6 s s d d j v v j j P l P b s s 9 q s q d q q q q d q d q q q q q w q w d 9 5 9 & 5 9 5 5 5 9 & 9 9 5 5 5 & - 9 5 5 & 5 5 5 5 5 5 5 5 5 & & 5 5 & & 5 5 & - & - 2 5 & 5 - - 5 5 - 5 5 - 5 5 5 5 - k ).V.          UXUXUXUXUXUXUXUXUXUXUXUXUXUXUXUXUXUXUXUXUXUXUXUXUXUXUXUXUXUXUXUXUXUXUXUXUXUXUXUXUXUXUXUXUXUXW ) h.j.'.UXUXUXUXUXUXUXUXUXUXUXUXUXUXUXUXUXUXUXUXUXUXUXUXUXUXUXUXUXUXUXUXUX(.OX1.&.}  . . . . .| } } ~ L : ",
"C H.c % 8 ; ; 8 8 8 8 5 5 5 5 5 - 5 6 - 8 6 ; 5 5 6 5 5 5 5 6 8 6 6 6 6 6 6 6 w 6 6 9 s 9 q s 9 9 s s q s s d s d v j v j v P J x q 9 s s s q q q s d q d q q q q d d w d w w d 9 & w 5 w & & 5 5 5 w 5 & 5 w 5 9 & 5 5 - 5 5 5 5 & 5 & & 5 5 5 & 5 - 5 5 & & 5 5 - 5 5 - 5 - 5 5 5 - 5 5 5 5 8 5 5 - 5 s `.V.          UXUXUXUXUXUXUXUXUXUXUXUXUXUXUXUXUXUXUXUXUXUXUXUXUXUXUXUXUXUXUXUXUXUXUXUXUXUXUXUXUXUXUXUXUXUXj.h 7 R f.UXUXUXUXUXUXUXUXUXUXUXUXUXUXUXUXUXUXUXUXUXUXUXUXUXUXUXUXUXUXUXUXUX'.OX2. .|  . . . . .| } } ~ Q : ",
"C H.c % 5 5 5 8 5 8 ; 8 5 8 ; 5 6 - - 8 5 - 5 5 5 5 5 5 5 5 5 6 5 5 6 6 6 6 w 9 s 6 9 6 q 9 s 9 s s q q s s d s j v v v b v v v b d d d q q s q s q d d q s t q q q q q d d w w 9 5 5 5 5 5 w 5 5 9 5 5 5 5 5 & 5 w 5 5 5 5 5 5 5 5 5 5 5 5 & 5 5 & 5 & 5 & 5 5 5 - 5 & 5 2 5 & - 5 5 - & 5 5 5 5 8 6 - a ).V.          UXUXUXUXUXUXUXUXUXUXUXUXUXUXUXUXUXUXUXUXUXUXUXUXUXUXUXUXUXUXUXUXUXUXUXUXUXUXUXUXUXUXUXUXUXUXLX4Xh.#.A UXUXUXUXUXUXUXUXUXUXUXUXUXUXUXUXUXUXUXUXUXUXUXUXUXUXUXUXUXUXUXUXUX(.%X1. .}  . . . .|  .} [ _ L : ",
"C H.c & 8 8 - 6 5 5 5 8 ; 8 5 ; 8 5 5 ; 5 ; 5 5 5 5 5 6 5 5 5 6 5 5 6 6 6 6 6 s 6 6 s 6 s 6 q s s s 9 s s q d d d v x v j j c c b 9 9 f q c 9 9 f d w w d w w f d d d w w w d w w 9 & 9 & & 9 & 5 5 5 5 5 5 5 5 5 5 5 5 5 5 5 5 5 5 5 & 5 5 & 5 & 5 & 5 5 & 5 & 5 5 2 5 5 & - 5 & 5 5 5 5 5 5 5 5 5 5 5 a ).S.          UXUXUXUXUXUXUXUXUXUXUXUXUXUXUXUXUXUXUXUXUXUXUXUXUXUXUXUXUXUXUXUXUXUXUXUXUXUXUXUXUXUXUXUXUXUXAXAXAXj.` UXUXUXUXUXUXUXUXUXUXUXUXUXUXUXUXUXUXUXUXUXUXUXUXUXUXUXUXUXUXUXUXUX/.*X1. . . . . ... . .{ } _ Q : ",
"C H.c = 8 5 - - ; 5 8 5 5 5 5 5 8 5 5 5 5 5 5 5 5 5 5 5 6 5 5 5 5 7 6 6 5 s 6 6 6 q q 6 6 s s 6 s q s s s s j s g b v v 9 ; ; 9 c f 9 f 9 9 f 9 9 9 9 f 9 w 9 9 w 9 9 9 9 9 f d 9 & 9 9 9 & & 9 5 w w 5 5 5 9 5 5 5 5 5 5 5 5 5 5 5 5 5 5 5 5 5 5 5 5 & & 5 5 & & - - - 2 5 5 & 5 5 5 5 5 5 5 5 5 5 5 8 - ).B.          UXUXUXUXUXUXUXUXUXUXUXUXUXUXUXUXUXUXUXUXUXUXUXUXUXUXUXUXUXUXUXUXUXUXUXUXUXUXUXUXUXUXUXUXUXH L h.h.j.O.UXUXUXUXUXUXUXUXUXUXUXUXUXUXUXUXUXUXUXUXUXUXUXUXUXUXUXUXUXUXUXUXUXw.OX1. ... ...$. . . .| { _ V : ",
"C H.c - - 5 6 5 5 8 5 8 5 8 8 5 5 5 5 8 5 5 5 5 5 5 5 5 6 6 6 6 6 6 6 6 6 6 s 6 6 6 6 s s 6 q s 9 q s s s d s s j b b c 9 6 ; 9 b 9 f 9 9 f 9 9 9 9 9 9 9 9 9 9 9 w 9 9 9 9 9 9 & & 9 & 9 & 9 & 5 5 w 5 5 5 5 5 5 5 5 5 5 5 5 5 5 5 & 5 5 & & 5 & 5 5 & 5 5 & 2 5 5 5 2 5 5 5 5 5 5 5 5 5 5 5 5 8 5 5 8 a (.V.          UXUXUXUXUXUXUXUXUXUXUXUXUXUXUXUXUXUXUXUXUXUXUXUXUXUXUXUXUXUXUXUXUXUXUXUXUXUXUXUXUXUXUXUXUXj.r h I f.UXUXUXUXUXUXUXUXUXUXUXUXUXUXUXUXUXUXUXUXUXUXUXUXUXUXUXUXUXUXUXUXUXUXw.%X1.&... . . . . . ...} ~ L : ",
"C H.c - 5 6 - 5 5 8 5 5 ; 5 8 5 5 5 5 5 5 5 5 6 5 5 a 8 5 5 6 5 6 6 6 6 6 6 6 s q 6 s 6 s 6 q s s s s s d s d s d x b c 9 6 6 9 c q 9 9 9 9 f 9 9 f 9 9 f w f w f 9 w f f 9 9 9 9 9 & 9 & 9 & 9 & w 5 5 w 5 5 5 5 5 w 5 5 5 5 5 5 5 w & 5 5 5 5 5 5 5 5 5 5 5 5 5 5 5 - 5 5 5 5 2 5 5 5 5 5 5 5 5 5 5 1 s ).V.          UXUXUXUXUXUXUXUXUXUXUXUXUXUXUXUXUXUXUXUXUXUXUXUXUXUXUXUXUXUXUXUXUXUXUXUXUXUXUXUXUXUXUXUXUXfXAX X;.A UXUXUXUXUXUXUXUXUXUXUXUXUXUXUXUXUXUXUXUXUXUXUXUXUXUXUXUXUXUXUXUXUXUX2.OX1. ...$... ... . .{ } ~ L : ",
"C H.c = 6 5 6 - 5 5 5 8 5 5 5 5 5 5 5 5 ; 6 5 ; 6 5 6 5 6 5 5 6 6 6 6 q 6 q q 6 6 6 6 s s 6 6 s s s s s d d d q c c b k 5 9 9 5 c 9 a 9 9 f f 9 f 9 9 f 9 9 9 & w 9 & & & & & 9 & 9 & 9 9 & 9 9 5 5 w 5 5 5 5 5 5 5 5 5 5 5 5 5 5 5 5 5 5 5 5 5 5 5 5 5 & 5 5 2 5 2 5 5 2 5 5 5 5 5 5 5 5 5 5 5 5 5 w 5 f (.V.          UXUXUXUXUXUXUXUXUXUXUXUXUXUXUXUXUXUXUXUXUXUXUXUXUXUXUXUXUXUXUXUXUXUXUXUXUXUXUXUXUXUXUXUXUXn.ZX2Xj.` UXUXUXUXUXUXUXUXUXUXUXUXUXUXUXUXUXUXUXUXUXUXUXUXUXUXUXUXUXUXUXUXUXUXw.OX1.1.{ |  . . . .| ..} ~ V : ",
"C H.c = 5 - 6 5 5 8 5 a 5 ; 5 5 ; 6 5 6 5 8 5 5 5 5 5 5 5 5 5 6 6 6 6 6 6 6 6 6 6 q 6 s 6 s q s q q q d s q d s c c c c ; ; 9 q c f 9 9 f - @ & & & 9 9 * 9 & * & w & & & & * 9 9 & 9 & & 9 9 & 5 w 5 5 5 w 5 5 5 5 5 9 5 5 5 5 5 5 5 5 5 & 5 5 2 5 5 & 5 5 5 5 5 5 5 5 5 5 5 - 5 5 5 5 5 5 5 5 5 5 5 & d ).V..         UXUXUXUXUXUXUXUXUXUXUXUXUXUXUXUXUXUXUXUXUXUXUXUXUXUXUXUXUXUXUXUXUXUXUXUXUXUXUXUXUXUXUXUXV >.h.h.h.` UXUXUXUXUXUXUXUXUXUXUXUXUXUXUXUXUXUXUXUXUXUXUXUXUXUXUXUXUXUXUXUXUXUXw.@X1. .|  . . . . .| | } ~ Q : ",
"C H.z = 5 6 - - 6 5 5 5 5 5 5 5 8 5 5 5 5 5 6 6 6 5 5 6 a 5 5 6 6 6 6 6 6 q 6 q 6 6 q 6 s s q s q s q s d d d s c c c c 9 9 w c d f 9 9 9 9 * ; 9 9 9 9 9 9 9 f & & & 9 f & * 9 9 & 9 9 w & w & 5 5 5 5 5 w w 5 w 5 5 5 5 5 5 5 5 5 w & 5 & 5 5 5 5 5 5 5 5 5 5 & 5 5 2 5 5 5 5 5 5 5 5 8 5 5 6 5 5 w 2 j ).V.          UXUXUXUXUXUXUXUXUXUXUXUXUXUXUXUXUXUXUXUXUXUXUXUXUXUXUXUXUXUXUXUXUXUXUXUXUXUXUXUXUXUXUXUX@X) H :.3.d.UXUXUXUXUXUXUXUXUXUXUXUXUXUXUXUXUXUXUXUXUXUXUXUXUXUXUXUXUXUXUXUXUXUX0.OX1. .|  .|  . . . .....~ L : ",
"C G.x ; 5 - 5 6 ; 5 5 5 5 5 5 5 5 5 5 6 5 5 5 5 6 5 5 6 5 5 5 6 6 6 6 0 6 6 q 6 6 s 6 s 6 6 6 s s q q s q s s q c c b c ; 9 f q c 9 - * @ f c d f 9 f 9 9 f 9 a 9 & & 9 9 & & 9 & 9 & w & 9 & 9 5 5 w w 5 2 5 5 5 5 5 5 5 5 w 5 5 5 5 5 5 5 5 5 & 5 5 5 2 5 & 5 5 5 5 5 2 5 5 5 5 5 5 5 6 7 5 5 w 5 5 - k (.V.          UXUXUXUXUXUXUXUXUXUXUXUXUXUXUXUXUXUXUXUXUXUXUXUXUXUXUXUXUXUXUXUXUXUXUXUXUXUXUXUXUXUXUXUX1XsXh.:.V UXUXUXUXUXUXUXUXUXUXUXUXUXUXUXUXUXUXUXUXUXUXUXUXUXUXUXUXUXUXUXUXUXUXUXq.%X2. .|  . . . . .| | ..~ V : ",
"C H.z 5 6 - 6 5 5 - 5 6 5 5 ; 5 6 5 5 5 8 6 6 8 8 6 6 5 5 5 6 6 6 6 6 6 q 6 6 q q 6 s 6 q 6 6 q q s s s s s s s d P j j 5 9 c c c f - @ @ 9 & & 9 9 9 a 9 9 9 9 * @ * 9 9 & * ; 9 9 & 9 & 9 & w 2 5 5 5 5 5 w 5 5 5 2 w 5 5 5 5 5 w 5 5 5 5 & 2 w 5 & 5 5 2 5 5 5 5 5 5 2 2 5 5 5 5 7 5 5 5 5 5 5 5 5 - d ).S.          UXUXUXUXUXUXUXUXUXUXUXUXUXUXUXUXUXUXUXUXUXUXUXUXUXUXUXUXUXUXUXUXUXUXUXUXUXUXUXUXUXUXUXUXd.sXj.h.:.UXUXUXUXUXUXUXUXUXUXUXUXUXUXUXUXUXUXUXUXUXUXUXUXUXUXUXUXUXUXUXUXUXUXUX0.OX1.&.|  . . . . .| | { ~ V : ",
"C H.z 8 5 6 - 5 - 6 6 - 5 5 6 5 8 8 6 5 5 8 6 6 6 5 5 6 6 6 5 6 6 6 6 7 s 6 q q 6 6 q s q q s s q s s 9 q s s r d j v j 5 9 9 q c f 9 * @ f * @ 9 9 9 9 9 a 9 a ; ; a a & & & 9 9 & 9 9 & w w & w 5 5 w 5 w 5 5 5 w 5 5 5 5 w 5 5 5 5 5 5 5 5 5 5 5 5 5 5 5 5 5 5 5 5 5 5 w 5 5 5 5 5 5 5 6 5 6 w 5 w 2 d ).V.          UXUXUXUXUXUXUXUXUXUXUXUXUXUXUXUXUXUXUXUXUXUXUXUXUXUXUXUXUXUXUXUXUXUXUXUXUXUXUXUXUXUXUXN Q h.j.h.h.UXUXUXUXUXUXUXUXUXUXUXUXUXUXUXUXUXUXUXUXUXUXUXUXUXUXUXUXUXUXUXUXUXUXUX0.&X1.,.|  . . . . . .| | ~ V : ",
"C H.c & 5 - - 6 8 ; - 6 5 5 5 5 5 5 5 5 5 5 5 5 8 5 5 5 6 5 5 6 6 6 q 6 6 q 6 6 6 s q 6 6 q q q 9 q s 9 q s s q j v v j ; w s d c d f & & c - * f f 9 f f 9 9 - a ; 9 9 & ; & 9 & 9 - & & w & w 2 w w 5 5 2 5 5 w 2 5 5 5 5 5 5 5 5 5 5 5 5 5 5 5 5 5 & 2 5 5 2 5 5 5 2 5 5 5 5 5 5 5 5 5 9 5 5 5 5 w 5 s ).l..         UXUXUXUXUXUXUXUXUXUXUXUXUXUXUXUXUXUXUXUXUXUXUXUXUXUXUXUXUXUXUXUXUXUXUXUXUXUXUXUXUXUXUX` 6.i L ) h.UXUXUXUXUXUXUXUXUXUXUXUXUXUXUXUXUXUXUXUXUXUXUXUXUXUXUXUXUXUXUXUXUXUXUX0.&X1.&.|  . . . . . .| | ~ S : ",
"C G.c - 6 8 6 - 6 6 5 5 5 5 5 8 6 5 5 6 8 a 6 5 5 6 a 7 6 5 6 6 7 6 6 6 6 6 q 6 6 6 6 s 6 q 6 s 9 s q s s s s s d v j j ; 6 9 9 c f 9 9 9 - 9 9 9 - - & - & a f & $ ; 9 * & & 9 9 & 9 9 w & w & 5 5 5 2 5 w 5 w 5 5 5 5 5 w w 5 & 5 5 5 5 w & 5 5 5 5 5 5 5 5 5 2 5 5 5 w 5 5 5 5 5 5 5 5 5 5 7 5 5 5 5 f (.V.          UXUXUXUXUXUXUXUXUXUXUXUXUXUXUXUXUXUXUXUXUXUXUXUXUXUXUXUXUXUXUXUXUXUXUXUXUXUXUXUXUXUXUXo.AXh.:.o.C UXUXUXUXUXUXUXUXUXUXUXUXUXUXUXUXUXUXUXUXUXUXUXUXUXUXUXUXUXUXUXUXUXUXUX3.%X1. .|  . . . . .| | } ~ V : ",
"C H.c & 5 5 - 6 6 8 6 5 6 - ; 6 5 a 8 5 5 5 6 6 5 5 6 5 6 6 8 6 7 8 6 6 6 q 6 6 6 6 s 6 6 q s 6 s q q 9 s s q s j j c j - ; ; s c f - & 9 - - & & & & & - - f w & $ & 9 & & & - 9 5 5 5 5 & w & w 5 5 w w 5 5 w w w 5 2 5 5 5 5 w 5 5 5 5 5 5 5 5 5 5 5 5 5 5 5 & 0 5 5 2 5 5 5 5 5 6 w 5 5 w 5 5 w 5 5 ; ~.V.          UXUXUXUXUXUXUXUXUXUXUXUXUXUXUXUXUXUXUXUXUXUXUXUXUXUXUXUXUXUXUXUXUXUXUXUXUXUXUXUXUXUXUXA HXZX[.$.V UXUXUXUXUXUXUXUXUXUXUXUXUXUXUXUXUXUXUXUXUXUXUXUXUXUXUXUXUXUXUXUXUXUXUX0.*X1. . .|  . .| |  .{ } ~ V : ",
"C Y.z - 6 5 6 5 5 6 6 - 6 6 6 5 5 5 5 6 5 5 5 5 6 6 6 6 6 6 7 6 6 6 6 6 6 6 q q q 6 q q q 6 6 s s q q s s s s q g v v j 9 9 9 9 c d 9 & 9 9 - 9 9 9 9 & 9 - & * 9 9 $ & & @ @ 9 & & w 5 5 w w 5 5 5 5 5 5 5 5 2 5 5 w 5 w 2 5 5 5 5 5 5 w & 5 w 5 5 5 5 5 & 5 5 5 5 5 5 5 5 5 5 5 5 5 5 w 5 5 5 5 5 5 5 a /.S.          UXUXUXUXUXUXUXUXUXUXUXUXUXUXUXUXUXUXUXUXUXUXUXUXUXUXUXUXUXUXUXUXUXUXUXUXUXUXUXUXUXUXUXN h.n.h.4.Q UXUXUXUXUXUXUXUXUXUXUXUXUXUXUXUXUXUXUXUXUXUXUXUXUXUXUXUXUXUXUXUXUXUXUXq.%X1. .| |  . . .|  .| } ~ V : ",
"C H.x 5 5 5 5 6 5 5 5 6 - - 6 6 6 5 5 5 8 6 5 8 8 6 6 5 5 6 5 8 6 6 6 6 q 6 6 6 6 q 6 q q q s 6 9 q s s q q s q d j v g - 9 - - c f & * & * * * * & * * & * & * - - * 9 - 9 & 9 w & 5 5 5 5 5 5 w 2 5 5 5 5 5 w 5 5 5 5 5 5 w 5 5 w & w 5 5 5 5 2 & 5 & 5 5 5 5 5 5 5 5 5 5 5 5 5 6 5 5 5 5 5 5 5 7 5 7 a ~.V.          UXUXUXUXUXUXUXUXUXUXUXUXUXUXUXUXUXUXUXUXUXUXUXUXUXUXUXUXUXUXUXUXUXUXUXUXUXUXUXUXUXUXUXl I e ;.W UXUXUXUXUXUXUXUXUXUXUXUXUXUXUXUXUXUXUXUXUXUXUXUXUXUXUXUXUXUXUXUXUXUXUXUXw.$X1. .|  . . . . .| | | ~ V > ",
"C H.z 5 5 6 6 - 6 5 5 5 6 6 - 6 5 5 6 5 a 5 5 6 5 6 6 5 6 6 5 6 6 6 7 6 6 6 q 6 6 6 s 6 q q 6 q 9 q 9 q s s s s d j v j - 9 9 9 c d 9 d f d d d 9 f w d f f f 9 f f 9 9 f 9 9 9 9 w 5 w 5 w 5 5 5 2 w 5 5 w 5 5 w 5 2 5 5 5 5 5 5 5 5 2 & w 5 & w 5 w 5 5 5 5 5 w 5 5 5 5 5 5 w 5 5 5 w 5 5 w 5 5 6 5 8 q w.V.          UXUXUXUXUXUXUXUXUXUXUXUXUXUXUXUXUXUXUXUXUXUXUXUXUXUXUXUXUXUXUXUXUXUXUXUXUXUXUXUXUXUXUX$.xX;.( B UXUXUXUXUXUXUXUXUXUXUXUXUXUXUXUXUXUXUXUXUXUXUXUXUXUXUXUXUXUXUXUXUXUXUXUX(.&X0. ... .|  .|  . .| | X.V : ",
"C G.j 8 5 5 5 5 5 5 a 5 6 5 5 6 5 6 6 8 6 8 6 6 6 6 5 6 6 6 5 6 6 6 7 6 7 s 6 q 6 6 q 6 6 s q q q s q q s s s s d x c v j j j j j s q s s s s s q s s q s 9 s 9 9 9 9 9 9 9 9 9 9 5 w & w 9 w & 5 5 w 5 w 5 5 5 5 5 5 w 5 5 5 5 5 5 5 5 w 5 5 5 5 5 w 5 5 5 5 5 & 5 5 5 5 5 5 5 w 5 5 5 w 5 5 w 5 5 w 2 d w.V..         UXUXUXUXUXUXUXUXUXUXUXUXUXUXUXUXUXUXUXUXUXUXUXUXUXUXUXUXUXUXUXUXUXUXUXUXUXUXUXUXUXUXUXD HXAXj.4.UXUXUXUXUXUXUXUXUXUXUXUXUXUXUXUXUXUXUXUXUXUXUXUXUXUXUXUXUXUXUXUXUXUXUXUX).%X1. ...| |  ... .| | ..~ V : ",
"C H.x 8 a 5 6 8 5 5 8 5 8 5 6 5 6 8 5 5 8 6 6 8 5 6 6 6 5 6 5 6 6 8 6 6 f 8 6 q 6 q 6 s 6 s s q q s s s q q s q g j j j x b x x j g d j g s s q q q 9 9 6 6 6 6 9 9 & 9 5 & w & 9 & & w & & & 9 5 5 5 5 5 5 w 5 w 2 5 5 2 w 5 5 5 5 0 5 2 5 5 5 5 5 2 5 5 5 5 5 5 5 5 5 5 5 5 5 5 5 5 5 5 5 5 5 5 5 5 5 s ~.V.          UXUXUXUXUXUXUXUXUXUXUXUXUXUXUXUXUXUXUXUXUXUXUXUXUXUXUXUXUXUXUXUXUXUXUXUXUXUXUXUXUXUXC S W h.h.6.UXUXUXUXUXUXUXUXUXUXUXUXUXUXUXUXUXUXUXUXUXUXUXUXUXUXUXUXUXUXUXUXUXUXUXUX].OX1. .| | | | |  .| | { ~ V : ",
"C H.h 8 6 8 6 6 5 5 5 5 6 6 5 5 5 8 6 5 8 6 8 6 6 6 6 5 6 5 6 6 6 6 q 6 8 6 6 6 6 q 6 q q q 6 q q q q s s s s q 9 q q w 9 w w q s s 0 6 0 0 7 6 6 6 5 6 6 6 6 6 5 9 9 9 5 w w w 9 9 & & 5 5 w & 2 5 w 5 5 5 5 5 5 5 5 5 5 0 5 5 5 5 5 5 5 5 5 5 5 5 5 2 5 5 5 5 5 5 w 2 5 5 5 5 5 5 5 w w 5 5 w 5 6 5 3 s ~.l.          UXUXUXUXUXUXUXUXUXUXUXUXUXUXUXUXUXUXUXUXUXUXUXUXUXUXUXUXUXUXUXUXUXUXUXUXUXUXUXUXUXUXo.,.e L Q o.UXUXUXUXUXUXUXUXUXUXUXUXUXUXUXUXUXUXUXUXUXUXUXUXUXUXUXUXUXUXUXUXUXUXUXUX].XX1. ...| | | | | | { | ~ V > ",
"C H.j 8 6 5 8 6 5 6 5 6 5 8 5 6 5 a 5 5 6 5 6 6 6 8 5 6 6 6 6 5 6 6 6 6 6 0 q 6 6 6 q 6 6 6 s s q q s q q s q s s s s s s s w 5 q s s s s q s q q q q w w w w q w 9 9 9 w w & & & * 9 w 5 5 5 w w 5 2 5 w 5 w 5 w 5 5 w 5 5 5 5 5 5 w 5 5 5 5 2 5 5 5 2 w 5 5 5 5 5 5 5 5 5 w - 5 6 5 5 5 5 5 5 6 5 6 5 s ~.S..         UXUXUXUXUXUXUXUXUXUXUXUXUXUXUXUXUXUXUXUXUXUXUXUXUXUXUXUXUXUXUXUXUXUXUXUXUXUXUXUXUXUXS IXj.:.o.p.UXUXUXUXUXUXUXUXUXUXUXUXUXUXUXUXUXUXUXUXUXUXUXUXUXUXUXUXUXUXUXUXUXUXUXUX).%X9. .| |  . .| | | ..} _ V : ",
"C Y.J 8 6 5 6 8 6 5 6 8 5 5 5 5 6 5 6 8 6 6 6 5 6 6 8 6 5 6 6 6 6 6 6 6 q 6 6 6 q 6 6 q 6 s q 6 q s 6 s q s s s s s q q s 5 # 1 8 s q s q q q q s 9 w q 0 6 q 6 9 w 9 9 & w O . . O 5 w w 5 5 w w 5 5 5 w 5 w 2 2 w 5 5 5 5 5 5 5 5 w 5 5 5 5 w 5 w 2 5 5 5 5 5 5 5 & w & & & 6 5 - 5 5 5 5 5 w 5 w 5 5 f !.V.          UXUXUXUXUXUXUXUXUXUXUXUXUXUXUXUXUXUXUXUXUXUXUXUXUXUXUXUXUXUXUXUXUXUXUXUXUXUXUXUXUXUXUX5XsX2X..#.UXUXUXUXUXUXUXUXUXUXUXUXUXUXUXUXUXUXUXUXUXUXUXUXUXUXUXUXUXUXUXUXUXUXUXUX).XX9.| | .. . .| | | } { ~ V : ",
"C H.c 8 5 6 5 6 8 6 8 6 6 5 a 8 5 5 5 5 5 8 6 5 6 8 6 6 6 6 6 8 6 6 7 6 6 6 q q 6 q q 6 q 6 q 6 6 q q q q s q 9 q s s s s s # 2 6 q s r q q q q 9 q w q 6 6 6 6 w 9 w w w w . . . . 5 5 5 5 5 5 5 2 5 w 5 5 5 w 5 2 5 w w 5 5 5 5 5 5 5 5 5 5 5 5 5 5 5 5 5 w & 5 5 w * * * @ & & w 5 5 5 5 5 5 5 5 5 5 6 q.S.          UXUXUXUXUXUXUXUXUXUXUXUXUXUXUXUXUXUXUXUXUXUXUXUXUXUXUXUXUXUXUXUXUXUXUXUXUXUXUXUXUXUXUXd.[.[.o.` UXUXUXUXUXUXUXUXUXUXUXUXUXUXUXUXUXUXUXUXUXUXUXUXUXUXUXUXUXUXUXUXUXUXUXUX).$X9. .| | {  .| | | { { _ V : ",
"C H.z - 5 5 5 6 8 a 5 6 8 5 5 6 5 6 5 6 5 5 a 6 6 8 6 6 8 6 6 6 6 6 6 6 6 6 6 6 6 q 6 q 6 q 6 s q 6 s s q s s 9 r s s s s 8 . . 1 s s q q q 6 q q q 9 q 0 q w 6 5 9 w w w 9 X X X @ 5 5 w 5 5 w 5 w w 5 2 5 5 5 5 w 2 5 2 5 5 w 5 w 5 5 5 5 5 5 5 5 5 5 5 5 5 & 2 & & o X X @ X * 6 2 w 5 5 5 5 5 w w 5 ; /.z.          UXUXUXUXUXUXUXUXUXUXUXUXUXUXUXUXUXUXUXUXUXUXUXUXUXUXUXUXUXUXUXUXUXUXUXUXUXUXUXUXUXUXUX^ r Q J #.UXUXUXUXUXUXUXUXUXUXUXUXUXUXUXUXUXUXUXUXUXUXUXUXUXUXUXUXUXUXUXUXUXUXUXUX(.$X1. .| |  .| | ..| } } ~ V : ",
"C H.x - 6 5 5 5 5 5 5 5 6 8 6 5 6 5 6 8 6 5 8 5 6 6 8 6 6 6 6 6 0 6 6 6 6 q 0 q q 6 q 6 6 q s 6 q s q 6 q 9 s s s q s q s s 6 7 9 s q q s 6 q q 6 q w q 6 w 6 6 w w 9 & 5 9 w w 5 w w 5 5 5 5 5 5 5 5 5 w 5 2 w 5 5 w 2 w 2 5 5 5 2 5 5 5 2 w 5 5 5 5 5 5 5 5 5 w * * @ @ o X * * * 5 w 5 5 5 w 5 5 5 9 ; q.V.          UXUXUXUXUXUXUXUXUXUXUXUXUXUXUXUXUXUXUXUXUXUXUXUXUXUXUXUXUXUXUXUXUXUXUXUXUXUXUXUXUXUXUX1X:.Q ( S UXUXUXUXUXUXUXUXUXUXUXUXUXUXUXUXUXUXUXUXUXUXUXUXUXUXUXUXUXUXUXUXUXUXUXUX(.$X1.| { |  .| | |  .| } ~ L : ",
"C H.c - 6 5 5 5 5 5 6 5 5 5 5 6 a 5 8 6 5 5 5 6 5 6 8 6 6 5 6 6 6 6 6 6 6 6 6 6 q 6 q 6 6 q 6 s q s s 6 s s s 6 s q s s s s s s s q q s q s q q q 6 q w 6 w 6 w 9 5 5 w 5 w w 5 w 5 5 5 w 5 w 5 w 5 2 5 5 w 5 5 0 2 5 5 w 5 5 5 5 5 5 5 5 5 5 5 5 5 5 5 & 5 5 & - * @ @ @ o X o X * w - w - 6 5 5 5 5 5 6 w.S.          UXUXUXUXUXUXUXUXUXUXUXUXUXUXUXUXUXUXUXUXUXUXUXUXUXUXUXUXUXUXUXUXUXUXUXUXUXUXUXUXUXUXUXSXsX[.:.o.UXUXUXUXUXUXUXUXUXUXUXUXUXUXUXUXUXUXUXUXUXUXUXUXUXUXUXUXUXUXUXUXUXUXUXUXr.$X1. .} | ..| | ..| | { ~ V : ",
"Z Y.z - 5 5 6 5 6 5 8 6 a 5 5 6 8 5 5 8 6 6 5 5 8 5 6 6 5 6 6 6 6 6 0 6 0 6 6 6 6 6 q q q 6 q 9 6 6 q 6 6 q s q s 6 6 s q q s q q s s q q 9 q 6 w q w 9 w 9 w w 9 9 9 5 w 5 5 w 5 5 5 5 5 5 5 5 5 5 w 5 5 2 5 5 5 5 5 5 2 5 5 5 5 5 5 5 5 5 5 5 5 5 5 5 5 5 5 & * @ @ o @ o X @ + @ * 6 - w w 5 w 5 7 5 6 q.V.          UXUXUXUXUXUXUXUXUXUXUXUXUXUXUXUXUXUXUXUXUXUXUXUXUXUXUXUXUXUXUXUXUXUXUXUXUXUXUXUXUXUXUXg. X5Xh...UXUXUXUXUXUXUXUXUXUXUXUXUXUXUXUXUXUXUXUXUXUXUXUXUXUXUXUXUXUXUXUXUXUXUXUX(.XX1. .}  .| |  .| | ..{ _ V : ",
"C H.z - 5 6 5 6 6 8 5 6 8 5 5 5 6 5 6 6 5 6 8 5 6 6 5 6 5 6 6 6 6 6 6 6 6 6 6 q 6 6 q 6 6 q q 9 q q 6 s q s q q q s 6 s s q s q q s 9 q q q 6 q w w w 5 6 w 9 6 w 9 5 w 5 5 5 5 w 5 5 w 5 5 5 5 5 5 5 5 5 5 5 w 5 5 5 w 5 5 5 5 5 2 w 5 5 5 5 5 5 5 5 5 5 5 5 5 X @ * @ X # X * X @ @ - w 5 - 6 5 5 5 5 a q.V.          UXUXUXUXUXUXUXUXUXUXUXUXUXUXUXUXUXUXUXUXUXUXUXUXUXUXUXUXUXUXUXUXUXUXUXUXUXUXUXUXUXUXUXn < o.W ` UXUXUXUXUXUXUXUXUXUXUXUXUXUXUXUXUXUXUXUXUXUXUXUXUXUXUXUXUXUXUXUXUXUXUXUX(.XX1. . ..... ...| | | } _ Q : ",
"C H.z 5 5 5 6 - 6 5 5 5 6 8 6 5 5 5 8 6 5 5 a 5 5 6 8 6 6 6 5 6 6 6 6 0 6 9 6 w 6 q 6 6 q 6 9 6 q 6 s q 6 s q 6 s q s s q s q q s 9 s q 6 q q 6 9 w 9 w w 6 6 6 5 9 w w w 5 w 5 & w 5 5 5 5 5 w 5 w 5 w w 5 5 2 5 w 2 w 5 5 5 w 5 5 5 5 w 5 5 5 5 5 5 5 5 5 5 & X X * @ X o X @ X * X 6 5 5 5 5 5 w 5 5 6 /.z.          UXUXUXUXUXUXUXUXUXUXUXUXUXUXUXUXUXUXUXUXUXUXUXUXUXUXUXUXUXUXUXUXUXUXUXUXUXUXUXUXUXUXUX@XQ Q Q B UXUXUXUXUXUXUXUXUXUXUXUXUXUXUXUXUXUXUXUXUXUXUXUXUXUXUXUXUXUXUXUXUXUXUXUX(.XX1. ...$. ...| | | { } ^ V : ",
"C H.x 8 6 - 6 - 6 5 5 5 5 5 6 8 5 5 6 5 6 8 5 5 5 8 5 5 5 6 5 6 6 6 6 6 6 6 6 6 6 6 6 6 6 q 6 6 q 6 6 6 q q 6 s 6 s q q s q s 6 q 9 q q q q 0 6 w 9 9 w w w 5 9 9 5 w 5 5 5 w 5 5 5 5 5 w 5 5 5 5 5 5 5 5 5 5 5 5 5 5 5 5 5 5 5 5 w 5 5 2 5 5 5 5 6 9 5 w 6 6 & X X @ @ X * X @ X X @ 6 5 5 w 5 6 5 5 5 6 q.V.          UXUXUXUXUXUXUXUXUXUXUXUXUXUXUXUXUXUXUXUXUXUXUXUXUXUXUXUXUXUXUXUXUXUXUXUXUXUXUXUXUXUXUXZXIXj.h.d.UXUXUXUXUXUXUXUXUXUXUXUXUXUXUXUXUXUXUXUXUXUXUXUXUXUXUXUXUXUXUXUXUXUXUXUX(.XX1.,...$.|  .{ } | } { ~ V : ",
"C H.c = - 6 5 5 5 5 a 8 6 5 5 a 6 5 5 6 8 6 6 5 6 a 5 6 5 6 a 5 6 6 6 6 6 9 6 6 6 0 6 6 6 6 6 s 6 s 6 s 6 q q 6 s 6 q q 9 s q s s s 6 9 q 9 q 6 9 9 w 9 w 5 w w 5 9 5 w w 5 5 5 5 w 5 5 & 5 2 w w 5 5 5 w 5 w 5 5 5 0 5 5 5 5 5 5 5 5 5 5 5 5 5 5 & @ @ * * 5 * X * X X X * o X o X @ - 5 % @ @ @ 8 6 5 a !.S.          UXUXUXUXUXUXUXUXUXUXUXUXUXUXUXUXUXUXUXUXUXUXUXUXUXUXUXUXUXUXUXUXUXUXUXUXUXUXUXUXUXUXUXd.sXAXj.6.D UXUXUXUXUXUXUXUXUXUXUXUXUXUXUXUXUXUXUXUXUXUXUXUXUXUXUXUXUXUXUXUXUXUXUX(.XX9. .}  . . . . .| } } ~ V : ",
"C H.c = 6 5 5 5 6 8 6 8 5 5 5 5 8 6 5 6 8 6 6 5 5 5 5 5 5 6 6 7 6 6 6 6 6 6 6 0 6 9 q 6 6 q q q 6 s 6 s s 6 6 q s q 9 q s q 6 q 6 q q q 6 q 9 q 9 w w 6 5 5 9 5 9 5 w 9 5 5 5 w 5 w 5 w 5 5 5 5 5 5 5 5 2 5 5 5 w 5 5 5 5 5 5 5 5 5 5 5 2 w 5 5 5 5 * @ @ X 5 @ X @ * X @ @ o @ X @ @ - 6 @ @ & % 8 5 5 6 j.S.          UXUXUXUXUXUXUXUXUXUXUXUXUXUXUXUXUXUXUXUXUXUXUXUXUXUXUXUXUXUXUXUXUXUXUXUXUXUXUXUXUXUXUXi W o.h.` H UXUXUXUXUXUXUXUXUXUXUXUXUXUXUXUXUXUXUXUXUXUXUXUXUXUXUXUXUXUXUXUXUXUXUX(.$X1. ... . ...|  .| } } ~ V > ",
"C H.x = 5 5 6 ; 8 6 5 6 5 6 5 5 6 8 6 5 6 5 5 6 5 5 6 5 6 6 5 5 6 6 6 6 w 6 9 6 6 6 6 6 6 6 6 6 6 6 6 6 6 5 s q 9 6 s q q 9 q s q 6 q 6 q 9 9 6 9 w 6 w w w 5 w 5 w 5 5 w 5 5 5 5 2 5 2 w 5 2 w w 5 5 5 5 5 & 5 5 5 2 w 5 5 5 w 5 2 5 5 5 5 5 5 5 5 6 6 * X & @ X X X @ X @ X o @ X X & 6 * & 9 w 5 5 8 6 q.V.          UXUXUXUXUXUXUXUXUXUXUXUXUXUXUXUXUXUXUXUXUXUXUXUXUXUXUXUXUXUXUXUXUXUXUXUXUXUXUXUXUXUXUX) j.>.y Q p.UXUXUXUXUXUXUXUXUXUXUXUXUXUXUXUXUXUXUXUXUXUXUXUXUXUXUXUXUXUXUXUXUXUXUXe.XX9. . . . .$.} ..| } } _ V : ",
"C Y.x 8 5 5 5 5 5 6 5 a 8 5 5 5 8 5 5 5 5 6 8 6 8 6 5 6 6 5 6 6 5 6 6 6 6 6 6 5 6 6 9 6 0 s 6 6 9 s 9 6 9 9 q q 9 s q s 6 q 6 9 9 q w 6 w 6 w 0 6 6 6 6 w 6 5 6 5 5 9 5 5 5 9 5 5 5 5 w 5 5 5 & w 5 5 5 9 5 5 5 5 5 5 9 5 5 5 5 w & 5 5 5 w 5 5 5 5 2 9 X X & o X o X @ X @ @ @ o X @ * w * % - - 5 5 5 6 q.S.          UXUXUXUXUXUXUXUXUXUXUXUXUXUXUXUXUXUXUXUXUXUXUXUXUXUXUXUXUXUXUXUXUXUXUXUXUXUXUXUXUXUXUXO.LXj.#.o.z.UXUXUXUXUXUXUXUXUXUXUXUXUXUXUXUXUXUXUXUXUXUXUXUXUXUXUXUXUXUXUXUXUXUXUX(.XX1. .|  . .$._  . ...} ~ V : ",
"C H.z 8 6 ; 5 5 5 5 5 5 5 5 5 6 a 5 5 6 6 8 a 5 5 5 6 5 6 8 5 6 6 6 6 6 a 6 6 7 6 6 6 6 6 6 6 6 9 9 6 q 6 q 6 6 6 6 s 5 q 6 q 6 6 6 6 6 6 6 6 6 6 6 6 5 6 5 5 6 w 5 5 w 9 5 5 5 5 9 5 5 5 5 w 5 5 5 5 5 5 5 5 5 5 9 5 5 5 5 9 5 5 5 5 5 5 & 5 5 w 2 & w X X 5 * X o X X o @ @ X o X @ & - X & 6 6 6 5 5 6 8.V.          UXUXUXUXUXUXUXUXUXUXUXUXUXUXUXUXUXUXUXUXUXUXUXUXUXUXUXUXUXUXUXUXUXUXUXUXUXUXUXUXUXUXUXp.W.AX2X) :.UXUXUXUXUXUXUXUXUXUXUXUXUXUXUXUXUXUXUXUXUXUXUXUXUXUXUXUXUXUXUXUXUXUXUX(.$X9. ... . . .| .. ...} ~ V : ",
"C G.x - 5 6 6 5 5 5 5 5 6 8 6 5 5 5 5 5 6 8 6 5 6 5 5 6 6 6 6 6 8 6 6 6 5 6 6 6 6 6 6 6 9 6 s 6 9 9 q 9 6 6 q s 6 6 6 6 q 6 6 6 6 6 6 9 6 w 6 6 6 6 6 6 5 9 w 5 5 9 5 9 5 5 5 5 w 5 5 5 5 5 5 5 5 5 5 5 5 5 5 5 5 5 5 5 5 5 5 5 5 5 5 5 5 5 5 5 5 5 5 9 . @ 5 @ X @ X + o @ X @ @ X @ 5 - . @ % 2 5 5 5 a 8.S.          UXUXUXUXUXUXUXUXUXUXUXUXUXUXUXUXUXUXUXUXUXUXUXUXUXUXUXUXUXUXUXUXUXUXUXUXUXUXUXUXUXUXUXUXO.h.h.:._ UXUXUXUXUXUXUXUXUXUXUXUXUXUXUXUXUXUXUXUXUXUXUXUXUXUXUXUXUXUXUXUXUXUXUXe.$X1. . . . .| |  .| | [ ~ S : ",
"C H.c - 6 5 5 ; a 8 5 5 8 6 6 8 5 6 5 5 8 6 5 5 5 6 5 5 6 8 6 8 6 6 6 6 6 5 6 6 6 6 6 6 6 6 9 6 6 6 6 9 6 q 6 6 9 6 s 6 6 6 q 6 6 6 q 6 6 6 6 6 6 6 6 7 w 5 6 5 5 9 5 5 9 5 5 9 5 5 5 5 5 5 5 5 5 9 5 5 5 5 5 5 5 5 9 5 5 5 5 5 & w 5 5 5 5 5 5 9 * @ X . @ 9 * X o X @ @ X @ @ @ X @ 5 - X X X @ 5 w 5 - 8.V.          UXUXUXUXUXUXUXUXUXUXUXUXUXUXUXUXUXUXUXUXUXUXUXUXUXUXUXUXUXUXUXUXUXUXUXUXUXUXUXUXUXUXUXUX,.e e j g.UXUXUXUXUXUXUXUXUXUXUXUXUXUXUXUXUXUXUXUXUXUXUXUXUXUXUXUXUXUXUXUXUXUXUX(.XX9. .| |  . ...| .. .} ~ V : ",
"C H.h - 5 - - 6 8 5 5 5 5 a 8 8 5 5 6 6 5 8 6 ; 6 8 5 6 5 6 5 a 6 6 6 6 6 6 5 6 6 6 6 6 6 6 w 6 6 6 6 9 6 6 6 6 6 9 6 6 6 q 6 q q 6 6 q 6 6 q 6 w 9 6 6 w 6 5 5 5 9 5 w 5 5 9 5 5 5 5 5 5 5 5 w 5 5 5 5 5 9 5 5 5 9 5 5 6 5 5 5 5 5 5 5 5 5 5 5 & & * & & & 9 & X @ X @ X X * X * X @ 5 & q d d q 5 0 5 6 q.V.          UXUXUXUXUXUXUXUXUXUXUXUXUXUXUXUXUXUXUXUXUXUXUXUXUXUXUXUXUXUXUXUXUXUXUXUXUXUXUXUXUXUXUXUXxXcXh.) d.M UXUXUXUXUXUXUXUXUXUXUXUXUXUXUXUXUXUXUXUXUXUXUXUXUXUXUXUXUXUXUXUXUXUXe.XX9. .|  . . .{  .|  .} ~ V : ",
"C H.c - 6 6 6 - 5 8 a 5 5 5 6 5 8 6 5 5 5 6 5 6 8 6 6 5 5 6 6 5 6 5 8 6 6 5 6 6 7 6 6 6 9 6 6 6 q 6 6 9 6 6 q q 6 9 6 s 6 6 6 q 6 w 6 q q 6 9 9 6 6 w w 6 6 5 6 9 5 5 5 9 9 - 5 5 5 5 5 5 5 5 5 5 5 5 5 5 5 5 w 5 5 5 5 5 5 & 9 5 5 w & 5 5 5 5 5 9 9 w 5 9 5 5 @ @ X @ * X @ + @ @ @ 5 5 5 & 5 5 5 5 5 ; n.S.          UXUXUXUXUXUXUXUXUXUXUXUXUXUXUXUXUXUXUXUXUXUXUXUXUXUXUXUXUXUXUXUXUXUXUXUXUXUXUXUXUXUXUXUXf.rXGXj.4.o.UXUXUXUXUXUXUXUXUXUXUXUXUXUXUXUXUXUXUXUXUXUXUXUXUXUXUXUXUXUXUXUXUXUX).XX9. .|  . .| }  . .} } _ V : ",
"C H.z - - 6 - 6 5 5 5 5 5 5 8 6 a 8 5 5 6 5 - 6 6 5 a 5 6 6 6 6 8 6 6 6 6 6 6 6 6 6 6 6 6 w 6 6 6 6 6 6 6 6 9 9 6 6 q 6 q q 6 6 6 6 9 9 6 q 6 6 6 7 6 5 w 5 6 5 9 5 9 5 5 5 5 5 5 5 5 5 5 5 5 5 5 9 5 5 5 5 5 5 5 5 5 5 9 5 5 5 w & 5 & 5 5 5 5 5 5 5 5 & 5 5 & o * X X @ X * @ @ @ * 9 & 6 5 5 5 5 5 5 ; !.V.          UXUXUXUXUXUXUXUXUXUXUXUXUXUXUXUXUXUXUXUXUXUXUXUXUXUXUXUXUXUXUXUXUXUXUXUXUXUXUXUXUXUXUXUXUXh.j.j.j.R UXUXUXUXUXUXUXUXUXUXUXUXUXUXUXUXUXUXUXUXUXUXUXUXUXUXUXUXUXUXUXUXUXUX(.XX9. . . . . .}  .| | _ ~ S : ",
"C H.z 8 6 - - 6 a 5 8 8 a 5 5 5 5 5 5 5 6 5 6 5 5 5 8 5 8 6 8 5 6 5 5 6 8 6 6 6 6 6 6 6 6 6 6 6 6 6 6 q 9 6 6 6 q 6 6 q 6 6 6 9 6 0 9 6 6 9 6 6 6 6 6 9 6 6 5 6 5 5 5 5 9 5 9 5 5 9 5 5 9 5 5 5 5 5 5 5 5 5 5 5 5 5 5 5 5 5 & 9 5 5 5 w 5 5 5 & 5 5 5 5 9 5 5 & * @ @ X @ @ * X @ & & 5 5 5 5 5 w 5 5 5 f !.S.          UXUXUXUXUXUXUXUXUXUXUXUXUXUXUXUXUXUXUXUXUXUXUXUXUXUXUXUXUXUXUXUXUXUXUXUXUXUXUXUXUXUXUXUXUX:.N Q #.UXUXUXUXUXUXUXUXUXUXUXUXUXUXUXUXUXUXUXUXUXUXUXUXUXUXUXUXUXUXUXUXUXUXUX(.XX1. .|  . .| {  .| } } ~ V : ",
"C H.j = 6 - 5 5 8 5 5 5 ; 5 5 6 5 5 5 - 6 5 - 6 6 - 6 5 5 ; 6 - 5 8 6 5 6 5 6 6 5 6 6 6 6 6 6 6 5 6 6 9 6 6 w 6 6 w 6 9 6 9 9 w 6 6 6 w 9 5 w 5 6 9 w 5 6 7 6 5 5 5 5 5 9 5 5 5 5 5 5 5 w 5 5 5 5 5 5 5 5 w 5 5 5 5 5 9 5 5 5 5 5 5 5 5 5 5 5 w 5 5 5 5 5 5 5 - 5 @ X @ @ + @ @ @ - 5 5 5 5 5 9 5 5 5 8 - w.S.          UXUXUXUXUXUXUXUXUXUXUXUXUXUXUXUXUXUXUXUXUXUXUXUXUXUXUXUXUXUXUXUXUXUXUXUXUXUXUXUXUXUXUXUXUXMXsX$.d.UXUXUXUXUXUXUXUXUXUXUXUXUXUXUXUXUXUXUXUXUXUXUXUXUXUXUXUXUXUXUXUXUXUXUX(.XX1. ... . ...}  . .| { ~ V : ",
"C H.x = - 6 - 5 5 5 6 ; 6 5 ; 5 6 5 6 5 5 5 6 5 - 6 - 6 6 6 6 6 5 a 5 8 5 6 6 6 6 6 6 6 6 5 6 6 6 6 6 6 6 6 6 6 6 6 9 6 w 6 6 6 w w 6 6 9 9 6 9 9 6 6 5 6 6 5 6 9 5 9 5 5 5 5 9 5 w 5 5 5 5 5 5 5 5 w 5 5 5 5 5 9 5 5 5 5 5 5 5 5 5 5 5 5 5 5 5 5 5 5 5 5 5 5 5 5 @ @ @ @ @ % @ 5 5 5 5 5 5 5 5 5 5 5 - - n.S.          UXUXUXUXUXUXUXUXUXUXUXUXUXUXUXUXUXUXUXUXUXUXUXUXUXUXUXUXUXUXUXUXUXUXUXUXUXUXUXUXUXUXUXUXUXM.IXsX{.,.UXUXUXUXUXUXUXUXUXUXUXUXUXUXUXUXUXUXUXUXUXUXUXUXUXUXUXUXUXUXUXUXUXUXr.XX1.&.$... .$.{  . .| { _ V : ",
"C H.c = 6 ; 8 5 5 5 5 5 5 6 5 6 ; 6 6 - ; 6 ; 5 6 - ; 6 5 5 - 6 6 6 6 6 6 5 6 5 6 5 6 6 6 6 6 6 6 6 6 6 6 6 6 6 6 9 w 9 6 6 9 9 6 6 w 6 w 5 6 9 6 6 6 w 6 5 6 6 9 5 9 5 9 5 9 5 5 5 5 5 5 5 5 5 5 5 5 5 5 5 5 5 5 5 5 5 5 5 5 w 5 5 5 5 5 5 w 5 5 5 5 5 5 5 5 5 - 6 * @ @ @ * * 6 5 5 5 5 5 5 5 5 5 8 8 a !.S.          UXUXUXUXUXUXUXUXUXUXUXUXUXUXUXUXUXUXUXUXUXUXUXUXUXUXUXUXUXUXUXUXUXUXUXUXUXUXUXUXUXUXUXUXUXa.SX1Xj.,.UXUXUXUXUXUXUXUXUXUXUXUXUXUXUXUXUXUXUXUXUXUXUXUXUXUXUXUXUXUXUXUXUXUX(.XX1. ..... ...|  . .{ } ~ S : ",
"C G.j = - 8 ; 6 ; 5 5 5 5 ; 5 5 6 - 6 6 6 5 6 5 - 6 6 - 6 5 6 6 6 5 5 5 7 a 6 6 5 6 6 6 6 5 6 6 6 6 5 6 6 6 6 5 6 6 6 6 6 w 6 6 6 6 6 6 6 9 6 9 5 6 6 5 6 6 6 5 5 5 5 5 5 5 5 5 5 5 5 5 5 5 5 5 5 5 5 5 5 5 5 5 5 5 5 5 5 5 5 2 5 5 5 5 5 5 & 5 5 5 w 5 5 5 w 5 6 & 5 & * * - w 5 5 5 5 5 5 5 5 5 5 = & ; n.S.  .     UXUXUXUXUXUXUXUXUXUXUXUXUXUXUXUXUXUXUXUXUXUXUXUXUXUXUXUXUXUXUXUXUXUXUXUXUXUXUXUXUXUXUXUXUXUXUXW Q h.$.UXUXUXUXUXUXUXUXUXUXUXUXUXUXUXUXUXUXUXUXUXUXUXUXUXUXUXUXUXUXUXUXUXUX(.XX2.,... . . ... . ...} ~ V : ",
"C H.z % = = = - ; 6 6 - 5 5 5 6 - 6 - - 6 - 5 9 6 6 5 6 - - 9 - 6 6 6 6 5 6 5 6 6 6 6 6 5 5 6 5 6 5 6 6 5 6 5 6 6 6 6 6 6 6 6 6 w 6 6 6 6 6 5 5 9 5 5 6 5 9 5 6 9 5 5 5 5 5 9 5 5 5 5 5 5 5 w 5 5 5 5 5 5 w 5 5 5 5 5 5 5 w 5 5 5 5 5 2 5 5 5 5 5 5 5 5 6 5 - - w & 5 - w - - 5 & 6 5 5 5 5 5 5 5 5 % * ; /.S.        UXUXUXUXUXUXUXUXUXUXUXUXUXUXUXUXUXUXUXUXUXUXUXUXUXUXUXUXUXUXUXUXUXUXUXUXUXUXUXUXUXUXUXUXUXUXUX,.3 H O.UXUXUXUXUXUXUXUXUXUXUXUXUXUXUXUXUXUXUXUXUXUXUXUXUXUXUXUXUXUXUXUXUXUX(.XX9. ...$. . ... .$.} [ _ V > ",
"C H.z % = = = = 6 - - 6 ; 6 6 ; 6 - 6 6 6 6 - 9 ; 9 6 - 6 6 6 6 8 6 ; 6 7 6 6 6 5 6 5 5 6 6 5 6 6 6 6 5 8 5 6 6 5 6 6 6 6 6 6 6 6 6 6 w 9 6 9 9 5 6 9 5 9 5 9 5 5 5 5 9 5 9 5 5 5 9 5 5 5 5 5 5 5 5 2 w 5 5 5 5 5 5 5 5 5 5 5 5 5 5 5 w 5 5 5 w 5 5 w 5 - w 5 & 6 5 - - - - - - & 6 & 9 5 5 5 5 8 5 % * = q.z.        UXUXUXUXUXUXUXUXUXUXUXUXUXUXUXUXUXUXUXUXUXUXUXUXUXUXUXUXUXUXUXUXUXUXUXUXUXUXUXUXUXUXUXUXUXUXUXZXn.$.p.UXUXUXUXUXUXUXUXUXUXUXUXUXUXUXUXUXUXUXUXUXUXUXUXUXUXUXUXUXUXUXUXUXUX(.XX9.,.}  . ..... .....} _ V : ",
"C H.d % = = ; = - 5 ; 6 6 - 6 8 - 6 5 6 - 6 - ; - 9 - 6 6 - 6 6 8 6 8 6 6 6 6 6 6 6 5 6 6 6 6 6 ; 5 5 6 6 5 5 6 6 6 6 5 6 6 6 6 6 5 6 6 6 5 6 w 9 6 5 w 5 9 5 w 5 9 5 5 9 5 5 5 5 9 5 5 5 5 5 9 5 5 9 5 5 5 5 5 5 w w 2 5 5 5 5 w 2 5 5 5 5 5 5 5 5 2 5 5 5 5 5 5 - w - - * @ 6 5 5 5 5 9 5 & 5 = = % * - ~.z.          UXUXUXUXUXUXUXUXUXUXUXUXUXUXUXUXUXUXUXUXUXUXUXUXUXUXUXUXUXUXUXUXUXUXUXUXUXUXUXUXUXUXUXUXUXUXIXKXsXj.;.UXUXUXUXUXUXUXUXUXUXUXUXUXUXUXUXUXUXUXUXUXUXUXUXUXUXUXUXUXUXUXUXUXe.$X9. ... .$. ... . .{  .^ B : ",
"C H.d * - - % = - 5 - 6 - 5 5 5 6 - 6 9 ; - 9 - 6 - 6 - 5 9 ; - 6 6 6 6 a 5 6 6 5 5 6 ; 6 5 6 5 6 5 6 5 5 5 6 6 5 5 9 5 6 5 6 6 6 6 6 6 6 6 5 5 9 5 9 5 6 5 6 5 5 9 5 9 5 5 5 5 5 5 5 5 5 5 5 5 5 5 5 5 5 5 5 5 5 5 5 5 5 5 5 5 5 5 5 5 5 5 5 5 5 5 5 5 5 5 5 5 5 & w X X . @ 5 & 6 5 5 5 5 5 & 8 = % * - ^.z.          UXUXUXUXUXUXUXUXUXUXUXUXUXUXUXUXUXUXUXUXUXUXUXUXUXUXUXUXUXUXUXUXUXUXUXUXUXUXUXUXUXUXUXUXUXUXm.2Xn.3.$.UXUXUXUXUXUXUXUXUXUXUXUXUXUXUXUXUXUXUXUXUXUXUXUXUXUXUXUXUXUXUXUXUX~.$X9. . . ... ... . ...} ^ S : ",
"C H.g # # + * = - - 6 6 6 6 - ; 9 6 - 6 - 6 - 9 - ; 9 5 - 9 - 9 6 6 a 5 6 6 5 6 6 5 6 6 6 ; 6 6 6 - 6 - ; 5 6 6 5 6 6 5 6 6 5 6 5 6 5 6 6 6 6 6 5 9 5 ; 9 9 5 9 5 5 5 5 5 5 5 5 5 5 5 5 5 5 5 5 5 9 5 5 5 5 5 5 5 5 5 5 5 5 5 w 5 5 5 5 2 5 5 5 5 5 5 5 5 5 2 & 5 5 6 & & & & w - 5 5 5 5 5 8 & = . . @ 6 ^.z.          UXUXUXUXUXUXUXUXUXUXUXUXUXUXUXUXUXUXUXUXUXUXUXUXUXUXUXUXUXUXUXUXUXUXUXUXUXUXUXUXUXUXUXUXUXUXv Q h.) g.UXUXUXUXUXUXUXUXUXUXUXUXUXUXUXUXUXUXUXUXUXUXUXUXUXUXUXUXUXUXUXUXUX(.XX9. .|  . . .}  . .{ } ~ V > ",
"Z Y.j # .   # = 6 - - ; - - 6 - - 5 6 - 9 - 6 - 9 - 9 5 6 - - 6 5 8 5 6 6 5 5 6 6 9 5 - 6 6 ; 6 - 6 6 - 9 5 - 5 6 5 5 6 6 5 6 6 5 6 6 6 6 5 6 5 9 5 9 5 9 5 5 9 9 5 5 5 5 9 5 5 5 5 5 5 w 5 5 5 5 5 5 5 w 5 5 5 5 5 w 5 5 5 5 5 5 5 5 5 5 5 0 5 5 5 5 w 5 5 5 5 5 - 5 5 - - & - - 5 8 5 5 5 & - * . . o 9 ^.z.  .         UXUXUXUXUXUXUXUXUXUXUXUXUXUXUXUXUXUXUXUXUXUXUXUXUXUXUXUXUXUXUXUXUXUXUXUXUXUXUXUXUXUXUXUXUX5.Q >.o.UXUXUXUXUXUXUXUXUXUXUXUXUXUXUXUXUXUXUXUXUXUXUXUXUXUXUXUXUXUXUXUXUXUX(.$X9. .|  . . .|  . ...} _ V : ",
"C Y.c X     * - 8 - ; 5 6 6 6 - 6 9 6 6 6 9 - 9 - 6 - 9 - 9 ; 6 5 a 8 5 6 5 6 6 6 ; 5 5 6 9 - - ; 6 5 - - 9 9 - 6 6 6 5 5 6 6 5 6 6 6 6 6 6 6 5 5 9 9 5 5 5 5 5 5 5 5 5 5 5 5 9 w 5 5 5 5 5 5 5 5 5 5 5 5 5 5 5 5 5 5 5 5 5 5 5 5 5 5 5 5 5 5 5 5 5 5 5 5 5 5 5 5 5 6 - - 6 - - - 9 5 5 5 5 8 8 @ .   o 5 /.z.                                              UXUXUXUXUXUXUXUXUXUXUXUXUXUXUXUXUXUXUXUXUXUXUXUXUXUXUXUXxXh.#.O.UXUXUXUXUXUXUXUXUXUXUXUXUXUXUXUXUXUXUXUXUXUXUXUXUXUXUXUXUXUXUXUXUXUXw.$X9. .|  . . .|  . ...} _ S : ",
"C Y.z X . . = - - 8 8 8 - ; 5 6 - ; - 6 - ; 6 - 9 - 6 - 6 - 9 5 5 5 8 5 5 5 6 5 - 6 6 6 - 6 6 6 9 6 6 6 6 - 6 9 5 5 6 6 6 6 6 6 6 5 5 6 5 5 6 6 5 9 5 5 5 9 9 5 5 5 5 9 5 5 5 5 5 5 5 & 5 5 5 5 5 5 5 5 5 5 5 5 5 5 5 5 5 5 5 5 5 5 5 5 5 5 & 5 5 5 5 2 5 5 5 & 5 & 5 6 - 5 - & & - - 5 5 5 8 8 @     < a '.V.                                                                  UXUXUXUXUXUXUXUXUXUXUXUXUXUXUXUXUXUX1XPXAXcX,.g.UXUXUXUXUXUXUXUXUXUXUXUXUXUXUXUXUXUXUXUXUXUXUXUXUXUXUXUXUXUXUXUXe.$X9. .|  . . .| | | ..] _ V : ",
"Z Y.f + . . 8 1 = = 8 8 8 8 ; 8 5 - ; = 6 - - 9 - - 6 - 8 8 = 5 5 - 5 5 5 8 5 5 8 5 6 5 6 5 5 5 5 5 5 5 - 6 - 6 6 5 6 6 6 5 6 5 6 5 6 6 6 5 6 5 5 9 5 9 9 5 5 5 5 9 w ; 9 5 5 5 w 5 5 w 9 5 9 9 5 9 5 9 w 5 w 5 w 6 - 5 w 5 w 5 6 w 6 5 5 w w 5 w 5 5 w w 9 8 & 6 5 6 6 ; 9 5 5 - 5 6 5 5 6 5 1 8 @ @ @ b 6Xl.                                                                                    UXUXUXUXUXUXUXUXUXa.2X[.2Xj.F UXUXUXUXUXUXUXUXUXUXUXUXUXUXUXUXUXUXUXUXUXUXUXUXUXUXUXUXUXUXUXUXe.$X9. . . . . . . . ...} ~ V : ",
"C U.k $ # 7 6 5 a a 6 f 6 f 6 s f 9 9 a 9 9 9 f 9 a 9 9 9 f 6 6 9 w w 5 a 6 6 s w w 6 9 9 q 9 w 9 w 9 5 s 9 9 9 9 6 6 6 w 6 w w 6 w 6 9 5 w w 5 5 9 5 5 5 5 - & & & & - - - - 5 & & & & & * & & & % * % & & 2 2 & - & & % * * * * * * * * * * * o * * * # * * @ * o * * @ @ * * # o o # # @ o X o # @ = y.E.B..                                                                                     UXUXUXUXUXUXUXUXo.k o.+.;.S UXUXUXUXUXUXUXUXUXUXUXUXUXUXUXUXUXUXUXUXUXUXUXUXUXUXUXUXUXUXUXUX(.$X9. .|  . .| }  .|  .} ~ S : ",
"A T.F l 8 + . . X . X X X X X X . X + X X + X . . X + + + X X X + + + + + + + X X + X + + + + X + + + + + X + + $ + + $ $ $ $ $ $ + $ $ $ $ $ $ ; $ $ ; ; $ ; a ; ; a ; a k 9 ; a a a k f f a a f f a a a a ; k k a n k a n n n n c c l c l n n m ` l m n n b n m n n n n m m m m m ^ m ^ ~ ,.^ ^ ^ 6.y.4XY.V.                                                                                        UXUXUXUXUXUXUX[.,.Q o.N UXUXUXUXUXUXUXUXUXUXUXUXUXUXUXUXUXUXUXUXUXUXUXUXUXUXUXUXUXUXUXUXUX~.$X9. .| |  . ...$. .{ _ ^ V : ",
"C U.A.f.7.u.u.u.u.u.u.u.u.u.u.u.u.u.u.u.u.u.u.u.u.u.*.*.*.*.=.=.-.-.8.;.;.h.;.;.;.h.;.f.h.;.h.h.;.h.n.;.f.h.h.f.f.v.h.v.v.v.v.v.v.f.b.v.b.b.v.b.v.b.v.v.b.b.b.b.b.b.N.b.b.b.b.b.b.b.m.m.b.m.m.b.b.m.m.m.b.m.m.b.c.b.m.m.b.x.m.m.m.k O.m.m.m.m.x.m.K.m.x.D.x.x.x.D.D.D.x.D.D.x.D.K.x.D.K.D.P.P.P.D.D.P.P.C.I.B.                                                                                          UXUXUXUXUXUXb.rX;.g.UXUXUXUXUXUXUXUXUXUXUXUXUXUXUXUXUXUXUXUXUXUXUXUXUXUXUXUXUXUXUXUXUXUXw.$X9. .|  . . . ... ...+._ S : ",
"C U.F.F.J.L.L.L.L.R.L.L.L.L.L.L.L.L.L.L.L.L.L.L.L.L.G.H.H.G.H.G.G.G.G.G.G.G.G.H.G.G.Y.H.Y.G.G.G.Y.G.Y.G.Y.G.Y.G.Y.G.G.Y.G.Y.Y.G.H.Y.Y.Y.G.G.Y.G.G.G.G.F.Y.Y.Y.Y.Y.G.G.U.G.Y.Y.Y.Y.Y.Y.Y.Y.Y.Y.Y.Y.F.Y.Y.Y.Y.Y.Y.F.Y.F.Y.Y.F.Y.Y.G.V F U.F.F.I.F.F.F.F.I.F.F.I.F.I.I.I.I.I.I.I.I.F.F.U.F.F.F.F.F.I.I.I.F.F.I.B.                                            .                           .                 UXUXUXUXUXUXUXPXAXj.6.F UXUXUXUXUXUXUXUXUXUXUXUXUXUXUXUXUXUXUXUXUXUXUXUXUXUXUXUXUXUXUXUXw.$X9. ... ...$. . ...| { ^ S : ",
"UXU.F.F.Z.Z.Z.Z.Z.Z.Z.A.Z.Z.I.Z.G.C.C.F.Z.Z.F.F.I.Z.Z.F.Z.F.F.Z.F.C.F.F.Z.Z.F.F.F.Z.Z.F.Z.Z.F.C.F.F.F.F.C.C.F.C.F.F.F.F.C.C.F.C.I.Z.Z.C.C.C.F.F.F.F.F.F.C.C.C.C.G.F.F.F.F.C.C.C.C.C.C.C.C.F.C.C.F.F.C.C.C.C.C.C.F.C.C.F.F.C.C.F.G.u F F.A.F.F.F.F.F.F.F.F.C.F.F.C.C.Z.C.F.C.F.C.C.C.F.C.F.F.F.C.C.Z.C.C.F.F.B.O O O O O O O O O O O O O O O O O O O O O O O O O O : O O O : O O O O O O : O O O O O O O UXUXUXUXUXUXUXW.xX5Xj.:.UXUXUXUXUXUXUXUXUXUXUXUXUXUXUXUXUXUXUXUXUXUXUXUXUXUXUXUXUXUXUXUX(.XX9.&. . . . .|  .$.{ } ~ S : ",
"C F.A.A.A.A.B.B.B.A.B.B.B.B.B.B.B.B.B.l.B.l.l.l.B.B.B.l.l.l.l.l.l.l.l.l.l.l.l.l.l.B.l.l.l.l.l.l.k.k.k.k.l.k.l.l.k.l.k.k.k.k.k.k.k.k.k.k.l.l.l.l.k.k.l.l.l.l.l.l.k.k.k.k.l.l.l.l.l.l.l.l.l.l.l.l.l.l.l.l.l.l.l.l.l.l.l.l.l.l.l.l.l.B.B.l.l.l.l.l.k.l.l.l.l.l.l.l.l.l.l.l.l.k.l.l.l.l.l.l.l.l.l.l.l.l.l.l.l.l.B.B.A.A.B.A.A.B.A.A.A.A.A.A.Z.Z.I.I.U.F.V.C.I.U.F.U.U.T.U.T.U.U.U.U.I.U.U.U.U.U.U.U.U.U.T.s.  UXUXUXUXUXUXV J f.j.O.UXUXUXUXUXUXUXUXUXUXUXUXUXUXUXUXUXUXUXUXUXUXUXUXUXUXUXUXUXUXUXUXe.$X9.,...$. ...{  . .| _ _ V : ",
"UXF.z.x.c.x.g.g.g.b.g.g.b.g.g.g.g.b.g.v.g.g.b.v.g.v.g.v.v.v.v.v.v.v.v.v.f.v.f.v.f.f.v.f.f.f.f.v.f.v.v.v.f.v.f.v.v.f.v.f.f.v.f.v.f.f.f.f.v.v.v.v.8.v.v.v.8.b.8.b.v.g.8.v.v.v.8.b.8.b.8.v.v.v.8.b.8.v.v.v.v.v.v.8.8.v.v.v.v.v.v.b.v.f.v.v.v.v.v.v.v.v.v.v.v.v.v.v.v.v.v.v.v.v.v.v.v.v.v.v.v.v.v.v.f.v.v.v.v.v.v.v.f.g.v.f.f.g.f.f.v.g.v.b.b.g.b.b.A.A.l.l.d.8.m.m.m.x.x.m.m.K.x.D.C.F.F.F.C.C.C.Z.Z.Z.U.s.  UXUXUXUXUXUX,.r ` $.S UXUXUXUXUXUXUXUXUXUXUXUXUXUXUXUXUXUXUXUXUXUXUXUXUXUXUXUXUXUXUXUX~.$X1. .......$... . .{ } ^ S : ",
"UXI.-.4.<.,.<.<.<.<.<.<.<.7.<.<.<.<.<.<.5.<.t.t.5.5.t.5.5.5.t.4.5.5.5.5.5.5.t.5.5.5.5.5.t.5.t.t.t.t.t.t.t.5.t.t.<.t.t.t.t.5.t.t.t.5.t.t.t.t.t.t.9.t.t.t.t.t.t.t.t.t.t.t.t.t.t.t.9.t.t.t.t.t.t.t.9.t.t.t.t.t.e.t.t.t.t.t.t.t.t.t.t.t.t.t.t.t.t.t.t.t.t.t.t.t.t.t.t.t.t.t.<.t.t.t.<.<.<.t.<.t.<.<.<.<.<.<.<.<.<.<.<.<.<.<.<.<.<.<.<.<.<.<.<.<.<.<.z.A.s.D 4.u.$X#XOX>X>X:XvX:XvX*XL.G.F.F.F.F.F.F.I.Z.U.i.  UXUXUXUXUXUXcXo.` d.UXUXUXUXUXUXUXUXUXUXUXUXUXUXUXUXUXUXUXUXUXUXUXUXUXUXUXUXUXUXUXUXUXe.$X9. ... . .} }  . .} } ~ S : ",
"UXG.y.w.w.w./././.j././.(.(.~./.~./.~.~.~.~.~.~.~.~.~.(.~.^.(.(.w.~.~.~.w./.~.w.(.~.~.w.~.e.w.~.(.~.w.(.(.(.e.w.w.w.w.w.w.w.w.e.e.e.w.w.~.w.w.w.w.0.w.w.r.w.r.r.w.w.w.w.r.w.r.8.w.w.w.r.r.w.r.8.w.w.w.e.r.w.r.w.w.w.w.].].].w.].r.(.r.(.e.].].].].r.r.w.].].].(.r.].].w.w.w.w.0.w.w.w.w.w.w.w.0.w.w.w.w.w.w.e.w.w.w.0.0.w.w.e.r.(.w.(.(.w.(.(.1.x.A.i.X.@X9X8XqXwXuXuXnXnXnXnXbXM.G.F.F.F.F.F.F.F.Z.U.i.  UXUXUXUXUXUXKXcXj.h.S UXUXUXUXUXUXUXUXUXUXUXUXUXUXUXUXUXUXUXUXUXUXUXUXUXUXUXUXUXUXUXUX(.XX9. .$... ...{  . .} } _ V : ",
"UXH._.).'.'._._.'.'.oX'.'.oX'.oX'.'.'.'.'.'.'.'.XX'.OX'.'.'.'.'.XXoX'.oXXXoX'.XXXXXXXXXXOXOXOXOXOX&X$X&X&X%XXXOX$XOX$XOX$XXX}.XXOX'.XX$X'.$XXXXXXXXXXXXX].XX].r.XXr.XXXXXX].XXXXr.XXr.r.}.XXXXXX$XXXr.XXXXXXXXXXXXXXXX$X$X$XXX$XXX$XoX$XXX$XXX$XoX$X$X$XXX$X$X$XXXXX$XoXoXoX_._.oX_.r.oX_.oXoXoXr.oX_._.oXoXoXoXoXr.oXr.oX_._.XXXXoXoXoX'.XXXXe.x.A.Z X.).*X=XeXiXwXeXqXeXeXiXuXnXP.F.F.F.F.F.Z.F.Z.U.i.  UXUXUXUXUXUX2XIX5Xj.6.UXUXUXUXUXUXUXUXUXUXUXUXUXUXUXUXUXUXUXUXUXUXUXUXUXUXUXUXUXUXUXUXw.$X9. . . . .| } $. .} ) ^ S : ",
"UXL.@X}.OXOXOX+X+X+X+XOX+X+X+X+X&XOX&X&X#X&X&X-X&X+X&X&X&X&X*X-X*X+X*X&X+X*X*X&X&X+X*X&X-X-X-X-X*X-X-X*X*X-X-X-X-X-X-X-X-X-X-X-X-X-X-X-X-X-X-X-X-X-X-X-X-X-X-X-X-X-X-X-X-X-X-X-X=X-X=X=X-X=X-X-X-X-X-X-X-X-X-X-X=X-X-X-X-X-X-X-X-X=X-X-X=X-X-X-X-X-X%X-X-X-X%X%X-X-X-X-X-X-X-X-X%X%X%X-X%X-X%X%X$X%X$X-XXX%X$X$X$X%X%X%XXX%X%X-X%X&X@X%XOX%X-Xr.c.V.B ~ ].*X7X8XwXiXeXwXyXwXqXeXbXE.I.Z.I.F.I.Z.F.Z.U.i.. UXUXUXUXUXUXp.h.h.h.;.UXUXUXUXUXUXUXUXUXUXUXUXUXUXUXUXUXUXUXUXUXUXUXUXUXUXUXUXUXUXUXUXe.$X9. ... . ..... . .| } ^ S : ",
"UXJ.@X*X&X&X&X*X&X*X*X-X&X&X&X&X=X#X=X#X-X&X-X#X=X&X&X&X=X=X&X*X7X7X*X-X*X-X*X*X-X=X*X-X=X=X-X=X-X-X=X&X=X=X-X-X%X%X=X$X-X-X-X-X-X-X-X-X-X-X,X-X-X-X-X-X-X-X-X-X=X-X,X-X-X-X-X-X=X-X,X-X-X=X,X-X-X-X,X-X-X-X,X-X-X=X=X8X=X=X=X=X=X=X;X=X=X;X=X;X=X;X=X;X;X=X-X,X;X;X=X=X=X=X%X=X%X%X%X%X%X%X%X%X%X%X%X%X$X>X%X%X%X;Xr.vX,X%X;X%X-X>X=X-X*X*X*Xr.m.Z.B ^ '.*X*XqXeXwXeXqXyXeXyX9XbX5XF.F.F.F.F.F.F.F.U.i.  UXUXUXUXUXUXv h o._ Q UXUXUXUXUXUXUXUXUXUXUXUXUXUXUXUXUXUXUXUXUXUXUXUXUXUXUXUXUXUXUXUX).XX9.,.|  . .| { $.| ..{ ~ S : ",
"UXH.8X7X7X=X=X7X7X8X8X=XqXqXqX8X8X8X8X8X8XtX=XtX8X,XtXtX8X8X8XqX8XqX8XqX8XqXqX8XqX8XqXqX=X8XqXqXqXtX=X,X=X,X,X,X,X=X,X=X,X-X,X,X<X-X,X,X<X-X,X-X,X,X<X<X<X,X,X,X,X,X-X,X<X,X,X,X,X=X,X=X,X=X,X,X,X,X,X=X,X,X,X<X,X,X,X,X<X<X,X,X,X,X,XyX;X,X,X,X,XyX,X,X,X,X,X,XyX,X,XyX,X=X;X,X;X:X<X;X:X:X>X<X<X>X%X<X;X;X:X%X%X:X>X<X,X%X;X<X;X;X;XqX8X;X8XbXM.A.V ^ OX=XrXqXqXeXqXeXwXyXyXeX<XtXF.F.F.F.F.F.F.F.U.i.  UXUXUXUXUXUX6.W I Q UXUXUXUXUXUXUXUXUXUXUXUXUXUXUXUXUXUXUXUXUXUXUXUXUXUXUXUXUXUXUXUXUX(.XX9.&.|  . ...| ..| ..} ~ V : ",
"UXL.>X&X*X7X*X8X8X*X8X8X8X=X8X8X8X8X8X8X8X8X0X=X8X8X8X8X8X8XtX=X8X*X;X7X8X;X8X;X=X8XqX=X=X=X8X;X,X=X,X8X,X=X,X-X=X=X%X,X,X%X,X%X-X,X-X,X,X-X-X,X,X-X,X-X-X,X,X,X-X,X,X-X,X,X,X,X,X-X,X,X,X,X%X,X,X=X,X,X,X=X,X-X,X,X,X,X,X,X,X,X,X;X=XyX,X;X,X;X;X,X,X=X,X,X,X,X,X,X,X,X,X,X%X%X;X%X%X;X;X%X;X%X;X>X>X;X;X;X%X>X;X%X>X%X%X:X%X<X;X;X,X%X;X;X8XbXM.A.V { }.*X*XqXqXyXyXwXyXeXwX8X<X,XF.F.F.F.F.F.F.C.U.i.  UXUXUXUXUXUX@XsX-.D UXUXUXUXUXUXUXUXUXUXUXUXUXUXUXUXUXUXUXUXUXUXUXUXUXUXUXUXUXUXUXUXUX(.$X9. .|  . .} .. . .| _ ^ S : ",
"UXJ.>X=X8X*X8X8X8X8X8X8X8X8X=X8X,X6X8X8X,X0X,X8X8X8X8X8XtX8X8X=XqX8X8X7X=X=X=X=X=X;X=X=X=X8X=X=XqX=X,X=X=X=X%X,X,X%X,X%X-X,X,X%X,X-X,X-X-X,X,X-X-X,X-X,X-X,X-X,X,X-X,X-X,X=X-X,X,X,X,X-X=X=X,X,X=X=X-X,X=X=X,X-X,X=X,X,X,X=X,X,X;X,X,X;X,X;X,X,XyX;X,XyX=X,X,X,X,X,X=X=X=X%X;X%X$X;X%X>X%X;X%X%X$X%X$X%X%X$X<X>X$X>X%X%X%X%X%X;X,X%X;X;X-X;X8X:XN.A.B ~ }.=X*XqXyXyXeXqXyXyXiXiXnXtXF.F.F.F.F.F.F.F.U.i.  UXUXUXUXUXUX2XIXAX+X_ UXUXUXUXUXUXUXUXUXUXUXUXUXUXUXUXUXUXUXUXUXUXUXUXUXUXUXUXUXUXUXUXe.$X9. . . . . .{  .| | ] ^ S : ",
"UXH.>X7X7X*X8X*X*X=X8X8X8X8X8X8X0X=X0X=X8X=X8X8X8X=X8X8X8X8X8X8X*X8X*X;X*X;X=X=X=X8X=X=X=X=X=X=X=X=X8X=X,X-X-X%X-X=X%X%X=X=X-X%X-X,X-X-X,X-X,X,X-X,X-X,X%X,X,X-X-X-X,X-X%X,X%X%X-X,X-X,X%X,X%X%X,X,X-X-X,X,X%X,X=X,X,X=X,X-X<X,X;X;X,X;X;X,X,X,X;X,X;X=X;X;X,X,X=X,X,X,X%X%X%X%X%X%X%X>X>X%X%X%X$X$X%X%X;X%X>X%X$X>X$X%X$X>X;X;X;X;X%X;X=X=X=X<XN.A.A ~ OX-X*XqXeXyXyXwXiXwXiX8XuXtXG.F.F.F.F.F.F.F.U.i.  UXUXUXUXUXUXUX5X2Xj.O.UXUXUXUXUXUXUXUXUXUXUXUXUXUXUXUXUXUXUXUXUXUXUXUXUXUXUXUXUXUXUXUX(.$X0. . . . .| {  .| | } ~ S : ",
"UXJ.*X*X*X8X*X8X8X7X7XqX=X8X8X8X=X=X0X=XtX=X0X=X8XtXtX8X8X8X8X=X*X=X*X*X=X=X*X=X=X*X=X=X=X=X-X;X=X=X=X=X-X,X,X-X%X%X%X%X-X-X%X%X-X-X,X-X-X$X$X-X-X-X-X-X,X%X$X%X-X,X,X-X,X-X-X,X-X-X-X-X,X%X%X,X-X-X,X-X%X,X%X,X=X=X,X-X,X,X,X-X=X,X%X=X;X,X=X=X=X;X;X,X;X<X%X,X,X,X,X%X;X%X%X$X$X$X$X$X%X%X%X$X@X$X$X%X%X%X%X>X@X$X$X$X$X>X%X%X;X;X;X%X=X,X8XbXM.A.A ~ OX7X*XqXqXyXeXeXyXiXiXiX<XtXG.F.F.F.F.F.F.F.F.i.  UXUXUXUXUXUXB O.;.j.Q UXUXUXUXUXUXUXUXUXUXUXUXUXUXUXUXUXUXUXUXUXUXUXUXUXUXUXUXUXUXUXUX~.$X9. .|  . .| {  .| | } ~ S : ",
"UXJ.>X*X*X*X7X7X7X=X7X8X=X8X8X8X=X=X=X=X=X8X8X8X8X=X=X8X=X8X8X=X*X*X-X-X*X*X*X=X=X*X*X%X%X%X-X-X-X=X=X=X,X%X%X%X%X%X%X%X%X$X$X$X-X-X$X$X%X,X-X-X,X%X-X$X%X%X%X%X-X-X-X-X,X$X,X%X-X-X-X-X,X%X%X%X%X-X-X-X%X%X%X%X,X%X,X-X-X,X,X-X;X=X,X;X;X%X;X=X;X%X=X;X<X%X%X,X=X,X,X,X%X%X$X$X%X$X$X$X%X%X%XXXr.%X$X%X$X%X%X$X$Xr.$X$Xy.%X%X:X;X%X;X;X;X,X=X<XM.B.B ~ OX=X*X8XeXyXyXyXiXwXyXeXuXtXH.F.F.F.F.F.F.F.U.i.  UXUXUXUXUXUX;.j H o.UXUXUXUXUXUXUXUXUXUXUXUXUXUXUXUXUXUXUXUXUXUXUXUXUXUXUXUXUXUXUXUXUXe.$X9. . . . .| {  .| { _ ^ S : ",
"UXJ.-X7X7X7X=X*X8X7X*XqX8X8X8X8X0X=X6X4X#X-X0X8X8XtX8X8X0X8X8X=X*X*X%X*X-X-X*X-X-X=X-X%X-X%X%X$X%X-X;X-X%X%X%X%X%X$X$X%X$X$X$X$Xr.$X$X-X$X$X$X$X$X$X$X-X%X$X%X%X%X-X$X-X$X<Xr.%X%X$X-X%X%X%X%X%X%X-X-X-X%X%X%X%X%X%X-X,X,X,X-X,X%X;X%X%X%X;X;X;X;X;X;X-X%X%X;X,X=X,X,X,X%X$X$Xr.r.r.r.$X$X%X$X$Xr.r.y.r.@X%X$X$Xr.$Xr.r.$X$X$X%X;X;X%X=X-X,X=XbXM.B.B 6.OX7XqXqXqXyXeXyXeXiXyXyXyXbXJ.F.F.F.F.F.F.C.U.i.  UXUXUXUXUXUX5.j.;.S UXUXUXUXUXUXUXUXUXUXUXUXUXUXUXUXUXUXUXUXUXUXUXUXUXUXUXUXUXUXUXUXUX~.$X1. .|  . .| {  .$.} } ^ S : ",
"UXJ.-X7X7X7X7X=X0X=X=X8X=X8X8XtXNX,XNX<XNX,XNX-X8X8XtX8X8X8X8X=X*X%XOX+XOX>X*X*X-X&X-X-X$X$X&X$X%X%X-X=X-X%X$X-X$X$XXX$X$X$X$X$X,X$X,Xr.,X-X$X$X$X$X$X$X$X$X$X$X$X$X$X$X-X$X$X$X%X$X$X$X%X$X%X$X$X$X,X$X$X$X-X%X%X%X<X,X%X,X,X%X%X%X%X;X%X%X;X%X%X%X,X%X%X,X%X<X=X,X=X=X-XXXr.r.r.r.r.r.%X$XoXr.r.r.r._.oX$X$X@Xy.r.r.r.r.XX%X-X;X;X;X;X;X%X=XvXM.A.B ~ OX7X*XqXwXyXqXqXiXeXyXyXeXbXK.I.F.F.F.F.I.C.U.i.  UXUXUXUXUXUXb.LXAX4.$.UXUXUXUXUXUXUXUXUXUXUXUXUXUXUXUXUXUXUXUXUXUXUXUXUXUXUXUXUXUXUXUX(.XX9.,.{  . ...{  . .} } ~ S : ",
"UXP.>X7X7X*X8X7X8X8X8X8X8X8X8XaX<X<X<X<X,X<X<X,X8X8X8X=X=X8X&X=XOXOXOXOXOX%X%X&X-X$X$XXXXXXX$X$X%X%X-X-X%X$XXXXXXXXXoXoX$Xr.$X$X$Xr.r.,Xr.$Xr.$X$X$X$X$X$X$X$X$X$X$X$X-X$X$X$X$X$X$X$X$X$X$X$X$X$X$Xr.,X$X$X$X$X%X%Xr.<X,X%X-X-X%X%X%X$X$X>X%X;X,X%X$X%X$X$X$X<X%X,X;X%X$X_.e.w.9.0.w.0.0.0.9.1.1.9.0.e.0.0.e.9.e.r.9.9.e.e.(.oXoX$X$X;X;X;X=XvXM.B.A ~ OX*X=XqXeXeXyXiXyXyXyXeXeXbXK.I.F.F.F.F.Z.I.U.i.  UXUXUXUXUXUXUXN.1X2Xj.UXUXUXUXUXUXUXUXUXUXUXUXUXUXUXUXUXUXUXUXUXUXUXUXUXUXUXUXUXUXUXUXw.$X9. .} .. .$.}  . .} } ~ S : ",
"UXP.>X7X*X8X*X8X8X8X0X=X8X=XtXw.& * X X X & * 8.aX8X8X8X8X=X=X$XOXXX'.'.'.OXXX%X$X&X&X_.'._._.$XoX%X%X$X$XXXXXXXoXr.r._.r.$Xr.r.r.$Xr.r.r.-X$Xr.XXr.XXXXr.XXr.$Xr.$Xr.r.r.$Xr.$XXXr.r.XX$X$X$X$Xr.$Xr.r.r.$Xr.$X%X$X$X%X$X,X$X,X$X$X$X$X$X$X$X%X-X,X$X$Xr.%X;X%X$X,X%X%X-X_.9.8.8.8.X.8.0.w.1.} 1.1.&. .1.1.0.1.,.8.9.9. .1.9.0.0.e.r.>X;X;X-XbX2XB.A ~ $X7X7XqXeXyXwXeXeXyXyXiXiXbXE.F.F.F.F.F.Z.Z.U.i.  UXUXUXUXUXUXUXd.;.j.;.UXUXUXUXUXUXUXUXUXUXUXUXUXUXUXUXUXUXUXUXUXUXUXUXUXUXUXUXUXUXUXUX(.$X4. .|  ...| {  . .} { ~ S : ",
"UXJ.+X7X8X*X*X7X8X-X=XtX8X0XaXw.5 w d 9 9 9 & w.tX8X8X8X8X0X-X#XXX'.).'.oXXX%X&X&X$X_._._._._._._.$X$X$X$XXX].r._.r._.oXr.r.r.$Xr.r.r.$Xr.r.r.$XXXr.r.r.XXr.XXr.r.$Xr.$X$Xr.$Xr.$Xr.XXXXr.r.r.r.$Xr.r.$Xr.r.$Xr.r.%Xr.r.%X%X-Xr.$X$Xr.oX$X$X%X%X-X-X$X$X$Xr.r.%X=X=X=X-Xw.@.R K f c c T | ] E P P P x P ! } $.} ! ! T b P ) 1.oXe.r.oX;X%X;X;XvXM.A.A _ OX7X*XqXqXyXeXyXiXwXiXyXtXnXE.I.F.F.F.F.I.Z.U.i.  UXUXUXUXUXUXF l ) _ f.UXUXUXUXUXUXUXUXUXUXUXUXUXUXUXUXUXUXUXUXUXUXUXUXUXUXUXUXUXUXUXUXw.$X1.$.} } } } {  . .} { ~ S : ",
"UXJ.-X8X*X7X7X8X=X=X8X=X,X-X,X8.& 9 9 9 9 9 * 9.iX=X8X8X*X-X-X'.'.(.(.(.w.e.e.).(.].].e.w.e.e.0.w.w.r._.w.r.].w.e.0.0.0.0.0.e.0.e.w.w.0.r.9.e.e.e.e.0.e.e.e.e.e.9.9.9.9.r.9.9.r.e.e.e.w.e.e.0.e.e.e.e.9.r.e.9.r.e.r.r.r.XX].]._.r.r._._.r.$X_.$X$X$Xr.r.r.r.r.r.$XXXr.r.& 4 4 4 * * * < o o p < < p * < 1 o o < < < < < & 1 7 &.e.e.oX;X;X,X%XvXM.B.A ~ OX=XrXqXwXyXqXyXyXyXeXyXyXnXE.F.F.F.F.F.Z.Z.U.i.  UXUXUXUXUXUX_ e r Q p.UXUXUXUXUXUXUXUXUXUXUXUXUXUXUXUXUXUXUXUXUXUXUXUXUXUXUXUXUXUXUXUX(.$X9. ... .} } { ..{  .} ~ S : ",
"UXP.*X&X*X7X*X*X0X=X8X=X0X#X<X8.* 9 - - & w X 8.iX*X8XtX8X-X#X}.e.2.1.&.$.&.2.1.1.9.0.0.1.&.|  .&.&.9.9.&.9.0.q.1.@.} @.| } ] } | [ | | 8.X.X.8.@.| | | [ | [ &.8.8.X.8.8.X.X.8.| | | | | $.| @.8.| | X.8.X.X.8. .&.8.8.9.9.9.9.r.r.w.9.,.&.9.9.0.9.9.e.r.e.9.8.9.9.e.9.5 w w 0 5 w 0 0 , * w 5 5 w 5 3 7 < < 5 6 6 5 7 5 7 o Y r.0.oX,X;X,X;XbX3Xl.A ~ OX8X=XqXeXiXeXyXeXiXyXyX,XBXE.I.F.F.F.F.F.Z.U.i.  UXUXUXUXUXUXrXj.j.:.Q UXUXUXUXUXUXUXUXUXUXUXUXUXUXUXUXUXUXUXUXUXUXUXUXUXUXUXUXUXUXUXUX(.$X9. .} } } { _ $...| } ~ S > ",
"UXP.*X8X*X*X8X*XtX=X=X=X=X=X<X[ * ; - ; & 9 + &.jX*XqX8X*X8X&X9.] ( R P U / ] &.$.[ ' U ! R Y E [ [ $.&.&.| @.[ X.! E T / ) ) ) [ [ X.[ X.[ X.! [ [ [ [ [ [ X.[ ! X.X.X.! 8.X.X.[ | | } } } } } ! X.[ 8.X.8.X.X.| | &.0.w.0.9.&.&.&. .[ | &.8.9.w.9.8.9.9.8.| 8.0.w.w.8.t [ [ [ [ X.[ [ 2 g T / / ) ) ) ) q h ) Y ` ! Y ! ) h Y e.e.oX;X;X;X;XvXM.A.B _ OX*X*XqXqXyXyXeXyXwXiXeX;XnXE.F.F.F.F.F.F.Z.U.i.  UXUXUXUXUXUXm.PXAXj.j.UXUXUXUXUXUXUXUXUXUXUXUXUXUXUXUXUXUXUXUXUXUXUXUXUXUXUXUXUXUXUXUXw.$X9. .}  .{ } { | | { _ ^ S : ",
"UXP.-X&X8X7X*X8X=X=X0X=XtX#X,X8.@ 9 & & & 9 @ @.jX8X8X=XqX&XE z h e i 7 7 3 e e t u >.0 i 0 i 0 0 u 0 u t y y t t e u r r t u r u e u u u t u w t u u z u u u t d w u u w d u d u t u t u u r u t w w w w w d w u y z x P x x z u z z t d x c c b c c d d f u z b %.e.8.0 ^.#X&XtX#X#Xw.4 y q.'.}.&X&X'.).t j *.'.|.7X+X'.}.Y P e.e.oX;X;X;X;XMXM.B.A _ OX7X7XqXqXyXeXwXyXiXyXiXyXnXN.F.F.F.F.F.F.Z.U.i.. UXUXUXUXUXUXUXN.cXj.j.UXUXUXUXUXUXUXUXUXUXUXUXUXUXUXUXUXUXUXUXUXUXUXUXUXUXUXUXUXUXUXUXe.$X9.&.} | | } } | | { ] ^ S : ",
"UXP.-X*X8X*X7X8X8X*X8X8X8X&XjX[ @ 9 - 9 ; f * 8.<X,X,X-XaXE o < o o p p o o o o o p o o o o p o o p p < 4 4 i i 3 7 e e 0 0 i e i i i 0 e e e 0 i i e i e e e e e i e e e e e e e i e e r e e e u u i u e e e e e 3 4 4 < p < p * & , , * , p o p o p p o , * o o i 0.2.r ).9X6X6X6X6X^.7 h 3.7X8X6X6X6X Xg J $.7X7X7X&X|.7XE K r.e.@X;X;X;X8XbXM.B.A ~ OX=XqXqXwXyXqXqXyXeXyXeXaXbXW.F.F.F.F.F.F.Z.U.i.  UXUXUXUXUXUXUXp./.j.h.UXUXUXUXUXUXUXUXUXUXUXUXUXUXUXUXUXUXUXUXUXUXUXUXUXUXUXUXUXUXUXUX~.$X9.| }  .} } { | } { } ~ S : ",
"UXJ.+X7X*X7X*X8X8X8X*X8X8X=XjX@.@ & & & & 9 @ X.<X-XtX=XNX' 2 b P I P K K z e p g z x P P P x x v h e ] ( ( +.+.+.+.+.+.+.+.+.] ] ] +.] +.+.:.+.] +.+.:.+.] ] :.] ] +.( ] ] ] ] ( ] ) :.( ] ' ] [ [ ' [ ] ' +.] ] ' ) +.r 7 j g d d d d d w c 2 < d c d c c d c 2 3 0.&.r {.8X7X7X X6X`.8 h 3.7X6X&X+X6X+Xh j 2.0X7X&X+X}.-X' x r.e.XX;X;X;X=XbXM.V.A ~ OX7X*XqXeXiXqXqXiXiXyXiXqXbXM.F.F.F.F.F.F.Z.U.i.  UXUXUXUXUXUXF ; # ` f.UXUXUXUXUXUXUXUXUXUXUXUXUXUXUXUXUXUXUXUXUXUXUXUXUXUXUXUXUXUXUXUXe.&X9.| } }  .} {  ...{ } _ S > ",
"UXP.>X*X7X*X8X*X8X8X8X8X=X&XaX] @ 9 * & & & @ 8.NX=X=X6XnXE U {.{.&X}.).2.[ t 4 $.~.{.0X0X6X{.~.*.I >.^.7X6X9X9X9X7XcXxX9X0X7X0X0X7X8X0X7X6X6X6XcX0XcXcX6X1X6XcXcX4X1XcXcXcX1X1X1X1XcX+X|.|.+X|.#X#X#X#X|.+X|.|. X X).3.y P @.2.8.8.8.8.8.8.[ e w @.8.w.w.`.8.8.U < w.&.r ).eX8X XlX7X).3 h (.0X9X6X+X6X|.J J 1.7XeX8XrX7X&X' c r.e.$X,X;X;X;XvXM.B.B _ OX*X*XqXeXyXeXqXyXiXiXwXtXnX#XV.F.F.F.F.F.Z.U.i.  UXUXUXUXUXUX,.6.L L p.UXUXUXUXUXUXUXUXUXUXUXUXUXUXUXUXUXUXUXUXUXUXUXUXUXUXUXUXUXUXUXUXw.$X9. .} }  .{ { | | | _ ^ S : ",
"UXD.>X7X=X7X7X8X=X7X7X7X=X&XjX&.* 9 & & & & * 8.,X0X,X-XNXU U tX4X4X6X0Xq.E y p q.tX6X|.|.9X4X9X!.K z  XFXGXFXFXGXGXKXZXGXFXGXGXJXGXGXGXGXGXKXKXKXGXKXKXKXKXKXKXKXKXKXKXKXGXKXKXKXKXKXKXKXKXKXKXKXKXGXFXKXKXKXGXFXFXkXh.y E `.*X-XNXaXNX=X=X8.0 w 8.,XtXtX0XNX,XP p 1.$.h {.gXW e -.|.).7 x ~.eX X+X6X+X+XJ v 3.7X X+.E `.8X+.x r.e.XX,X;X;X=XbXM.B.A _ OX7X=XqXwXyXeXqXiXwXyXyX,XNXy.q.m.P.F.F.F.Z.U.i.  UXUXUXUXUXUXN.PXAXj.h.UXUXUXUXUXUXUXUXUXUXUXUXUXUXUXUXUXUXUXUXUXUXUXUXUXUXUXUXUXUXUXUXe.$X9. .} }  .| { | | { } ^ S : ",
"UXP.*X*X*X*X*X7X7X*X8X7X8X-XiX2.* - & & & 2 * 2.yX=XqX&XaXI L 0X}.#X#X6X!.E g 1 ~.0X#XkXgXn.8X6X8.x K |.DXVXVXVXZXVXVXVXVXCXVXCXVXCXVXZXVXVXVXVXVXVXVXCXVXVXVXVXVXVXVXCXVXVXVXkXVXVXVXlXVXVXVXVXNXNXAXDXVXVXVXVXVXVXDX;.y U ].0X0X#X#X#X#X=X8.3 u 8.4X#X#X#X#X#Xx p 9.@.h }.eX#.W -.|.}.8 J ).gX+.;.eX|.6XP x 3.8X#X#.0 (.8X%.z r.e.%X,X,X,X%XbX3XB.A _ OX7X8XqXeXyXiXeXiXyXiXeX,XaXXX@X:X3XG.F.F.Z.U.i.  UXUXUXUXUXUXS IXAXj.j.UXUXUXUXUXUXUXUXUXUXUXUXUXUXUXUXUXUXUXUXUXUXUXUXUXUXUXUXUXUXUXUX~.$X9. .| |  .} } | } } ] ^ S > ",
"UXP.&X7X*X7X=X8X7X8X7X=X*X&XiX2.* & & 5 5 9 * 0.tX-X=X&XnXH L dXtX0X4X0X~.E y 1 ~.0X6X;.L E tX0Xq.z U 4XVXVXVXFXCXCXCXCXCXCXCXCXCXCXFXCXDXDXCXCXVXFXCXCXCXCXCXCXCXCXDXCXFXCXCXFXDXCXCXDXDXCXCXCXDXDXDXDXDXVXZXDXVXDXFX8.>.R {.#X].-X0X-X#X=X8.0 w 8.#XNXNX=X0X0XP p 8.&.J }.9XgX7XzX0X).7 J ).gXE %.9X6X+XJ J w.8XtX&X#X7X&X+.x r.$X,X;X=X,X,X<XM.B.B _ OX7X*XqXqXyXwXqXiXwXwXiXyXyX=X0XiXvXG.F.F.Z.U.i.  UXUXUXUXUXUXUXg.sX2Xj.UXUXUXUXUXUXUXUXUXUXUXUXUXUXUXUXUXUXUXUXUXUXUXUXUXUXUXUXUXUXUXUXw.$X9. .|  . .{ _ | | } } ~ S > ",
"UXP.&X7X7X*X8X7X8X*X7X*X-X&XeX0.& * * * * & 8 0.yX-X=XOXhXJ R  X#. X0X0X~.R z 3 .X0X X-.V z ^.tX!.J I 4XVXDXVXVXCXCXCXCXFXCXVXFXCXCXCXCXCXCXCXCXDXCXCXCXCXCXCXCXCXCXCXCXVXVXFXVXCXCXCXVXCXCXCXCXDXDXDXZXVXZXDXDXDXAXDX-.z E #X{.8.8.#X-X#X0Xr.i g 8.,X8.8.#X8X#XU o &. .K  X9X6X6X X6X).3 J ).eX-. X&X|. Xh x /.8X&X*X8X#X8X( z r.%X,X;X,X;X=XbX3XB.A _ OX*XrXqXeXyXeXqXiXyXyXyXeXaX=X6XtXnXH.I.F.Z.U.i.  UXUXUXUXUXUXUXs.v o.j.N UXUXUXUXUXUXUXUXUXUXUXUXUXUXUXUXUXUXUXUXUXUXUXUXUXUXUXUXUXUXUXe.XX9. .|  .| | [ | | } } _ S : ",
"UXP.*X*X8X*X7X=X7X;X=X-X*X&X*XXX$X$Xe.w.(.XX@XOX*X&X-X}.iXJ E #XW /.0X4X^.R z 0 #X0X6X3.j y 8.dX/.H U 4XZXVXFXDXCXCXCXCXCXCXCXCXCXFXCXCXCXCXFXCXCXCXCXFXCXCXCXDXFXCXCXCXDXCXZXFXCXCXCXFXCXCXCXFXDXAXDXDXDXDXDXZXDXDXNX-.H / #X{.w.8.3X0X#X0X8.u c 8.tX%.V w.tX#XU o &.&.K {.8X&X6X&XcX^.1 P {.gX!. X+X|.`.t x ).0X8X&X&X&X8XE x r.=X;X;X,X;X,XvX3XB.B _ OX*X*XqXqXyXqXeXiXyXeXyXeXaX=X6XtXvXH.F.F.F.U.i.  UXUXUXUXUXUXUX` 7 >.o.UXUXUXUXUXUXUXUXUXUXUXUXUXUXUXUXUXUXUXUXUXUXUXUXUXUXUXUXUXUXUXUX(.$X9. . . . .| }  .} } _ ^ S : ",
"UXP.-X7X*X7X*X7X7X*X&X*X%XOXOX%X+XrX*XrX*X7X+X+X+X%XOXOXyX>.U kX4XtX0X0X`.T y u #X6X#X'.` h /.dX^.z R 0XZXVXZXDXVXFXFXCXVXFXFXVXFXCXCXCXZXFXCXCXCXCXCXCXCXVXCXCXCXCXCXCXCXCXCXCXFXVXCXCXVXFXCXVXCXDXFXVXFXCXCXCXDXVXFX-.H ' #X*.K 8.NX-X4X0X8.w b 8.tX#X^.#X#X0XU o &. .b `.tX#X6X6X6X/.1 U  X7X}.+X|.6X{.q x ^.8X8X&X7X&X8XU Y ;X%X,X;X;X;X,XbXM.B.B _ OX8XrX8XqXyXeXqXyXiXyXiXiXiXyX0XtXnXJ.I.F.Z.U.i.  UXUXUXUXUXUXUXj.I W d.UXUXUXUXUXUXUXUXUXUXUXUXUXUXUXUXUXUXUXUXUXUXUXUXUXUXUXUXUXUXUXUXw.$X9.&.}  . ...{ $.} } { ~ S > ",
"UXJ.*X*X7X*XrX*X*X*X*XOXOXXXOXXXOXOXOXoXOXOXOX+XOXOXOXOX=Xz Q tX#X#X4X4X^.E y 0 #X0X0X^.[.0XtX0X~.z U 4XZXCXVXDXCXVXVXCXVXVXVXFXVXCXCXVXFXCXCXCXCXFXVXFXCXFXCXCXCXCXCXFXCXCXCXCXVXFXZXVXCXCXCXFXFXVXVXVXCXCXCXCXVXVXFX-.>.' #X;.N w.#X#X#X0X8.3 z w.0X0XtXtXtX0XK p 8.@.U #XtX=X9X6X9X(.# E +X0X6X6X6X6X|.0 h w.tXtX9X8X7XtXY K %X%X;X;X;X;X%XvX3XB.A _ OX*X*XqXeXyXwXqXiXwXiXwXwXuXyX6XtXnXJ.F.F.F.U.i.  UXUXUXUXUXUXUXmXcX2Xj...UXUXUXUXUXUXUXUXUXUXUXUXUXUXUXUXUXUXUXUXUXUXUXUXUXUXUXUXUXUXUXe.$X9.,... . . ...|  .} } ~ S > ",
"UXP.&X*X7X*XrX7X*X*X&XOXoX_._.}.oXoX@X'.oXoXoXoXoXoX'.'.=Xh U tX6X`.+.-.^.R t 7  X8X4X0XtX&X4X0X!.J I 4XFXVXFXVXCXVXCXVXDXVXVXVXVXFXCXFXVXCXCXCXCXCXCXVXVXVXCXFXCXCXZXDXCXCXCXCXVXDXCXFXCXCXDXVXVXCXVXFXCXVXCXVXDXDXVX-.>.' #X`.n.tX0X4X-X0X8.w H w.0X#X#X`.~.#XK o 9.8.L q.8.q.~.q.=.*.1 R `.^./.w.=.%.%.7 z =.`.^. X{.^.`.I P %X%X;X;X;X:X;XbX3XB.B _ OX*X=XqXeXyXiXeXyXeXwXiXiXiX,X0XgXnXJ.F.F.Z.U.i.  UXUXUXUXUXUXUXW.PXAX2XO.UXUXUXUXUXUXUXUXUXUXUXUXUXUXUXUXUXUXUXUXUXUXUXUXUXUXUXUXUXUXUX~.$X4. .$... ...{ ,.| } _ ~ S : ",
"UXP.*X7X7X*X*X7X*XOXOX_.'.)._.)._.).)._.)._.).).).)._.(.&Xt U 0X#X.X%./.~.E t 0 #X4X#X4X4X4X#X6Xq.J H 1XVXVXVXFXCXFXFXCXVXCXFXZXCXVXCXCXVXCXCXCXCXCXFXCXDXFXCXCXDXDXFXDXFXCXCXCXCXCXVXDXCXVXCXCXCXCXFXZXCXCXFXCXAXDXkX;.y #.#X=X,X4X=X#X4XtX8.w z #X0X4X4X@.L q.P p 0.%.1 e 0 e e 5 3 3 . 4 >.H H L I H h # 0 z t r h J J K o P $X%X-X,X;X>X=XvX3XB.B _ OX=X7X8XqXwXyXqXiXiXwXiXyXyXuX0XzXnXL.F.F.Z.U.i.  UXUXUXUXUXUXUXUXN.j.h.#.UXUXUXUXUXUXUXUXUXUXUXUXUXUXUXUXUXUXUXUXUXUXUXUXUXUXUXUXUXUXUXw.$X1.$... .$...{ $.| | } ~ S : ",
"UXP.&X*X7X*X7X*XOXOX'.).3.w.3.(.0.e.w.w.3.3.e.3.0.w.w.(.}.r I DX0X0X&XtX~.Y u 5 #XtX4X0X6X4XtXkX/.J y 4XGXDXDXDXDXVXFXVXFXVXVXVXVXVXVXCXVXCXCXCXZXCXCXCXCXCXCXZXCXZXFXZXCXCXZXZXCXFXCXCXVXkXVXVXVXVXVXVXCXVXVXVXDXDXdX;.y %.#X#X}.}.}.].}.#X8.3 H `.0X#X#X#X{.#XU o &.e.$.@.] &.| &.%.] W 3 = 7 w j h j g o y [ [ +.] ] @.[ ] &.e.r.r.r.%X,X;XvXM.B.B _ OX=XqXqXeXiXeXqXuXiXeXuXyXiXaX0XdXnXL.Z.F.F.U.i.  UXUXUXUXUXUXUXM Q r I O.UXUXUXUXUXUXUXUXUXUXUXUXUXUXUXUXUXUXUXUXUXUXUXUXUXUXUXUXUXUXUXe.$X9.| .. . . .}  . .} } ~ S > ",
"UXP.*X7XrX=X*X*X-XwX*X).4.3.*.,.&.$.$.&.,.1.$.$.&.$.&.$.`.z H {..X.X^.{.!.' t 3 8.#X#X`.{.#X.X~.=.P u 4XGXfXZXZXFXFXFXZXZXZXVXVXCXFXFXVXZXVXVXVXFXFXZXGXFXFXFXFXCXCXFXFXGXJXKXKXFXFXFXFXKXGXKXGXKXKXFXKXGXGXKXKXFXDX4X#.y !.#X0XNXNXNXNX=X#X8.w z `.0XNX&X#X#X{.z p } $.9.9.&.8.0.(.]._.w.t b P P j j j x q t 9.8.e.e.0.w.1.1.&.&.0.e.r.XX;X=XbX3XB.B _ OX=X*XqXqXiXwXqXiXwXuXeXyXiXyX9XNXmXP.I.F.F.U.i.  UXUXUXUXUXUXUXO.^ L ) d.UXUXUXUXUXUXUXUXUXUXUXUXUXUXUXUXUXUXUXUXUXUXUXUXUXUXUXUXUXUXUX~.$X9. ...$. ...{  . .| } _ S : ",
"UXP.&X*X7X7X*X7XOXE J I z t h h r 7 w 7 e e 0 0 0 0 s 0 0 4 7 Y Y E E T K z i p U T U E T E T x K t u [.4X.X.X^.n.[..X1X1X4X X2X[./.[.[.2X1X4X1X.X^.[..X.X1X1X0X1X2X.X[.{..X.X1X1X4X4X1X1X1X1X1X1X1X4X1X1X.X.X{..Xn.8.8.r E @.] [ @.! 8.' E E 3 u ! E ' ' ' E ' t , 0 w w 0 c c P Y 2.0.] 7 $.q.3.`.~.*.8.c 5 8.8.r.8.[ / P P [ 9.].r.e.XX;X=XvXM.A.B _ OX*X=X8XqXyXiXwXiXuXwXeXtXyXyX0XkXnXL.F.F.C.U.i.  UXUXUXUXUXUXUXf.rXh.;...` UXUXUXUXUXUXUXUXUXUXUXUXUXUXUXUXUXUXUXUXUXUXUXUXUXUXUXUXUXUXe.$X9. . ... . .} $.| } ] ^ S > ",
"UXJ.*X=X7XrX+XeX@.o < 1 < # < < # < < < < < # < < < < 1 p p , o O o p O o O p p p o o p , p o , 4 p , 4 4 i e i i i i u i i u u u i e e i i u i u u i u i i u i i u e u e e e N i i u e i i i u u i i e u i e i i 3 3 4 4 < p , , , o < < , * , , p o , 4 < 4 2 2 3 0 0 i 0 0 w r 3 * $.*.r $.9X6XcX+X+X#Xx w 0.[ 3 4 4 p p < < & d 0.e.XX:X>XvX3XB.B _ OX7X=XqXqXeXwXwXiXeXyXiXyXiX,X|.tXmXL.I.F.G.U.i.  UXUXUXUXUXUXUXUXLXIX2Xj.) UXUXUXUXUXUXUXUXUXUXUXUXUXUXUXUXUXUXUXUXUXUXUXUXUXUXUXUXUXUX(.$X9.&... . ..... . .| } ^ S > ",
"UXP.-X*X7X7X*XwX+.< g q r q q q t q q t q t q t q g c t j 4 0 P I ! ) Y I P y 4 P I Y ) / Y U K 4 h I ! Y R / / U e z / E / [ / E R y r R R / / / / E K i P Y / / ' / E U i Y ) Y / ' E E U i J E E / ] / / E y r I P T Y U P P u 3 b I Y ! Y P K h 1 x x b x c c c q t 9 0 w w 5 0 p @.&.y $.9X7X&X+X}.&XJ t e.R # 9 w q q q q q < 0.r.XX,X=XvXM.l.B ) &X=X*XqXyXiXiXqXyXyXyXyXwXwXjXGXLXLXL.I.G.C.U.i.  UXUXUXUXUXUXUXUXD.cX2Xj.$.UXUXUXUXUXUXUXUXUXUXUXUXUXUXUXUXUXUXUXUXUXUXUXUXUXUXUXUXUXUX(.$X9. .|  .| } }  .| } } ~ S > ",
"UXD.&X*XqX7X*XeX( e ! I U P P U T I I T P Y Y P P Y U U K < P =.@.+.] +.+.$.H r &.$.@.+.+.] $.R 3 +.+.( / ( ( / ] u E +.E / E / ( @.L y @.) / / ! E #.R t $.' E / ( / ] ' y ' ] +.' ' [ ] ] u / @.' ! E / R @.H I $.] ) ' E / +.R r @.#.' / ( ( ] E i U E P U U U P P P P P K b K P < +.9.H %.9X&X6X#X+X7XK z r.K t &.=.2.w.0.3.*.3 9.e.XX,X=XvX3XV.B ~ OX*X*XqX8XyXwXeXyXiXeXiXiXiX,X`.kXJXL.I.F.F.U.i.  UXUXUXUXUXUXUXUXp.o.L J f.UXUXUXUXUXUXUXUXUXUXUXUXUXUXUXUXUXUXUXUXUXUXUXUXUXUXUXUXUXUXe.-X0. .|  . . .|  . . .} ~ S : ",
"UXP.&XrX7X7X+XpXW H w.&.2.2.2.2.2.2.2.=.2.=.=.2.=.&.&.] Y < E 9X|.|.{.).3.%.J u 4X+X|. X{.^.*.R 4 3. X).`./.3.-.#.u ( `.q.~./.8.-.*.H H ^.w././.8.8.%.U e /.~.~.~.q.=.=.' u %.`.=.8.*.%.%.#.e E {.w.!./.=.=.=.H H ~..X3./.w.=.w.U e =. X/.~.(./.~.#.3 ! =.%.[ [ @.| $.&.$.$.$.] | [ < [ 2.J %.iX{.}.&X&X6XI g r.I h  X*X}.&X&X6Xw.1 0.e.XX,X,XvX3XV.B X.OX*X=XqXqXyXiXwXiXiXwXiXiXiXuX].).6XH.F.F.F.U.i.  UXUXUXUXUXUXUXUXV v J Y d.UXUXUXUXUXUXUXUXUXUXUXUXUXUXUXUXUXUXUXUXUXUXUXUXUXUXUXUXUXUX(.$X0.,.|  . .| .. . .} } ~ S > ",
"UXP.-X7X7XrX*XiXU H 8X X|.6X6X6X6X6X4X6X6X6X6X6X&X|.{.' E < ( DXZXIXCXZX X;.K t 0XCXDXCXVXsX*.R 3 /.FXFXKXCXDX{.+.u ( kXDXKXJXFX6X$.L z 0XDXJXJXNXkX8.U e ^.NXDXJXDXDX6XE u -.tXiXzXiXtX7X$.r / tXJXJXJXDXJX|.z H `.kXDXNXkXkXkXU e 3.gXBXJXJXlXlX=.3 E (.#X#X#X}.OX#X&X|.OX+X}.#X=.o ' 2.J *.iX/. X7X}.9XR h e.E h `.&X X}.}.6X3.1 1.e.XX,X=XvXM.V.B X.OX7X*XqXeXyXiXqXiXwXiXwXwXwXaXiX=X*XK.F.F.F.U.i.  UXUXUXUXUXUXUXUX^ ).h.W ;.K UXUXUXUXUXUXUXUXUXUXUXUXUXUXUXUXUXUXUXUXUXUXUXUXUXUXUXUXUX'.%X9.&.|  . . .{  . .} } ~ S > ",
"UXP.-XqXrXrX*XeXU L dX&XgX9X6X6X6X4X4X6XcX6X6X4X#X6X X[ Y < +.VXkXzXzXVX X#.L H 9XVXzXVXfXxX-./ 4 ~.CXfXfXkXZX}.+.u +.FXkXkXkXVXtX%.x >.0XzXgXzXgXNX8.K i {.DXzXzXzXkX#XE >.*.kXNXNXNXNXdX@.u / dX4X9XlXkXDX|.>.K ^.JX|.kXkXDXlXR r 3.gX9XfXzXzXVXq.e / ~.8X=XtXtX8X9X6X9X6X0X8XgX~.o ' =.K *.iX%.^.0X#X8XU g w.E h {.*X&X&X&X&X~.< 1.0.XX:X,XvXM.B.B _ OXrX=XqXeXyXyXqXiXyXeXiXiXeXaX8XsXnXM.I.F.F.Y.i.  UXUXUXUXUXUXUXUXg.PXAXj.j.l UXUXUXUXUXUXUXUXUXUXUXUXUXUXUXUXUXUXUXUXUXUXUXUXUXUXUXUXUXw.-X0.,. . . .| {  .| | [ ^ S > ",
"UXK.*X7X8X*X*XiXU Q gX XU ^.6X1X4X&X6XcX4X#X6X&X6X4X|.+.R 1 #.FXfXlXfXZX+X@.I J fXkXkXVXZXgX*.E e ^.FXkXfXkXFX|.' z %.FXVXVXVXDXfX%.U H tXNXzXNXzXkX8.I 0  XNXdXkXkXNX0XE z =.kXNXzXgXjXtX@.z ' zX4XdXDXDXFX|.H I }.FXsXNXkXkXlXR r /.CX6X0XCXzXlX!.3 ' {.0X7X`.^.0X6X6X6X7X6X+X8X^.o E 1.K *.gXU ;.tX+X6XK z ].R h }.|.%.%.*.&X).4 1.r.XX;X,XvX3XB.B _ OX=X*XqXeXyXyXeXiXyXyXiXyXeXyX8X0XnXM.F.F.F.U.i.  UXUXUXUXUXUXUXUXUXSXmXAX.Xv UXUXUXUXUXUXUXUXUXUXUXUXUXUXUXUXUXUXUXUXUXUXUXUXUXUXUXUXUX0.%X0. .|  . .| |  . .| } ~ S > ",
"UXK.*X7XrX8X+XpXU U lX/.:.n.0X0X9X7X6X4X6X6X6X6X#X6X4X@.Y 3 %.FXgXfXzXAX6X#.L I zXzXVXVXfXzXq.E e {.FXzXVXkXVX1X] z *.FXkXVXVXVXNX-.L L tXNXzXNXkXNX8.U u #XNXkXkXzXNX4XE g 3.lXdXNXNXNXdX%.y @.dXFXkXDX:XMX4XK U  XJXDXNXkXNXlXR y ^.kXzXsXlXzXkXq.0 [ #X#X&Xn.-.0X8X8X7X7X6X&X9X{.< E 2.P =.jX%./.8X&X&XK c $XE h |.`.U R U &X}.3 1.e.XXyX;XvX3XB.M { OX7X7XqXwXyXyXeXwXiXyXwXyXuXaX8XtXnXM.I.F.F.U.i.  UXUXUXUXUXUXUXUXUXZ f.:.) V UXUXUXUXUXUXUXUXUXUXUXUXUXUXUXUXUXUXUXUXUXUXUXUXUXUXUXUXUX0.-X9. . .|  .| { $.| | } ~ S > ",
"UXK.>X*X7XrX+XpXR W BXh./.!.|.y R h.!.0X|.6X6X4X6X6X6X$.Y 3 -.JXCXVXzXVX0X$.J U VXlXkXkXZXzX/.E e 1XFXVXlXkXDX4X@.h 8.GXDXAXVXCXfX-.x K NXNXNXtXkXlXq.U t 4XDXkXNXkXNXtX( V !.lXtXNXNXzXtX%.y %.kXkXNXDXbXMX4Xx U 4XJXlXkXDXkXDXR y `.kXlXkXkXzXNX^.u @.#XtX X/.-.#X-.-.[.^.7X+X8X).o E 1.K 3.8X7X7X6X6X&Xz z ;XE H +X X-.8X}.}.OX3 &.e.-X:X;XvX3XB.B _ OX*X*XqXeXyXyXqXeXwXyXeXyXeXuX8X0XnX5XI.F.F.U.i.  UXUXUXUXUXUXUXUXUXV l 1 D Z UXUXUXUXUXUXUXUXUXUXUXUXUXUXUXUXUXUXUXUXUXUXUXUXUXUXUXUXUXq.-X9. .|  . .| .. .| } } ~ S > ",
"UXK.>X7X7X7X*XpXU W hX>..XU ;.#.-.h.%.6X#X6X4X&X#X4X6X@.Y 3 8.JXAXhXZXZX7X@.I H VXVXgXCXfXkX/.E 0 4XJXfXfXCXFX0X#.h *.FXVXCXVXVXNX-.K Q DXgXdXkXzXNX8.I H 0XFXDXNXkXNXtXW t !.NXNXtXNXNXtX%.t %.kXDXkXNXkXmX4XJ U 0XFXzXFXkXNXDXR h  XkXlXzXlXzXDX/.r @.|.jX+.q.%.+.h.;.;.j.8X&X8X^.p E 1.U /.eX8X8X7X6X6Xz U ;X( J |.6XOX}.+X|.(.4 &.$X%X,X,XvXM.V.B _ &X7X=X8XqXeXyXwXiXyXyXiXyXtXaX8XsXnXM.F.F.F.U.i.  UXUXUXUXUXUXUXUXUXg.@X[.cXj.6.UXUXUXUXUXUXUXUXUXUXUXUXUXUXUXUXUXUXUXUXUXUXUXUXUXUXUXUX0.%X0. ... . ..... . .{ } ~ S > ",
"UXK.=X7XrX8X+XiXR L hX{.-.-.sX9XxXsXsX6X6X#X&X4X4X&X6X@.U 3 ^.1XL 0XZXhX0X#.H Q kXh.^.CXkXVX/.U r 4XDXo./.FXVX6X+.y =.KXh.1XJXkXNX;.z U DX%.%.DXzXNX!.K u 9XfX-.^.NXNX0XE u ^.fX#Xw.0XNXNX@.u %.DXdX|.NXVXGX#XH U &XKX4XkXlXlXkXU y {.DXsX9XVXkXlX-.0 @.#X9X|.n.^.0X|.9X6X6X6X6X8X~.o Y w.E =.).{.&X}.`.~.t R uX+.z }.&X{.}. X}.~.2 &.=X,X,X,XvX3XB.M _ +X8X8XqXeXiXyXqXiXyXyXeXyXyXaX8XfXmX5XF.F.F.U.i.  UXUXUXUXUXUXUXUXUXUXZXxX1Xj._ UXUXUXUXUXUXUXUXUXUXUXUXUXUXUXUXUXUXUXUXUXUXUXUXUXUXUXUX0.%X4. . . . .| {  . ...} ~ S > ",
"UXK.>X7X7X7X7XiXU L 9X8X;./.4X|.1XcXcX4X#X6X#X#X|.#X4X] U 1 %.LX.XGXfXVXsX+.J U JX#.^.JXfXZX`.U e 0X|.sXFXfXAXsX#.u %.LX;..XFXVXFX-.z W DXn.o.zXtXNXq.L h dX4XQ [.NXkX4XE u ^.NXL L tXgXNX%.0 @.FX{.4XDXkXNX|.H U 0XLX.X.XFXlXkXU y {.FX X4XDXgXDX=.7 $.&X8XtX=.^.9X0X&X6X7X&X+X9X~.o I XXz < 4 4 3 1 3 0 O E yX+.z }.OX`.'.'.}.w.< 0.,X%X,X=XvX3XB.M _ OX*X*XqXwXyXyX8XwXyXyXiXyXeXyX8X0XaX5XU.F.F.F.i.  UXUXUXUXUXUXUXUXUXUXG 2Xj.j.#.UXUXUXUXUXUXUXUXUXUXUXUXUXUXUXUXUXUXUXUXUXUXUXUXUXUXUXUXq.-X0.&.} $. . .}  . .| } ~ S > ",
"UXK.>X7XrXrX+XwXR H 0X|.9X&X#X4X6X4X1X6X&X4X#X#X6X&X6X@.K < ;.VXQ ^.ZXfX0X$.z y fX;.h.ZXxXCX^.K e 0X0X;.^.fXzX6X+.u -.FXn./.fXfXNX-.t L FX:.H zXtXzX8.U u dX[.#..XNXdX#XE 0 ^.NXV ' #XNX0X@.i %.NXkX|.kXfXNX X>.W dXJX1XtXkXzXfXU u #XDX X9XlXdXVX=.3 =.#X7X6X0X9X6X&X4X6X6X&X+X7X3.o R XX] U I I L U U [ $.(.yX@.h }.9X|.+X+X&X).< 0.,X%X,X,X:XM.V.B _ %X8X*XqXeXwXiXqXiXeXiXwXyXyXaX8XtXaX3XI.F.G.U.i.  UXUXUXUXUXUXUXUXUXUXUXd.J I d.UXUXUXUXUXUXUXUXUXUXUXUXUXUXUXUXUXUXUXUXUXUXUXUXUXUXUXUX9.-X0.,..... .| }  . .| } ~ S > ",
"UXK.*XrX7X*X*XeXR u &X X{. X{.|. X X X|.|. X#X#X X#X#X+.P * h.KX1XfXFXJXxX#.H >.CXZXZXCXFXFX/.L e 0XLX[.4XFXJX0X' 0 -.GXkX4XCXGXfX%.y U KX4X.XDXNXNXq.K u kXDXdXfXNXNX#XE u .XJX2X4XtXNXNX@.i 8.FXJXDXDXNXJX#Xy #.NXKXDXJXDXDXgXK y dXFXJXNXNXDXJX=.7 q.0X9X#X#X|.#X#X#X#X#X}.|.&X=.o U (.].'.].].'.&X-X,XuX=X,X@.J {.|.`. X{.{.!.2 2.oX-X;X;XvXM.A.M _ OX=X8XqXqXyXiXeXeXiXyXyXiXwXaX8XdXBX3XF.F.F.U.i.  UXUXUXUXUXUXUXUXUXUXUXl g J o.) a UXUXUXUXUXUXUXUXUXUXUXUXUXUXUXUXUXUXUXUXUXUXUXUXUXUX9.-X9. .|  . ...|  .| } ] ~ S > ",
"UXK.>X7X7XrX+XqXR u tX0XsXfXdXdXsXdXsXfXdXkXtXdXtX#X4X#.K < ( 6XsXfXfX4X.X$.h u |.4XfXfX4X X8.K 4 !.6XfXCXfX1X^.' e +.#XsXkXzX0X4X%.u L 4XtXdXkX4X#X8.z e  X4XdXkXsX4X{.E i q.4XtXNXfX0X{.#.e @.1X0XzXkXdXsX/.y Q  X4XfXkXgX9X4XJ u ).4X9XkXVX4X4X$.4 =. X6XtXzXzXdXtX9XtXdXdX&X#X$.p z } [ $. .&.&.=.r.].].].qX@.K %.%.%.%.@.] Y < 1.e.XX,X;XvX3XB.B _ OX*X*XqXeXyXyXwXwXwXiXeXeXeXuXtXtXnX3XI.F.F.U.i.  UXUXUXUXUXUXUXUXUXUXUXMXZX2Xj.j.` UXUXUXUXUXUXUXUXUXUXUXUXUXUXUXUXUXUXUXUXUXUXUXUXUXUX2.-X0. .}  .$...}  . .| } ~ S > ",
"UXK.>X7X7XrX*XeXE o H K U P K J x z y y y y z L L U L K t < 4 0 7 r u e e r 3 4 r e r y r i u 3 4 i e e u u e r e 4 3 r u u t u u r 3 3 r u u u u r t 0 4 u y y z z y >.u 3 u z h z z H z >.4 i y r y y u u t i 3 u e t u y e e 3 4 r u e u y t y i < h J K K K J K U W U K K K K e p 4 < < * 3 q t g z [ e.e.qX$.o 1 i 3 r 0 2 1 p &.r.'.,X,XvX3XB.B _ OX7X=XqXqXyXuXqXyXiXwXiXwXeXuX;X4XBXSXF.F.F.U.i.  UXUXUXUXUXUXUXUXUXUXUX5XPXAX1Xh.K UXUXUXUXUXUXUXUXUXUXUXUXUXUXUXUXUXUXUXUXUXUXUXUXUXUX0.%X9.,.}  . . .}  . .| } ~ S > ",
"UXK.>XrXqX7X*XqXE o e i e t t r t u q t t q e 0 < p 1 4 e t e e e < < 3 4 4 3 e 3 4 3 4 i q t t h h t t 7 4 r r h h h h y 0 3 3 0 u u t r e i 2 i r u u y u t e 3 i i i i 0 i 3 i 3 i x K v P P x J h 4 r x z z x z z e 3 0 z h H x h h r 4 0 z h x x y t t < p q r r r t t r 0 0 q q 0 2 7 w 7 7 2 7 p E ].e.qX%.o * < < 1 1 4 < o &.r.$X,X;X:X3XB.M _ OX*X7XqXeXiXyXqXeXeXiXyXyXeXaXqXNXPXSXF.F.F.U.i.  UXUXUXUXUXUXUXUXUXUXUXUXN.-.#.L O.s.o.UXUXUXUXUXUXUXUXUXUXUXUXUXUXUXUXUXUXUXUXUXUXUXUX9.%X0.&.|  . . .}  .| } } ~ S > ",
"UXK.rX7X7XrX*XeXY J /.#.( +.' ' ' ' %.-.8.].{.! u w [ E E ! ' [ ] E 0 R R ) / ] ] ' @.e U ] ' ' ] ] ] $.U e ] [ ' +.' ] @./ e / / / ' ] ( ] +.e Y / / ' ' [ ] ] u P ! / ] ] [ / ] H H } ' +.] ' [ #.( 0 / ] ] [ ' [ +.' i / ] ] [ ' ' ] @.e P ] ) ] ] [ ( @.H 0 ! I T Y Y T E Y I P b x j x j t g q h 1 U _.(.uX%.w x v x K x x P 4 $.r.XX,X;XvX3Xl.B ~ $X7X7XqXeXwXiXwXiXeXyXyXyXeXiX;X2X5XM.F.G.F.U.i.  UXUXUXUXUXUXUXUXUXUXUXUXUXA s J #.:.` UXUXUXUXUXUXUXUXUXUXUXUXUXUXUXUXUXUXUXUXUXUXUXUX0.-X1. .}  . .| }  . .} } ~ S > ",
"UXK.>X7X7XrX+XqX( K x j z j x h z K ' #.[ 8.n.8.u U q.8.8.=.*.%.;.E 7 =.3.=.q.-.=.#.@.r U 8.$.&.%.%.@.$.H e =.*.$.[ $.$.@.( e %.$.$.%.%.$.%.+.i ] *.@.$.%.$.+.@.u E =.@.] %.+.+.$.H y =.=.%.*.$.$.$.W u *.=.$.$.%.$.@.( 0 +.=.%.$.$.$.@.' e E *.3.$.@.@.] +.J 3 ] R P P x z x x P I I T I Y T P U U Y 7 P '.(.uX%.h $.*.%.$.%.%.@.7 ] e.XX,X,XvXM.A.M { OX7X;X8X8XyXyXqXwXiXuXeXiXwXaX,X8.x.G.F.F.F.U.i.  UXUXUXUXUXUXUXUXUXUXUXUXUX .h..X[.j.L UXUXUXUXUXUXUXUXUXUXUXUXUXUXUXUXUXUXUXUXUXUXUXUXq.-X0.,.}  . .| |  . .| } ~ S > ",
"UXK.=XrXrXqX7X7X+.=.*.*.=.-.*.3.8.E ( %.@.8.`.@.w H tX0XdX8X6X`.%.E e |.tXgXgX8X6X3.+.r ' 0XXX#X}.&X`.;.J u  X6X#X`.}.|.=.E i ^.&X+X#X#X}.q.( 4 ;.6X XOX}.}.^.#.u E 0X}. X&X|.`.-.y z `.0X}.}.}.}.(.E e q.0X{.#XOX}.{.' 3 @.0X+X}.OXOX'.=.e (  X9X+X X X X'.I e @.~.3.8.8.&.*.=.3.!.3.j.~./.~.q.2.&.=.7 c '.e.yX*.r ~.&X$.%.#X8X].7 @.r.XX;X=XvX3XV.M _ $X7X8XqXyXyXiXqXwXuXeXuXiXeXaXiX$X@X#XJ.F.F.U.i.  UXUXUXUXUXUXUXUXUXUXUXUXUXIXbX1X2Xh.o.UXUXUXUXUXUXUXUXUXUXUXUXUXUXUXUXUXUXUXUXUXUXUXUX$X$X0.&.|  . ...{  . .} } ~ S > ",
"UXK.>X7X=X7X6XqX( {.xX0X7X0X6XcX}.E E %.8.8.{.#.t L NXtXxXxXgX0X$./ r  XkXdXdXgXVX/.+.y W NXNXNXzXNX9X%.L r &XDXDXKXDXVX/.E 0 !.DXlXlXkXJX`.E i $.lXDXNXNXDXgX%.t E 8XDXDXFXDXDX!.h H /.JXBXNXlXNXkXE y =.gXDXNXVXDXVX@.e @.0XBXJXmXlXJX|.0 E `.NXlXNXVXmXJXU r } }.&X8X8XtX8XqX>X@X%X>X@X-X@X&X*X&X].7 t _.~.uX&.r /.}.@.[ ].#X).7 } r.XX;X,X<X3XA.M ! OX8X*XqXeXyXiXqXeXeXuXeXyXyXyXiX7XtXbXJ.F.C.U.i.  UXUXUXUXUXUXUXUXUXUXUXUXUXg.AXj.h.>.V h.4.n UXUXUXUXUXUXUXUXUXUXUXUXUXUXUXUXUXUXUXUXUX&X$X0. .|  . .| {  . .| } ~ S > ",
"UXK.=X7X8X7X*XqX( /.6X|.cX1X+X|.}.' E &.%.~.{.@.g Q CX9XgXxXgX0X;./ e |.zXfXzXfXzX^.+.r #.lXtXgXdXgX=X%.L y 0XlXzXtXdXzX/.E e /.zXdXgXgXzX~.E e %.kXzXdXzXlXtX$.u ( 0XjXzXzXgXlX!.z L `.NXgXgXgXgXtX' y =.zXzXzXgXgXgX#.r #.dX{.fXzXhXhX{.e R }.CX}.9XhXhXhXU r @.'.&X#X'.'.#X#Xy.y.<.<.<.y.<._.&X&X}.3 y _.(.uX%.y ~.6X6X6X6X6X|.0 ' r.XX;X;X:X3XV.M _ OX*X*X8XeXyXyXqXwXyXiXwXiXeXyXaX7X0XuXJ.F.F.U.i.. UXUXUXUXUXUXUXUXUXUXUXUXUXUXp.Q k ;.j.3.W >.UXUXUXUXUXUXUXUXUXUXUXUXUXUXUXUXUXUXUXUXUXw.%X0. . . . . .{  . .} } ~ D > ",
"UXE.>X7XrX7X*XrX+.[.0X7XcXcXcXcX#X] U *.%.~.}.@.r R JXxXgXxXhX9X%.E r 1XkXgXzXgXkX).' u #.DXgXzXgXzXtX%.I H 0XlXzXzXzXlX/.E t ^.kXzXzXdXlX^.' r -.lXzXzXzXzXgX%.y ( dXNXkXzXzXlX`.z L {.NXpXzXjXzXdX' y 8.NXzXzXzXjXlX%.r %.gX6XgXjXjXCX Xe R |.DXiXgXhXhXhXR t &.#X#X8X&X#X-X&X+XrX>XOX@X+XoXOX&X&X}.0 h _.e.yX*.h ~.&X`.*.).+X|.0 ] r.'.,X,XvX3XV.B _ OX*XqXqXqXwXiXeXeXiXyXiXyXyXyXyX0XtXnXL.F.C.U.i.  UXUXUXUXUXUXUXUXUXUXUXUXUXUXUX` cX2X5X2XQ V o.6.UXUXUXUXUXUXUXUXUXUXUXUXUXUXUXUXUXUXUX0.%X0.&.|  . .| }  . .| ] ~ D > ",
"UXK.>X7XrX7XcX7X+.h.-.j.j.j.%./.&X' U *.%.w.#X@.r :.JXxXhXxXzX9X$.( y 9XlXgXgXzXzX^.+.r %.DXgXdXgXkXtX%.K H 9XlXdXzXzXkX/.E u  XzXgXzXgXkX^.' e q.DXzXzXzXzXfX%.h +.kXlXkXkXzXDX.Xz U |.NXjXjXjXjXtX+.y w.NXzXzXlXgXCX$.r *.zX7XgXlXhXMX|.e E 6XIXlXhXhXjXlXW t %.#X8X*.u %.8.{.^.).`.{.cX7X6X&X&X&XOXe y _.].yX*.z `.{.R W #.#. Xt [ r.oX,X;X:X3XV.M _ OX8X;XqXeXyXiXwXwXiXeXyXiXeXyXuX0XgXnXJ.Y.F.U.i.  UXUXUXUXUXUXUXUXUXUXUXUXUXUXUXd.mXbXj.L W *.-.^ V UXUXUXUXUXUXUXUXUXUXUXUXUXUXUXUXUXUXw.-X9.,.|  . .| {  .| } { ~ S > ",
"UXE.>X7XrX7X*XrX$.;.#.#.:.o.I j.tX] U -.%.^.#X+.t :.KXzXzXgXxXxX%./ y 9XCXgXzXgXkX{.( r -.JXjXgXtXzXdX=.I L dXkXkXkXgXlX~.E >.|.NXNXzXdXkX`.( r =.DXzXlXgXlXgX*.u @.lXDXNXzXzXNXoXV U #XNXjXzXgXzXzX' H ^.NXlXlXzXgXJX$.u =.dXJXzXgXyXu.&Xi E 9XNXhXzXhXzXlXE t 8.&X8X%.t ;.%.W Q Q W W '.7X|.OXOX}.&Xr y XX2.yX=.H `. X+.^.#.^.6Xq [ r.$X,X;X:X5XB.M _ %X*X*X8XqXyXwXeXyXiXwXiXyXyXaX,X0XzXnXP.F.F.U.i.  UXUXUXUXUXUXUXUXUXUXUXUXUXUXUXUXUXM ` L j.h.h.) D g.W UXUXUXUXUXUXUXUXUXUXUXUXUXUXUXUX9.-X9. .|  . . .}  . .} [ ~ S M ",
"UXE.>X7X7X7X*X7X$.h.j.xX|.1XcX[.0X' T %.%.{. X+.q :.fX0X|.zXhXxX%.E e 9X1X^.fXzXkX}.' r -.JX-.0XNXgXgX8.J x lXxXkXzXdXlX/.E u 6XgX.XkXgXlX.XE e !.kXkXsXlXzXzX%.u #.DXlXfXNXgXDX|.h U 4XlXzXdXzXgXhX' h ).FX|.1XlXgXDX%.u -.gXlXhXlXpXMX|.0 E 0XJX=.zXlXzXlXE t &.&X&XtX#X&XqX`.;.^.^.{.OX+X+X&X&X&X&X0 t XX~.wX*.J /.9X6X&X0X6X#Xr [ XX;X,X,X:X3XV.B ! %X*XrXqXqXyXyXiXeXyXyXiXwXwXiXqX0XNXaXP.F.F.U.i.  UXUXUXUXUXUXUXUXUXUXUXUXUXUXUXUXUXUXmXIXZXj.h.Q :._ H UXUXUXUXUXUXUXUXUXUXUXUXUXUXUXUX9.%X0. .|  . .| {  . .} } ~ S > ",
"UXK.>X7XrX7X*XrX:.1X7X1X1X+X1XcX#X@.U %.q.#X{.@.u W 0X:.[.hXxXxX%.R 7 4X Xo.|.lXzX{.' e ;.gXo.!.zXtXtX-.x V fX/.0XzXgXDX^.E u 0X.XH {.kXkX`.E 7 [.|.4X.XlXgXgX%.0 ( FX|.#.DXgXDX{.y K 0XxXh. XlXgXgX( u ^.lX#.^.zXgXBX$.e =.lX9XzXhXlXlX|.3 R 0XJX].gXhXhXhXR e 8.8X%X#X&X&X&X&X*X-X*X+X+X+XOX+X}.}.#X0 r >X(.;X=.z ~.&X5.e.}.|.}.0 / -X%X;X;X:X4Xl.M ~ OX7X8XqXyXyXyXeXeXiXyXyXiXeXyXyXtXFXaXP.F.F.U.i.  UXUXUXUXUXUXUXUXUXUXUXUXUXUXUXUXUXUX;.j.j.>.L ;.j.h.Q d._ ;.UXUXUXUXUXUXUXUXUXUXUXUXUX9.%X0.&.|  . .| |  .| } } ~ D > ",
"UXE.=X7X7XrX+XqX:.^.1X X X X X X#X' U 8.`.#X{.+.r L KXH 1XzXxX0X;.Y e 9X Xh.0XsXgX^.( 0 %.sX/.2XtXtXtX-.H H gX/.sXkXdXkX/.R 0 4X^.1X0XgXgX`.E i ^.6XW ;.VXdXxX*.0 +.lXkX!.sXzXzX{.y I dXfXL 0XzXgXtX' e  XkX1XDXdXgXzX;.0 =.DX XeXzXxXhX X3 R dXJXbXu.MXMXiXU e ~.0X#X'.}.}.&X}.4.<.y.y.5.'.}.}.}.}.'.0 g uXw.;X=.z ~.}.4.y.}. X|.0 $.<X;X;X,XvX3XV.B ^ OX=X7XqXeXwXwXwXeXwXyXeXiXyXyXyXtXKXBXP.F.F.U.i.  UXUXUXUXUXUXUXUXUXUXUXUXUXUXUXUXUXUXUXUXN 6.2XAXj.W :.-.) Q M UXUXUXUXUXUXUXUXUXUXUXUX9.-X0.,. . . . .{  . .| { ~ D M ",
"UXE.>X7X8X7X+X7X( j..X^..X).)..X X' U 8.~.^.`.+.t H lX( `.0X7X6X%.R 7 1X/.#.0XcX9X{.( 3 %.fXe /.tX&X7X-.H H kXW U 0X4XdX!.E 3 #Xn.I 0X6X0X^.' < [. X#.;.gX0X6X%.i W kXkX/.0X9XdX^.r H dX9X#..X8X7X6XE e {.kX^.6X8X9XdX$.r -.DX7X7X0X7X9X`.3 I dXNXy.y.y.@XqXR 3 8.&X].].`.`.].`.(._.)._.y.).`.).~.].(.7 V nX2.%Xq.h !.lX+X}.OX+X'.q ] %X%X;X=X:X3Xl.M ! OX7X=X;XqXyXiXeXwXuXiXiXyXyXyXuXtXKXnXK.F.F.U.i.  UXUXUXUXUXUXUXUXUXUXUXUXUXUXUXUXUXUXUXUXUXPXmXj.Q ;.2X[.O.W f.,.d.UXUXUXUXUXUXUXUXUXUX9.-X4.$.} .. .} {  . .| } ~ S > ",
"UXE.>X7XqX7X*X7XW 1XsXsX1XsX0X4X|.( R %.*.=.q.+.r U ZXZXKXKXGXsX;.I 7  XFXAXLXKXGX.X' 3 %.KXfXLXLXKXfX*.z y dXFXZXLXGXFX^.E u 0XGXdXKXKXGX4X/ 3 ^.FXLXKXKXKXFX%.i +.DXDXKXKXKXLX^.u H sXJXLXKXLXJXFX+.u |.lXKXKXKXFXFX*.3 *.DXJXJXLXKXLX4X4 ( dXVXFXLXKXJXIX( e w.0XtXiXiXgXgXzXmXzXhXgXxXgXpXhXtX0X&Xr r -X*.-Xw.U `.`.j.!./.^.q.3 / r.XX;X;X>X4XV.> X.$X=XqX8X8XyXyXwXeXiXiXwXiXyXwXaXwXmXBXK.F.F.U.i.  UXUXUXUXUXUXUXUXUXUXUXUXUXUXUXUXUXUXUXUXUXUXUXm.4.AXsX;.L :.j.R d.F h UXUXUXUXUXUXUXUXq.-X9. . . . . .{  .| } ] ~ D > ",
"UXE.>X6X*X*X+XqXW 4 I #.#.*.%.( E R E E R R U K < 7 *.$.$.#.:.( R r < R *.%.;.#.( E J 4 y #.;.+.+.W R I i 4 W %.$.' ( W U z 4 E -.*.$.' ' ' K 4 U -.j.3.%.*.*.E i >.#.8.q.3.*.=.$.t i #.%.#.#.#.E ' z 4 E *.%.$.$.#.+.K 4 R -.=.-.!.3.3.@.e r E R W W W I K e 4 U ' R U U R U U I / ( ( T U I I I b z * K XX&.=Xq.j U +.+./ / I Y * / e.XX;X,X:X3XV.B ^ &X=X*XqXeXyXiXyXwXiXwXiXyXeXuX,X*XdXfXH.F.F.U.i.  UXUXUXUXUXUXUXUXUXUXUXUXUXUXUXUXUXUXUXUXUXUXUXd.5X2X:.>.j.2Xh.Q ` _ ) UXUXUXUXUXUXUXUX2.-X0. .}  . .} {  .| | { ~ S > ",
"UXE.vX7X7XrX*XqXW o p o p , < p , , , 4 < p p < p < < 4 4 p < 1 4 < 4 < < < < < < 4 3 4 < < p < p 4 4 3 4 < 4 < < < 4 1 4 4 4 < < 4 4 4 4 4 1 4 < 4 4 4 3 4 4 4 4 4 4 4 4 4 3 3 3 4 4 3 4 4 4 4 3 4 4 3 4 4 4 4 3 4 4 4 3 4 3 3 4 4 4 3 4 4 4 4 4 1 < < 4 < 4 < , < < < < < < * p p < < p p p p p p p p y XX=.=Xw.< o p p p o o o o ] r.XX;X;X>X3XV.M X.XX*X8X8XqXeXyXwXeXiXyXyXyXiXiXuXE.L.H.F.F.F.U.i.  UXUXUXUXUXUXUXUXUXUXUXUXUXUXUXUXUXUXUXUXUXUXUXUXUXUXh.j.sXj.Q o.h.2.o.d.d.UXUXUXUXUXUX0.%X0.,.|  . .| |  .| | { ~ D > ",
"UXE.:X7XrX7X*XrXR 1 v v v P b b c c c t s h < 7 P U I I ) / U e 7 v P I / ) / / J 4 c K I ! E / / U 3 t P P U / E E Y u 3 K I Y Y / E E z 3 z P I R ) ! R J 3 c I Y T R R R K 3 y P Y Y ! E / E y u P P Y E ) R R h i x P I R Y R R K 3 h x Y R Y / / U i e v x T E E Y U i 3 x K Y ) ` ) ! ) ! Y x c 4 y XX=.-Xw.2 q q s d d q 7 p [ r.XX;X=X:X5XV.M X.$X8X*XqXqXyXyXiXqXyXiXyXiXwXeXnXb.x.G.F.F.F.U.i.  UXUXUXUXUXUXUXUXUXUXUXUXUXUXUXUXUXUXUXUXUXUXUXUXUXUX6.PXcXW O.1Xh.o.V ( ] UXUXUXUXUXUXw.%X9.&.|  . . .{  .| } } ~ S M ",
"UXE.vX7X7XqX*XeXR x +.Y E Y E / ( / / / U R 7 +.~.3.=.-.%.$.%.H H ~.3.3.3.*.%.$.( 3 $.*.*.%.%.+.$.$.e R *.*.*.$.$.@.%.L e &.=.*.%.@.@.@.E u *.%.%.*.$.#.$.' r +.*.$.*.;.+.@.#.e / =.=.*.%.#.@.$.H I *.*.%.*.$.#.%.U u %.2.=.2.%.#.@.+.i ' &.=.=.%.$.+.$.e K 1.*.*.$.] ' @.H t $.$.+.] ) ( ' ] ] [ ( @.e r XX&.=Xw.j E ] @.} +.( ] 7 ! r.XX,X;X:X3XB.M _ OX*X;X8X8XwXyXqXwXiXuXeXyXuXqXnXu.t. Xm.F.F.U.i.  UXUXUXUXUXUXUXUXUXUXUXUXUXUXUXUXUXUXUXUXUXUXUXUXUXUXUXd.x.4.sX1X;.o.:.#.:.UXUXUXUXUXUXoX%X4. .}  . .| {  .| } { ~ S > ",
"UXE.:X7XrX7X+XqXR E {.|. X1X|. X|. X Xj.) U 4 3.zXhXhXzXeX/.@.H H xXlXlXlXzX8X%.E 3 /.iX9XgX7X6X!.#.e W 9X8XeX9X8X`.*.H e  X8X8X8X=X#Xq.U e ].tXtXiX9X8X`.E e -.0X8XiX8X&X}.+.0 W 0X8XgX9X7X&Xq.h U {.8XtXyXyX=X`.U 0 q.9X8XiXiX=X*X%.7 ' 6X7X8XhX8X6Xq.4 K {.0X].7X}.).).H t q. X(.).~.q.3.3.3.3.*.3.h r XX*.-Xw.c q.}.).+X7X+X'.0 E r.oX;X;X:X4XB.M _ %X*X7XqXeXwXiXeXeXuXeXyXyXtXuXaXdXdXbXM.F.F.U.i.  UXUXUXUXUXUXUXUXUXUXUXUXUXUXUXUXUXUXUXUXUXUXUXUXUXUXUXUXp.GXfX;.I j.j.O.O.d.UXUXUXUXUXe.OX0. .|  . .| .. .| ..} ~ S M ",
"UXE.vX7XqX7X+XqXR +.4Xj.L o. X1X1X1XcX.X' Y 7 -.xXxXxX9XxX^.@.J H xXgXxXeXxXeX*.E i /.lXgXgXgXgX/.+.0 W zXgXgXgXgX7X%.H e #XNXtXgXgXzX^.U u (.DXgXzXgXlX|.E u *.lXlXgXhXlXxX@.r E 9XmXgXjXhXlX/.y U  XNXtXjXtXjX#XL y =.zXzXgXgXgXNX-.7 ' dX0X4XlXhXlX{.4 K {.lX^.lXJXlXlXK r 3.fXhXzXlXjXjXhXzXgXeX6Xy r oX&.-X(.h =.`.x ] '.}.'.7 E r.oX,X:X>X3Xl.M ~ OX7XrX8XeXyXiXwXqXyXwXiXyXiXtXaX&X0XaXM.F.F.U.i.  UXUXUXUXUXUXUXUXUXUXUXUXUXUXUXUXUXUXUXUXUXUXUXUXUXUXUXUXUXB G #.j.5Xh.:.) 6.S UXUXUXUX9.-X0.,.|  . .| {  . .| { ^ S > ",
"UXE.>X7X7XrX*XqXU #.0Xh.W :. X1X|.|.1X.X( R 2 j.kXeXxXxXhX^.+.H L gXgXxXgXgX9X*.E e `.zXdXgXgX9X!.+.e :.zXeXdXiXgX6X$.I r &XzXtXiXtXjX/.U t .XNXgXgXgXzX6XE t -.zXgXgXgXgX9X+.u ( tXzXgXgXgXhX).z U  XlXiXgXiXjX&XL t q.kXgXiXiXyXlX*.i ' gX^.gXhXgXjX`.4 K }.JX X9XhXgXeXI y 2.gXgXeXgXeXgXiXxXxXhXeXt r XX&.&X(.x =.}.w.].].+X|.0 Y r.oX,X>X:X3XV.M _ OX7X*XqX8XwXiXwXqXiXiXyXiXyXqXaX0X0XnXM.F.G.U.i.  UXUXUXUXUXUXUXUXUXUXUXUXUXUXUXUXUXUXUXUXUXUXUXUXUXUXUXUXUXUXUXj.PXcXo.W :.$.>.UXUXUXUX].%X9.&.|  . ...|  .| | } ~ S M ",
"UXE.vX7X7XrX+XeXU #.xX0X6X0XcX1X|.|.1X.X] R 3 !.kXxXxXxXzX).+.J U lXgXgXgXgXxX*.E u  XzXgXgXdXgX/.+.r %.kXiXgXiXgX6X%.P t 0XjXtXiXgXjX~.R y {.DXiXgXgXlX7XE y =.lXhXgXgXgXdX@.h #.dXjXgXgXiXzX^.H Y |.NXyXiXiXgX6XU t ~.NXaXiXgXgXlX=.0 +.zX`.9XjXgXFX X4 U 4XlX^.xXhXvXNXU y q.zXgXgXgXxXgXhXhXhXxXeXz t XX&.-X(.J =.*X+X$.6X^.+Xr Y r.XXqXqX:X4Xl.B X.%X*X7X7XqXwXiXeXqXwXiXeXyXyX9XaX=X0XuX5XF.F.U.i.  UXUXUXUXUXUXUXUXUXUXUXUXUXUXUXUXUXUXUXUXUXUXUXUXUXUXUXUXUXUXUXUXg.O.J h.h.;.N UXUXUXUX}.XX0. ... . .| }  . .| } ~ D > ",
"UXE.:X7XrX+X&XqXR %.sX:.U ;.1X X1X X1X X' Y 0 {.lXxXxXxXlX.X+.J R lXgXiXgXgXxX%.E y 4XzXhXgXdXgX~.' r -.lXiXgXgXgX8X*.K >.dXjXiXtXgXjX~.Y h 4XBXhXzXgXhX9XW y /.lXzXhXgXdXtX$.h %.zXhXgXjXjXzX`.H E #XjXiXzXgXiX7XU y ^.NXgXgXgXiXlX=.r +.zX0X7XlXwXu.{.4 W 6XNXxXjXmX@X@XW z /.kXjXlXJXhXZXIXhXhXhXhXH t oX=.-Xw.K q.).%.E %.R j.y I r.oXwX=X:X3XV.> X.OX=XqXqXqXyXyXyXqXiXwXiXyXiXwXaX0X0XuXM.F.F.U.i.  UXUXUXUXUXUXUXUXUXUXUXUXUXUXUXUXUXUXUXUXUXUXUXUXUXUXUXUXUXUXUXUXUXj. XAXh.o.D UXUXUXUX].XXe. ... . .| {  .} | ] ~ S M ",
"UXE.vX7XrX7X*X8XI -.sX#.W :.1X1X1X|.1X|.+.Y r  XlXsXhXxXlX`.#.J W JXzXzXgXgXeX*.R h 0XdX9XgXtXgX`.' t !.FXiXgXgXiXiX-.K H dXjXtXiXiXgX`.R z 4XJXgXgXgXhXxXE y ^.DXzXzXhXgXgX*.y *.zXjXgXgXgXlX`.H / 0XNXtXzXgXjXtXU z {.FXiXiXgXiXNX3.e *.fXDXgXzX>Xu.OX3 R sXDXlXgXVXu.MXQ H ^.lXlX*.;.;.j./.lXhXhXhXH y oX2.%Xw.K !.`.U -.$.:.3.h ! r.XX;X;X:X5XB.M X.OX*X*XqXqXeXiXwXqXuXyXiXyXyXeXaX,XtXBXM.F.C.U.i.  UXUXUXUXUXUXUXUXUXUXUXUXUXUXUXUXUXUXUXUXUXUXUXUXUXUXUXUXUXUXUXUXUXf.xX;.H I ` UXUXUXUXq.$X0. .| |  .| {  .| { { ^ D > ",
"UXE.vXcX7X7X+XrXU =.0XsXsX9X1X+X1X X1X|.+.Y r 6Xj.r 9XzXCX`.+.h E JX*.:.|.lXeX*.U h dX:.W gXtXgX.X' e 8.dX;./.jXeXdX=.z L jX4X^.BXtXjX{.U z 0XkXj.jXgXhX9XE r /.JX( %.DXdXgX*.u =.gX~.gXgXgXlX{.H ( 0XNXW #.NXiX0XU y {.NX/.aXjXiXlX3.e *.zX9X9XhXgXnX+X3 W 9XlX6XlXgXiXVXR H `.lXIX/..X^.[.cXhXxXgXIXI y _.&.%X].I q.*X9X7X7X7X7Xs P '.*X;X;X,X4Xl.M ~ &X*XrX7XqXwXiXiXeXyXeXwXiXqXeXuX,XtXBX5XF.F.U.i.  UXUXUXUXUXUXUXUXUXUXUXUXUXUXUXUXUXUXUXUXUXUXUXUXUXUXUXUXUXUXUXUXUXUXS s Q ;...UXUXUXUX&.XX9. ... .| | {  .| } { X.D M ",
"UXE.vX7X7X7X*XrXL =.0X[.h.^.|.1X1X+X1X1X+.Y 0 /.[.j.cXhXlX{.+.h W NXL L {.lXeX*.U r 0Xj.VXjX9XgX^.( r ^.fXW ~.jXgXeX=.H J dX6X^.NXiXNX{.I z 0XkX;.lXgXzX6XE e /.kXh.1XgXgXdX$.u *.zX^.zXiXgXlX).z R dX.X4X^.0XjX8XL y  XJX=.#XzXgXNX*.0 -.kXtXgXgXgXkX}.3 E tXkX XhXgXjXiXU J }.lXlXlXBXVXBXIXzXhXhXhXJ h OX3.%X(.P 3.+Xy.e.OXcX+Xr ) -X;XqX=X>X5Xl.B X.$X=XqXqXqXeXiXuXqXwXeXiXiXwXeXaXyXdXNX3XF.F.U.i.  UXUXUXUXUXUXUXUXUXUXUXUXUXUXUXUXUXUXUXUXUXUXUXUXUXUXUXUXUXUXUXUXUXUXk 4.5X.Xh.UXUXUXUX| XX9.&.|  ...| {  .} } { ~ S > ",
"UXE.>X6XrX*X*X7XL -.cXL r -. X1X1X1XcX.X' I 2 n.j.h.0XkXzX^.+.h W VXo.W [.jXeX%.R e sXW #.lXgXgX/.' i ^.sXL ^.lXgX9X-.H L gX X;.NXiXjX~.U t 4X9XW gXhXlX0XE e ^.dX-.{.gXkXdX$.e %.kX/.zXhXgXjX^.>.E dX0X$.-.jXjX8XL e  XNX%.( zXiXlX*.7 8.NX7XlXhXiXlX X4 E dXzXOXjXpXhXgXU H 6XVXgXhXpXhXhXhXhXhXlXhXJ u >X(.OX'.K /.OX5.5.}.+X+Xr / wX*XwX;X:X4XV.> X.OX=X*X8XqXqXwXiXwXiXwXiXiXwXwXiXyXsXNX5XF.F.U.i.  UXUXUXUXUXUXUXUXUXUXUXUXUXUXUXUXUXUXUXUXUXUXUXUXUXUXUXUXUXUXUXUXUXUX+.AX1X;.W F UXUXUX} XX9. . .|  .| }  . .} } ~ S M ",
"UXE.vX7X7X7X+X=XI *.cX^.j.cX|. X X X X X@.P < ^.[.-.xX9XxX).+.r :.CX^.|.|.xX9X*.U r fX^.[.iX8X9X~.' 4 ^.kX#.}.tX9X7X-.h L kX/.#.gX8XyX^.K y dX6X`.6XeXxX&XE e ^.lX{.4X9X9X8X#.0 -.DX{.9XeX9XiX/.y ' dXBX8.~.yXiX&XU e 4XJXq.8.gX8XaX&.3 !.DX9X0XiX9XiX`.4 :.kXkX&XiXeXiXeXI H 0XkXgXgXgXgXgXhXxXxXhXeXH u aXe.oX].K /.eX'.}.}.OX X0 R uX>X;XrX:X4Xl.M ~ OX=X7XqXqXqXyXeXqXiXiXeXuXeXwXiXuXBXmX5XF.F.U.i.  UXUXUXUXUXUXUXUXUXUXUXUXUXUXUXUXUXUXUXUXUXUXUXUXUXUXUXUXUXUXUXUXUXUXUXg.:.r J _ UXUXUX] _.4. .| |  .| { | | } { ~ D M ",
"UXE.:X7XrX*X*X7XL -.0X4X0X1X1X4X0X0X|. X' P 3 ^.ZXZXFXkXlX^.+.u I FXZXFXCXVXgX-.I u dXVXlXDXfXdX^.E 3 /.JXFXGXkXgX0X%.h L dXzXtXNXdXzX~.L t 4XDXlXCXzXkX|.R 0 ^.DXlXFXVXkXtX#.7 ;.VXkXDXDXzXzX/.y :.dXkXFXKXkXkX&XL r }.DXdXNXDXgXzX-.3 ^.NXkXkXJXlXlX.X4 #.lXVXlXJXVXlXtXL L dXFXmXhXhXhXgXhXhXhXhXeXH y wX2.}.OXj /.0X1XcX}. X).0 R @XOX:X>X:X4Xl.M _ &X-X=XqXqXeXyXyXqXiXwXuXeXuXeXuXnX5XM.K.F.F.U.i.  UXUXUXUXUXUXUXUXUXUXUXUXUXUXUXUXUXUXUXUXUXUXUXUXUXUXUXUXUXUXUXUXUXUXUXV ` O.j.+.UXUXUX] XX1. .| .. .| {  .} } } ~ D > ",
"UXE.vX*X7X*X*X*XL R =.q.-.=.=.*.@.$.@.@.E K 1 +.j.!././.j.-.#.r H -.n././.q.!.%.P e -./././.!.=.%.E 4 ' n.3.~./.q.=.%.z u =.!.^.^./.!.!.I u =.=.!.`.[..X^.E i ;.!.!.[.^.!./.@.e E !./.^.^./.h.2.z U !.8./.^./.h.=.K e *.8.^.`./.-.8.+.i ;.!./.{.^.q.n.2.7 E !.!.{.{.^.h./.H z .X6X0XAXCXVXlXzXfX0X0X6Xh J oX1.&X}.P =.!./.j.=.%.+.8 ) e.XX;XqX:X0XV.M X.OX*X=X8XeXyXeXiXqXiXwXiXeXyXwXaX4XD.C.Z.F.F.U.i.  UXUXUXUXUXUXUXUXUXUXUXUXUXUXUXUXUXUXUXUXUXUXUXUXUXUXUXUXUXUXUXUXUXUXUXv cX5Xj.j.UXUXUX] oX9. .}  . .} {  .| } } ~ D > ",
"UXE.>X*XrX*X+X*XR o < < < e 7 4 < < < 4 4 3 p 3 r e r y e r r 3 4 u r r t r r r i 4 7 t e r r r r i 4 3 r e r r r e e 3 4 0 t u y y u z r i y u y H J H H u 4 r u z K H z H y 3 e y y y y u y y i 3 y u u r r r u i 3 r t u u t r t u 3 0 z h y y t h t 3 3 y y h h g r y 0 u E :.#.$.#.@.;.-.%.#.#.( e P oX2.XXOXt h g J j K g g < ) _.@X;XrX:X0XV.> ~ OX*XrXqXqXwXyXwXqXeXuXeXiXwXeXaX>Xb.K.J.F.F.U.i.  UXUXUXUXUXUXUXUXUXUXUXUXUXUXUXUXUXUXUXUXUXUXUXUXUXUXUXUXUXUXUXUXUXUXUXV GXcXo.O.UXUXUX] _.9. .}  . .} {  .| } [ ~ D M ",
"UXE.vXcX7X*X&X7XU p 1 3 7 7 7 i 3 4 < 3 3 7 e e e e i 3 7 e e e r e 7 r 3 7 e e e r r e e 3 i 0 e t r u r e i 3 i i 0 e r 0 0 i 3 e e e e e r e i i e e 7 r r e r e 3 e i 3 e e 0 i 0 i i e 0 i i i e i i i i 0 3 i 0 3 3 i 0 i 0 i e e e i e 3 3 e e 7 i e e 0 i i e e i 0 e 3 3 3 4 < 3 7 i 7 i 4 < < J oX1.XXOX3 < < < 1 < p < p ! _.oX:X=XrX0Xl.M ) &X*X8XqX8XwXyXiXeXwXwXiXyXiXqXaX%X5.y.M.Y.C.U.i.  UXUXUXUXUXUXUXUXUXUXUXUXUXUXUXUXUXUXUXUXUXUXUXUXUXUXUXUXUXUXUXUXUXUXUXUXp.Q Q Q d.UXUX] _.9. .|  . .| }  .| } { ~ D M ",
"UXE.vX*X*X*X&X*XU 7 Y x x P P I / J g / ) / ] ] ( ] ( e ] R / ) ( ' ' ( e U / R / ( ( / +.>.z ] E ) / ( ( ] R 7 ) E / / ( ' ( E 3 R ) [ +.+.] ( [ e I ) / / / ) ( / y h ] Y / ] ] / ( I e ) / ! ) [ ! Y I e ! / / ] ] ] / E e t ) / / [ ) E R I e T / / / [ / E I 3 T T E / ) / ! R r h Y ! [ ) ) / Y e z oX&.OXOXg j j j b v j j < I _.oXrX:XwX0XV.> ~ %X*X=X8XqXeXyXwXeXiXuXeXiXyXwXaX=X=.e.M.F.F.U.i.  UXUXUXUXUXUXUXUXUXUXUXUXUXUXUXUXUXUXUXUXUXUXUXUXUXUXUXUXUXUXUXUXUXUXUXUXo.s Q :.` UXUX&._.9.,.}  . .| {  .| | } ~ D > ",
"UXE.vXcX7X7X+X=XL J *.+.$.) ) ( ( h Q }.+X'.{.OX/.*.E 7 -.&X+X'.'.).-.+.3 ( |.}.).(.~.q.%.y H ^. X X).).~.*.U 0 =.`. X~.~.~.q.( 4 =.&X*X&X+X}.~.' e / `.).^.).~.!.*.z H ^. X6X|.}.}.!.U e =.{.OX}.'.'.`.+.3 $.`.}.#X'.].'.w.u J /.~.w.].].(.w.E t &.^.(.}.].].~.=.3 } =.q.).).~.3.3.r U 2.*.%.$.$.+.$.U h oX2.%XXXz / 3.*.$.2.*.3.r J r.oX=XrXrX6XV.M ~ OX*X*XqXqXeXyXyXiXwXiXwXiXuXeXuXaX0X8X1XG.C.U.i.  UXUXUXUXUXUXUXUXUXUXUXUXUXUXUXUXUXUXUXUXUXUXUXUXUXUXUXUXUXUXUXUXUXUXUXUXL :.h.-.R UXUX$._.9. . . . .| { $.....} ~ D M ",
"UXE.vXcX7X7X+XrX>.W cX+XcX+X).+.( h U IXxXCXkXIX6X%.R e  X6XgXJXJXJX!.E 3 +.sXfXDXlXlX&X@.y z tXlXzXJXCXgXq.I 3 ^.0X6XJXkXlX`.( < /.IX0XlXzXNX X' t ' dXgXKXCXhXiX=.h H }.DX0XmXlXDX&XU r -.DXlXzXJXJXJX%.3 +.tXzXdXBXNXNX}.t K ~.gXLXLXNXBXNXE u *.0XtX8XJXBXNX{.3 %.4XzXhXCXIXhX9Xr R ).gXwXqX>XXX*X] e _.2.OXOXh *.eXeXqX7X7XaXK j oXoX;X:X:X8XV.> _ OX*X*X8XqXeXyXyXqXiXyXeXyXeXwXiXyX7XiX<XJ.F.U.i.  UXUXUXUXUXUXUXUXUXUXUXUXUXUXUXUXUXUXUXUXUXUXUXUXUXUXUXUXUXUXUXUXUXUXUXUXu.sX5Xh.o.UXUX&.].9. ... . .......| | } ^ D > ",
"UXE.vX7X7X7X*X7XH U 7X{. X X X$./ j W 0X{.xXxXxX X$.W r 6X^.^.gX9XgX3.( 3 %..X/.hXeXzX#X#.z z zX-.!.hXxX9X=.U 3 {..X;.kXtXzX~.( 1 ^. X;.NXeXgX`.' t ' zX0XcXgXgXgX=.z H #X1XQ hXiXgX|.U h *.JXj.=.lXtXeX#.0 #.dX X^.8XiXiX`.t K ~.NX!.}.iXtXtX' t %.dX9X^.aXyXaX/.4 $.|.JX X7XxXgX9Xt W ^.DX&XxXhXgXBX+.r oX2.%X}.z *.&X'.}.}.XX*XJ x r.oX;X>X:X0XV.M _ OX7X=XqXqXwXyXiXqXyXeXiXuXeXwXiXaX0XtXwXJ.F.U.i.  UXUXUXUXUXUXUXUXUXUXUXUXUXUXUXUXUXUXUXUXUXUXUXUXUXUXUXUXUXUXUXUXUXUXUXUX5X[.o.:.D UXUX=._.9.,.|  . .| .. . .| { ^ D M ",
"UXW.>X*X7XrX+XqXH W 9X X X+X X$.R j W fX6XxXxXhX1X$.R r 0X!./.kXxXkX=.( 3 -.0X XlXxXzX7X#.z U DXj.^.hXgXgX3.U e }.{.-.DXtXkX{.( 3 ^.0X/.lXtXzX`.' u +.lX^.|.lXgXgX=.x J 0X9X*.lXgXlX#XU h q.JX/.{.lXiXjX%.e @.dX8X.XiXiXjX}.u K  XDX}.&XiXyXtX[ y =.zXtX.XjXtXzX).7 %.6XIX XlXhXhXgXh E `.NXyXhXpXhXnX*.r r.0.%X'.x *.8X}.OX}.}.*Xh x _.oX;X;X:X0XV.> ~ OX*X*XqXeXwXeXyXeXyXuXwXeXuXiXiXyX0XiXwXJ.F.U.i.  UXUXUXUXUXUXUXUXUXUXUXUXUXUXUXUXUXUXUXUXUXUXUXUXUXUXUXUXUXUXUXUXUXUXUXUXM o.r j Q UXUX} oX9.&.|  . .| {  . .} } ~ S M ",
"UXE.>X7XrX7X*XqXH ( cX.X{.+X X$.R x :.lXxXxXxXzXcX$.R y 9X0XxXgXeXgX3.( e -.zX9XgXgXgX6X@.z W DXzXxXxXgXxX3.U r |.dX4XkXdXzX XE e /.lXdXzXiXlX^.' y #.dXtXgXgXgXgX=.J U 0XlXtXhXiXjX&XR z 8.JXhXgXzXgXjX%.e %.dXjXtXyXiXNXXXu U #XNXjXjXiXiXiX' >.8.zXgX,XtXMXBX{.7 %.0XCXeXhXxXgXhXz ( {.FXbXu.u.y.u.$.r r.r.-XXXJ -.7XOX}.`.`.+Xz x (.XX:X;X:X0XS.> ~ %X7X=XqXqXqXyXiXqXiXiXwXwXiXeXuXuX9X9XwXJ.F.U.i.  UXUXUXUXUXUXUXUXUXUXUXUXUXUXUXUXUXUXUXUXUXUXUXUXUXUXUXUXUXUXUXUXUXUXUXUXV s :.3.R UXUX} _.9. . . . . ... .| | ] ^ D M ",
"UXN.vX6X7X7XcXqXJ :.j.#.R ^.cX*.Y h #.CXxXxXxXhX6X%.R y sXlXhXgXgXzX=.( r !.IXhXgXgXhX6X@.K W NXzXzXgXxXhX/.I h #XNXzXzXdXzX#X( r  XjXiXgXiXlX X' y *.gXlXlXgXgXhX=.H R 9XlXlXhXgXhX6XU L /.lXhXhXgXiXBX-.u =.gXjXaXyXtX,X#Xt U 4XNXiXiXiXtXaX' z q.kXjXtX,Xu.y.|.7 %.9XCXhXhXhXeXJXH ' }.FXMXu.MXu.MX3.r _.e.-XOXK 3.}.( :.I K R h z r.oX:X;X>X4Xl.M ~ OX7X*XqXqXeXyXeXeXiXwXiXeXuXuXeXuX9XgXuXL.F.U.i.  UXUXUXUXUXUXUXUXUXUXUXUXUXUXUXUXUXUXUXUXUXUXUXUXUXUXUXUXUXUXUXUXUXUXUXUXO.#.h.;.o.UXUX] '.0.&. . . .| }  .| | { ~ S M ",
"UXW.vXcX7X7X*XrXH :.;.-.-.).cX*.R j %.xX0XhXxXgX6X%.R J gX0X1XhXxXzX3.E e ^.xX.XxXgXhXcX' z E NX0XxXzXeXgX/.K z 4XDXtXsXzXzX&XE y  XlXjXgXiXjX}.' h *.JX-..XlXiXzX=.J ( dXdX/.gXgXhX6XR J `.JX#XxXhXdXNX-.r q.zXqX#XaXtXtX#Xu T 4XNX6X#XtXiXiX' H /.kXNXNXgXu.u.&X3 %.tXlX7XhXhXgXmXL ' #XDXdXtXgXgXmX~.y _.e.-XOXP 3.}.+.3.q.2.(.J K y.XXwXwX>X0Xl.M ~ OX*X*XqXqXqXyXiXqXwXyXyXwXeXwXuXuXiXzXuXJ.F.U.i.  UXUXUXUXUXUXUXUXUXUXUXUXUXUXUXUXUXUXUXUXUXUXUXUXUXUXUXUXUXUXUXUXUXUXUXUXZXAXsX).O.UXUX[ _.0.,. . . .| }  .| | } ~ D M ",
"UXW.vX7X7X7X*X8XJ :.cX XcX|. X*.Y h -.9XcXxXxXzXcX%.U J VX/.#.8XxXzX3.E e {.^.3 {.zXhX6X@.>.' FX:.`.kXxXgXq.K H 0XVX%.0XzXzX#XE >.&XtX4X0XgXjX}.' u -.DX:.|.lXgXhX*.H E gX4X:.eXhXhX4XI J {.JX{.iXhXiXlX%.0 8.kXtX^.jXtXaX}.u E 0XNX]./.0XgXaX' H w.NX&X~.NX,X-X X0 %.9XlX7XhXhXgXzXH ] #XFX6X-.|.lXmX/.g _.XX;X].P !.6X+X+X+X+X*XJ P oX*X;XrX:X8XV.> ~ +X*X*XqXeXwXiXyXeXwXeXiXiXuXiXeXuXtXdXaXL.F.U.i.  UXUXUXUXUXUXUXUXUXUXUXUXUXUXUXUXUXUXUXUXUXUXUXUXUXUXUXUXUXUXUXUXUXUXUXUXg.j.;.o.p.UXUX] oX9. .}  . .| }  .| } } ~ D > ",
"UXE.vX&X7X7X7X7XJ :.6X'. X|.+X$.R g ;.gX9XzXxXzXcX%.U h dXn.#.1XgXgX=./ e  X6X;.6XNXtX#X] z #.DX#. XNXdX,X8.K K tX4Xn.NXiXzX XE >.#X0X%.#XzXkX{.' t -.NX^.0XNXtXhX-.y ] dXkX6XlXtXNX#XU U {.KX].9XhXgXhX%.u 8.NX0X~.NXqX<X}.u E 9XNXNXNXNX,XtX[ H ^.DX#X8.NX=XNX].3 8.fXlX9XjXgXgXhX>.( 0XFX:X@X,X;XaX*.z oX-X;X_.I q.8X'.}.}.'.+Xz P :X*XwX,X>XtXl.> ~ %X=X=X,XqXqXyXiXwXeXiXwXwXiXyXiX<X0XNX,XL.F.U.i.  UXUXUXUXUXUXUXUXUXUXUXUXUXUXUXUXUXUXUXUXUXUXUXUXUXUXUXUXUXUXUXUXUXUXUXUXp.s 3 j S UXUX] _.0.,.| |  .} }  .| } } ^ D M ",
"UXW.vX*XrX7X*X7XH :.cX X}.|. X%.Y t #.zXxXxXxXzX|.#.K >.dX#X^.gXgXxX2.Y e  XJXBXNX0XtX}.' r #.NX/.0XdXgXtX8.H H sX9XdXtXzXzX{.R u #XNXtXNXtXgX`.' e -.gXjXzXtXtXxX*.u ' dXjXlXgXtXtX].L U 4XBX0XfXhXgXgX%.w ~.NXtX0XuXtXNX].u ' fXgXqX,X,X=XtX' K #XNXNXNX=XtXNX~.e ^.kXzX&XgXtXzXeXH +.gXDXMXu.MXu.MX%.c %X=X;X).K !.7X}.}.OX'.&Xh T :X>X:X:X>X0XS.> ~ -X;X*X8XqXeXyXiXwXyXiXwXiXyXiXyX<X8XNXbXP.F.Y.i.  UXUXUXUXUXUXUXUXUXUXUXUXUXUXUXUXUXUXUXUXUXUXUXUXUXUXUXUXUXUXUXUXUXUXUXUXR l o.$.W UXUX] _.0. .|  . . ... .| } } ^ F > ",
"UXW.vX+X7XrX+X7XH :.cX).{.'. X@.R h #.JXgXgXgXlX6X#.I >.dXNXNXdXeXjXq.E i  XzX9XtXNXNX}.@.u ' FXNXkXtXtXtX8.z L dXJXzXtXtXNX`.E u tXNXtXdXdXzX^.' r n.NXgXtXtXNXhX=.r #.VXCXeXgXNXNX#XK Q 0XFXjXiX9XgXxX@.u n.NXNXyXtXtXNXXX3 o.NXDXaXjXNXNXNX' U 4XNXgX0XNX,XNX~.3 .XNXJXhXtXNXhXeXh %.gXDXnXvXvX<XvX' t ,X;X<X(.J q.eX&X'.}.&X%Xr P uX*X:X;X:X=XV.> ~ &X=X=X8XqXqXwXiXeXyXyXiXeXyXyXyX<XaXBXNXJ.F.U.i.  UXUXUXUXUXUXUXUXUXUXUXUXUXUXUXUXUXUXUXUXUXUXUXUXUXUXUXUXUXUXUXUXUXUXUXUXj.h.2X3.V UXUX] oX1.&.| .. .| }  . ...[ ^ D M ",
"UXN.vX6X*X7XrX7Xy R gXgXBXgX6X8.Y e W 0X6XlXdX0X|.*.h r .X8XaXNXiX0X^.I 4 /.8X*XNX-X$X}.$.0 o.tX=XNXNX-X].8.z z 4X4XzXJXtX4X.XU 3 #X#XNXNXtX4X#X' i 8.sXdXDXNXtX6X=.e W 6X0XzXJXNX#X`.U H 0XdXNXPXLXhX9X' i #XNXtXNXNXtX3X}.w 8.fXtXdXdX0X#XtX' L 4XfXNXNXNXtX4X^.4  XdXkXkXNXNX9X0Xy ;.lXlXBXLXLXBXJX8.>.$XoX$Xe./ !.}.|.8X#X^.+Xr K ,X>X;X:X;XtXl.> ..OX=X=X8XeXwXiXuX;XeXiXwXiXyXuXyXnXM.L.L.G.F.U.i.  UXUXUXUXUXUXUXUXUXUXUXUXUXUXUXUXUXUXUXUXUXUXUXUXUXUXUXUXUXUXUXUXUXUXUXUXIXAXj.4.o.UXUX] oX0.,.|  . . .}  .| | } ^ D M ",
"UXW.vX+X7X7XcX*XL 4 i 3 e i 3 i 3 3 3 3 i r e i e e 3 7 i 3 u t u w u i 3 e i 0 t w i i e i u 0 e y t t i i i i i u u >.t i i u i u e u >.H u z t 0 i u >.H H >.>.u e e e i u >.u 0 u w i u 0 c H z u u u 0 H ' #.8.8.' o.E w H #.#.8.8.;.E ' K i #.8.8.n.`.8.8.' 3 :.#.8.8.8.@.#.;.0 U n.n.~.`.w.%.8.L L 0.8.9.$.U #.+.%.=.%.( ' 7 I :X>X;X:X>X8XV.> ~ OX*X;X8XqXeXyXiXqXeXiXwXwXeXyX9XbXM.Y.F.F.F.U.i.. UXUXUXUXUXUXUXUXUXUXUXUXUXUXUXUXUXUXUXUXUXUXUXUXUXUXUXUXUXUXUXUXUXUXUXB N.;.#.( d.UXUX[ oX1.,.|  . ...|  .| | } ^ F > ",
"UXW.vX7X7X*X+XXXU 7 0 7 2 0 q t e g g q r r t t r r z c t t d h t t t t z c g e u z c z t t t c t t z g z c c u g c t t c t g c y t g t g g c d t e 0 w t 0 t w w d t q q t t t t d w u t w t d t g g w g t u d d d g c t d t w 0 0 t t t w w w t w w w t w w w q t t e f c w w t w r t 9 q q g q w w w x ! b n P q e 3 0 w 7 7 7 2 [ :X%X;X;X:X0XS.> ~ &X*X*XqXqXyXyXyXqXiXwXiXiXyXyXiXbXM.Y.Y.F.C.Y.i.  UXUXUXUXUXUXUXUXUXUXUXUXUXUXUXUXUXUXUXUXUXUXUXUXUXUXUXUXUXUXUXUXUXUXUXUXF r h S UXUXUX2.(.9.&.|  . . .|  .| | [ ~ D M ",
"UXE.vX*X7XrX*XOXI j x P Y T T T T ! Y ! ) X.! X.! X.) ) ! [ X.X.X.X.X.[ X.! X.[ X.X.X.X.X.X.X.! [ X.X.X.[ [ X.X.! X.X.X.X.X.X.! X.! ! X.X.X.X.X.! X.X.X.X.X.X.X.X.X.X.X.X.X.X.[ X.X.X.X.X.X.X.X.X.X.X.X.X.X.X.! ! T ! ! X.! ! X.[ ! T ! ! ! ! ! ! ! T T ! T ! ! ! ! ! ! ! ! ! X.! ! X.! ! ! ! ! ! ! ! T b b c c b P P x b b b n v v } -X>X;X;X;XyXV.> ^ OX;X*XqXeXyXyXeXqXwXwXiXuXiXeXeXbX3XY.F.F.C.U.p.  UXUXUXUXUXUXUXUXUXUXUXUXUXUXUXUXUXUXUXUXUXUXUXUXUXUXUXUXUXUXUXUXUXUXUXN l >.o.) UXUXUX&._.9.,.| .. . ... .| | [ ^ F M ",
"UXW.vX+X=X7X7X'.v x x b b P P P I P I ! ! ! ! ! ! ! T T ! ! ! ! ! ! ! ! ! ! ! ! X.! ! ! ! ! T T ! X.! ! ! ! ! ! T ! ! X.! ! ! ! X.! ! ! X.! ! ! ! ! ! ! ! ! X.! ! ! ! X.! ! ! X.X.! ! ! ! ! ! ! X.X.X.X.! ! ! ! T T ! ! ! T ! ! T n T T ! T T T ! ! T T T ! ! T n ! T ! T T ! T ! T T n ! T ! n ! ! ! b b b b b x b b x c c c c c j ! $X;X:X;X:X=XV.> ~ +X*X*X7X8XwXyXiXwXiXiXwXiXyXiX8XnX3XF.F.F.F.U.k.  UXUXUXUXUXUXUXUXUXUXUXUXUXUXUXUXUXUXUXUXUXUXUXUXUXUXUXUXUXUXUXUXUXUXUX-._.2X[.,.UXUXUX&.oX9.&.|  . ...|  .| } } ^ D M ",
"UXN.vX6X=X7XrX}.*.&.| $.&.$. .$.$.&.$.&. .&.&.&.&.&.$. .&. .&.&.&.&.&.| &. . .&.&. .&.&. . .&.| &.8. . .8.X.8.X.8.X.8.| 8.8.X.9. .8. .8.8.X.8.X.8. .8.X.&.&.&.&.&.&.&.&.&.8. .8.&.&.&.&.&. .8.X.,.8.8.8.X.8.8. .&.|  . .&. . .| 8.| | X.| | | |  .[ | | | |  . .&. .|  . . . .&. .| ....| | | |  . .| X.[ { [ X.) X.[ ) [ ! X.[ |  .1.XX:X;X:X:X8XS.> ~ OX7X*XrXeXqXeXiXqXeXyXyXiXiXwX8XnX5XF.F.F.F.U.i.  UXUXUXUXUXUXUXUXUXUXUXUXUXUXUXUXUXUXUXUXUXUXUXUXUXUXUXUXUXUXUXUXUXUXUXM.xX2Xj.j.UXUXUX$.oX1. .|  . .| | ....| { ^ D M ",
"UXW.vX&XrX7X*XrXqXeXwX=X>XqX8XqX;XqX;X8X;XqX;X;X;X;X;XqX=X;X;X;X=X;X;X;X=X,X,X=X;X=X=X,X=X,X=X,X-X,X%X,X-X-X$X<X%X<X=X,Xr.<X<X%X,X%X%X,X<Xr.,X,X%X<X<X<X,X=X,X,X,X,X,X,X,X-X<Xr.,X,X%X<X,X<X,X,X$X<Xr.,X<X,X$X,X-X,X,X,X=X;X,X,Xr.,X,X%X,X=X,X;X,X,X,X=X,X=X;X,X,X,X;X,X,X,X,X=X;X;X,X;X=X,X,X=X,X=X;X,X;X;X;X:X>X:X;X:X:X>X:X>XwXnX;XuX:X;X;X:X;XV.> ~ %X*X=XqXqXeXyXiXwXyXwXiXwXiXiX9XBX5XF.F.F.F.U.i.  UXUXUXUXUXUXUXUXUXUXUXUXUXUXUXUXUXUXUXUXUXUXUXUXUXUXUXUXUXUXUXUXUXUXUXp.h.W ) f.UXUXUX+.oX0.,. ... .| |  .| | } ^ D M ",
"UXW.vXcX*X*X*X7X*XrXqXeXqXeXqXyXyXiXiXyXiXyXyXiXyXiXaXyXyXiXyXuX<XuXuXuXyXaX<X<XaXaXuXyX<XNX,X,X,XNX<X<X,XNX,XNX<X<X<X<X<X<X<X<X<XNXNX<X<X<X<XaX<X<X<X<XuXaXuXyX<X<XaX,X<X<X<X<XaXaX<X<X<X<X<X<X<X<X<X<X<X<X<X<X<XNX<X<X<XNXaXaX<XaX<XNXNX<XaXaX<XNXNX<XaXaXaXuX<XaXaXaXaXaX<X<XnXaXuXaX<XaXaXaXuXaX<XnXuXnXaXnXuXuXuXuXuXuXuXuXuX,XuX,X;X:X;X>X=XV.> ~ OX=X*XqX;XqXyXwXiXwXiXwXiXwXyXtXbX5XF.Y.F.F.U.i.  UXUXUXUXUXUXUXUXUXUXUXUXUXUXUXUXUXUXUXUXUXUXUXUXUXUXUXUXUXUXUXUXUXUXUXA e h ` UXUXUXUX) oX1.&.|  . .| |  .| ..] ^ D M ",
"UXW.vX*X7X7XrX7X*XwX8XqX;X8XeX8XyX8XqXeXyXyXqXqXwXyXyXyXyXuXyX,X,X,XyX,X,XyXyX,X,X,XyXyX,X,X,X,X,X,X,X<X,X,X,X,X<X<X,X,X<X,X,X,X,X,X-XtX<X<X<X<X,X,X,X,X,XyXqX,X,X,X,X,X<X<X<X<X,X,X,X<X<X,X,X,X<X<X,X,X<X<X,X<X,X,X,X,X,X,X,XuX<X<X,X,X,X,X,X,X,X,X,X,X,X,X,XuX<X,XuXuXuX,X<X<X,XuXuX:X,X<X,X<X<XuX,X,X;XuX:XwX,X:XwX:X:X:X;X:XuX:XwXwX;X;X;X:X8Xz.> ~ &X*X*X7XqXeXyXiXeXwXiXiXyXyXiX8XbX5XF.F.F.F.U.i.  UXUXUXUXUXUXUXUXUXUXUXUXUXUXUXUXUXUXUXUXUXUXUXUXUXUXUXUXUXUXUXUXUXUXUXH l o._ UXUXUXUX) oX1. . ... . ... .| | { ^ D M ",
"UXE.vX-X*X7X*X*XrXrXqXqXrX8XqXqXeXqXqXqXqXqXqXqXqXqXyXyXyXyXqXyXqXyXyXqX,XyXyX,XyXyX,XyX,XyXyX,X,X,X,X=X,X,X,X,X,X,XtX,X,X,XtX,X,XyX,X,XyX,X;XyX,X,X,X,X,X,XyX,X,X,X,X,X,X,X<X<X,X,X,X,X,X,X,X,X<X,X,X,X,X,X,X,X,X,X,X,X,XyX,X,X<X,X,X,XyX,X,XyX,X,X,X,X,X,X,X,X,X:X,X,X<XuX<X<X<XuX:XuXuX:XwXuX,XuX,X:XuX:XuX,XwXwX,X;X:X:X:XwX,XwX:X,X:X;X:X>X8XS.> ~ OX-X*XqXqXeXiXwXwXeXyXyXyXiXyXyXbX5XF.F.F.F.U.i.  UXUXUXUXUXUXUXUXUXUXUXUXUXUXUXUXUXUXUXUXUXUXUXUXUXUXUXUXUXUXUXUXUXUXUXj.ZXcXj.UXUXUXUX] oX1.,.|  . .| }  .| { } ^ D M ",
"UXW.vX&XcXrX7X*X*X=X*X7XqXqX;X8XqXqXqX7X8X;X;XqXqXyXqXqXqXyXyXqXqXyXqX,X,XqXqX,X,X=X,X;X;X,XyX=X,X,X,X,XtX,X,X,X,X,X,X=X,X,X,X,X,XyX,X=X;X;XyX,X,X,XtX,X,X,X,X,X,X,X,X,X,X,X,X,X,X,X,X,X,X;X,X,X<X,X,X,X,X,X,X,X,X,X,X,X,X,X,X,X<X<X,X,XyX,XuX,X,X,X,X,X,X,XuX,XuXuX<XuX,X,XuX:X,X,XwX,X,XuX,X,X,X:XyX:X,X:X:X,X;X:XwX:XuX;X;X;X:X;X:X;X;X;X;X:X8XV.> ~ +X=X*XqXqXiXwXiXeXqXiXyXyXiXiXtXBX5XF.F.F.F.U.i.  UXUXUXUXUXUXUXUXUXUXUXUXUXUXUXUXUXUXUXUXUXUXUXUXUXUXUXUXUXUXUXUXUXUXUX2XZX[.h.UXUXUXUX] _.1.&.|  . ...{  .| | } ^ D M ",
"UXE.vX+X>XrX=X7X*X*XqXrXqX7XrXqXqXqXqXqXqXqXqX8X8X;X;X8XqXqXqXqXqXyXyXqXqXyXqXtXqXyXyX8XyXqXyX,X,X,X=X,X,X,X=XtXtX,X,X,X,XtX,X,X,X,X,X,X,X,XyX;X,X,X,X,X,X,XyXyX,X,X,X,XNX,X,X,X,X,X,X,X,X,X,X,X<X,X,X,X,X,X,X,X,X<X,X,X,X,X,X,X,X,X,X,X,X,XyX,X,X,X,X,XyX,XwX,X:X,XuX:XuX:X;X,X;X,XuX,X:XyXuX;XuX,XuX,X:XwXqXwXwX:X:XuX:X;XwX:X:XyX:X:X:X:X>X;X;XS.> ~ &X7X=XqXqXeXiXiXqXeXiXwXiXuXyXyXbX5XF.F.F.C.U.i.. UXUXUXUXUXUXUXUXUXUXUXUXUXUXUXUXUXUXUXUXUXUXUXUXUXUXUXUXUXUXUXUXUXUXUXD r u S UXUXUXUX[ _.1. .| .. .| }  .| | [ ^ D M ",
"UXW.vX7X*X7XrXrX=X7X;X8XqX8XrX=X*X7XrXqXqXqXeXqXyXyXqXyXqXqXqXqX,XyXqXqX,XyXyX,XyXqXyX;XyXyXqX,X,X,X,XtX,X,X,X,X=X,X,X,X,X,X,X,XqXqX=X,XyX=X,X;X,XyX,X,X,XqX,X,X,X,X,X,X=X,X,X,X<X,X,X,X,X,X,X,X,X<X<X$X,X,X,X,X,X,X,X,X,XyX,X,X,X,X,X,XyX,X,XyX,X,X,X,XwX<X,X,X,XuX,X:X,XuX,X,XuX:X,XyX:X,X;XuX;X,X:XwXuX;XwXwXwX,X,XwX;X:XyX:XwXwX:XwX>X;X;X;XvXS.> ~ $X*X8XqXqXqXyXwXqXeXaXyXyXyXuXtX<X,XF.F.F.F.U.i.. UXUXUXUXUXUXUXUXUXUXUXUXUXUXUXUXUXUXUXUXUXUXUXUXUXUXUXUXUXUXUXUXUXUXA Y s Q :.UXUXUXUX[ oX1.,.| $. .| {  .| | } ~ D M ",
"UXN.vX+XrXrX+XrXrXrX7XrXqXqX8XqXqXqXqXqXrXqXqXqX;XqXqXqXqXqXqX;XqXyXqXqXqXyXqXyXqXyX=XyXyXyXqX,X,XqX=X,X,XtX,XqXtX,X,X,X=X=XtX,XyX,X,X,X,X;X;X,X,X,X,X,X,XyX,X,X,X,X,X,X,X,X,X,X,X,X,X,X,X,X,X,X,X,X,X,X,X$X<X<X,X,X,X,X,X,X,X,X,X,X,X,XNX,X,X,X,XwX,X,X,XuX,XuX,XuX,X<XuX,X,XuX:X<X:XuXyX,X,X:XuX:XuX,X;XuXwXuXwXwX:X:XqX,XwX:XwX:X>X:X;X:X;X>XvXS.: ~ OX7X*XqXqXqXyXyXiXyXiXyXyXuXiXeXuXbXG.F.F.F.U.i.  UXUXUXUXUXUXUXUXUXUXUXUXUXUXUXUXUXUXUXUXUXUXUXUXUXUXUXUXUXUXUXUXUXUX` y.2X[.6.UXUXUXUX[ _.9.,.|  . . .{  .| } } ^ S M ",
"UXW.vX*X>XrX*X7XrX*X*X=X=X7XqXrX*XqXqX8X8XqXqXqXqXqX8XqXqX;XqXqXqX;XqXyXqXqXqX;XqXyXqXyX=XyXqXqXqXyX,X,X,X,XqXqXtX,X,X8X,X,X,X,X=X,XyX=X,XyX,X,X,X,X=X,X,X;X,XqX,X,X,X,X,X,X,X,X,X,X,X,X<X:X,X,X,X,X,X,X,X,X,X<X,X,X,X,X,X,X,X,X,X,X,X,X-X,X,X,X,X,X:XyXuX:X,X:X:X,X:X:X,X,X:X,X,X,X,X:X:XuX,XuX;X,X:X:X,X:X;X:XwX:X:XwX,X:XuX:X:X;XwX:XwX;XwX>XnXz.> ~ &X*X;X8XqXeXyXiXwXeXiXiXiXiXiXwXaXnXJ.F.F.C.U.i.  UXUXUXUXUXUXUXUXUXUXUXUXUXUXUXUXUXUXUXUXUXUXUXUXUXUXUXUXUXUXUXUXUXUXO.LX2Xj.f.UXUXUXUX] _.9. .|  . .{ }  . .} } ^ D M ",
"UXW.>X*X*X*X>XrXrXrXqXrXrXqX7XqXqXqXqXqXqXqXqXqX=XqX=XqXqXqXwXwXqXwXqXqX;XqXwXqX=XyXyX=XyXqXyX;XqXyXyXtX,X=XqXqX,XqX,X,X,X,X,X,X,X,X,X,X;X,X=X,X,X=X;XyX;X,X,X,X,X,X,X,X,X,X,X,X,X,X,X,X,X,X:X,X,X<X<X,X,X,X,X<XuX,X,XwX,X,XyX,X,X,X,X,X,X,X,X,X,X,X,X:X;X,X:X:XuX,X,XuXwX:X,X,X,X,XqX:X,X:X:XuXuX:X:XuXwX:X:XyXuX:XqX,X:XqX:X:X:XwX;X:X:X:X>X>XvXS.> ~ OX=X7XqXeXyXuXiXiXyXyXiXyXyXwXiXaXbXJ.F.F.F.U.i.  UXUXUXUXUXUXUXUXUXUXUXUXUXUXUXUXUXUXUXUXUXUXUXUXUXUXUXUXUXUXUXUXUXUXp.;.o.) d.UXUXUXUXw.oX4. .| |  . .{  . .} ] ^ F M ",
"UXW.vX+XrXrXrX+XrX*X=X=XrX=XqX=XrX8X=XrXrX7XqXqXqXqXqXqXwX;XwXqXqXqX;XqXqXwXqXqXyXyX=XyXqXqXqXqX,XtXqXqXqXqX,X,X,X=X,X,X,X,X,X=X;XqX,X=X;XyX,XyX,XyX,X;X,X,X,X,X,X,X,X,X,X,X,X,X,X,X,X,X,X,X,X:X$X<X,X,X,X,X,X,X,X,X;X,X,X;X,X:X,X,X,X,X,X,X,X,X;X,X<X,X;X,X,XuX:X;X,X:X,X,X:X,X:X,XyX:XwX,X;X,XyX:X,X;XyX:XqX:XqX:X,X:X,X:X:XwX:X:XwX:X:X;X>X;XvXS.> ~ +X*X=XrXqXwXyXiXwXyXiXyXiXiXyXiXaXbXH.F.F.C.U.i.  UXUXUXUXUXUXUXUXUXUXUXUXUXUXUXUXUXUXUXUXUXUXUXUXUXUXUXUXUXUXUXUXUXA G ; y ` UXUXUXUXUX(._.1. . ... .| {  . .} } ^ D M ",
"UXN.vXcX+XrXrXrX7XrXrXrXqXrXqX8XqXeXqX8X8XqXqXqXqXqXqXqXqXwX;XqXqXwXqXwXwXqXqXwXqXqXyXqXqX,XqXqX,XqX8XyX8XqXqXtX8X,X,X,X=X,X=X,XyX=X,X,X;XqX=X,X;X,X;X,XqX,X,X=X,X,X,X,X,X,X,X=X,X,X,X;X,X,X,X,X<X,X,X:X,X%X<X,X,X:XuX:X,X,X,X,X;X,X,X,X,X,X;X,X,X:X,X,X:X,X,X:X,X,X;X:X,X,X:XyX,X,X,X:XwX,X;X,X;XwX:X;X,X:X;X;X:X;X:X,X:X:X;X:X;XwX:XwX:X;X>X;XvXz.> X.OX=X;XqXqXeXyXiXwXeXiXiXiXyXuXeXuXnXL.F.F.F.U.i.  UXUXUXUXUXUXUXUXUXUXUXUXUXUXUXUXUXUXUXUXUXUXUXUXUXUXUXUXUXUXUXUXUXV 6.I h.6.UXUXUXUXUXr._.9. . . . .| { | | | } ^ D M ",
"UXE.MX7X'.*./.oXj.=.3.~.).qX'.).q.=.~.+Xj.=.3.`.).eX'.+X`.2.].qX].=.].qXqXqX;XqX8X,X8XyX;X8XqXqX,X=XqXqX,X;X,X;X,X;XtXqX,X,X,X=X;X,X,X;X,X,X,X;X,XyXqX,X;X,X;XyX,X,X=X,X,X,X,X,X,X,X,X,X,X,X;X,X,X:X,X<X,X<X,X<X,X:X;X,X;X:X:X,X,X,X;X:X,X,X,X,X,X:X,X:X,X,X,X,X,X:X;XuX;XuX;X;XuX:X,X:X;X:XwX,X:X,X;XwX;X:XuX:X;XuX:XqXuX;XqX:X:X:X;X:X:X:X>X>XnXz.: ~ &X7X7XqXqXqXiXiXyXwXiXyXuXiXeXuXaXbXL.F.F.F.U.i.  UXUXUXUXUXUXUXUXUXUXUXUXUXUXUXUXUXUXUXUXUXUXUXUXUXUXUXUXUXUXUXUXUX;.PXAXn.j.UXUXUXUXUX_.oX9. . ... ...{ | | | } ^ D M ",
"UXN.MXcX-.%.%.j.%.3.q.q.q.'.2.~.$.3.*.3.$.j./.~.-.'.3.).*.=.*.].%.*.*.OX;XrXwXqXqXqXqX=XyX8X,X;XyX=X,X8XqX;X,X=X=X,X,X=X=X,X,X=X,X=X,X=X;X=X,XqX;XqX;X,X;XyX;X,X,X,X,X,X=X,X,X,X,X,X,X,X,X,X:X:X,X,X,X;X<X<X,X,X,X,X,X,X,X,X:X:X:X;X:X,X,X;X,X;X,X;X:X;X,X,X:X,X:X,X;X:X;XuX;XuX;X:XqX;X,XuX:XwX,X;X:X;X;X:XyX:X:XyX;X:X:X;X:X:X:X;X:X:X;X:X;X;X<Xz.> ~ %X7X*XqXqXeXyXyXiXwXiXiXeXiXiXiXiXbXK.F.F.F.U.i.  UXUXUXUXUXUXUXUXUXUXUXUXUXUXUXUXUXUXUXUXUXUXUXUXUXUXUXUXUXUXUXUXUXp.AX2Xj.j.UXUXUXUXUX$X_.9. . . . .| {  .| |  .^ G M ",
"UXW.vX X%.+X'.3.3.eXnX`.*.*.).OX3.iXq.%.!.wXpXOX%.*.'.).*.qX*.q.].wX-.).wXqX;X8X,X=X=XyX=XyX8XqX=XyX=XqX8X,X=X,X=X,X=XtX,X=X,X,X;X,X=X,X;XyX=X,X;X,X;X;X;X,X;X;X=X,X=X,X,X,X,X,X;X;X,X;X:X,X,X,X<X>X;X<X,X%X,X,X,X:X;X,X:X:X,X,X;X,X,X,X;X;X,X;X:X;X,X,X;X;X>X,X,X;X,X;X;X;X;X:X:X;X;X:X:X;X;X:X:X;XwX:X;X:X;X;X:X;X:X;X;XqX:X:X;XwX;X;X;X:X;X=XvXz.: ~ +X=X*XqXqXwXiXiXeXyXiXiXiXyXuXeXiXnXR.F.F.F.U.i.  UXUXUXUXUXUXUXUXUXUXUXUXUXUXUXUXUXUXUXUXUXUXUXUXUXUXUXUXUXUXUXUXUXA v e h V UXUXUXUXUX$XXX0.,.|  . .| {  .| | | m D M ",
"UXW.vX{.*.+XwX'.#.*.).'.:.W ).OX#.*.*./.#.*.).OXW W ).'.3.eXq.'.OX*.%.OXwXqXqX;X=X;X;XqX8X;XqX7X8X;X8XqX;X8X;X;XqX,X=X,X8X,X;X=X=X,X;X=X,X;X;X,X=X;X,X;X,X;X;X,X;X;X;X,X,X:X,X:X:X,X:X,X,X,X,X:X,X,X,X:X:X,X,X;X,X,X:X,X,X;X:X,X,X;X,X,X;X:X;X;X,X;X,X;X;X;X,X;X;X;X,X,X,X:X,X,X;X:X;X;X;X;X:X;X:X;X;X:XwX;X:X;X;X;X;X:XwX;X:X:XwX;X;X;X:X:X;X>XvXz.: X.%X7X*X8XeXwXuXiXwXwXiXiXuXiXaXiX<XbXK.F.F.C.U.i.  UXUXUXUXUXUXUXUXUXUXUXUXUXUXUXUXUXUXUXUXUXUXUXUXUXUXUXUXUXUXUXUXp.o._ W :.N UXUXUXUXUX-XoX2. . .|  .| _  .| | { m F M ",
"UXW.vX`.*.+XrXOX#.%.).).@.-.#.(.#.*.#.w.#.%.).OX#.-.%.!.3.rX3./.;.$.).rX=X=X=XqX*X8XqX;X;XqX=X;X,XqX=X;X;X=X;X=X8X=X;X,X;X;X=X;X;X,X;X;X;X;X;X,X,X;X;X;X;X;X,X;X,X,X:X;X,X,X;X,X,X;X;X:X:X;X:X,X;X:X:X,X,X,X:X,X>X;X;X,X>X,X;X;X,X,X>X,X;X;X;X;X:X;X,X:X,X;X;X;X;X,X;X;X,X:X>X:X;X:X:X>X;X:X;X;X;XwX:X;X;X;X;X:X:X>X>X:X;X:XwX>X:X>X:X:X>X>X:X>XvXS.: ~ +X8XqXqX8XwXiXiXiXwXpXwXeXiXyXyXuXBXL.F.F.F.U.i.  UXUXUXUXUXUXUXUXUXUXUXUXUXUXUXUXUXUXUXUXUXUXUXUXUXUXUXUXUXUXUXUX:.MX2Xh.:._ UXUXUXUXUX:XXX0.,.| |  .| {  .| | } ^ F M ",
"UXE.vX'.-.rXOXj.j.eXpX'.3.nX3.-.j.iX3.%.w.pXpX}.3.wX3.%.3.qX!.*.*.pX}.XX>XqX;X*X;XqX=X8X=X8X=XqX;X8XqX=X=X,X;X=X;X=X,X=X=X;X,X=X=X,X,X=X=X,X=X=X;X;X;X;X;X;X;X,X;X;X:X,X;X:X,X;X;X;X,X,X,X,X;X;X,X<X,X,X,X,X<X>X:X,X,X:X;X,X:X,X>X:X;X;X;X%X<X:X<X%X;X;X;X;X;X;X;X;X,X;X;X;X,X>X>X;X;X;X:X;X:X;X:X;X;X;X;X>X;X:X;X;X;X:X;X:X:X;X:X:X:X;XwX;X:X>XvXS.: ~ +X*X=X=XeXyXyXiXiXeXiXiXiXuXiXiXaXbXL.F.F.C.U.i.  UXUXUXUXUXUXUXUXUXUXUXUXUXUXUXUXUXUXUXUXUXUXUXUXUXUXUXUXUXUXUXUXd.HXmXrXh.4.V UXUXUXUX:XXX1.&.|  . . .{  . .}  .m G M ",
"UXW.MX+X%.3.*.3.$.3.j.w.;.3.*./.$.3.-.q.%.3.!.(.#.!.-.=.3.qX3.3.*.3.*.XXwX=X8X;XqX=XqX;X8X;X;X8X8X=X;XqX;X=X=X;X=X;X;X;X,X;X=X;X;X;X=X,X,X=X,X,X;X;X;X;X,X;X,X;X;X:X;X;X;X,X:X,X:X,X;X,X;X:X,X,X,X>X;X;X:X>X,X;X,X,X;X;X%X;X;X;X,X;X;X,X,X:X,X;X;X:X<X%X;X;X;X;X;X;X>X,X:X>X>X;X;X;X:X;X>X;X;X;X;X;X:X;X:X;X:X;XwX;X:X;X;X:X:X>X:X;X>X:X;X>X:X>XvXS.> ~ %X8X7XqXeXwXiXyXeXwXiXuXwXiXyXyXaXnXK.U.F.F.U.i.  UXUXUXUXUXUXUXUXUXUXUXUXUXUXUXUXUXUXUXUXUXUXUXUXUXUXUXUXUXUXUXUXUXUXUXUXg.hXO.D UXUXUX4X@X1. .}  . .} {  . .}  .m d.M ",
"UXM.>X+X~.*.j.'.3.=.-.).3.-./.OX3.-./.OX!.=.3.'.3.=.~.}.).=X`.XX(.=.~.*X=XrXqXrX=X*X;X=X;X=X=X;X;X=X;X=XqX;X;X=X=X=X=X=X=X=X;X=X,X=X,X,X;X=X=X;X=X;X;X;X;X=X=X,X;X,X;X;X;X:X,X;X,X,X;X:X,X;X;X:X;X;X;X;X,X;X;X,X:X;X,X;X<X,X%X<X;X;X;X>X;X;X;X;X;X;X;X;X;X>X;X;X%X:X:X;X;X;X;X;X;X;X;X>X;X:X;X;X;X;X;X:X:X;X;X;X:X:X;X:X:X;X;X:XrX:X:X:X;X:X;X>XnXS.M ..$X=X*XeXqXeXyXiXyXwXiXiXiXuXeXiXaXnXK.F.F.C.U.i.. UXUXUXUXUXUXUXUXUXUXUXUXUXUXUXUXUXUXUXUXUXUXUXUXUXUXUXUXUXUXUXUXUXUXUXUXUXAX,.f.UXUXUXN.$X9. . . . .| X. .| | | ^ V > ",
"UXW.MX*X+X>X>X*X7XrXrXrXrXrX*X=XrXrXrX8X7XrX7X7X8X8X7XqX;XrXqX*X=XrXrX=X=X7X=X=X*X;X7X=X8X=X;X8X=X;X=XqX;X-X-X;X,X=X;X;X%X,X%X;X=X=X=X%X,X;X;X,X;X;X;X=X;X;X,X=X;X;X;X;X;X;X;X;X;X;X,X;X;X;X,X;X,X;X,X;X:X;X;X;X;X;X;X:X;X:X%X;X;X;X;X;X>X;X;X;X<X%X;X;X;X;X;X;X<X%X<X%X;X>X;X;X;X;X;X;X;X:X>X;X>X:X;X;X>X:X;X;X;X;X;X;X>X:XwX>X;X>X>X;X:X>X;X>X<XS.i ..&X=X=XqXqXyXyXiXeXwXiXiXiXiXeXuXuXnXK.F.F.F.U.i.  UXUXUXUXUXUXUXUXUXUXUXUXUXUXUXUXUXUXUXUXUXUXUXUXUXUXUXUXUXUXUXUXUXUXUXUXUXAXj..XUXUXUXN.@X9. .|  . . .{  .....} X.t > ",
"UXW.vX+XrX>X+X*XrXrXrXrXrXrXrXrXrX7XrX7XqXqX7XeXqXqX7XrXrX7XqXrXqXrXqXrX7XqX7X;X=X7XqXqX=X=X=X=X8XqX=X8X8X=X;X=X=X;X=X=X;X=X,X=X,X=X=X=X=X=X;X=X=X,X;X;X=X;X;X,X;X;X:X,XqX:XqX;X:X;X;X:X;XyX:X,X,X:X,X:X;X;X,X,X,X;X:X,X;X;X<X:X;X;X;X;X;X;X;X;X;X,X;X;X%X;X;X;X;X,X;X,X;X;X;X;X;X;X>X:XqX;XwX;X;X;X:X;X;X;X;X:X;X;XwX;X;XwX;X:XwX;X:XwX>X;XrX:XvXS.V { &X=X=XqXeXeXiXyXeXqXiXeXiXpXiXuXqXnXK.F.F.C.U.i.  UXUXUXUXUXUXUXUXUXUXUXUXUXUXUXUXUXUXUXUXUXUXUXUXUXUXUXUXUXUXUXUXUXUXUXUXUXSX X.XUXUXUXN.$X9. .|  . .| {  .| | } ~ u > ",
"UXM.vX6XrXcXrXrX7XqXeXrXqXeXrXeXeXeXeXeXeXeXqXeXeXeXeXeXeXeXqXeXqX9XqXqXqXeXqXeXeXqXeXqXeXeXiXeXeXqXyX8XeXqXqXqXyX;XyXtXqXqXyX,XyXtXyXqXqXyX8XeXyX,XqXyXyXyXyXqXyXwXwXuXiXwXuXuXuXyXuX,XwXuXuX:X,X:X,X,X:X,X:X,X,X,X,X,X,X,X,X<XyX;XyX;XqX;XwXyX:X,X:X,X<X,X:XwX,X,X,X:XyXwXqXwXyXuX,X,XwXwXwXuXwXwXqXwXqXwXwXwXqXwXwXwXwXwXeXwXwXwXwXwXwXwXwXrXnXS.N } }.=X7XqXqXwXyXiXwXwXiXpXwXwXiXwX,XBXE.U.F.C.U.i.  UXUXUXUXUXUXUXUXUXUXUXUXUXUXUXUXUXUXUXUXUXUXUXUXUXUXUXUXUXUXUXUXUXUXUXUXUXS g.1XUXUXUXM.$X9.|  . . .| {  .| | X.~ N > ",
"UXM.vX6X7X7X7XqXqXrXqXeXeXrXeXeXeXeXqXrXeXeXqXqXeXeXeXeXeXeXeXeXeXqXeXeXqXeXeXqX8XiXeXeXeXeXeXeXyXyXeXyXyXeXyXyXyXtXyXyXyXeXyXyXiXyXiXyXiXeXyXiXtXyXyXyXyXyXyXyXiXyXiXuXeXiXpXuXiXuXuXuXuXiXuXuXyXyX,XyXuX,X,XyX,X<XuXyXyXyXyXyXyXiXwXyXyXyXiXwXyXyXyXyXiXeXyXyX,XuXyXyXyXuXyXiXyXuXeXyXiXwXwXwXiXwXuXwXwXwXwXpXwXpXwXpXwXnXrXiXpXwXwXpXnXrXwXwXnXA.V ,.+X*XrXqXqXyXiXiXiXwXiXeXiXuXiXiXiXnXK.F.F.Z.U.i.  UXUXUXUXUXUXUXUXUXUXUXUXUXUXUXUXUXUXUXUXUXUXUXUXUXUXUXUXUXUXUXUXUXUXUXUXUXUXg.).UXUXUXE.@X9. .} |  .| |  .| | } ~ u M ",
"UXW.vX7X=X8XrX8XrX9X9XrXeXeXeXeXeXeXeXeXeXeXeXeXeXrXqXeXwXeXwXeXeXeXeXeXwXeXwXeXeXiXyXyXeXyXyXyXyX8XyXyXeXyXyXeXeXyXyXyXeXeXyX9XyX8XeXyXyXyXyXyXyXyXyXyXyXiXyXiXiXaXuXyXiXpXiXpXiXuXiXiXiXaXiXuXuXaXuXyXyXyXuXyXuXuXuXyXuXyXyXyXyXyXiXyXyXuXyXyXyXuXyXyXuXyXyXyXuXqXyXyXyXyXyXyXuXiXuXyXuXiXiXwXwXwXuXiXwXiXwXiXpXwXiXwXpXpXpXwXiXwXpXpXpXpXpXwXnXS.V ,.&XqXeXeXiXiXaXpXpXpXpXpXpXaXpXpXaXmXE.U.F.Z.U.i.  UXUXUXUXUXUXUXUXUXUXUXUXUXUXUXUXUXUXUXUXUXUXUXUXUXUXUXUXUXUXUXUXUXUXUXUXUXUX3Xj.UXUXUXK.OX1.&. . . . .{  .| } } ` F M ",
"UXW.vX+X7XrX7XrX8XeXrXeXrXeXrXeXeXqXrXeXqXeXeXeXeXeXeXqXeXeXeXrXrXeXeXqXqXqXeXeXeXwXeXeXeXtXeXeX8XiXtXqXyX8XeXqXyXyXyXeXtXyXeXeXyXiXeXwX8XyXtXeXyXyXqXyXiXyXyXyXyXyXiXuXiXiXiXuXuXyXiXuXuXuXiXiXuXiXuXyX,XuXyXyXwXyX,X,XyXyXyXiXyXyXiXwXiXyXyXyXyXyXyXyXwXeXuXwXqXyXyXyXyXuXyXyXyXyXeXuXwXyXwXuXpXwXwXwXiXwXwXwXwXwXwXwXpXwXwXpXwXwXwXpXwXnXeXwXiXz.B $.OXyXeXwXaXpXjXpXpXjXjXmXaXjXjXmXpXnXE.F.F.F.U.i.  UXUXUXUXUXUXUXUXUXUXUXUXUXUXUXUXUXUXUXUXUXUXUXUXUXUXUXUXUXUXUXUXUXUXUXUXUXUXUXUXUXUXUXV.}.4. .}  . ...|  . .| &.m z.M ",
"UXL.>X7X*X*X*X7XrX8X8XqXqXqX7XrXeX8X7XrXrX8X=X8XrXrXrX7XqXqXwXrXqX7XrXqX7XrXqXrX8X;X;X8X=X;X;X8XyX8XqXqX=XqXqXqX=X8XqX8X;X,X=X;X=X,X8X;XqXqX,X;X,X,XqX,XqX,X,XqXqXqXyXyXuXeXwXwXyXyXuXyXuXqX,X,X,XqX,X,X;X,X,XyX;X,X,X,X,XqXyX,XyXwXqXqXqX,XyX;X;XqXqX,XyXqXwXqXuXqXyX,XqXqXqXqXqXwX;XqXwXqXqXqXeXwX;XqXqXwXwXrXwXqXqXwXwXwXwXrXwXwXwXwXwXrXrXnX5XB.p.1.>XiXwXpXpXjXmXjXmXaXjXjXjXlXmXmXmXBXL.F.F.C.U.i.  UXUXUXUXUXUXUXUXUXUXUXUXUXUXUXUXUXUXUXUXUXUXUXUXUXUXUXUXUXUXUXUXUXUXUXUXUXUXUXUXUXUXUXC.w.1. .|  . ...{  .| |  .m i.B ",
"UXI.7X>X+X7X+X+X*X*XcXrX7XrX7X7XcX7X7X7X7XcX7X7X*X7X+X7X*X*X*X+X7X7X*XcX7X7X7X=XrX*X=X=X*X=X*X*X*X*X*X7X7X*X*X7X=X*X*X>X=X=X=X-X*X*X*X*X=X*X*X*X*X=X8X=X=X8X=X=X=XqX8XqXqXqXeX;X;XwXqX;XqXqXqXqX;X;X=XqX;X=X=X;X;X=X=X;X=X;X=X=X;XqX=X=X=X;X;X>X=X;X8X=X=XrX;X;X*XqXqXrX;XrX=X8X;X=XrXrX=XqX=X8X=X7XqX=XrX=X>X*XrX>XrXcXrXrX>XrXrXrX>X:X;X;X;XvXK.A.i.b.>XbXbXbXbXmXbXbXBXmXbXbXbXbXbXBXbXBXL.F.F.F.U.i.  UXUXUXUXUXUXUXUXUXUXUXUXUXUXUXUXUXUXUXUXUXUXUXUXUXUXUXUXUXUXUXUXUXUXUXUXUXUXUXUXUXUXUXA.8.9.,...,.....~  .....,.E F.B ",
"UXI.x.=X}.+X*X&XOX+X%X>X*X*X>X+X>XrX*X%X>X>X>X+XrX*X*X>X>X>XrXrX>X+X>XrXrXrX>XrX>X+X*X6X*X*X*X=X;X=XrX=X>X*X>X;X;X>X>X>X=X>X=XqXrXrXqX=X>X;XrX=X;XrXrX;XwX>XwXrXqXrX;X;X:X:XwXwXuXwXwXwX:X:X:XvXwXwXwX:X:XvX:X:X:X:X:XvX:XwXwX:X:X:X:X:X:X:XwX:X;XwXrXwXwXwXrXrXwX:X>X:X>XwX;X:XrX:X:X>XrXrX>XrX>X;X>X:XrXrX:X:X>XrXrXrX>XwX>X:XrXrXrXwXrX-XvXM.A.V.s.k.S.E.E.E.E.E.E.K.E.'.W.E.K.E.E.E.E.E.F.F.F.F.U.i.  UXUXUXUXUXUXUXUXUXUXUXUXUXUXUXUXUXUXUXUXUXUXUXUXUXUXUXUXUXUXUXUXUXUXUXUXUXUXUXUXUXUXUXF.G.8.&.$.&.$.&. .&. .@.O.z.F.B ",
"UXF.A.J.M.M.M.M.M.3X3XM.M.3X3XM.3X3XM.3XM.2X3X3XM.3X3X3X2XM.3X3X2X3X2X3X3X3X3X3XM.7X:XM.N.M.M.2X3X2X3X3X2X3X3X3X3X3X2XM.3X3X3X3X3X3X3X3X3X3X3X3X3X3X3X3X3X3X3X3X3XM.3X3X3X3X3X3X4X3X3X3X3X3X3X3X3X5X3X3X3X3X5X3X3X3X3X3X5X3X3X3X3X3X5X3X3X3X5X3X3X3X3X5X5X3X3X3X3X3X5X3X3X3X3X3X5X3X3X3X3X3X5X3X3X3X3X3X3X3X3X3X3X3X3X5X3X3X3X3X3X3X3XM.M.M.E.V.F.V.s.k.V.Z.Z.I.Y.F.I.I.B. XW.U.F.I.F.F.G.F.F.F.F.C.U.i.  UXUXUXUXUXUXUXUXUXUXUXUXUXUXUXUXUXUXUXUXUXUXUXUXUXUXUXUXUXUXUXUXUXUXUXUXUXUXUXUXUXUXUXF.F.F.U.I.I.I.I.Y.U.F.I.F.A.F.B ",
"UXF.V.A.B.B.B.B.B.B.a.B.a.B.k.a.k.a.k.a.k.k.a.a.a.a.a.a.a.a.a.s.a.s.s.s.s.s.i.s.s.m.+Xd.s.i.s.s.s.a.s.s.a.s.a.s.a.a.a.a.a.a.a.a.a.a.a.a.a.a.k.a.a.a.a.a.a.a.a.k.s.a.a.k.a.a.a.a.a.a.a.a.a.a.a.a.s.a.a.a.a.a.s.a.a.a.a.a.a.a.a.a.a.a.a.a.a.a.k.a.a.a.a.a.a.a.a.a.a.a.a.k.a.k.a.a.a.a.k.k.a.k.a.k.a.a.B.a.k.k.a.B.a.k.k.k.k.k.k.B.B.B.B.B.A.A.A.V.A.V.s.k.V.Z.F.Z.I.F.Z.I.B.+XE.I.F.F.F.F.F.F.F.F.F.C.U.i.  UXUXUXUXUXUXUXUXUXUXUXUXUXUXUXUXUXUXUXUXUXUXUXUXUXUXUXUXUXUXUXUXUXUXUXUXUXUXUXUXUXUXUXA.F.F.F.F.F.F.C.F.F.F.F.F.V.F.B "
};
