/* XPM */
static char *squidward3[] = {
/* columns rows colors chars-per-pixel */
"128 128 201 2 ",
"   c #000101",
".  c #060718",
"X  c #100010",
"o  c #100018",
"O  c #1E0D1E",
"+  c #001A1A",
"@  c #3B1908",
"#  c #1D0C25",
"$  c #200F20",
"%  c #271F2F",
"&  c #26152E",
"*  c #2B1A33",
"=  c #2C2734",
"-  c #33283B",
";  c #0D2F2F",
":  c #5D1919",
">  c #551515",
",  c #5E0C04",
"<  c #640F00",
"1  c #720F0F",
"2  c #6D1414",
"3  c #781313",
"4  c #5F2C1B",
"5  c #5D2A2A",
"6  c #7C2A2A",
"7  c #7C2424",
"8  c #7D3333",
"9  c #275A5A",
"0  c #3B6E6E",
"q  c #2F7373",
"w  c #4D5566",
"e  c #4E7070",
"r  c #597B7B",
"t  c #4A6C70",
"y  c #554C59",
"u  c #812626",
"i  c #832929",
"p  c #8C2929",
"a  c #84322A",
"s  c #8B6A30",
"d  c #946B39",
"f  c #945050",
"g  c #8F5C4B",
"h  c #AD7C42",
"j  c #B37171",
"k  c #896756",
"l  c #47867E",
"z  c #AB8248",
"x  c #B38248",
"c  c #AF8654",
"v  c #B78654",
"b  c #80916F",
"n  c #D6AD7B",
"m  c #6E4D91",
"M  c #6A5293",
"N  c #755398",
"B  c #727283",
"V  c #8B6AAE",
"C  c #886DB1",
"Z  c #9678BC",
"A  c #8877BB",
"S  c #997AC5",
"D  c #3DA392",
"F  c #3BAFA7",
"G  c #578A8A",
"H  c #588C86",
"J  c #689C9C",
"K  c #58A29A",
"L  c #75AA9C",
"P  c #44B7A7",
"I  c #43B6AE",
"U  c #47BAAA",
"Y  c #4BBAAE",
"T  c #46BDBD",
"R  c #58BEB6",
"E  c #55A5A4",
"W  c #62A6A2",
"Q  c #79A6A6",
"!  c #79BCB7",
"~  c #6AB4B4",
"^  c #7CAFC0",
"/  c #38C0C0",
"(  c #7BCBC6",
")  c #6DD3C2",
"_  c #75CACA",
"`  c #839087",
"'  c #A19090",
"]  c #B08E88",
"[  c #948CB0",
"{  c #91A2A2",
"}  c #85BBBA",
"|  c #8DAFAF",
" . c #9DAE9D",
".. c #D59191",
"X. c #DFBE84",
"o. c #D8A5A5",
"O. c #9598CA",
"+. c #A484C9",
"@. c #A688CB",
"#. c #AB8AD6",
"$. c #AB9ADE",
"%. c #AD94D9",
"&. c #B391D5",
"*. c #B59DDF",
"=. c #B196DA",
"-. c #B08FD9",
";. c #9CBAD6",
":. c #91AEC7",
">. c #A9A4DB",
",. c #BCABDE",
"<. c #A1B2D4",
"1. c #9D9DE1",
"2. c #AF9EE2",
"3. c #B594E3",
"4. c #B897E2",
"5. c #B79EE0",
"6. c #BC9BE5",
"7. c #B997EC",
"8. c #BF9EE9",
"9. c #B698E9",
"0. c #BD9CF0",
"q. c #AEAEE1",
"w. c #B3A2E6",
"e. c #BBA2E4",
"r. c #BCACEF",
"t. c #A8B9E3",
"y. c #BBB7E9",
"u. c #BCAFF3",
"i. c #C09EE2",
"p. c #C3A1E5",
"a. c #C3A4EC",
"s. c #C2ACF3",
"d. c #C8B6FB",
"f. c #8CC5C5",
"g. c #83CDC5",
"h. c #86CBC9",
"j. c #91C7C7",
"k. c #9ACAD8",
"l. c #8AD3D2",
"z. c #94D6D6",
"x. c #9BDEDE",
"c. c #99DCD5",
"v. c #8CC5D0",
"b. c #A4CADB",
"n. c #A3C5D6",
"m. c #A2CCCF",
"M. c #AEE1D0",
"N. c #A3E5DD",
"B. c #B2E5D4",
"V. c #B3C7E8",
"C. c #A1D4E5",
"Z. c #A8D7E4",
"A. c #B9DDEE",
"S. c #B6DFF0",
"D. c #BEDCF8",
"F. c #A8C1E2",
"G. c #9BE9E9",
"H. c #A2E4E4",
"J. c #A3EDE5",
"K. c #A9EBE3",
"L. c #A7E9E9",
"P. c #AAECEC",
"I. c #AEE1E1",
"U. c #B6EBEB",
"Y. c #B3E7E8",
"T. c #AEF0E7",
"R. c #A6F0E8",
"E. c #AAF4EB",
"W. c #B4F3EA",
"Q. c #B6F0E7",
"!. c #AFE2F3",
"~. c #B4E6F5",
"^. c #BAE6F7",
"/. c #A6F0F0",
"(. c #AEF1F1",
"). c #ABF9F4",
"_. c #B3F5F5",
"`. c #BCF6F6",
"'. c #B6FCFC",
"]. c #B9FDFD",
"[. c #DAD2C1",
"{. c #D4E5C3",
"}. c #D4E5D4",
"|. c #C7D8FC",
" X c #C8D9FB",
".X c #D3C9FE",
"XX c #C4FCFC",
"oX c #C8FBFB",
"OX c #CCEAF6",
"+X c #F5F5E5",
"@X c #FDF5E5",
"#X c #FFF8E7",
"$X c #F6F6EE",
"%X c #F9F9E9",
"&X c #E4FFFF",
"*X c #E5F6F6",
"=X c #FDFDFD",
"-X c #FFF2F2",
";X c #E6E4FF",
":X c #EEE6D5",
">X c #95C8B7",
/* pixels */
"L.L.L.L.L.L.L.L.L.L.L.L.L.L.L.L.L.L.L.L.L.L.L.L.L.L.L.L.L.L.L.L.L.L.L.L.L.L.L.L.L.L.L.L.L.L.L.L.L.L.L.L.L.L.L.L.L.L.L.L.L.L.L.L.L.L.L.'.j > 8 8 u u u u u u u i u i u i u u u i u u 6 6 u 7 u u 7 u u 7 : ..=X=X=X=X=X=X=X*X=X=X$X=X=X=X=X=X-X=X=X=X*X=X=X=X-X=X",
"L.L.L.L.L.L.L.L.L.L.L.L.L.L.L.L.L.L.L.L.L.L.L.L.L.L.L.L.L.L.L.L.L.L.L.L.L.L.L.L.L.L.L.L.L.L.L.L.L.L.L.L.L.L.L.L.L.L.L.L.I.L.L.L.L.L.J.'.j > 8 8 u u u p i u u u u u u u u u u u u u 6 6 u u u u u u u u : ..=X=X=X$X=X=X=X=X=X=X=X=X=X=X=X=X=X=X=X=X=X=X=X=X=X=X",
"L.L.L.L.L.L.L.L.L.L.L.L.L.L.L.L.L.L.L.L.L.L.L.L.L.L.L.L.L.L.L.L.L.L.L.L.L.L.L.L.L.L.L.L.L.L.L.L.L.L.L.L.L.L.L.L.L.L.L.L.L.L.L.L.L.P.G.'.j > 8 8 u u u u p u u i u i i u p u p u u u 6 6 u 7 7 u u u u u : ..=X=X=X=X=X=X=X=X-X=X-X=X*X=X=X=X=X=X=X=X=X=X=X$X=X=X",
"L.L.L.L.L.L.L.L.L.L.L.L.L.L.L.L.L.L.L.L.L.L.L.L.L.L.L.L.L.L.L.L.L.L.L.L.L.L.L.L.L.L.L.L.L.L.L.L.L.L.L.L.L.L.L.L.L.L.L.L.L.L.L.L.L.P.J.'.j > 8 8 u u u u u u u u u u u u u u u u u i 6 6 u u u u 7 u u 7 : ..=X=X=X=X=X=X=X=X=X=X=X=X=X=X*X=X=X=X$X=X=X=X=X=X=X=X",
"L.L.L.L.L.L.L.L.L.L.L.L.L.L.L.L.L.L.L.L.L.L.L.L.L.L.L.L.L.L.L.L.L.L.L.L.L.L.L.L.L.L.L.L.L.L.L.L.L.L.L.L.L.L.L.L.L.L.L.L.L.L.L.L.L.L.G.'.j > 8 8 u u u u u u u u u u u u i i i 7 u 6 6 6 i i u u u i u u : ..=X=X=X=X=X$X=X=X=X=X=X=X*X=X=X=X-X=X=X=X=X=X=X=X=X*X",
"L.L.L.L.L.L.L.L.L.L.L.L.L.L.L.L.L.L.L.L.L.L.L.L.L.L.L.L.L.L.L.L.L.L.L.L.L.L.L.L.L.L.L.L.L.L.L.L.L.L.L.L.L.L.L.L.L.L.L.L.L.L.L.L.L.L.G.'.j > 8 8 u i u u u i u i 7 u u 7 i i i i u u 6 6 u 6 7 u u u i u : ..=X=X=X$X=X=X$X=X=X=X=X=X=X=X=X=X=X=X*X=X=X$X=X=X=X=X",
"L.L.L.L.L.L.L.L.L.L.L.L.L.L.L.L.L.L.L.L.L.L.L.L.L.L.L.L.L.L.L.L.L.L.L.L.L.L.L.L.L.L.L.L.L.L.L.L.L.L.L.L.L.L.L.L.L.L.L.L.L.L.L.L.L.L.G.'.j > 8 8 i u u p u u u u u u u u i u u i u u 6 i u u 6 u u u u u : ..=X=X=X=X=X=X=X=X=X=X=X$X=X=X=X=X=X=X=X=X=X=X=X=X=X=X",
"L.L.L.L.L.L.L.L.L.L.L.L.L.L.L.L.L.L.L.L.L.L.L.L.L.L.L.L.L.L.L.L.L.L.L.L.L.L.L.L.L.L.L.L.L.L.L.L.L.L.L.L.L.L.L.L.L.L.L.L.L.L.L.L.L.L.L.'.j > 8 8 u u u u i u i u u u 6 u i i i i u 7 6 6 u u u u u u 7 u : ..=X=X=X=X=X=X=X=X=X=X=X=X=X=X-X=X=X=X=X=X=X=X=X=X-X=X",
"L.L.L.L.L.L.L.L.L.L.L.L.L.L.L.L.L.L.L.L.L.L.L.L.L.L.L.L.L.L.L.L.L.L.L.L.L.L.L.L.L.L.L.L.L.L.L.L.L.L.L.L.L.L.L.L.L.L.L.L.L.L.L.L.L.P.J.'.j > 8 8 i u u u i u i u u 7 u u 7 u 7 u u u u u u u u u u u u i @ ] OX*X=X=X=X=X=X=X=X=X=X=X=X=X=X=X=X=X=X=X=X=X=X=X=X=X",
"L.L.L.L.L.L.L.L.L.L.L.L.L.L.L.L.L.L.L.L.L.L.L.L.L.L.L.L.L.L.L.L.L.L.L.L.L.L.L.L.L.L.L.L.L.L.L.L.L.L.L.L.L.L.L.L.L.L.L.L.L.L.L.L.L.P.G.'.j > 8 8 u u i u u i u u u u u u u u u u u u 7 u u 7 u u i i i u @ n *X*X=X=X=X=X=X=X=X=X=X=X=X=X=X=X=X=X=X=X=X=X=X=X=X=X",
"L.L.L.L.L.L.L.L.L.L.L.L.L.L.L.L.L.L.L.L.L.L.L.L.L.L.L.L.L.L.L.L.L.L.L.L.L.L.L.L.L.L.L.L.L.L.L.L.L.L.L.L.L.L.L.L.L.L.L.L.L.L.L.L.L.L.G.'.j > 8 8 u u i i u u i u 7 u u u 7 u u u 7 u 7 u u 7 u 7 i i u i @ k { { ) ) ) ) ) ) ) ) ) ) ) ) ) ) ) ) ) ) ) ) ) ) ) ) ",
"L.L.L.L.L.L.L.L.L.L.L.L.L.L.L.L.L.L.L.L.L.L.L.L.L.L.L.L.L.L.L.L.L.L.L.L.L.L.L.L.L.L.L.L.L.L.L.L.L.L.L.L.L.L.L.L.L.L.L.L.L.L.L.L.L.L.L.'.j > 8 8 i u u u u i u u u u u u u u 7 u u u u u u u u u 7 i u u @ k { { D D D D D D D D D D D D D D D K D D D D D D D D ",
"L.L.L.L.L.L.L.L.L.L.L.L.L.L.L.L.L.L.L.L.L.L.L.L.L.L.L.L.L.L.L.L.L.L.L.L.L.L.L.L.L.L.L.L.L.L.L.L.L.L.L.L.L.L.L.L.L.L.L.L.L.L.L.L.L.L.G.'.j > 6 8 u u u u u u u i u i u i u u 7 u u i i i u u i i u u u 7 4 g T T I I Y I I I I I U U U P Y U U U I I T I I I Y I ",
"L.L.L.L.L.L.L.L.L.L.L.L.L.L.L.L.L.L.L.L.L.L.L.L.L.L.L.L.L.L.L.L.L.L.L.L.L.L.L.L.L.L.L.L.L.L.L.L.L.L.L.L.L.L.L.L.L.L.L.L.L.L.L.L.L.L.J.'.j > 8 8 u u u u i u u u u i u u 7 u u u 7 i i u u u i i u u u u 4 g T T I I I I I I I I U U P P Y Y U U Y I I I I I I I ",
"L.L.L.L.L.L.L.L.L.L.L.L.L.L.L.L.L.L.L.L.L.L.L.L.L.L.L.L.L.L.L.L.L.L.L.L.L.L.L.L.L.L.L.L.L.L.L.L.L.L.L.L.L.L.L.L.L.L.L.L.L.L.L.L.L.P.G.'.j > 8 8 u u u u u i p u u u u u u u u u i i i i u u u u u u u u 4 g T T Y I I I I T I Y U U P U R R R R I I I I Y I I I ",
"L.L.L.L.L.L.L.L.L.L.L.L.L.L.L.L.L.L.L.L.L.L.L.L.L.L.L.L.L.L.L.L.L.L.L.L.L.L.L.L.L.L.L.L.L.L.L.L.L.L.L.L.L.L.L.L.L.L.L.L.L.L.L.L.L.P.J.'.j > 8 6 u 7 u u u u u u i u u u u u 6 u i i i i u 7 u u 7 u u 7 4 g T T I I I I I I I I U U U Y R R R R I I I I I I I I ",
"L.L.L.L.L.L.L.L.L.L.L.L.L.L.L.L.L.L.L.L.L.L.L.L.L.L.L.L.L.L.L.L.L.L.L.L.L.L.L.L.L.L.L.L.L.L.L.L.L.L.L.L.L.L.L.L.L.L.L.L.L.L.L.L.L.L.G.'.j > a a u u u u 6 6 6 6 u u u u 6 6 6 6 6 6 6 6 6 6 6 6 6 6 6 6 > f / / P P P P P P P P P P P U R R Y R I P P P P P P P ",
"L.L.L.L.L.L.L.L.L.L.L.L.L.L.L.L.L.L.L.L.L.L.L.L.L.L.L.L.L.L.L.L.L.L.L.L.L.L.L.L.L.L.L.L.L.L.L.L.L.L.L.L.L.L.L.L.L.L.L.L.L.L.L.L.L.L.G.'.j > a a u u u i 6 6 6 6 u i u u 6 6 6 6 3 u 6 6 7 6 6 6 6 6 6 6 > f / / P P P P P P P P P P P U Y Y Y Y P P P P P P P P ",
"L.L.L.L.L.L.L.L.L.L.L.L.L.L.L.L.L.L.L.L.L.L.L.L.L.L.L.L.L.L.L.L.L.L.L.L.L.L.L.L.L.L.L.L.L.L.L.L.L.L.L.L.L.L.L.L.L.L.L.L.L.L.L.L.L.L.G.'.j > a a p p p p i i i i p p p p u u u u u u u u i i i i u u i i : f / / F I I I F I I I I F I I I F I I I I F I I F I I ",
"L.L.L.L.L.L.L.L.L.L.L.L.L.L.L.L.L.L.L.L.L.L.L.L.L.L.L.L.L.L.L.L.L.L.L.L.L.L.L.L.L.L.L.L.L.L.L.L.L.L.L.L.L.L.L.J.L.L.L.L.L.L.L.L.L.L.L.'.j > , , 3 3 3 3 2 2 1 2 3 3 3 3 1 1 1 1 1 1 1 1 2 2 1 2 2 2 2 1 > f / / F F F F F F F F F F F F F F F F F F F F F F F F ",
"L.L.L.L.L.L.L.L.L.L.L.L.L.L.L.L.L.L.L.L.L.L.L.L.L.L.L.L.L.L.L.L.K.K.T.T.K.K.K.T.K.J.K.J.J.J.J.J.J.J.J.J.J.J.J.J.K.K.P.P.L.L.L.L.K.K.K.W.c.:.g.} j.f.f.f.f.f.f.f.f.j.f.f.} f.f.f.f.f.f.f.f.f.f.j.f.h.h.h.g.g.l.g.g.g.g.g.g.g.g.g.g.g.g.g.g.g.g.g.g.g.g.g.h.g.g.g.",
"L.L.L.L.L.L.L.L.L.L.L.L.L.L.L.L.L.L.L.L.Y.L.L.L.L.L.L.L.L.L.L.L.K.K.K.P.T.T.K.P.J.J.J.H.J.J.J.J.J.J.J.J.J.J.J.J.K.P.P.P.L.L.L.L.N.H.K.N.XXXXXXXX`.`.`.`.`.`.`.XX`.`.`.`.OX`.`.`.`.`.`.XX`.`.`.`.XXXXXXXX].].].].R.R.J.R.R.K.R.R.R.R.R.R.J.R.J.R.R.J.R.J.R.R.R.R.",
"L.L.L.L.L.L.L.L.L.L.L.L.L.L.L.L.L.L.L.L.L.L.L.L.L.L.L.L.L.L.L.L.K.W.K.T.K.K.K.K.P.P.P.L.~.^.^.^.D.^.D.D.^. XOX^.T.K.P.P.L.L.L.L.K.K.K.K.L.L.J.J.L.L.L.L.L.L.L.L.L.L.L.L.L.L.K.L.L.L.L.L.P.L.L.L.g.N.N.N.H.H.H.L.P.P.P.P.P.P.P.P.P.P.P.P.P.P.P.P.P.P.P.P.P.P.P.P.",
"L.L.L.L.L.L.L.L.L.L.L.L.L.L.L.L.L.L.L.L.L.L.L.L.L.L.L.L.L.L.L.L.K.T.K.K.K.T.K.K.H.N.G.z.b.n.k.n.;.;.;.;.k.k.C.S.K.K.P.P.L.L.L.P.N.K.K.K.L.L.L.L.L.L.L.L.L.L.L.P.L.L.L.L.L.L.L.L.L.L.L.L.L.L.L.L.W N.N.N.L.H.H.H.P.P.P.P.P.P.P.L.P.P.P.P.P.P.P.P.P.P.P.P.P.P.P.P.",
"L.L.L.L.L.L.L.L.L.L.L.L.L.L.L.L.L.L.L.L.L.L.L.L.L.L.L.L.K.K.K.T.D.D.V.V.d.s.e.e.p.p.p.a.0.0.a.a.4.3.3.3.7.i.i.i.u. X~.~.R.G.P.P.L.L.L.L.L.L.L.L.L.L.L.L.K.K.T.T.E.U.P.Y.N.T.N.T.P.P.K.L.K.K.N.K.`.L.P.P.L.L.L.L.K.K.N.K.J.L.L.L.L.L.L.L.L.L.L.L.L.L.L.L.L.L.L.L.",
"L.L.L.L.L.L.L.L.L.L.L.L.L.L.L.L.L.L.L.L.L.L.L.L.L.L.L.L.K.T.T.K.V.<.;.;.3.3.$.%.p.a.S V S 0.a.a.3.3.3.3.8.i.i.i.1.u.~.~.J.R.P.P.L.L.L.L.L.L.L.L.L.L.L.L.T.K.T.T._.P.T.P.H.K.T.N.P.P.L.L.K.K.K.K.P.P.P.L.L.L.L.L.K.K.K.K.L.L.L.L.L.L.L.L.L.L.L.L.L.L.L.L.L.L.L.L.",
"L.L.L.L.L.L.L.L.L.L.L.L.L.L.L.L.L.L.L.L.L.L.L.L.L.L.L.L.K.T.K.K.s.,.*.*.%.u.5.%.p.p.V N S a.i.a.9.3.3.3.V +.i.i.1.1.v.~.J.J.R.P.L.L.L.L.L.L.L.L.L.L.L.L.T.K.T.c.P.(.Y.Y.K.K.K.N.'.P.L.L.K.N.K.H.L.L.L.L.L.L.L.L.K.N.K.K.L.L.L.L.L.L.L.L.L.L.L.L.L.L.L.L.L.L.L.L.",
"L.L.L.L.L.L.Y.L.L.L.L.L.L.L.L.L.L.L.L.L.L.L.L.L.L.L.L.L.K.K.K.T.s.*.*.*.0.S @.$.p.p.S Z S a.i.i.3.9.0.S m m i.i.1.1.;.C.J.J.P.P.L.L.L.L.L.L.L.L.L.L.L.L.K.K.T.f.W (.Y.L.N.K.K.K.z.P.L.L.K.K.N.K.L.x.N.L.L.L.L.L.K.K.N.K.P._.L.L.L.L.L.L.L.L.L.L.L.L.L.L.L.L.L.L.",
"L.L.L.L.L.L.L.L.L.L.L.L.L.L.L.L.L.L.L.L.L.L.L.L.L.L.L.L.T.T.K.K.y.>.4.6.p.m m S p.i.i.i.i.i.p.i.4.4.4.#.N S a.0.p.p.i.i.Z.!.J.J.L.L.L.L.L.L.L.L.K.N.N.K.T.K.L.H.H.P.K.K.N.K.P.Z.W P.P.Y.L.L.L.L.R.! ! E.L.L.L.L.N.T.N.K._ l.(.P.L.L.L.L.L.L.L.L.L.L.L.L.L.L.L.L.",
"L.L.L.L.L.L.L.L.L.L.L.L.L.L.L.L.L.L.L.L.L.L.L.L.L.L.L.L.K.K.K.T.y.>.6.6.p.V m a.p.p.i.a.i.i.V m 4.4.4.4.i.i.8.8.p.p.i.i.Z.Y.J.J.L.L.L.L.L.L.L.L.K.K.K.K.K.T.L.L.P.P.K.K.K.K.P.P.(.U.Y.Y.L.L.L.L.E.E.E.E.L.L.L.L.T.N.T.N.) _ (.(.L.L.L.L.L.L.L.L.L.L.L.L.L.L.L.L.",
"L.L.L.L.L.L.L.L.L.L.L.L.L.L.L.L.L.L.L.L.L.L.L.L.L.L.L.L.T.K.K.T.s.>.7.7.a.0.7.0.a.a.7.i.i.@.N N #.4.4.4.8.8.8.S m +.i.i.k.Y.J.J.L.L.L.P.L.L.L.L.K.K.K.K.K.K.P.L.P.P.K.N.N.K.L.P.(.(.L.P.L.L.L.L.J.T.K.P.L.L.L.L.K.H.L.J./.).P.(.L.L.L.L.L.L.L.L.L.L.L.L.L.L.L.L.",
"L.L.L.L.L.L.L.L.L.L.L.L.L.L.L.L.L.L.L.L.L.L.L.L.L.L.L.L.K.K.T.K.d.i.i.7.0.0.a.a.a.S S S i.i.Z Z 4.4.3.3.8.8.8.N m +.i.i.k.Y.J.J.L.L.L.L.L.L.L.L.N.K.K.N.T.K.L.L.P.P.K.K.K.K.P.P.(.E.Y.Y.L.L.L.L.N.T.K.K.L.L.L.L.K.H.J.G.)./.(.(.L.L.L.L.L.L.L.L.L.L.L.L.L.L.L.L.",
"L.L.L.L.L.L.L.L.L.L.L.L.L.L.L.L.L.L.L.L.L.L.L.L.L.L.L.L.K.K.N.K.H.J.Z.f.w.2.2.2.w.C M M 6.6.6.6.i.i.p.i.&.4.6.S #.4.*.*.k.Y.J.J.L.L.L.L.L.L.L.L.K.K.R.K c.K.K.T.P.P.K.T.R.R.K.K.L.L.L.L.K.P.R.R.J.P.K.K.N.K.K.N././.P.P.L.L.L.L.L.K.N.K./.G.).(./.L.L.L.L.L.L.L.",
"L.L.L.L.L.L.L.L.L.L.L.L.L.L.L.L.L.L.L.L.L.L.L.L.L.L.L.L.K.N.K.K.K.J.Y.C.u.w.2.2.w.+.M C 6.6.4.6.i.@.N V -.i.4.4.i.4.*.*.Z.S.J.L.L.L.L.L.L.L.L.L.P.K.R.g.K.K.K.K.P.P.K.K.R.R.T.T.L.L.L.L.T.K.R.K N.L.K.N.K.K.K.K././.P.P.L.L.L.L.L.K.K.K.G.G././.L.L.L.L.L.L.L.L.",
"L.L.L.L.L.L.L.L.L.L.L.L.L.L.L.L.L.L.L.L.L.L.L.L.L.L.L.L.K.K.K.K.J.K.U.~.~.C.v.^ w.5.+.r.4.4.4.4.i.@.N N S 6.6.6.6.6.*.a.Z.Y.J.J.L.L.L.L.L.L.L.L.T.K.R.R.K.K.T.K.P.P.T.K.R.R.K.K.L.L.L.L.K.T.R.g.x.L.H.K.N.K.K.N./.h.P.P.L.L.L.L.K.N.N.K._ _ (.E.L.L.L.L.L.L.L.L.",
"L.L.L.L.L.L.L.L.L.L.L.L.L.L.L.L.L.L.L.L.L.L.L.L.L.L.L.L.K.K.N.K.J.H.^.U.^.^.^.Z.,.6.e.e.4.4.4.4.i.i.Z Z i.6.6.4.6.i.i.d.Y.Y.J.J.L.L.L.L.L.L.L.P.T.K.K.J.K.K.K.K.P.P.K.N.K g.K.K.L.L.L.J.K.K.R.R.L.L.K.K.K.K.K.K.h.K z.P.L.L.L.L.K.K.K.K.E _ (.P.L.L.L.L.L.L.L.L.",
"L.L.L.L.L.L.L.L.L.L.L.L.L.L.L.L.L.L.L.L.L.L.L.L.L.L.L.L.L.L.L.L.J.L.L.L.K.K.T.K.~.b.C.:.5.2.2.2.7.7.7.7.7.7.7.7.<.<.V.|.K.K.P.P.H.K.K.N././.P.P.L.L.L.L.L.L.L.L.K.K.K.K.c.H.K.K.J.J.J.J.L.L.L.L.K.T.L.P.L.L.L.L.N.K.K.K.L.L.L.L.K.N.N.K.K.K.K.K.L.L.L.L.L.L.L.L.",
"L.L.L.L.L.L.L.L.L.L.L.L.L.L.L.L.L.L.L.L.L.L.L.L.L.L.L.L.L.L.L.L.L.L.L.L.K.K.K.K.S.S.~.b.r.r.2.2.8.9.7.7.7.7.7.7.<.V.|.|.K.K.P.P.K.H.K.K././.P.P.L.L.L.L.L.L.L.L.K.K.N.K.P.P.H.K.J.J.J.J.L.L.L.L.K.K.L.L.L.L.L.L.K.K.K.N.L.L.L.L.K.K.K.K.N.K.K.N.L.L.L.L.L.L.L.L.",
"L.L.L.L.L.L.L.L.L.L.L.L.L.L.L.L.L.L.L.L.L.L.L.L.L.L.L.L.L.L.L.L.L.L.L.L.T.K.T.T.H.K.J.J.P.P.P.z.V.b.b.b.k.k.C.Z.L.P.P.P.K.T.P.P.K.K.K.N./.h.z.P.L.L.L.L.L.L.L.L.K.K.K.K.P.P.H.K.L.L._.(.P.U.(.P.W.K.L.L.L.L.L.L.K.K.K.N.L.L.L.L.K.K.K.K.K.N.K.K.L.L.L.L.L.L.L.L.",
"L.L.L.L.L.L.L.L.L.L.L.L.L.L.L.L.L.L.L.L.L.L.L.L.L.L.L.L.L.L.L.L.L.L.L.L.K.P.K.K.J.J.J.J.(.P.P./.A.A.A.S.!.~.~.~.L.P.P.P.K.K.P.P.K.K.N.T.(.K z.P.L.L.L.L.L.L.L.L.K.N.K.K.P.T.N.]._._.U.(.H.L.x.x.K.K._._.E.L.L.L.N.K.K.K.L.L.L.L.N.K.K.N.K.K.K.K.L.L.L.L.L.L.L.L.",
"L.L.L.L.L.L.L.L.L.L.L.L.L.L.L.L.L.L.L.L.L.L.L.L.L.L.L.L.L.L.L.L.L.L.L.L.L.L.L.L.J.L.L.L.L.L.L.L.P.Y.K.T.K.K.K.K.L.L.L.L.L.Y.L.L.J.L.L.L.K.K.T.K.L.L.L.L.L.L.L.L.L.L.L.L.L.P._.f.L e t e t 0 0 0 0 0 J J x._.L.P.L.L.L.L.L.L.L.L.L.L.L.L.L.L.L.L.L.L.L.L.L.L.L.L.",
"L.L.L.L.L.L.L.L.L.L.L.L.L.L.L.L.L.L.L.L.L.L.L.L.L.L.L.L.L.L.L.L.L.L.L.L.L.L.L.L.L.L.L.L.L.L.L.L.P.P.K.K.K.K.N.K.L.L.L.L.L.L.L.L.L.L.L.L.K.K.W.K.L.L.L.L.L.L.L.L.L.L.L.L.P.P.h.W { ;.>Xm.I.I.Y.Y.Y.} } J ! _.P.P.L.L.L.L.L.L.L.L.L.L.L.L.L.L.L.L.L.L.L.L.L.L.L.L.",
"L.L.L.L.L.L.L.L.L.L.L.L.L.L.L.L.L.L.L.L.L.L.L.L.L.L.L.L.L.L.L.L.L.L.L.L.L.L.L.L.L.L.L.L.L.L.L.L.P.P.T.K.H.K.K.K.L.L.L.L.L.L.L.L.L.L.L.L.K.K.K.K.L.L.L.L.L.L.L.L.L.L.L.L.P.P.(.(.'.'.).'._.(.(.(.'._._.`._._.P.P.L.L.L.L.L.L.L.L.L.L.L.L.L.L.L.L.L.L.L.L.L.L.L.L.",
"L.L.L.L.L.L.L.L.L.L.L.L.L.L.L.L.L.L.L.L.L.L.L.L.L.L.L.L.L.L.L.L.L.L.L.L.L.L.L.L.L.L.L.L.L.L.L.L.P.P.K.K.N.K.N.K.L.L.L.L.L.L.L.L.L.L.L.L.K.K.N.H.L.L.L.L.L.L.L.L.L.L.L.L.P.P.(.(.'.'.'.'.W._._.(.'.'.'.'._._.P.P.L.L.L.L.L.L.L.L.L.L.L.L.L.L.L.L.L.L.L.L.L.L.L.L.",
"L.L.L.L.L.L.L.L.L.L.L.L.L.L.L.L.L.L.L.L.L.L.L.L.L.L.L.L.L.L.L.L.L.L.L.L.L.L.L.L.L.L.L.L.L.L.L.L.L.L.L.L.L.L.L.L.L.L.L.L.L.L.L.L.L.L.L.L.L.L.L.L.L.L.L.L.L.L.L.L.K.T.P.P.B.B.>X| { Q | { { L Q { Q Q Q b.! T._.`.L.L.L.L.L.L.L.L.L.L.L.L.L.L.L.L.L.L.L.L.L.L.L.L.",
"L.L.L.L.L.L.L.L.L.L.L.L.L.L.L.L.L.L.L.L.L.L.L.L.L.L.L.L.L.L.L.L.L.L.L.L.L.L.L.L.L.L.L.L.L.L.L.L.L.L.L.L.L.L.L.L.L.L.L.L.L.L.L.L.L.L.L.L.L.L.L.L.L.L.L.L.L.L.L.L.K.K.P.H.{ l l l l B r r t t t e G G G G l l } j.(.L.L.L.L.L.L.L.L.L.L.L.L.L.L.L.L.L.L.L.L.L.L.L.",
"L.L.L.L.L.L.L.L.L.L.L.L.L.L.L.L.L.L.L.L.L.L.L.L.L.L.L.L.L.L.L.L.L.L.L.L.L.L.L.L.L.L.L.L.L.L.L.L.L.L.L.L.L.L.L.L.L.L.L.L.L.L.L.L.L.L.L.L.L.L.L.L.L.L.L.L.L.L.L.L.T.K.P.z.z._.oX`.].'.'.].'.'.].].'.'.].].T.K.j.! L.L.L.L.L.L.L.L.L.L.L.L.L.L.L.L.L.L.L.L.L.L.L.L.",
"L.L.L.L.L.L.L.L.L.L.L.L.L.L.L.L.L.L.L.L.L.L.L.L.L.L.L.L.L.L.L.L.L.L.L.L.L.L.L.L.L.L.L.L.L.L.L.L.L.L.L.L.L.L.L.L.L.L.L.L.L.L.L.L.L.L.L.L.L.L.L.L.L.L.L.L.L.L.L.J.T.K.R.T._._.).`.].'.].].'.`.`.oX'.'.].].J.T.`.`.L.L.L.L.L.L.L.L.L.L.L.L.L.L.L.L.L.L.L.L.L.L.L.L.",
"L.L.L.L.L.L.L.L.L.L.L.L.L.L.L.L.L.L.L.L.L.L.L.L.L.L.L.L.L.L.L.L.L.L.L.L.L.L.L.L.L.L.L.L.L.L.L.L.L.L.L.L.L.L.L.L.L.L.L.L.L.L.L.L.L.L.L.L.L.L.L.L.L.L.L.L.L.L.L.L.L.L.L.L.P.P._.:.Q Q 0 0 r r r r r G J } Q.Q.K.K.L.L.L.L.L.L.L.L.L.L.L.L.L.L.L.L.L.L.L.L.L.L.L.L.",
"L.L.L.L.L.L.L.L.L.L.L.L.L.L.L.L.L.L.L.L.L.L.L.L.L.L.L.L.L.L.L.L.L.L.L.L.L.L.L.L.L.L.L.L.L.L.L.L.L.L.L.L.L.L.L.L.L.L.L.L.L.L.L.L.L.L.L.L.L.L.L.L.L.L.L.L.L.L.L.L.L.L.L.L.P.U.! G W j.f.f.} | >X:.! } J J j.Q.K.K.L.L.L.L.L.L.L.L.L.L.L.L.L.L.L.L.L.L.L.L.L.L.L.L.",
"L.L.L.L.L.L.L.L.L.L.L.L.L.L.L.L.L.L.L.L.L.L.L.L.L.L.L.L.L.L.L.L.L.L.L.L.L.L.L.L.L.L.L.L.L.L.L.L.L.L.L.L.L.L.L.L.L.L.L.L.L.L.L.L.L.L.L.L.L.L.L.L.L.L.L.L.L.L.L.L.L.L.L.L.P.P.U.U._.(.W.(.(._.(._.(.(.(.(.Q.Q.T.Y.L.L.L.L.L.L.L.L.L.L.L.L.L.L.L.L.L.L.L.L.L.L.L.L.",
"L.L.L.L.L.L.L.L.L.L.L.J.L.L.L.L.L.L.L.L.L.L.L.L.L.L.L.L.L.L.L.L.L.L.L.L.L.L.L.L.L.L.L.L.L.L.L.L.L.L.L.L.L.L.L.L.L.L.L.L.L.L.L.L.L.L.L.L.L.L.L.L.L.L.L.L.L.L.L.L.L.L.L.L.P.(.(.U.(.(._.)._.).(.(.(.(._.W.Q.Q.K.T.L.L.L.L.L.L.L.L.L.L.L.L.L.L.L.L.L.L.L.L.L.L.L.L.",
"L.Y.L.L.L.L.L.L.N.T.N.K.T.K.K.P.T.K.K.K.K.T.K.K.T.K.T.T.L.L.L.L.L.L.L.L.L.L.L.L.L.L.L.L.L.L.L.L.L.L.L.L.L.L.L.L.L.L.L.L.L.L.L.L.L.L.L.L.L.L.L.L.L.L.L.L.L.L.L.L.L.L.L.L.L.L.L.L.L.L.L.L.L.L.L.L.L.L.L.L.L.L.L.L.L.L.L.L.L.L.L.L.L.L.L.L.L.L.L.L.L.L.L.L.(.(.oXXX",
"L.L.L.L.L.L.L.L.K.K.K.K.K.K.T.K.K.K.T.T.K.K.K.T.K.K.K.K.L.L.L.L.L.L.L.L.L.L.L.L.L.L.L.L.L.L.L.L.L.L.L.L.L.L.L.L.L.L.L.L.L.L.L.L.L.L.L.L.L.L.L.L.L.L.L.L.L.L.L.L.L.L.L.L.L.L.L.L.L.L.L.L.L.L.L.L.L.L.L.L.L.L.L.L.L.L.L.L.L.L.L.L.L.L.L.L.L.L.L.L.L.L.L.L.(.(.XXXX",
"L.L.L.L.L.L.L.L.N.K.K.K.K.T.J.P.K.T.K.K.T.P.K.W.K.T.K.P.L.L.L.L.L.L.L.L.L.L.L.L.L.L.L.L.L.L.L.L.L.L.L.L.L.L.L.L.L.L.L.L.L.L.L.L.L.L.L.L.L.L.L.L.L.L.L.L.L.L.L.L.L.L.L.L.L.L.L.L.L.L.L.L.L.L.L.L.L.L.L.L.L.L.L.L.L.L.L.L.L.L.L.L.L.L.L.L.L.L.L.L.L.L.L.L.(.(.XXXX",
"L.L.L.L.L.L.L.L.K.K.H.K.K.K.J./.K.K.T.K.K.K.K.K.K.T.K.K.L.L.L.L.L.L.L.L.L.L.L.L.L.L.L.L.L.L.L.L.L.L.L.L.L.L.L.L.L.L.L.L.L.L.L.L.L.L.L.L.L.L.L.L.L.L.L.L.L.L.L.L.L.L.L.L.L.L.L.L.L.L.L.L.L.L.L.L.L.L.L.L.L.L.L.L.L.L.L.L.L.L.L.L.L.L.L.L.L.L.L.L.L.L.L.L.(.(.J + ",
"L.L.L.L.J.J.P.P.P.(.P.P.|.|.|.t.s.r.r.r.s.d..X.X X X X XP.E.P.(.S.S.J.J.L.L.L.L.L.L.L.L.L.L.L.L.L.L.L.L.L.L.L.L.L.L.L.L.L.L.L.L.L.L.L.L.L.K.L.L.L.L.L.L.L.L.L.L.L.L.L.L.L.L.L.L.L.L.L.L.L.L.L.L.L.L.L.L.L.L.L.L.L.L.L.L.L.L.L.L.L.L.L.L.L.L.L.L.J.J.L.L.&X&X$ $ ",
"L.L.L.L.J.J.P.P.E.P.H.h.t.O.O.O.>.5.2.2.>.>.>.>.:.O.t.b.H.H.P.P.S.S.J.J.L.L.L.L.L.L.L.L.L.L.L.L.L.L.L.L.L.L.L.L.L.L.L.L.L.L.L.L.L.L.L.L.L.L.L.L.L.L.L.L.L.L.L.L.L.L.L.L.L.L.L.L.L.L.L.L.L.L.L.L.L.L.L.L.L.L.L.L.L.L.L.L.L.L.L.L.L.L.L.L.L.L.L.L.J.J.P.L.&X| O O ",
"L.L.L.L.J.H.P.P.d.d.w.w.&.&.&.&.4.4.4.4.4.6.6.9.&.&.&.&.w.w.d.d.b.S.J.J.L.L.L.J.L.L.L.L.L.L.L.L.L.L.L.L.L.L.L.L.L.L.L.L.L.L.L.L.L.L.L.L.L.L.L.L.L.L.L.L.L.L.L.L.L.L.L.L.L.L.L.L.L.L.L.L.L.L.L.L.L.L.L.L.L.L.L.L.L.L.L.L.L.L.L.L.L.L.L.L.L.L.L.L.J.J.L._.&X; O O ",
"L.L.L.L.J.J.N.z.w.w.w.w.V V &.&.4.a.4.a.6.4.6.+.V &.&.&.w.w.w.e.;.b.J.J.L.L.L.P.L.L.L.L.L.L.L.L.L.L.L.L.L.L.L.L.L.L.L.L.L.L.L.L.L.L.L.L.L.L.L.L.L.K.L.L.L.L.L.L.L.L.L.L.L.L.L.L.L.L.L.L.L.L.L.L.L.L.L.L.L.L.L.L.L.L.L.L.L.L.L.L.L.L.L.L.L.L.K.P.J.J.L.].r ; O O ",
"J.J.P.P.;X;X,.,.8.8.8.#.m m +.p.5.+.M @.e.8.8.M m Z 8.8.8.6.p.p.$.$.;.OXN.H.K.K.L.L.L.L.L.L.L.L.L.L.L.L.L.L.L.L.L.L.L.L.L.L.L.L.L.L.L.L.L.L.L.L.L.L.L.L.L.L.L.L.L.L.L.L.L.L.L.L.L.L.L.L.L.L.L.L.L.L.L.L.L.L.L.L.L.L.L.L.L.L.L.L.L.L.L.L.N.K.K.K.].].].! # $ * * ",
"J.J.P.L.q.q.y.e.8.8.8.6.+.+.p.p.5.C M C 8.8.8.S [ Z 8.8.i.i.Z Z $.$.k.OXK.K.N.K.L.L.L.L.L.L.L.L.L.L.L.L.L.L.L.L.L.L.L.L.L.L.L.L.L.L.L.L.L.L.L.L.L.L.L.L.L.L.L.L.L.L.L.L.L.L.L.L.L.L.L.L.L.L.L.L.L.L.L.L.L.L.L.L.L.L.L.L.L.L.L.L.L.L.L.L.T.N.K.N.].].].q o * & * ",
"J.J.P.H.q.q.,.[ S 8.8.8.i.i.i.i.w.+.C @.8.8.8.8.6.5.8.8.i.i.N N A $.k.OXK.K.K.K.L.L.L.L.L.L.L.L.L.L.L.L.L.L.L.L.L.L.L.L.L.L.L.L.L.L.L.L.L.L.L.L.L.L.L.L.L.L.L.L.L.L.L.L.L.L.L.L.L.L.L.L.L.L.L.L.L.L.L.L.L.L.L.L.L.L.L.L.L.L.L.L.L.L.L.L.N.T.N.K.OXoXt + * & * * ",
"H.J.P.z.q.q.[ N N S 6.8.i.i.i.i.e.e.e.e.8.8.8.8.5.5.8.8.i.i.Z N A $.;.OXN.K.N.K.L.L.L.L.L.L.L.L.L.L.L.L.L.L.L.L.L.L.L.L.L.L.L.L.L.L.L.L.L.L.L.L.L.L.L.L.L.L.L.L.L.L.L.L.L.L.L.L.L.L.L.L.L.L.L.L.L.L.L.L.L.L.L.L.L.L.L.L.L.L.L.L.L.L.L.L.T.N.T.N.oX{ + + * * * & ",
"K.J.P.z.O.O.&.C N 8.8.7.4.4.6.6.8.8.5.5.5.5.8.8.Z N N i.i.6.6.3.7.9.;.~.N.K.N.K.L.L.L.L.L.L.L.L.L.L.L.L.L.L.L.L.L.L.L.L.L.L.L.L.L.L.L.L.L.L.L.L.L.L.L.L.L.L.L.L.L.L.L.L.L.L.L.L.L.L.L.L.L.L.L.L.L.L.L.L.L.L.L.L.L.L.L.L.L.L.L.L.L.L.L.L.P.(.b.b.[ X # $ * * * * ",
"J.J.P.N.s.[ %.%.9.8.8.S Z 3.6.6.8.i.5.A A 6.8.8.Z m V Z i.6.6.6.7.9.C.~.K.K.K.K.L.L.L.L.L.L.L.L.L.L.L.L.L.L.L.L.L.L.L.L.L.L.L.L.L.L.L.L.L.L.L.L.L.L.L.L.L.L.L.L.L.L.L.L.L.L.L.L.L.L.L.L.L.L.L.L.L.L.L.L.L.L.L.L.L.L.L.L.L.L.L.L.L.L.L.L.(.(.b.n.o o # & * * * * ",
"J.J.P.P..X[ %.%.8.9.S M m C 6.6.8.8.Z M M Z 8.8.i.+.@.i.7.8.i.6.7.7.C.~.K.K.K.K.L.L.L.L.L.L.L.L.L.L.L.L.L.L.L.L.L.L.L.L.L.L.L.L.L.L.L.L.L.L.L.L.L.L.L.L.L.L.L.L.L.L.L.L.L.L.L.L.L.L.L.L.L.L.L.L.L.L.L.L.L.L.L.L.L.L.L.L.L.L.L.L.L.L.L.L./.(.b.  o o $ $ * * * * ",
"J.J.K.T.;Xy.a.%.9.w.9.S Z 3.6.9.8.8.5.M M 5.8.8.i.i.i.i.3.3.*.3.0.0.~.~.N.K.L.B.L.L.L.L.L.L.L.L.L.L.L.L.L.L.L.L.L.L.L.L.L.L.L.L.L.L.L.L.L.L.L.L.L.L.L.L.L.L.L.L.L.L.L.L.L.L.L.L.L.L.L.L.L.L.L.L.L.L.L.L.L.L.L.L.H.L.L.L.L.L.L.L.L.L.L.L.(.(.t   o o & $ * * * * ",
"L.L.L.L.G.J.H.z.w.w.w.w.7.7.7.7.7.9.7.3.0.7.0.0.=.%.$.$.<.<.<.F.z.G.J.J.L.L.L.L.L.L.L.L.L.L.L.L.L.L.L.L.L.L.L.L.L.L.L.L.L.L.L.L.L.L.L.L.L.L.L.L.L.L.L.L.L.L.L.L.L.L.L.L.L.L.L.L.L.L.L.L.L.L.L.L.L.L.L.L.L.L.L.L.L.L.L.L.L.L.L.L.L.L.G.L.OXw $ $ * * * * * * * * ",
"L.L.L.L.J.J.P.P..Xd.s.w.7.7.7.7.7.9.3.7.0.0.0.0.s.s.s.d.V.V.|.|./.P.H.J.L.L.L.L.L.L.L.L.L.L.L.L.L.L.L.L.L.L.L.L.L.L.L.L.L.L.L.L.L.L.L.L.L.L.L.L.L.L.L.L.L.L.L.L.L.L.L.L.L.L.L.L.L.L.L.L.L.L.L.L.L.L.L.L.L.L.L.L.L.L.L.L.L.L.L.L.L.L.L.). X. $ $ - * * * * * * * ",
"L.L.L.L.J.J.P.P.(.P.(.J.C.C.C.C.C.C.C.C.x.x.x.x.P.P.E.P.L.P.P.P.P.P.J.J.L.L.L.L.L.L.L.L.L.L.L.L.L.L.L.L.L.L.L.L.L.L.L.L.L.L.L.L.L.L.L.L.L.L.L.L.L.L.L.L.L.L.L.L.L.L.L.L.L.L.L.L.L.L.L.L.L.L.L.L.L.L.L.L.L.L.L.L.L.L.L.L.L.Y.L.L.L.L.L.'.{ + # $ * * * * * * * * ",
"L.L.L.L.J.J.P.P.(.(.(.P.~.~.~.~.~.!.D.!.(.).(.(.P.P.P.P.L.P.P.P.P.L.J.J.L.L.L.L.L.L.L.L.L.L.L.L.L.L.L.L.L.L.L.L.L.L.L.L.L.L.L.L.L.L.L.L.L.L.L.L.L.L.L.L.L.L.L.L.L.L.L.L.L.L.L.L.L.L.L.L.L.L.L.L.L.L.L.L.L.L.L.L.L.L.L.L.L.L.L.L.L.L.G.'.w . # # * * * * * * * * ",
"L.L.L.L.L.L.L.L.L.L.L.L.L.L.L.L.J.P.T.T.K.K.K.N.L.L.L.L.L.L.L.L.L.L.L.L.L.L.L.L.L.L.L.L.L.L.L.L.L.L.L.L.L.L.L.L.L.L.L.L.L.L.L.L.L.L.L.L.L.L.L.L.L.L.L.L.L.L.L.L.L.L.L.L.L.L.L.L.L.L.L.L.L.L.L.L.L.L.L.L.L.L.L.L.L.L.L.L.L.L.L.L.P.P.P.L.- & & & * * * * * * * - ",
"L.L.L.L.J.L.L.L.L.L.L.L.L.L.L.L.K.P.T.T.N.K.K.K.L.L.L.L.L.L.L.L.L.L.L.L.L.L.L.L.L.L.L.L.L.L.L.L.L.L.L.L.L.L.L.L.L.L.L.L.L.L.L.L.L.L.L.L.L.L.L.L.L.L.L.L.L.L.L.L.L.L.L.L.L.L.L.L.L.L.L.L.L.L.L.L.L.L.L.L.L.L.L.L.L.L.L.L.L.L.L.L.P.P.'.z.# & & & * * * * * * * * ",
"L.L.L.L.L.L.L.L.L.L.L.L.L.L.L.L.P.K.T.T.N.K.K.K.L.L.L.L.L.L.L.L.L.L.L.L.L.L.L.L.L.L.L.L.L.L.L.L.L.L.L.L.L.L.L.L.L.L.L.L.L.L.L.L.L.L.L.L.L.L.L.L.L.L.L.L.L.L.L.L.L.L.L.L.L.L.L.L.L.L.L.L.L.L.L.L.L.L.L.L.L.L.L.L.L.L.L.L.L.L.L.L.P.P._.z.# & & * * * * * * * * * ",
"L.L.L.L.L.L.L.L.L.L.L.L.L.L.L.L.K.T.T.g.K.K.K.N.L.L.L.L.L.L.L.L.L.L.L.L.L.L.L.L.L.L.L.L.L.L.L.L.L.L.L.L.L.L.L.L.L.L.L.L.L.L.L.L.L.L.L.L.L.L.L.L.L.L.L.L.L.L.L.L.L.L.L.L.L.L.L.L.L.L.L.L.L.L.L.L.L.L.L.L.L.L.L.L.L.L.L.L.L.L.L.L.P.P._.z.# & & & * * * * * * * * ",
"L.L.L.L.L.L.L.L.L.L.L.L.L.L.L.L.(.(.U.G Y.| (./.L.L.L.L.L.L.L.L.L.L.L.L.L.L.L.L.L.L.L.L.L.L.L.L.L.L.L.L.L.L.L.L.L.L.L.L.L.L.L.L.L.L.L.L.L.L.L.L.L.L.L.L.L.L.L.L.L.L.L.L.L.L.L.L.L.L.L.L.L.L.L.L.L.L.L.L.L.L.L.L.L.L.L.L.L.L.L.L.P.P.`.z.  . . . % % % * * * * * ",
"L.L.L.L.L.L.L.L.L.L.L.L.L.L.L.L.P._.U.G Y.H E.(.L.L.L.L.L.L.L.L.L.L.L.L.L.L.L.L.L.L.L.L.L.L.L.L.L.L.L.L.L.L.L.L.L.L.L.L.L.L.L.L.L.L.L.L.L.L.L.L.L.L.L.L.L.L.L.L.L.L.L.L.L.L.L.L.L.L.L.L.L.L.L.L.L.L.L.L.L.L.L.L.L.L.L.L.L.L.L.L.P.P.(._.[ X   . % % % & * * * * ",
"L.L.L.L.L.L.L.L.L.L.L.L.L.L.L.L.(.(.U.G j.G P.(.L.L.L.L.L.L.L.L.L.L.L.L.L.L.L.L.L.L.L.L.L.L.L.L.L.L.L.L.L.L.L.L.L.L.L.L.L.L.L.L.L.L.L.L.L.L.L.L.L.L.L.L.L.L.L.L.L.Y.L.L.L.L.L.L.L.L.L.L.L.L.L.L.L.L.L.L.L.L.L.L.L.L.L.L.L.L.L.L.P.P.L.P.oXoXJ + o - - - - * * * ",
"L.L.L.L.L.L.L.L.L.L.L.L.L.L.L.L.P.(.U.G Y.J P.(.L.L.L.L.L.L.L.L.L.L.L.L.L.L.L.L.L.L.L.L.L.L.L.L.L.L.L.L.L.L.L.L.L.L.L.L.L.L.L.L.L.L.L.L.L.L.L.L.L.L.L.L.L.L.L.L.L.L.L.L.L.L.L.L.L.L.L.L.L.L.L.L.L.L.L.L.L.L.L.L.L.L.L.L.L.L.L.L.P.P.P.P.oXoXoXoXw . # - * * * * ",
"L.L.L.L.L.L.L.L.L.L.L.L.L.L.L.L.K.K.Q.l W.! K.K.J.L.L.L.L.L.L.L.L.L.L.L.L.L.L.L.L.L.L.L.L.L.L.L.L.L.L.L.L.L.L.L.L.L.L.L.L.L.L.L.L.L.L.L.L.L.L.L.L.L.L.L.L.L.L.L.L.L.L.L.L.L.L.L.L.L.L.L.L.L.L.L.L.L.L.L.L.L.L.L.L.L.L.L.L.L.L.L.L.L.L.L.J.J.J.E.&X| ; ; = = = = ",
"L.L.L.L.L.L.L.L.L.L.L.L.L.L.L.L.T.K.Q.} W.W.T.K.L.L.L.L.L.L.L.L.L.L.L.L.L.L.L.L.L.L.L.L.L.L.L.L.L.L.L.L.L.L.L.L.L.L.L.L.L.L.L.L.L.L.L.L.L.L.L.L.L.L.L.L.L.L.L.L.L.L.L.L.L.L.L.L.L.L.L.L.L.L.L.L.L.L.L.L.L.L.L.L.L.L.L.L.L.L.L.L.L.L.L.L.J.J.J.J.&X&X&X;   - = = ",
"L.L.L.L.L.L.L.L.L.L.L.L.L.L.L.L.K.K.T.Q.W.W.T.K.L.L.L.L.L.L.L.L.L.L.L.L.L.L.L.L.L.L.L.L.L.L.L.L.L.L.L.L.L.L.L.L.L.L.L.L.L.L.L.L.L.L.L.L.L.L.L.L.L.L.L.L.L.L.L.L.L.L.L.L.L.L.L.L.L.L.L.L.L.L.L.L.L.L.L.L.L.L.L.L.L.L.L.L.L.L.L.L.L.L.L.L.J.J.J.J._.(.(.(.  = = = ",
"L.L.L.L.L.L.L.L.L.L.L.L.L.L.L.L.K.K.Q.Q.W.W.T.T.L.L.L.L.L.L.L.L.L.L.L.L.L.L.L.L.L.L.L.L.L.L.L.L.L.L.L.J.L.L.L.L.L.L.L.L.L.L.L.L.L.L.L.L.L.L.L.L.L.L.L.L.L.L.L.L.L.L.L.L.L.L.L.L.L.L.L.L.L.L.L.L.L.L.L.L.L.L.L.L.L.L.L.L.L.L.L.L.L.L.L.L.J.J.J.L.(._.(._.y   % = ",
"L.L.L.L.L.L.L.L.L.L.L.L.L.L.L.L.L.L.L.L.K.T.T.K.P.P.P.P.L.P.P.P.P.P.P.P.P.L.K.T.P.J.T.K.P.P.P.P.K.P.P.P.P.P.P.P.Q.Q.J.J.J.L.L.L.L.L.L.L.L.L.L.L.L.L.L.L.L.L.L.L.L.L.L.L.L.L.L.L.L.L.L.L.L.L.L.L.L.L.L.L.L.L.L.L.L.L.L.L.L.L.L.L.L.L.L.L.L.L.L.L.J.J.J.).XX+ . . ",
"L.L.L.L.L.L.L.L.L.L.L.L.L.L.L.L.L.L.L.L.P.K.K.K.P.P.P.P.P.P.P.P.P.P.P.P.J.P.K.Q.P.P.K.Q.P.P.P.P.T.Q.P.K.J.P.P.P.Q.Q.J.J.L.L.L.L.L.L.L.L.L.L.L.L.L.L.L.L.L.L.L.L.L.L.L.L.L.L.L.L.L.L.L.L.L.L.L.L.L.L.L.L.L.L.L.L.L.L.L.L.L.L.L.L.L.L.L.L.L.L.L.L.J.J.J.J.oXJ . . ",
"L.L.L.L.L.L.L.L.L.L.L.L.L.L.L.L.L.L.L.L.T.K.K.T.}.{.}.}.{.{.{.{.{.{.{.{.{.:X{.{.{.{.{.{.{.:X{.{.{.{.{.:X{.{.{.{.Q.`.K.J.L.L.L.L.L.L.L.L.L.Y.L.L.L.L.L.L.L.L.L.L.L.L.L.L.L.L.L.L.L.L.L.L.L.L.L.L.L.L.L.L.L.L.L.L.L.L.L.L.L.L.L.L.L.L.L.L.L.L.L.L.J.J.J.J.oXoXO . ",
"L.L.L.L.L.L.L.L.L.L.L.L.L.L.L.L.L.L.L.L.T.K.K.T. .J b ` b b b b b b b b l b b b b b b b b b b l b b b b b l b b J Q.J.J.L.L.L.L.L.L.L.L.L.L.L.L.L.L.L.L.L.L.L.L.L.L.L.L.L.L.L.L.L.L.L.L.L.L.L.L.L.L.L.L.L.L.L.L.L.L.L.L.L.L.L.L.L.L.L.L.L.L.L.L.J.J.J.R.oXoXB . ",
"L.L.L.L.L.L.P.L.L.L.L.P.L.L.L.L.L.P.L.P.L.L.L.P.n d c c h h h h h h h h h h h h h h h h h h h h h h h h z z h h l {.L.P.L.L.L.L.L.L.L.L.L.L.L.L.L.L.L.L.L.L.L.L.L.L.L.L.L.L.L.L.L.L.L.L.L.L.L.L.L.L.L.L.L.L.L.L.L.L.L.L.L.L.L.L.L.L.L.L.L.L.L.L.J.L.L.L.U.U.y X ",
"L.P.J.L.J.L.L.L.L.L.L.L.L.P.J.L.L.L.L.J.L.L.L.L.n d c c x x x x x x x x x x x x x x x x x x x x x x x x z z x h b {.P.P.L.L.L.L.L.L.L.L.L.L.L.L.L.L.L.L.L.L.L.L.L.L.L.L.L.L.L.L.L.L.L.L.L.L.L.L.L.L.L.L.L.L.L.L.L.L.L.L.L.L.L.L.L.L.L.L.L.L.L.L.L.L.L.L.U.U.X X ",
"M.M.M.M.M.M.M.M.M.M.M.M.M.M.M.M.M.M.M.M.L.Z.I.I.n d c c z z z z z z z z z z z z z z z z z z z z z z z z z z x h b :XP.P.L.L.L.L.L.L.L.L.L.L.L.L.L.L.L.L.L.L.L.L.L.L.L.L.L.L.L.L.L.L.L.L.L.L.L.L.L.L.L.L.L.L.L.L.L.L.L.L.L.L.L.L.L.L.L.L.L.L.L.L.L.L.L.L.OXH X X ",
"&X&X&X&X&X&X&X&X&X&X&X&X&X&X&X&X&X&X&X&X&X&X&X&Xn d c c z z z z z z z z z z z z z z z z z z z z z z z z z z x h b {.P.P.L.L.L.L.L.L.L.L.L.L.L.L.L.L.L.L.L.L.L.L.L.L.L.L.L.L.L.L.Y.L.L.L.L.L.L.L.L.L.L.L.L.L.L.L.L.L.L.L.L.L.L.L.L.L.L.L.L.L.L.L.L.L.L.P.U.  X X ",
"#X#X#X#X#X#X#X@X#X#X#X@X#X#X#X#X#X#X#X#X+X+X$X=XX.s v v z z z z z z z z z z z z z z z z z z z z z z z z z z x h b {.Q.K.L.L.L.L.L.L.L.L.L.L.L.L.L.L.L.L.L.L.L.L.L.L.L.L.L.L.L.L.L.L.L.L.L.L.L.L.L.L.L.L.L.L.L.L.L.L.L.L.L.L.L.L.L.L.L.L.L.L.L.L.J.J.J.(.oX9 9 9 ",
"@X@X%X%X@X#X%X#X@X@X@X@X@X@X#X%X#X#X@X@X+X+X$X=XX.s v v z z z z z z z z z z z z z z z z z z z z z z z z z z x h b {.P.K.L.L.L.L.L.L.L.L.L.L.L.L.L.L.L.L.L.L.L.L.L.L.L.L.L.L.L.L.L.L.L.L.L.L.L.L.L.L.L.L.L.L.L.L.L.L.L.L.L.L.L.L.L.L.L.L.L.L.L.L.J.J.J.J.oXoXoXoX",
"+X+X+X+X+X+X+X+X$X+X+X+X+X+X+X+X+X+X+X+X+X+X$X=XX.s v v z z z z z z z z z z z z z z z z z z z z z z z z z z x h b {.P.P.L.L.L.L.L.L.L.L.L.L.L.L.L.L.L.L.L.L.L.L.L.L.L.L.L.L.L.L.L.L.L.L.L.L.L.L.L.L.L.L.L.L.L.L.L.L.L.L.L.L.L.L.L.J.L.L.L.L.L.L.J.J.J.J.(.(.E.(.",
"+X+X+X+X+X+X+X+X+X+X+X+X+X+X+X+X+X+X+X+X+X+X$X=XX.s v v z z z z z z z z z z z z z z z z z z z z z z z z z z x h b {.J.P.L.L.L.L.L.L.L.L.L.L.L.L.L.L.L.L.L.L.L.L.L.L.L.L.L.L.L.L.L.L.L.L.L.L.L.L.L.L.L.L.L.L.L.L.L.L.L.L.L.L.L.L.L.L.L.L.L.L.L.L.J.J.J.J._.(._.(.",
"%X%X%X%X%X%X+X%X+X+X+X+X+X+X+X+X$X%X%X%X+X+X$X=XX.s v v z z z z z z z z z z z z z z z z z z z z z z z z z z x h b {.P.P.L.L.L.L.L.L.L.L.L.L.L.L.T.J.E.E.L.L.P.P.L.L.L.L.L.L.L.L.L.L.L.L.L.L.L.L.L.L.L.L.L.L.L.L.L.L.L.L.L.L.L.L.L.L.L.L.L.L.L.L.L.L.L.L.L.L.L.L.",
"%X%X%X%X%X%X%X%X+X+X+X+X+X+X+X+X%X%X%X%X+X+X$X=XX.s v v z z z z z z z z z z z z z z z z z z z z z z z z z z x h b {.J.P.L.L.L.L.L.L.L.L.L.L.L.L.K.J.E.E.L.L.P.P.L.L.L.L.L.L.L.L.L.L.L.L.L.L.L.L.L.L.L.L.L.L.L.L.L.L.L.L.L.L.L.L.L.L.L.L.L.L.L.L.L.L.L.L.L.L.L.L.",
"%X%X%X%X%X%X%X%X+X+X+X%X+X%X+X+X%X%X%X%X+X+X$X=XX.s v v z z z z z z z z z z z z z z z z z z z z z z z z z z x h b {.P.P.L.L.L.L.L.L.L.L.L.L.L.L.T.K.R.E.L.L.P.P.L.L.L.L.L.L.L.L.L.L.L.L.L.L.L.L.L.L.L.L.L.L.L.L.L.L.L.L.L.L.L.L.L.L.L.L.L.L.L.L.L.L.L.L.L.L.L.L.",
"%X%X$X%X%X%X%X%X%X%X%X%X%X%X+X+X%X%X%X%X+X+X$X=XX.s v v z z z z z z z z z z z z z z z z z z z z z z z z z z x h b {.P.P.L.L.L.L.L.L.L.L.L.L.J.J.T.K.! z.U.L.P.P.L.L.L.L.L.L.L.L.L.L.L.L.L.L.L.L.L.L.L.L.L.L.L.L.L.L.L.L.L.L.L.L.L.L.L.L.L.L.L.L.L.L.L.L.L.L.L.L.",
"%X%X%X%X%X%X%X%X=X=X=X=X-X-X=X=X%X%X%X%X+X+X$X=XX.s v v z z z z z z z z z z z z z z z z z z z z z z z z z z x h b {.Q.P.L.L.P.P.K.T.K.K.J.R.T.T.K.K.! c.E.L.P.P.L.L.L.L.L.L.L.L.L.L.L.L.L.L.L.L.L.L.L.L.L.L.L.L.L.L.L.L.L.L.L.L.L.L.L.L.L.L.L.L.L.L.L.L.L.L.L.L.",
"%X%X%X%X%X%X%X%X=X' 2 2 5 o.=X=X%X%X%X%X+X+X$X=XX.s v v z z z z z z z z z z z z z z z z z z z z z z z z z z x h b {.K.K.L.L.P.P.K.K.K.K.g.R.K.K.K.T.W.W.L.L.P.P.L.L.L.L.L.L.L.L.L.L.L.L.L.L.L.L.L.L.L.L.L.L.L.L.L.L.L.L.L.L.L.L.L.L.L.L.Y.L.L.L.L.L.L.L.L.L.L.L.",
"%X%X%X%X%X+X%X%X=X' 2 : > o.=X=X%X%X%X%X+X+X$X=XX.s v v z z z z z z z z z z z z z z z z z z z z z z z z z z x h b :XP.P.L.L.P.P.K.K.L.c.K R.K.K.K.T.E.W.L.L.R.T.L.L.L.L.L.L.L.L.L.L.L.L.L.L.L.L.L.L.L.L.L.L.L.L.L.L.L.L.L.L.L.L.L.L.L.L.L.L.L.L.L.L.L.L.L.L.L.L.",
"%X%X%X%X%X%X%X%X=X' 2 2 5 o.=X=X%X%X%X%X+X+X$X=XX.s v v z z z z z z z z z z z z z z z z z z z z z z z z z z x h l {.P.L.(.(.P.P.K.N.K.K.R.R.T.T.J.T.W.W.L.L.P.R.L.L.L.L.L.L.L.L.L.L.L.L.L.L.L.L.L.L.L.L.L.L.L.L.L.L.L.L.L.L.L.L.L.L.L.L.L.L.L.L.L.L.L.L.L.L.L.L.",
"%X%X%X%X%X%X%X%X=X' 2 3 5 ..=X=X%X%X%X%X+X+X$X=XX.s v v z z z z z z z z z z z z z z z z z z z z z z z z z z x h b {.P.P.l.l.P.P.L.L.L.L.L.L.P.P.P.P.K.K.).).K.T.L.L.L.L.L.L.L.L.L.L.L.L.L.L.L.L.L.L.L.L.L.L.L.L.L.L.L.L.L.L.L.L.L.L.L.L.L.L.L.L.L.L.L.L.L.L.L.L.",
"%X%X%X%X%X%X%X%X=X' 3 3 5 o.=X=X%X%X%X%X+X+X$X=XX.s v v z z z z z z z z z z z z z z z z z z z z z z z z z z x h b {.P.J.~ ~ P.P.L.L.L.L.L.L.P.P.P.P.T.K.).W.K.T.L.L.L.L.L.L.L.L.L.L.L.L.L.L.L.L.L.L.L.L.L.L.L.L.L.L.L.L.L.L.L.L.L.L.L.L.L.L.L.L.L.L.L.L.L.L.L.L.",
"%X%X%X%X%X%X+X%X=X' 3 3 5 o.=X=X%X%X%X%X+X+X$X=XX.s v v z z z z z z z z z z z z z z z z z z z z z z z z z z x h l {.P.P.G./.P.E.L.L.L.L.L.L.P.Y.P.P.T.T.).W.T.K.L.L.L.L.L.L.L.L.L.L.L.L.L.L.L.L.L.L.L.L.L.L.L.L.L.L.L.L.L.L.L.L.L.L.L.L.L.L.L.L.L.L.L.L.L.L.L.L.",
"%X%X%X+X%X%X$X%X=X' 3 3 5 o.=X=X%X%X%X%X+X+X$X=XX.s v v z z z z z z z z z z z z z z z z z z z z z z z z z z x h b {.P.P.J.L.P.P.L.L.L.L.L.P.P.P.P.P.K.N.W l.T.K.L.L.L.L.L.L.L.L.L.L.L.L.L.L.L.L.L.L.L.L.L.L.L.L.L.L.L.L.L.L.L.L.L.L.L.L.L.L.L.L.L.L.L.L.L.L.L.L.",
"%X%X%X%X%X%X%X%X=X] < < : ..=X=X%X%X%X%X+X+X$X=XX.s v v z z z z z z z z z z z z z z z z z z z z z z z z z z x h b :XP.P.L.L.L.L.P.P.L.P.(.h.J.J.N.K.K.K.>Xc.T.K.L.L.L.L.L.L.L.L.L.L.L.L.L.L.L.L.L.L.L.L.L.L.L.L.L.L.L.L.L.L.L.L.L.L.L.L.L.L.L.L.L.L.L.L.L.L.L.L.",
"%X%X%X%X%X%X%X%X=X] < < : ..=X=X%X%X%X%X+X+X$X=XX.s v v z z z z z z z z z z z z z z z z z z z z z z z z z z x h b {.P.P.L.L.L.L.P.P.L.P.R.E J.J.K.K.K.N.T.T.K.K.L.L.L.L.L.L.L.L.L.L.L.L.L.L.L.L.L.L.L.L.L.L.L.L.L.L.L.L.L.L.L.L.L.L.L.L.L.L.L.L.L.L.L.L.L.L.L.L.",
"%X%X%X%X%X+X%X%X=X] < < : ..=X=X%X%X%X%X+X+X$X=XX.s v v z z z z z z z z z z z z z z z z z z z z z z z z z z x h b {.Q.T.L.L.L.L.P.P.L.L././.J.J.K.K.H.K.T.T.Y.T.L.L.L.L.L.L.L.L.L.L.L.L.L.L.L.L.L.L.L.L.L.L.L.L.L.L.L.L.L.L.L.L.L.L.L.L.L.L.L.L.L.L.L.L.L.L.L.L.",
"+X$X%X%X%X%X%X%X=X] < < : ..=X=X%X%X%X%X+X+X$X=XX.s v v z z z z z z z z z z z z z z z z z z z z z z z z z z x h b {.N.T.L.L.L.L.P.P.L.P././.J.J.N.K.K.K.T.T.K.K.L.L.L.L.L.L.L.L.L.L.L.L.L.L.L.L.L.L.L.L.L.L.L.L.L.L.L.L.L.L.L.L.L.L.L.L.L.L.L.L.L.L.L.L.L.L.L.L.",
"%X%X%X%X%X%X%X%X%X:X[.[.[.:X%X%X%X%X%X%X+X+X$X=XX.s v v z z z z z z z z z z z z z z z z z z z z z z z z z z x h l {.J.P.L.L.L.L.L.K.R.R./.G.P.L.L.L.L.L.P.P.P.P.L.L.L.L.L.L.L.L.L.L.L.L.L.L.L.L.L.L.L.L.L.L.L.L.L.L.L.L.L.L.L.L.L.L.L.L.L.L.L.L.Y.L.L.L.L.L.L.L.",
"%X%X%X%X%X%X%X%X%X%X%X%X#X%X%X%X%X%X%X%X+X+X$X=XX.s v v z z z z z z z z z z z z z z z z z z z z z z z z z z x h b {.P.P.L.L.L.L.K.K.R.R.G.L.P.L.L.L.L.L.P.P.z.z.L.L.L.L.L.L.L.L.L.L.L.L.L.L.L.L.L.L.L.L.L.L.L.L.L.L.L.L.L.L.L.L.L.L.L.L.L.L.L.L.L.L.L.L.L.L.L.L.",
"%X%X%X%X%X%X%X%X%X%X%X%X#X#X%X%X%X%X%X%X+X+X$X=XX.s v v z z z z z z z z z z z z z z z z z z z z z z z z z z x h b :XP.P.L.L.L.L.K.K.R.K l.).L.L.L.L.L.L././.E h.U.L.L.L.L.L.L.L.L.L.L.L.L.L.L.L.L.L.L.L.L.L.L.L.L.L.L.L.L.L.L.L.L.L.L.L.L.L.L.L.L.L.L.L.L.L.L.L.",
"%X%X%X%X+X%X%X%X%X=X%X%X#X#X%X%X%X%X%X%X+X+X$X=XX.s v v z z z z z z z z z z z z z z z z z z z z z z z z z z x h b {.P.P.L.L.L.L.T.K.R.g.G.L.L.P.L.L.L.L././././.L.L.L.L.L.L.L.L.L.L.L.L.L.L.L.L.L.L.L.L.L.L.L.L.L.L.L.L.L.L.L.L.L.L.L.L.L.L.L.L.L.L.L.L.L.L.L.L.",
"%X%X%X%X%X%X%X%X%X%X%X%X%X%X%X%X%X%X%X+X+X+X$X=XX.s v v z z z z z z z z z z z z z z z z z z z z z z z z z z x h b {.Q.T.L.L.L.L.L.L._.P.P.L.P.P.P.P./.G.L.L.(.L.L.L.L.L.L.L.L.L.L.L.L.L.L.L.L.L.L.L.L.L.L.L.L.L.L.L.L.L.L.L.L.L.L.L.L.L.L.L.L.L.L.L.L.L.L.L.L.L.",
"%X%X%X%X%X%X%X%X%X%X%X%X%X%X%X+X%X%X%X%X+X+X$X=XX.s v v z z z z z z z z z z z z z z z z z z z z z z z z z z x h b {.P.K.L.L.L.L.L.L.L.L.L.L.P.P.(.P.G.L.L.L.L.L.L.L.L.L.L.L.L.L.L.L.L.L.L.L.L.L.L.L.L.L.L.L.L.L.L.L.L.L.L.L.L.L.L.L.L.L.L.L.L.L.L.L.L.L.L.L.L.L.",
"%X%X%X%X%X%X%X%X%X%X%X%X%X%X%X%X+X%X%X%X+X+X$X=XX.s v v z z z z z z z z z z z z z z z z z z z z z z z z z z x h b {.P.P.L.L.L.L.L.L.L.L.L.L.P.P.P.P.l.h.P.L.L.L.L.L.L.L.L.L.L.L.L.L.L.L.L.L.L.L.L.L.L.L.L.L.L.L.L.L.L.L.L.L.L.L.L.L.L.L.L.L.L.L.L.L.L.L.L.L.L.L.",
"%X%X+X%X%X%X%X%X%X%X%X%X%X%X%X%X%X%X%X%X+X+X$X=XX.s v v z z z z z z z z z z z z z z z z z z z z z z z z z z x h b {.P.J.L.L.L.L.L.L.L.L.L.L.P.P.P.(.~ ~ (.L.L.L.L.L.L.L.L.L.L.L.L.L.L.L.L.L.L.L.L.L.L.L.L.L.L.L.L.L.L.L.L.L.L.L.L.L.L.L.L.L.L.L.L.L.L.L.L.L.L.L.",
"%X%X%X%X%X%X%X%X%X%X%X%X%X+X%X%X%X%X%X%X+X+X$X=XX.s v v z z z z z z z z z z z z z z z z z z z z z z z z z z x h b {.B.P.K.L.L.L.L.L.L.L.L.L.L.L.P.P.K.N.K.K.N.K.L.L.L.L.L.L.L.L.L.L.L.L.L.L.L.L.L.L.L.L.L.L.L.L.L.L.L.L.L.L.L.L.L.L.L.L.L.L.L.L.L.L.L.L.L.L.L.L.",
"%X%X%X%X%X%X%X%X%X%X%X%X%X%X$X+X%X%X%X%X+X+X$X=XX.s v v z z z z z z z z z z z z z z z z z z z z z z z z z z x h b {.T.P.L.L.L.L.L.L.L.L.L.L.L.L.P.P.K.T.K.K.K.K.L.L.L.L.L.L.L.L.L.L.L.L.L.L.L.L.L.L.L.L.L.H.L.L.L.L.L.L.L.L.L.L.L.L.L.L.L.L.L.L.L.L.L.L.L.L.L.L.",
"%X$X%X%X%X%X+X%X%X%X%X%X%X%X%X%X%X%X%X%X+X+X$X=XX.s v v z z z z z z z z z z z z z z z z z z z z z z z z z z x h b :XP.P.L.L.L.L.L.L.L.L.L.L.L.L.P.P.P.K.K.N.N.K.L.L.L.L.L.L.L.L.L.L.L.L.L.L.L.L.L.L.L.L.L.L.L.L.L.L.L.L.L.L.Y.L.L.L.L.L.L.L.L.L.L.L.L.L.L.L.L.L.",
"%X+X%X%X%X%X%X%X%X%X%X$X%X%X%X%X%X%X%X%X+X+X$X=XX.s v v z z z z z z z z z z z z z z z z z z z z z z z z z z x h l {.P.P.L.L.L.L.L.L.L.L.L.L.L.L.P.P.K.K.K.K.K.K.L.L.L.L.L.L.L.L.L.L.L.L.L.L.L.L.L.L.L.L.L.L.L.L.L.L.L.L.L.L.L.L.L.L.L.L.L.L.L.L.L.L.L.L.L.L.L.L.",
"%X%X+X%X%X+X$X%X%X%X%X+X%X%X%X%X%X%X%X%X+X+X$X=XX.s v v z z z z z z z z z z z z z z z z z z z z z z z z z z x h b {.P.P.L.L.L.L.L.L.L.L.L.L.L.L.L.L.L.L.L.L.L.L.L.L.L.L.L.L.L.L.L.L.L.L.L.L.L.L.L.L.L.L.L.L.L.L.L.L.L.L.L.L.L.L.L.L.L.L.L.L.L.L.L.L.L.L.L.L.L.L.",
"%X%X%X%X%X%X%X%X%X%X%X%X%X%X%X%X%X%X%X%X+X+X$X=XX.s v v z z z z z z z z z z z z z z z z z z z z z z z z z z x h b {.P.P.L.L.L.L.L.L.L.L.L.L.L.L.L.L.L.L.L.L.L.L.L.L.L.L.L.L.L.L.L.L.L.L.L.L.L.L.L.L.L.L.L.L.L.L.L.L.L.L.L.L.L.L.L.L.L.L.L.L.L.L.L.L.L.L.L.L.L.L.",
"%X%X%X%X%X%X%X%X%X%X%X%X%X%X%X%X%X%X%X%X+X+X$X=XX.s v v z z z z z z z z z z z z z z z z z z z z z z z z z z x h b {.P.L.L.L.L.L.L.L.L.L.L.L.L.L.L.L.L.L.L.L.L.L.L.L.L.L.L.L.L.L.L.L.L.L.L.L.L.L.L.L.L.L.L.L.L.L.L.L.L.L.L.L.L.L.L.L.L.L.L.L.L.L.L.L.L.L.L.L.L.L.",
"%X%X%X%X%X%X%X%X%X+X%X%X%X%X%X%X%X%X%X%X+X+X$X=XX.s v v z z z z z z z z z z z z z z z z z z z z z z z z z z x h b {.P.L.L.L.L.L.L.L.L.L.L.L.L.L.L.L.L.L.L.L.L.L.L.L.L.L.L.L.L.L.L.L.L.L.L.L.L.L.L.L.L.L.L.L.L.L.L.L.L.L.L.L.L.L.L.L.L.L.L.L.L.L.L.L.L.L.L.L.L.L."
};
