/* XPM */
static char *t_spongebob2[] = {
/* columns rows colors chars-per-pixel */
"128 128 202 2 ",
"   c #FFFEFF",
".  c #FFFCFF",
"X  c #FFFBFF",
"o  c gray99",
"O  c #F7FBFF",
"+  c gray98",
"@  c #EFFBFF",
"#  c gray97",
"$  c #EFF7FF",
"%  c #E7F7FF",
"&  c #E7F2FF",
"*  c #E7F3F7",
"=  c #E7F2FC",
"-  c #E7F0FF",
";  c #E7F0FC",
":  c #E7EFFF",
">  c #DEF3FF",
",  c #E7EFF7",
"<  c #E7EBF7",
"1  c #DEEFF7",
"2  c #E1EBF5",
"3  c #FFF766",
"4  c #FEF66B",
"5  c #FEF668",
"6  c #FFF46B",
"7  c #FFF466",
"8  c #FFF36B",
"9  c #FCF468",
"0  c #FFF363",
"q  c #FCF465",
"w  c #FCF462",
"e  c #FAF466",
"r  c #DEE7EF",
"t  c #F7F36B",
"y  c #F7F363",
"u  c #F6F15F",
"i  c #F7EF63",
"p  c #F6F05C",
"a  c #F7EF5A",
"s  c #FCEA65",
"d  c #F7EF52",
"f  c #F5EF56",
"g  c #F3EE59",
"h  c #F3EE56",
"j  c #FAE566",
"k  c #F0ED56",
"l  c #F0ED53",
"z  c #F0EB53",
"x  c #EFEB52",
"c  c #F7E363",
"v  c #F0EA51",
"b  c #EFEB4A",
"n  c #EDEA50",
"m  c #EDEA4C",
"M  c #EFE74A",
"N  c #EAE849",
"B  c #F7DB63",
"V  c #E7E74A",
"C  c #E5E541",
"Z  c #E7E342",
"A  c #E4E443",
"S  c #F7D35A",
"D  c #CECFCE",
"F  c #CECCCE",
"G  c #CECBCE",
"H  c #DEDF39",
"J  c #CBCCCB",
"K  c #CBCBCB",
"L  c #DEDF31",
"P  c #C9CAC9",
"I  c #DBDE32",
"U  c #DEDB31",
"Y  c #F7B6AD",
"T  c #C9C7C9",
"R  c #DBDB32",
"E  c #C6C7C6",
"W  c #D6DB31",
"Q  c #F7B2AD",
"!  c #F7B1AD",
"~  c #D6DB29",
"^  c #D5DA2F",
"/  c #C6C3C6",
"(  c #D5D92D",
")  c #F7AEAD",
"_  c #D6D729",
"`  c #F0C156",
"'  c #F0BF56",
"]  c #D0D628",
"[  c #F0BC56",
"{  c #CED721",
"}  c #EFBA52",
"|  c #CED321",
" . c #CED318",
".. c #A7BFC8",
"X. c #A1C0CE",
"o. c #A2BFCE",
"O. c #A7BDC8",
"+. c #C6CF18",
"@. c #C6CF10",
"#. c #9DBECE",
"$. c #C4CD15",
"%. c #9FBCC8",
"&. c #C6CB10",
"*. c #9FBAC5",
"=. c #E498AF",
"-. c #6BC7F7",
";. c #BECA0C",
":. c #BEC90C",
">. c #C0C80A",
",. c #BDC708",
"<. c #E7A24A",
"1. c #94AEDB",
"2. c #BDC300",
"3. c #E79E4A",
"4. c #B8C400",
"5. c #B5C300",
"6. c #9C9A9C",
"7. c gray60",
"8. c #949A9C",
"9. c #949A94",
"0. c #949999",
"q. c #979797",
"w. c #949799",
"e. c #94969C",
"r. c #919799",
"t. c #949694",
"y. c #8F9597",
"u. c #949294",
"i. c #769CAC",
"p. c #8F9397",
"a. c #94928C",
"s. c #8C9294",
"d. c #719AAC",
"f. c #6E99AC",
"g. c #6B96AC",
"h. c #E15B79",
"j. c #6890A2",
"k. c #688E9D",
"l. c #B57163",
"z. c #849621",
"x. c #6386C6",
"c. c #84951E",
"v. c #B56E63",
"b. c #B56D63",
"n. c #B57921",
"m. c #81931E",
"M. c #849218",
"N. c #B56A63",
"B. c #B27821",
"V. c #B57621",
"C. c #7E931B",
"Z. c #B56963",
"A. c #B26A63",
"S. c #B57521",
"D. c #7E911B",
"F. c #B07621",
"G. c #7B9218",
"H. c #B06863",
"J. c #AD7521",
"K. c #B06663",
"L. c #7B8E18",
"P. c #D65931",
"I. c #49839E",
"U. c #7B7D29",
"Y. c #7B7A29",
"T. c #7B7829",
"R. c #7B7629",
"E. c #7B7529",
"W. c #39697B",
"Q. c #31657B",
"!. c #4A595A",
"~. c #724C15",
"^. c #21617B",
"/. c #724A15",
"(. c #215D7B",
"). c #325461",
"_. c #21596B",
"`. c #21556B",
"'. c #DE0029",
"]. c #18516B",
"[. c #5A3C10",
"{. c #184D63",
"}. c #6B2C31",
"|. c #5A3810",
" X c #6B2831",
".X c #68292E",
"XX c #66272C",
"oX c #66252C",
"OX c #632429",
"+X c #432F0C",
"@X c #432D0C",
"#X c #392408",
"$X c #181400",
"%X c #101008",
"&X c gray3",
"*X c #080800",
"=X c #080408",
"-X c #050500",
";X c #050305",
":X c #030300",
">X c #000400",
",X c black",
/* pixels */
"8 8 8 8 8 8 8 8 t t t t t t t t t t t t t t t t t t t t t t t t t t t t t t t t t t t t t t t t t t t t t t t t t t t t t t t t t t t t t t t t t t t t t t t t t t t t t t t t t t t t t t t t t t t t t t t t t t t t t t t t t t t t t t t t t t t t t t t t ",
"4 4 4 4 4 4 4 4 4 4 4 4 4 4 4 4 4 4 4 4 4 4 4 4 4 4 4 4 4 4 4 4 4 4 4 4 4 4 4 4 4 4 4 4 4 4 4 4 4 4 4 4 4 4 4 4 4 4 4 4 4 4 4 4 4 4 4 4 4 4 4 4 4 4 4 4 4 4 4 4 4 4 4 4 4 4 4 4 4 4 4 4 4 4 4 4 4 4 4 4 4 4 4 4 4 4 4 4 4 4 4 4 4 4 4 4 4 4 4 4 4 4 4 4 4 4 4 4 ",
"4 4 4 4 4 4 4 4 4 4 4 4 4 4 4 4 4 4 4 4 4 4 4 4 4 4 4 4 4 4 4 4 4 4 4 4 4 4 4 4 4 4 4 4 4 4 4 4 4 4 4 4 4 4 4 4 4 4 4 4 4 4 4 4 4 4 4 4 4 4 4 4 4 4 4 4 4 4 4 4 4 4 4 4 4 4 4 4 4 4 4 4 4 4 4 4 4 4 4 4 4 4 4 4 4 4 4 4 4 4 4 4 4 4 4 4 4 4 4 4 4 4 4 4 4 4 4 4 ",
"4 4 4 4 4 4 4 4 4 4 4 4 4 4 4 4 4 4 4 4 4 4 4 4 4 4 4 4 4 4 4 4 4 4 4 4 4 4 4 4 4 4 4 4 4 4 4 4 4 4 4 4 4 4 4 4 4 4 4 4 4 4 4 4 4 4 4 4 4 4 4 4 4 4 4 4 4 4 4 4 4 4 4 4 4 4 4 4 4 4 4 4 4 4 4 4 4 4 4 4 4 4 4 4 4 4 4 4 4 4 4 4 4 4 4 4 4 4 4 4 4 4 4 4 4 4 4 4 ",
"4 4 4 4 4 4 4 4 4 4 4 4 4 4 4 4 4 4 4 4 4 4 4 4 4 4 4 4 4 4 4 4 4 4 4 4 4 4 4 4 4 4 4 4 4 4 4 4 4 4 4 4 4 4 4 4 4 4 4 4 4 4 4 4 4 4 4 4 4 4 4 4 4 4 4 4 4 4 4 4 4 4 4 4 4 4 4 4 4 4 4 4 4 4 4 4 4 4 4 4 4 4 4 4 4 4 4 4 4 4 4 4 4 4 4 4 4 4 4 4 4 4 4 4 4 4 4 4 ",
"4 4 4 4 4 4 4 4 4 4 4 4 4 4 4 4 4 4 4 4 4 4 4 4 4 4 4 4 4 4 4 4 4 4 4 4 4 4 4 4 4 4 4 4 4 4 4 4 4 4 4 4 4 4 4 4 4 4 4 4 4 4 4 4 4 4 4 4 4 4 4 4 4 4 4 4 4 4 4 4 4 4 4 A ] A 4 4 4 4 4 4 4 4 4 4 4 4 4 4 4 4 4 4 4 4 4 4 4 4 4 4 4 4 4 4 4 4 4 4 4 4 4 4 4 4 4 4 ",
"4 4 4 4 4 4 4 4 4 4 4 4 4 4 4 4 4 4 4 4 4 4 4 4 4 4 4 4 4 4 4 4 4 4 4 4 4 4 4 4 4 4 4 4 4 4 4 4 4 4 4 4 4 4 4 4 4 4 4 4 4 4 4 4 4 4 4 4 4 4 4 4 4 4 4 4 4 4 4 4 4 4 4 5.5.5.4 4 4 4 4 4 4 4 4 4 4 4 4 4 4 4 4 4 4 4 4 4 4 4 4 4 4 4 4 4 4 4 4 4 4 4 4 4 4 4 4 4 ",
"4 4 4 4 4 4 4 4 4 4 4 4 4 4 4 4 4 4 4 4 4 4 4 4 4 4 4 4 4 4 4 4 4 4 4 4 4 4 4 4 4 4 4 4 4 4 4 4 4 4 4 4 4 4 4 4 4 4 4 4 4 4 4 4 4 4 4 4 4 4 4 4 4 4 4 4 4 4 4 4 4 4 4 5.5.5.4 4 4 4 4 4 4 4 4 4 4 4 4 4 4 4 4 4 4 4 4 4 4 4 4 4 4 4 4 4 4 4 4 4 4 4 4 4 4 4 4 4 ",
"4 4 4 4 4 4 4 4 4 4 4 4 4 4 4 4 4 4 4 4 4 4 4 4 4 4 4 4 4 4 4 4 4 4 4 4 4 4 4 4 4 4 4 4 4 4 4 4 4 4 4 4 4 4 4 4 4 4 4 4 4 4 4 4 4 4 4 4 4 4 4 4 4 4 4 4 4 4 4 4 4 4 4 d H g 4 4 4 4 4 4 4 4 4 4 4 4 4 4 4 4 4 A ^ ^ ^ V 4 4 4 4 4 4 4 4 4 4 4 4 4 4 4 4 4 4 4 4 ",
"4 4 4 4 4 4 4 4 4 ] 5.5.A 4 4 4 4 4 4 4 4 4 4 4 4 4 4 4 4 4 4 4 4 4 4 4 4 4 4 4 4 4 4 4 4 4 4 4 4 4 4 4 4 4 4 4 4 4 4 4 4 4 4 4 4 4 4 4 4 4 4 4 A 5.5.5.5.] 4 4 4 4 4 4 4 4 4 4 4 4 4 4 4 4 4 4 4 4 4 4 4 4 5.5.5.5.5.5.5.A 4 4 4 4 4 4 4 4 4 4 4 4 4 4 4 4 4 4 ",
"4 4 4 4 4 4 4 4 A 5.5.5.5.A 4 4 4 4 4 4 4 4 4 4 4 4 4 4 4 4 4 4 4 4 4 4 4 4 4 4 ] 5.] 4 4 4 4 4 4 4 4 4 4 4 4 4 4 4 4 4 4 4 4 4 4 4 4 4 4 4 4 ] 5.5.5.5.5.5.5.4 4 4 4 4 4 4 4 4 4 4 4 4 4 4 4 4 4 4 4 4 4 5.5.5.5.5.5.5.5.5.] 4 4 4 4 4 4 4 4 4 4 4 4 4 4 4 4 4 ",
"4 4 4 4 4 4 4 4 ] 5.5.5.5.] 4 4 4 4 4 4 4 4 4 4 4 4 4 4 4 4 4 4 4 4 4 4 4 4 4 V 5.5.5.A 4 4 4 4 4 4 4 4 4 4 4 4 4 4 4 4 4 4 4 4 4 4 4 4 4 4 A 5.5.5.5.5.5.5.5.] 4 4 4 4 4 4 4 4 4 4 4 4 4 4 4 4 4 4 4 4 ] 5.5.5.5.5.5.5.5.5.5.A 4 4 4 4 4 4 4 4 4 4 4 4 4 4 4 4 ",
"4 4 4 4 4 4 4 4 ] 5.5.5.5.] 4 4 4 4 4 4 4 4 4 4 4 4 4 4 4 4 4 4 4 4 4 4 4 4 4 x 5.5.5.A 4 4 4 4 4 4 4 4 4 4 4 4 4 4 4 4 4 4 4 4 4 4 4 4 4 4 ] 5.5.5.5.5.5.5.5.5.u 4 4 4 4 4 4 4 4 4 4 4 4 4 4 4 4 4 4 5 &.5.5.5.5.5.5.5.5.5.5.{ 9 4 4 4 4 4 4 4 4 4 4 4 4 4 4 4 ",
"4 4 4 4 4 4 4 4 A 5.5.5.5.] 4 4 4 4 4 4 4 4 4 4 4 4 4 4 4 4 4 4 4 4 4 4 4 4 4 4 A 5.] 4 4 4 4 4 4 4 4 4 4 4 4 4 4 4 4 4 4 4 4 4 4 4 4 4 4 4 5.5.5.5.5.5.5.5.5.5.k 4 4 4 4 4 4 4 4 4 4 4 4 4 4 4 4 4 4 3 5.5.5.5.5.5.5.5.5.5.5.5.5 4 4 4 4 4 4 4 4 4 4 4 4 4 4 4 ",
"4 4 4 4 4 4 4 4 4 5.5.5.5.4 4 4 4 4 4 4 4 4 4 4 4 4 4 4 4 4 4 4 4 4 4 4 4 4 4 4 4 4 4 4 4 4 4 4 4 4 4 4 4 4 4 4 4 4 4 4 4 4 4 4 4 4 4 4 4 4 5.5.5.5.5.5.5.5.5.5.V 4 4 4 4 4 4 4 4 4 4 4 4 4 4 4 4 4 4 3 5.5.5.5.5.5.5.5.5.5.5.5.y 4 4 4 4 4 4 4 4 4 4 4 4 4 4 4 ",
"4 4 4 4 4 4 4 4 4 4 A ] 4 4 4 4 4 4 4 4 4 4 4 4 4 4 4 4 4 4 4 4 4 4 4 4 4 4 4 4 4 4 4 4 4 4 4 4 4 4 4 4 4 4 4 4 4 4 4 4 4 4 4 4 4 4 4 4 4 4 5.5.5.5.5.5.5.5.5.5.k 4 4 4 4 4 4 4 4 4 4 4 4 4 4 4 4 4 4 5 >.5.5.5.5.5.5.5.5.5.5.;.e 4 4 4 4 4 4 4 4 4 4 4 4 4 4 4 ",
"4 4 4 4 4 4 4 4 4 4 4 4 4 4 4 4 4 4 4 4 4 4 4 4 4 4 4 4 4 4 4 4 4 4 4 4 4 4 4 4 4 4 4 4 4 4 4 4 4 4 4 4 4 4 4 4 4 4 4 4 4 4 4 4 4 4 4 4 4 4 ] 5.5.5.5.5.5.5.5.5.4 4 4 4 4 4 4 4 4 4 4 4 4 4 4 4 4 4 4 4 ] 5.5.5.5.5.5.5.5.5.5.] 4 4 4 4 4 4 4 4 4 4 4 4 4 4 4 4 ",
"4 4 4 4 4 4 4 4 4 A 4 4 4 4 4 4 4 4 4 4 4 4 4 4 4 4 4 4 4 4 4 4 4 4 4 4 4 4 4 4 4 4 4 4 4 4 4 4 4 A ] 5.5.] 4 4 4 4 4 4 4 4 4 4 4 4 4 4 4 4 4 5.5.5.5.5.5.5.5.A 4 4 4 4 4 4 4 4 4 4 4 4 4 4 4 4 4 4 4 4 4 5.5.5.5.5.5.5.5.5.5.4 4 4 4 4 4 4 4 4 4 4 4 4 4 4 4 4 ",
"4 4 4 4 4 4 4 4 4 5.5.4 4 4 4 4 4 4 4 4 4 4 4 4 4 4 4 4 4 4 4 4 4 4 4 4 4 4 4 4 4 4 4 4 4 4 4 4 A 5.5.5.5.5.5.] 4 4 4 4 4 4 4 4 4 4 4 4 4 4 4 4 5.5.5.5.5.5.] 4 4 4 4 4 4 4 4 4 4 4 4 4 4 4 4 4 4 4 4 4 4 4 5.5.5.5.5.5.5.5.A 4 4 4 4 4 4 4 4 4 4 4 4 4 4 4 4 4 ",
"4 4 4 4 4 4 4 4 4 5.5.4 4 4 4 4 4 4 4 4 4 4 4 4 4 4 4 4 4 4 4 4 4 4 4 4 4 4 4 4 4 4 4 4 4 4 4 Z 5.5.5.5.5.5.5.5.H 4 4 4 4 4 4 4 4 4 4 4 4 4 4 4 4 A ] ] ] 4 4 4 4 4 H H 7 4 4 4 4 4 4 4 4 4 4 4 4 4 4 4 4 4 4 A | :.5.5.] A 4 4 4 4 4 4 4 4 4 4 4 4 4 4 4 4 4 4 ",
"4 4 4 4 4 4 4 4 4 2.2.4 4 4 4 4 4 4 4 4 4 4 4 4 4 4 4 4 4 4 4 4 4 4 4 4 4 4 4 4 4 4 4 4 4 4 4 5.5.5.5.5.5.5.5.5.5.4 4 4 4 4 4 4 4 4 4 4 4 4 4 4 4 4 4 4 4 4 4 4 4 ] 5.5.| 4 4 4 4 4 4 4 4 4 4 4 4 4 4 4 4 4 4 4 4 5 3 5 4 4 4 4 4 4 4 4 4 4 4 4 4 4 4 4 4 4 4 4 ",
"4 4 4 4 4 4 4 4 4 4 A 4 4 4 4 4 4 4 4 4 4 4 4 4 4 4 4 4 4 4 4 4 4 4 4 4 4 4 4 4 4 4 4 4 4 4 A 5.5.5.5.5.5.5.5.5.5.A 4 4 4 4 4 4 4 4 4 4 4 4 4 4 4 4 4 4 4 4 4 4 4 5.5.5.| 4 4 4 4 4 4 4 4 4 4 4 4 4 4 4 4 4 4 4 4 4 4 4 4 4 4 4 4 4 4 4 4 4 4 4 4 4 4 4 4 4 4 4 ",
"4 4 4 4 4 4 4 4 4 4 4 4 4 4 4 4 4 4 4 4 4 4 4 4 4 4 4 4 4 4 4 4 4 4 4 4 4 4 4 4 4 4 4 4 4 4 ] 5.5.5.5.5.5.5.5.5.5.] 4 4 4 4 4 4 4 4 4 4 4 4 4 4 4 4 4 4 4 4 4 4 4 A 5.5.n 4 4 4 4 4 4 4 4 4 4 4 4 4 4 4 4 4 4 4 4 4 4 4 4 4 4 4 4 4 4 4 4 4 4 4 4 4 4 4 4 4 4 4 ",
"4 4 4 4 4 4 4 4 4 4 4 4 4 4 4 4 4 4 4 4 4 4 4 4 4 4 4 4 4 4 4 4 4 4 4 4 4 4 4 4 4 4 4 4 4 4 ] 5.5.5.5.5.5.5.5.5.5.] 4 4 4 4 4 4 4 4 4 4 4 4 4 4 4 4 4 4 4 4 4 4 4 4 4 4 4 4 4 4 4 4 4 4 4 4 4 4 4 4 4 4 4 4 4 4 4 4 4 4 4 4 4 4 4 4 4 4 4 4 4 H _ z 4 4 4 4 4 4 ",
"4 4 4 4 4 4 4 4 4 4 4 4 4 4 4 4 4 4 4 4 4 4 4 4 4 4 4 4 4 4 4 4 4 4 4 4 4 4 4 4 4 4 4 4 4 4 ] 5.5.5.5.5.5.5.5.5.5.] 4 4 4 4 4 4 4 4 4 4 4 4 4 4 4 4 4 4 4 4 4 4 4 4 4 4 4 4 4 4 4 4 4 4 4 4 4 4 4 4 4 4 4 4 4 4 4 4 4 4 4 4 4 4 4 4 4 4 4 4 4 5.5.5.4 4 4 4 4 4 ",
"4 4 4 4 4 4 4 4 4 4 4 4 4 4 4 4 4 4 4 4 4 4 4 4 4 4 4 4 4 4 4 4 4 4 4 4 4 4 4 4 4 4 4 4 4 4 A 5.5.5.5.5.5.5.5.5.5.A 4 4 4 4 4 4 4 4 4 4 4 4 4 4 4 4 4 4 4 4 4 4 4 4 4 4 4 4 4 4 4 4 4 4 4 4 4 4 4 4 4 4 4 4 4 4 4 4 4 4 4 4 4 4 4 4 4 4 4 4 A 5.5.5.A 4 4 4 4 4 ",
"4 4 4 4 4 4 4 4 4 4 4 4 4 4 4 4 4 4 4 4 4 4 4 4 4 4 4 4 4 4 4 4 4 4 4 4 4 4 4 4 4 4 4 4 4 4 4 ] 5.5.5.5.5.5.5.5.5.4 4 4 4 4 4 4 4 4 4 4 4 4 4 4 4 4 4 4 4 4 4 4 4 4 4 4 4 4 4 4 4 4 4 4 4 4 4 4 4 4 4 4 4 4 4 4 4 4 4 4 4 4 4 4 4 4 4 4 4 4 4 5.5.5.A 4 4 4 4 4 ",
"4 4 4 4 4 4 4 4 4 4 4 4 4 4 4 4 4 4 4 4 4 4 4 4 4 4 4 4 4 4 4 4 4 4 4 4 4 4 4 4 4 4 4 4 4 4 4 4 +.5.5.5.5.5.5.&.4 4 4 4 4 4 4 4 4 4 4 4 4 4 4 4 4 4 4 4 4 4 4 4 4 4 4 4 4 4 4 4 4 4 4 4 4 4 4 4 4 4 4 4 4 4 4 4 4 4 4 4 4 4 4 4 4 4 4 4 4 4 4 4 A A 4 4 4 4 4 4 ",
"4 4 4 4 4 4 4 4 4 4 4 4 4 4 4 4 4 4 4 4 4 4 4 4 4 4 4 4 4 4 4 4 4 4 4 4 4 4 4 4 4 4 4 4 4 4 4 4 4 ] 5.5.,.,.( 4 4 4 4 4 4 4 4 4 4 4 4 4 4 4 4 4 4 4 4 4 4 4 4 4 4 4 4 4 4 4 4 4 4 4 4 4 4 4 4 4 4 4 4 4 4 4 4 4 4 4 4 4 4 4 4 4 4 4 4 4 4 4 4 4 4 4 4 4 4 4 4 4 ",
"4 4 4 4 4 4 4 4 4 4 4 4 4 4 4 4 4 4 4 4 4 4 4 4 4 4 4 4 4 4 4 4 4 4 4 4 4 4 4 4 4 4 4 4 4 4 4 4 4 4 4 4 4 4 4 4 4 4 4 4 4 4 4 4 4 4 4 4 4 4 4 4 4 4 4 4 4 4 4 4 4 4 4 4 4 4 4 4 4 4 4 4 4 4 4 4 4 4 4 4 4 4 4 4 4 4 4 4 4 4 4 4 4 4 4 4 4 4 4 4 4 4 4 4 4 4 4 4 ",
"4 4 4 4 4 4 4 4 4 4 4 4 4 4 4 4 4 4 4 4 4 4 4 4 4 4 4 4 4 4 4 4 4 4 4 4 4 4 4 4 4 4 4 4 4 4 4 4 4 4 4 4 4 4 4 4 4 4 4 4 4 4 4 4 4 4 4 4 4 4 4 4 4 4 4 4 4 4 4 4 4 4 4 4 4 4 4 4 4 4 4 4 4 4 4 4 4 4 4 4 4 4 4 4 4 4 4 4 4 4 4 4 4 4 4 4 4 4 4 4 4 4 4 4 4 4 4 4 ",
"4 4 4 4 4 4 4 4 4 4 4 4 4 4 4 4 4 4 4 4 4 4 4 4 4 4 4 4 4 4 4 4 4 4 4 4 4 4 4 4 4 x 4 4 4 4 4 4 4 4 4 4 4 4 4 4 4 4 4 4 4 4 4 4 4 4 4 4 4 4 4 4 4 4 4 4 4 4 4 4 4 4 4 4 4 4 4 4 4 4 4 4 4 4 4 4 4 4 4 4 4 4 4 4 4 4 4 4 4 4 4 4 4 4 4 4 4 4 4 4 4 4 4 4 4 4 4 4 ",
"4 4 4 4 4 4 4 4 4 4 4 4 4 4 4 4 4 4 4 4 4 4 4 A 4 4 4 4 4 4 4 4 4 4 4 4 4 4 4 4 5.5.5.4 4 4 4 4 4 4 4 4 4 4 4 4 4 4 4 4 4 4 4 4 4 4 4 4 4 4 4 4 4 4 4 4 4 4 4 4 4 4 4 4 4 4 4 4 4 4 4 4 4 4 4 4 4 4 4 4 4 4 4 4 4 4 4 4 4 4 4 4 4 4 4 4 4 4 4 4 4 4 4 4 4 4 4 4 ",
"4 4 4 4 4 4 4 4 4 4 4 4 4 4 4 4 4 4 4 4 4 4 A 5.( 4 4 4 4 4 4 4 4 4 4 4 4 4 4 4 5.5.5.4 4 4 4 4 4 4 4 4 4 4 4 4 4 4 4 4 4 4 4 4 4 4 4 4 4 4 4 4 4 4 4 4 4 4 4 4 4 4 4 4 4 4 4 4 4 4 4 4 4 4 4 4 4 4 4 4 4 ] ] 5.] A 4 4 4 4 4 4 4 4 4 4 4 4 4 4 4 4 4 4 4 4 4 4 ",
"4 4 4 4 4 4 4 4 4 4 4 4 4 4 4 4 4 4 4 4 4 4 A 5.,.4 4 4 4 4 4 4 4 4 4 4 4 4 4 4 5.5.5.4 4 4 4 4 4 4 4 4 4 4 4 4 4 4 4 4 4 4 4 4 4 4 4 4 4 4 4 4 4 4 4 4 4 4 4 4 4 4 4 4 4 4 4 4 4 4 4 4 4 4 4 4 4 4 4 A 5.5.5.5.5.5.5.4 4 4 4 4 4 4 4 4 4 4 4 4 4 4 4 4 4 4 4 4 ",
"4 4 4 4 4 4 4 4 4 4 4 4 4 4 4 4 4 4 4 4 4 4 4 5.,.4 4 4 4 4 4 4 4 4 4 4 4 4 4 4 4 4 4 4 4 4 4 4 4 4 4 4 4 4 4 4 4 4 4 4 4 4 4 4 4 4 4 4 4 4 4 4 4 4 4 4 4 4 4 4 4 4 4 4 4 4 4 4 4 4 4 4 4 4 4 4 4 4 4 5.5.5.5.5.5.5.5.5.0 4 4 4 4 4 4 4 4 4 4 4 4 4 4 4 4 4 4 4 ",
"4 4 4 4 4 4 4 4 4 4 4 4 4 4 4 4 4 4 4 4 4 4 4 M d 4 4 4 4 4 4 4 4 4 4 4 4 4 4 4 4 4 4 4 4 4 4 4 4 4 4 4 4 4 4 4 4 4 4 4 4 4 4 4 4 4 4 4 4 4 4 4 4 4 4 4 4 4 4 4 4 4 4 4 4 4 4 4 4 4 4 4 4 4 4 4 4 4 ] 5.5.5.5.5.5.5.5.5.] 4 4 4 4 4 4 4 4 4 4 4 4 4 4 4 4 4 4 4 ",
"4 4 4 4 4 4 4 4 4 4 4 4 4 4 4 4 4 4 4 4 4 4 4 4 4 4 4 4 4 4 4 4 4 4 4 4 4 4 4 4 4 4 4 4 4 4 4 4 4 4 4 4 4 4 4 4 4 4 4 4 4 4 4 4 4 4 4 4 4 4 4 4 4 4 4 4 4 4 4 4 4 4 4 4 4 4 4 4 4 4 4 4 4 4 4 4 4 4 5.5.5.5.5.5.5.5.5.5.5.4 4 4 4 4 4 4 4 4 4 4 4 4 4 4 4 4 4 4 ",
"4 4 4 4 4 4 4 4 4 4 4 4 4 4 4 4 4 4 4 4 4 4 4 4 4 4 4 4 4 4 4 4 4 4 4 4 4 4 4 4 4 4 4 4 4 4 4 4 4 4 4 4 4 4 4 4 4 4 4 4 4 4 4 4 A ] 5.5.] A 4 4 4 4 4 4 4 4 4 4 4 4 4 4 4 4 4 4 4 4 4 4 4 4 4 4 4 A 5.5.5.5.5.5.5.5.5.5.5.4 4 4 4 4 4 4 4 4 4 4 4 4 4 4 4 4 4 4 ",
"4 4 4 4 4 4 4 4 4 4 4 4 4 4 4 4 4 4 4 4 4 4 4 4 4 4 4 4 4 4 4 4 4 4 4 4 4 4 4 4 4 4 4 4 4 4 4 4 4 4 4 4 4 4 4 4 4 4 4 4 4 4 4 W 5.5.5.5.5.5.] 4 4 4 4 4 4 4 4 4 4 4 4 4 4 4 4 4 4 4 4 4 4 4 4 4 4 A 5.5.5.5.5.5.5.5.5.5.5.4 4 4 4 4 4 4 4 4 4 4 4 4 4 4 4 4 4 4 ",
"4 4 4 4 4 4 4 4 4 4 4 4 4 4 4 4 4 4 4 4 4 4 4 4 4 4 4 4 4 4 4 4 4 4 4 4 4 4 4 4 4 4 4 4 4 4 4 4 4 4 4 4 4 4 4 4 4 4 4 4 4 4 A 5.5.5.5.5.5.5.5.H 4 4 4 4 4 4 4 4 4 4 4 4 4 4 4 4 4 4 4 4 4 4 4 4 4 A 5.5.5.5.5.5.5.5.5.5.5.4 4 4 4 4 4 4 4 4 4 4 4 4 4 4 4 4 4 4 ",
"4 4 4 4 4 4 4 4 4 4 4 4 4 4 4 4 4 4 4 4 4 4 4 4 4 4 4 4 4 4 4 4 4 4 4 4 4 4 4 4 4 4 4 4 4 4 4 4 4 4 4 4 4 4 4 4 4 4 4 4 4 4 5.5.5.5.5.5.5.5.5.$.4 4 4 4 4 4 4 4 4 4 4 4 4 4 4 4 4 4 4 4 4 4 4 4 4 4 5.5.5.5.5.5.5.5.5.5.5.4 4 4 4 4 4 4 4 4 4 4 4 4 4 4 4 4 4 4 ",
"4 4 4 4 4 4 4 4 4 4 4 4 4 4 4 4 4 4 4 4 4 4 4 4 4 4 4 4 4 4 4 4 4 4 4 4 4 4 4 4 4 4 4 4 4 4 4 4 4 4 4 4 4 4 4 4 4 4 4 4 4 A 5.5.5.5.5.5.5.5.5.5.q 4 4 4 4 4 4 4 4 4 4 4 4 4 4 4 4 4 4 4 4 4 4 4 4 4 A 5.5.5.5.5.5.5.5.5.A 4 4 4 4 4 4 4 4 4 4 4 4 4 4 4 4 4 4 4 ",
"4 4 4 4 4 4 4 4 4 4 4 4 4 4 4 4 4 4 4 4 4 4 4 4 4 4 4 4 4 4 4 4 4 4 4 4 4 4 4 4 4 4 4 4 4 4 4 4 4 4 4 4 4 4 4 4 4 4 4 4 4 A 5.5.5.5.5.5.5.5.5.5.a 4 4 4 4 4 4 4 4 4 4 4 4 4 4 4 4 4 4 4 4 4 4 4 4 4 4 5.5.5.5.5.5.5.5.H 4 4 4 4 4 4 4 4 4 4 4 4 4 4 4 4 4 4 4 4 ",
"4 4 4 4 4 4 4 4 4 4 4 4 4 4 4 4 4 4 4 4 4 4 4 4 4 4 4 4 4 4 4 4 4 4 4 4 4 4 4 4 4 4 4 4 4 4 4 4 4 4 4 4 4 4 4 4 4 4 4 4 4 A 5.5.5.5.5.5.5.5.5.5.4 4 4 4 ] ] 4 4 4 4 4 4 4 4 4 4 4 4 4 4 4 4 4 4 4 4 4 7 ] 5.5.5.5.5.A 4 4 4 4 4 4 4 4 4 4 4 4 4 4 4 4 4 4 4 4 4 ",
"4 4 4 4 4 4 4 4 4 4 4 4 4 4 4 4 4 4 4 4 4 4 4 4 4 4 4 4 4 4 4 4 4 4 4 4 4 4 4 4 4 4 4 4 4 4 4 4 4 4 4 4 4 4 4 4 4 4 4 4 4 4 5.5.5.5.5.5.5.5.5.] 4 4 4 L 5.5.5.4 4 4 4 4 4 4 4 4 4 4 4 4 4 4 4 4 4 4 4 4 4 4 4 A 4 4 4 4 4 4 4 4 4 4 4 4 4 4 4 4 4 4 4 4 4 4 4 4 ",
"4 4 4 4 4 4 4 4 4 4 4 4 4 4 4 4 4 4 4 4 4 4 4 4 4 4 4 4 4 4 4 4 4 4 4 4 4 4 4 4 4 4 4 4 4 4 4 4 4 4 4 4 4 4 4 4 4 4 4 4 4 4 ] 5.5.5.5.5.5.5.5.4 4 4 4 L 5.5.5.4 4 4 4 4 4 4 4 4 4 4 4 4 4 4 4 4 4 4 4 4 4 4 4 4 4 4 4 4 4 4 4 4 4 4 4 4 A 4 4 4 4 4 4 4 4 4 4 4 ",
"4 4 4 4 4 4 4 4 4 4 4 4 4 4 4 4 4 4 4 4 4 4 4 4 4 4 4 4 4 4 4 4 4 4 4 4 4 4 4 4 4 4 4 4 4 4 4 4 4 4 4 4 4 4 4 4 4 4 4 4 4 4 4 5.5.5.5.5.5.5.A 4 4 4 4 4 ] 5.A 4 4 4 4 4 4 4 4 4 4 4 4 4 4 4 4 4 4 4 4 4 4 4 4 4 4 4 4 4 4 4 4 4 4 4 ] 5.5.] 4 4 4 4 4 4 4 4 4 4 ",
"4 4 4 4 4 4 4 4 4 4 4 4 4 4 4 4 4 4 4 4 4 4 4 4 4 4 4 4 4 4 4 4 4 4 4 4 4 4 4 4 4 4 4 4 4 4 4 4 4 4 4 4 4 4 4 4 4 4 4 4 4 4 4 a ] 5.5.5. .m 4 4 4 4 4 4 4 4 4 4 4 4 4 4 4 4 4 4 4 4 4 4 4 4 4 4 4 4 4 4 4 4 4 4 4 4 4 4 4 4 4 4 4 4 5.5.5.5.4 4 4 4 4 4 4 4 4 4 ",
"4 4 4 4 4 4 4 4 4 4 4 4 4 4 4 4 4 4 4 4 4 4 4 4 4 4 4 4 4 4 4 4 4 4 4 4 4 4 4 4 4 4 4 4 4 4 4 4 4 4 4 4 4 4 4 4 4 4 4 4 4 4 4 4 4 4 4 4 4 4 4 4 4 4 4 4 4 4 4 4 4 4 4 4 4 4 4 4 4 4 4 4 4 4 4 4 4 4 4 4 4 4 4 4 4 4 4 4 4 4 4 4 4 4 5.5.5.5.A 4 4 4 4 4 4 4 4 4 ",
"4 4 4 k I N 4 4 4 4 4 4 4 4 4 4 4 4 4 4 4 4 4 4 4 4 4 4 4 4 4 4 4 4 4 4 4 4 4 4 4 4 4 4 4 4 4 4 4 4 4 4 4 4 4 4 4 4 4 4 4 4 4 4 4 4 4 4 4 4 4 4 4 4 4 4 4 4 4 4 4 4 4 4 4 4 4 4 4 4 4 4 4 4 4 4 4 4 4 4 4 4 4 4 4 4 4 4 4 4 4 4 4 4 5.5.5.5.4 4 4 6 4 4 4 4 4 4 ",
"4 4 4 U @.I 4 4 4 4 4 4 4 4 4 4 4 4 4 4 4 4 4 4 4 4 4 4 4 4 4 4 4 4 4 4 4 4 4 4 4 4 4 4 4 4 4 4 4 4 4 4 4 4 4 4 4 4 4 4 4 4 4 4 4 4 4 4 4 4 4 4 4 4 4 4 4 4 4 4 4 4 4 4 4 4 4 4 4 4 4 4 4 4 4 4 4 4 4 4 4 4 4 4 4 4 4 4 4 4 4 4 4 4 4 A A 4 4 4 4 8 4 4 4 4 4 4 ",
"4 4 4 H &.R 4 4 4 4 4 4 4 4 4 4 4 4 4 4 4 4 4 4 4 4 4 4 4 4 4 4 4 4 4 4 4 4 4 4 4 4 4 4 4 4 4 4 4 4 4 4 4 4 4 4 4 4 4 4 4 4 ] ] l 4 4 4 4 4 4 4 4 4 4 4 4 4 4 4 4 4 4 4 4 4 4 4 4 4 4 4 4 4 4 4 4 4 4 4 4 4 4 4 4 4 4 4 4 4 4 4 4 4 4 4 4 4 4 4 4 4 4 4 4 4 4 4 ",
"4 4 4 4 4 4 4 4 4 4 4 4 4 4 4 4 4 4 4 4 4 4 4 4 4 4 4 4 4 4 4 4 4 4 4 4 4 4 4 4 4 4 4 4 4 4 4 4 4 4 4 4 4 4 4 4 4 4 4 4 4 5.5.5.~ 4 4 4 4 4 4 4 4 4 4 4 4 4 4 4 4 4 4 4 4 4 4 4 4 4 4 4 4 4 4 4 4 4 4 4 4 4 4 4 4 4 4 4 4 4 4 4 4 4 4 4 4 4 4 4 4 4 4 4 4 4 4 4 ",
"4 4 4 4 4 4 4 4 4 ] ] A 4 4 4 4 4 4 4 4 4 4 4 4 4 4 4 4 4 4 4 4 4 4 4 4 4 4 4 4 4 4 4 4 4 4 4 4 4 4 4 4 4 4 4 4 4 4 4 4 4 ] 5.5.~ 4 4 4 4 4 4 4 4 4 4 4 4 4 4 4 4 4 4 4 4 4 4 4 4 4 4 4 4 4 4 4 4 4 4 4 4 4 4 4 4 4 4 4 4 4 4 4 4 4 4 4 4 4 4 4 4 4 4 4 4 4 4 4 ",
"4 4 4 4 4 4 4 4 5.5.5.5.| 4 4 4 4 4 4 4 4 4 4 4 4 4 4 4 4 4 4 4 4 4 4 4 4 4 4 4 4 4 4 4 4 4 4 4 4 4 4 4 4 4 4 4 4 4 4 4 4 4 ] ] 4 4 4 4 4 4 4 4 4 4 4 4 4 4 4 4 4 4 4 4 4 4 4 4 4 4 4 4 4 4 4 4 4 4 4 4 4 4 4 4 4 4 4 4 4 4 4 4 4 4 4 4 4 4 4 4 4 4 4 4 4 4 4 4 ",
"4 4 4 4 4 4 4 U 4.5.5.5.5.A 4 4 4 4 4 4 4 4 4 4 4 4 4 4 4 4 4 4 4 4 4 4 4 4 4 4 4 4 4 4 4 4 4 4 4 4 4 4 4 4 4 4 4 4 4 4 4 4 4 4 4 4 4 4 4 4 4 4 4 4 4 4 4 4 4 4 4 4 4 4 4 4 4 4 4 4 4 4 4 4 4 4 4 4 4 4 4 4 4 4 4 4 4 4 4 4 4 4 4 4 4 4 4 4 4 4 4 4 4 4 4 4 4 4 ",
"4 4 4 4 4 4 4 U 5.5.5.5.5.] 4 4 4 4 4 4 4 4 4 4 4 4 4 4 4 4 4 4 4 4 4 4 4 4 4 4 4 4 4 4 4 4 4 4 4 4 4 4 4 4 4 4 4 4 4 4 4 4 4 4 4 4 4 4 4 4 4 4 4 4 4 4 4 4 4 4 4 4 4 4 4 4 4 4 4 4 4 4 4 4 4 4 4 4 4 4 4 4 4 4 4 4 4 4 4 4 4 4 4 4 4 4 4 4 4 4 4 4 4 4 4 4 4 4 ",
"4 4 4 4 4 4 4 U 5.5.5.5.5.5.4 4 4 4 4 4 4 4 4 4 4 4 4 4 4 4 4 4 4 4 4 4 4 4 4 4 4 4 4 4 4 4 4 4 4 4 4 4 4 4 4 4 4 4 4 4 4 4 4 4 4 4 4 4 4 4 4 4 4 4 4 4 4 4 4 4 4 4 4 4 4 4 4 4 4 4 4 4 4 4 4 4 4 4 4 4 4 4 4 4 4 4 4 4 4 4 4 4 4 4 4 4 4 4 4 4 4 4 4 4 4 4 4 4 ",
"4 4 4 4 4 4 4 U 5.5.5.5.5.] 4 4 4 4 4 4 4 4 4 4 4 4 4 4 4 4 4 4 4 4 4 4 4 4 4 4 4 4 4 4 4 4 4 4 4 4 4 4 4 4 4 4 4 4 4 4 4 4 4 4 4 4 4 4 4 4 4 4 4 4 4 4 4 4 4 4 4 4 4 4 4 4 4 4 4 4 4 4 4 4 4 4 4 4 4 4 4 4 4 4 4 4 4 4 4 4 4 4 4 4 4 4 4 4 4 4 4 4 4 4 4 4 4 4 ",
"4 4 4 4 4 4 4 7 5.5.5.5.5.A 4 4 4 4 4 4 4 4 4 4 4 4 4 4 4 4 4 4 4 4 4 4 4 4 4 4 4 4 4 4 4 4 4 4 4 4 4 4 4 4 4 4 4 4 4 4 4 4 4 4 4 4 4 4 4 4 4 4 4 4 4 4 4 4 4 4 4 4 4 4 4 4 4 4 4 4 4 4 4 4 4 4 4 4 4 4 4 4 4 4 4 4 4 4 4 4 4 4 4 4 4 4 4 4 4 4 4 4 4 4 4 4 4 4 ",
"4 4 4 4 4 4 4 4 A 5.5.5.] 4 4 4 4 4 4 4 4 4 4 4 4 4 4 4 4 4 4 A 5.5.] 4 4 4 4 4 4 4 4 4 4 4 4 4 4 4 4 4 4 4 4 4 4 4 4 4 4 4 4 4 4 4 4 4 4 4 4 4 4 4 4 4 4 4 4 4 4 4 4 4 4 4 4 4 4 4 ] 5.5.5.A 4 4 4 4 4 4 4 4 4 4 4 ] 5.h 4 4 4 4 4 4 4 4 A 5.] 4 4 4 4 4 4 4 4 ",
"4 4 4 4 4 4 4 4 4 4 A A 4 4 4 4 4 4 4 4 4 4 4 4 4 4 4 4 4 4 A 5.5.5.5.A 4 4 4 4 4 4 4 4 4 4 4 4 4 4 4 4 4 4 4 4 4 4 4 4 4 4 4 4 4 4 4 4 4 4 4 4 4 4 4 4 4 4 4 4 4 4 4 4 4 4 4 4 4 ] 5.5.5.5.5.A 4 4 4 4 4 4 4 4 4 4 5.5.L 4 4 4 4 4 4 4 4 5.5.5.b 4 4 4 4 4 4 4 ",
"4 4 4 4 4 4 4 4 4 4 4 4 4 4 4 4 4 4 4 4 4 4 4 4 4 4 4 4 4 4 5.5.5.5.5.5.3 4 4 4 4 4 4 4 4 4 4 4 4 4 4 4 4 4 4 4 4 4 4 4 4 4 4 4 4 4 4 4 4 4 4 4 4 4 4 4 4 4 4 4 4 4 4 4 4 4 4 4 4 5.5.5.5.5.5.] 4 4 4 4 4 4 4 4 4 4 ] ] h 4 4 4 4 4 4 4 4 5.5.5.f 4 4 4 4 4 4 4 ",
"4 4 4 4 4 4 4 4 4 4 4 4 4 4 4 4 4 4 4 4 4 4 4 4 4 4 4 4 4 A 5.5.5.5.5.5.Z 4 4 4 4 4 4 4 4 4 4 4 4 4 4 4 4 4 4 4 4 4 4 4 4 4 4 4 4 4 4 4 4 4 4 4 4 4 4 4 4 4 4 4 4 4 4 4 4 4 4 4 4 5.5.5.5.5.5.5.4 4 4 4 4 4 4 4 4 4 4 4 4 4 4 4 4 4 4 4 4 p Z v 4 4 4 4 4 4 4 4 ",
"4 4 4 4 4 4 4 4 4 4 4 4 4 4 4 4 4 4 4 4 4 4 4 4 4 4 4 4 4 A 5.5.5.5.5.5.Z 4 4 4 4 4 4 4 4 4 4 4 4 4 4 4 4 4 4 4 4 4 4 4 4 4 4 4 4 4 4 4 4 4 4 4 4 4 4 4 4 4 4 4 4 4 4 4 4 4 4 4 4 5.5.5.5.5.5.] 4 4 4 4 4 4 4 4 4 4 4 4 4 4 4 4 4 4 4 4 4 4 4 4 4 4 4 4 4 4 4 4 ",
"4 4 4 4 4 4 4 4 4 4 4 4 4 4 4 4 4 4 4 4 4 4 4 4 4 4 4 4 4 4 5.5.5.5.5.5.p 4 4 4 4 4 4 4 4 4 4 4 4 4 4 4 4 4 4 4 4 4 4 4 4 4 4 4 4 4 4 4 4 4 4 4 4 4 4 4 4 4 4 4 4 4 4 4 4 4 4 4 4 ] 5.5.5.5.5.A 4 4 4 4 4 4 4 4 4 4 4 4 4 4 4 4 4 4 4 4 4 4 4 4 4 4 4 4 4 4 4 4 ",
"4 4 4 4 4 4 4 4 4 4 4 4 4 4 4 4 4 4 4 4 4 4 4 4 4 4 4 4 4 4 ] 5.5.5.5.U 4 4 4 4 4 4 4 4 4 4 4 4 4 4 4 4 4 4 4 4 4 4 4 4 4 4 4 4 4 4 4 4 4 4 4 4 4 4 4 4 4 4 4 4 4 4 4 4 4 4 4 4 4 4 ] 5.5.5.A 4 4 4 4 4 4 4 4 4 4 4 4 4 4 4 4 4 d d w 4 4 4 4 4 4 4 4 4 4 4 4 4 ",
"4 4 4 4 4 4 4 4 4 4 4 4 4 4 4 4 4 4 4 4 4 4 4 4 4 4 4 4 4 4 4 A ~ ~ C 4 4 4 4 4 4 4 4 4 4 4 4 4 4 4 4 4 4 4 4 4 4 4 4 4 4 4 4 4 4 4 4 4 4 4 4 4 4 4 4 4 4 4 4 4 4 4 4 4 4 4 4 4 4 4 4 0 a q 4 4 4 4 4 4 4 4 4 4 4 4 4 4 4 4 A 5.5.5.5.Z 4 4 4 4 4 4 4 4 4 4 4 4 ",
"4 4 4 4 4 4 4 4 4 4 4 4 4 4 4 4 4 4 4 4 4 4 4 4 4 4 4 4 4 4 4 4 4 4 4 4 4 4 4 4 4 4 4 4 4 4 4 4 4 4 4 4 4 4 4 4 4 4 4 4 4 4 4 4 4 4 4 4 4 4 4 4 4 4 4 4 4 4 4 4 4 4 4 4 4 4 4 4 4 4 4 4 4 4 4 4 4 4 4 4 4 4 4 4 4 4 4 4 4 4 5.5.5.5.5.5.z 4 4 4 4 4 4 4 4 4 4 4 ",
"4 4 4 4 4 4 4 4 4 4 4 4 4 4 4 4 4 4 4 4 4 4 4 4 4 4 4 4 4 4 4 4 4 4 4 4 4 4 4 4 4 4 4 4 4 4 4 4 4 4 4 4 4 4 4 4 4 4 4 4 4 4 4 4 4 4 4 4 4 4 4 4 4 4 4 4 4 4 4 4 4 4 4 4 4 4 4 4 4 4 4 4 4 4 4 4 4 4 4 4 4 4 4 4 4 4 4 4 4 A 5.5.5.5.5.5._ 4 4 4 4 4 4 4 4 4 4 4 ",
"4 4 4 4 4 4 4 4 4 4 4 4 4 4 4 4 4 4 4 4 4 4 4 4 4 4 4 4 A 2.2.4 4 4 4 4 4 4 4 4 4 4 4 4 4 4 4 4 4 4 4 4 4 4 4 4 4 4 4 4 4 4 4 4 4 4 4 4 4 4 4 4 4 4 4 4 4 4 4 4 4 4 4 4 4 4 4 4 4 4 4 4 4 4 4 4 ] 5.] 4 4 4 4 4 4 4 4 4 4 ] 5.5.5.5.5.5._ 4 4 4 4 4 4 4 4 4 4 4 ",
"4 4 4 4 4 4 4 4 4 4 4 4 4 4 4 4 4 4 4 4 4 4 4 4 4 4 4 4 5.5.5.4 4 4 4 4 4 4 4 4 4 4 4 4 4 4 4 4 4 4 4 4 4 4 4 4 4 4 4 4 4 4 4 4 4 4 4 4 4 4 4 4 4 4 4 4 4 4 4 4 4 4 4 4 4 4 4 4 4 4 4 4 4 4 4 4 5.5.5.4 4 4 4 4 4 4 4 4 4 A 5.5.5.5.5.5.W 4 4 4 4 4 4 4 4 4 4 4 ",
"4 4 4 4 4 4 4 4 4 4 4 4 4 4 4 4 4 4 4 4 4 4 4 4 4 4 4 4 ] 5.4 4 4 4 4 4 4 4 4 4 4 4 4 4 4 4 4 4 4 4 4 4 4 4 4 4 4 4 4 4 4 4 4 4 4 4 4 4 4 4 4 4 4 4 4 4 4 4 4 4 4 4 4 4 4 4 4 4 4 4 4 4 4 4 4 4 A 5.A 4 4 4 4 4 4 4 4 4 4 4 5.5.5.5.5.5.k 4 4 4 4 4 4 4 4 4 4 4 ",
"4 4 4 4 4 4 4 4 4 4 4 4 4 4 4 4 4 4 4 4 4 4 4 4 4 4 4 4 4 4 4 4 4 4 4 4 4 4 4 4 4 4 4 4 4 4 4 4 4 4 4 4 4 4 4 4 4 4 4 4 4 4 4 4 4 4 4 4 4 4 4 4 4 4 4 4 4 4 4 4 4 4 4 4 4 4 4 4 4 4 4 4 4 4 4 4 4 4 4 4 4 4 4 4 4 4 4 4 4 4 4 ] 5.5.] 4 4 4 4 4 4 4 4 4 4 4 4 4 ",
"4 4 4 4 4 4 4 4 4 4 4 4 4 4 4 4 4 4 4 4 4 4 4 4 4 4 4 4 4 4 4 4 4 4 4 4 4 4 4 4 4 4 4 4 4 4 4 4 4 4 4 4 4 4 4 4 4 4 4 4 4 4 4 4 4 4 4 4 4 4 4 4 4 4 4 4 4 4 4 4 4 4 4 4 4 4 4 4 4 4 4 4 4 4 4 4 4 4 4 4 4 4 4 4 4 4 4 4 4 4 4 4 4 4 4 4 4 4 4 4 4 4 4 4 4 4 4 4 ",
"4 4 4 4 4 4 4 4 4 4 4 4 4 4 4 4 4 4 4 4 4 4 4 4 4 4 4 4 4 4 4 4 4 4 4 4 4 4 4 4 4 4 4 4 4 4 4 4 4 4 4 4 4 4 4 4 4 4 4 4 4 4 4 4 4 4 4 4 4 4 4 4 4 4 4 4 4 4 4 4 4 4 4 4 4 4 4 4 4 4 4 4 4 4 4 4 4 4 4 4 4 4 4 4 4 4 4 4 4 4 4 4 4 4 4 4 4 4 4 4 4 4 4 4 4 4 4 4 ",
"4 4 4 4 4 4 4 4 4 4 4 4 4 4 4 4 4 4 4 4 4 4 4 4 4 4 4 4 4 4 4 4 4 4 4 4 4 4 4 4 4 4 4 4 4 4 4 4 4 4 4 4 4 4 4 4 4 4 4 4 4 4 4 4 4 4 4 4 4 4 4 4 4 4 4 4 4 4 4 4 4 4 4 4 4 4 4 4 4 4 4 4 4 4 4 4 4 4 4 4 4 4 4 4 4 4 4 4 4 4 4 4 4 4 4 4 4 4 4 4 4 4 4 4 4 4 4 4 ",
"4 4 4 4 4 4 4 4 4 4 4 4 4 4 4 4 4 4 4 4 4 4 4 4 4 4 4 4 4 4 4 4 4 4 4 4 4 4 4 4 4 4 4 4 4 4 4 4 4 4 4 4 4 4 4 4 4 4 4 4 4 4 4 4 4 4 4 4 4 4 4 4 4 4 4 4 4 4 4 4 4 4 4 4 4 4 4 4 4 4 4 4 4 4 4 4 4 4 4 4 4 4 4 4 4 4 4 4 4 4 4 4 4 4 4 4 4 4 4 4 4 4 4 4 4 4 4 4 ",
"4 4 4 4 4 4 4 4 4 4 4 4 4 4 4 4 4 4 4 4 4 4 4 4 8 8 8 8 8 8 8 8 4 4 4 4 4 4 4 4 4 4 4 4 4 4 4 4 8 8 8 8 8 8 8 8 4 4 4 4 4 4 4 4 4 4 4 4 4 4 4 4 4 4 4 4 4 4 4 4 t t t t t t t t t t t t t t t t 4 4 4 4 4 4 4 4 4 4 4 4 4 4 4 4 4 4 4 4 4 4 4 4 4 4 4 4 4 4 4 4 ",
"U.T.T.T.T.T.T.T.T.T.T.T.T.T.T.T.c.z.z.z.z.z.z.z.z.z.z.z.z.z.z.z.8 4 4 4 4 4 4 4 4 4 4 4 4 4 4 8 l.v.v.v.b.b.b.b.9.9.9.9.8.8.8.8.* * * * * * * * * * * * * * * * *X*X*X*X&X&X&X&X&X&X&X&X*X*X*X*X) Q Q Q Q Q Q Y                 O O O O O O O O               X ",
"Y.E.E.E.R.R.R.R.R.R.R.R.R.R.R.R.M.M.M.M.M.M.M.M.M.M.M.M.C.C.C.z.8 4 4 4 4 4 4 4 4 4 4 4 4 4 4 8 v.Z.Z.Z.N.N.N.b.e.w.w.w.e.e.e.8.* * * * * * * * * * * * * * * * & & & & & & & & & & & & & & & & Q Q Q Q Q Q Q Q                 O O O ..O.O O O               X ",
"Y.E.E.E.R.R.R.R.R.R.R.R.R.R.R.R.M.M.M.M.M.M.M.M.M.M.M.M.C.C.C.z.8 4 4 4 4 4 4 4 4 4 4 4 4 4 4 8 v.Z.Z.Z.N.N.N.b.e.w.w.w.e.e.e.e.x.x.x.x.x.x.x.x.x.x.x.x.x.x.x.x.& & & & & & & & & & & & & & & & Q Q Q Q Q Q Q Q                 .._._._.`.`.`.O.              X ",
"Y.E.E.E.R.R.R.R.R.R.R.R.R.R.R.R.M.M.M.M.M.M.M.M.M.M.M.M.C.C.C.z.8 4 4 6 S s 4 4 4 4 4 4 4 4 4 8 v.Z.Z.Z.N.N.N.b.e.w.w.w.e.e.e.e.x.x.x.x.x.x.x.x.x.x.x.x.x.x.x.x.& & & & & & & & & & & & & & & & Q Q Q Q Q Q Q Q               a._.......O.O.O.`.6.            X ",
"T.R.R.R.E.E.E.E.E.E.E.E.E.E.E.E.M.M.M.M.M.M.M.M.M.M.M.M.M.M.M.z.4 4 4 } P.P.4 4 4 4 4 4 4 4 4 4 b.N.N.N.N.N.N.b.t.0.0.0.e.e.e.e.x.x.x.x.x.x.x.x.x.x.x.x.x.x.x.x.: & & & & & & & & & & & & & & & Q Q Q Q Q Q Q Q         @ @ %.].-.-.-.-.-.-.-.-.{.*.@ @       X ",
"T.R.R.R.E.E.E.E.E.E.E.E.E.E.E.E.M.M.M.M.M.M.M.M.M.M.M.M.M.M.M.z.4 4 4 } P.P.4 4 4 4 4 4 4 4 4 4 b.N.N.N.N.N.N.b.t.0.0.0.e.e.e.e.1.1.1.1.1.1.1.1.1.1.1.1.1.1.1.1.- & & & & & & & & & & & & & & & Q Q Q Q Q Q Q Q         @ @ ].%.-.-.%X%X%X%X-.-.*.{.@ @       X ",
"T.R.R.R.E.E.E.E.E.E.E.E.E.E.E.E.M.M.M.M.M.M.M.M.M.M.M.M.M.M.M.z.4 4 4 4 [ 4 4 4 4 4 P.P.` 4 4 4 b.N.N.N.N.N.N.b.t.0.0.0.e.e.e.8.& & & & & & & & & & & & & & & & - & & & & & & & & & & & & & & & Q Q Q Q Q Q Q Q         @ %.].%.-.%X%X%X%X%X%X-.*.{.*.@       X ",
"T.R.R.R.E.E.E.E.E.E.E.E.E.E.E.E.M.M.M.M.M.M.M.M.M.M.M.M.M.M.M.z.4 4 4 4 4 4 4 4 4 4 P.P.<.4 4 4 b.N.N.N.N.N.N.b.t.0.0.0.e.e.e.8.& & & & & & & & & & & & & & & & & & & & & & & & & & & & & & & & ! ) ) ) ) ) ) !         @ j.j.%.I.%X%X%X%X%X%XI.*.k.k.@       X ",
"T.R.R.R.E.E.E.E.E.E.E.E.E.E.E.E.M.M.M.M.M.M.M.M.M.M.M.M.M.M.M.z.4 4 4 4 4 4 4 4 4 4 ' 3.c 4 4 4 b.N.N.N.N.N.N.b.t.0.0.0.w.w.w.8.& & & & & & & & & & & & & & & & = = = = & & & & & & & & = = = , }..X.X.X.X.X.X}.X       $ f.f.o.I.%X%X%X%X%X%XI.#.g.g.%       X ",
"T.R.R.R.E.E.E.E.E.E.E.E.E.E.E.E.M.M.M.M.M.M.M.M.M.M.M.M.M.M.M.z.4 4 4 4 4 4 [ 4 4 4 4 4 4 4 4 4 b.N.N.N.N.N.N.b.t.0.0.0.w.w.w.8.& & & & & & & & & & & & & & & & = = = = & & & & & & & & = = = , .XXXXXXXXXXXXX}.X       $ f.f.o.-.%X%X%X%X%X%X-.#.(.#.%       X ",
"T.R.R.R.E.E.E.E.E.E.E.E.E.E.E.E.M.M.M.M.M.M.M.M.M.M.M.M.M.M.M.z.4 4 4 4 4 P.P.[ 4 4 4 4 4 4 4 4 b.N.N.N.N.N.N.b.t.0.0.0.w.w.w.w.h.h.h.h.h.h.h.h.h.h.h.h.h.h.h.=., = = = & & & & & & & & = = = , .XXXXXXXXXXXXX}.X       $ $ ^.o.-.I.%X%X%X%XI.-.#.(.% %       X ",
"T.R.R.R.E.E.E.E.E.E.E.E.E.E.E.E.M.M.M.M.M.M.M.M.M.M.M.M.M.M.M.z.4 4 4 4 4 P.P.[ 4 4 4 4 4 4 4 4 b.N.N.N.N.N.N.b.t.0.0.0.w.w.w.u.'.'.'.'.'.'.'.'.'.'.'.'.'.'.'.'., = = = & & & & & & & & = = = , .XXXXXXXXXXXXX}.X       $ $ ^.f.-.-.-.).).-.-.-.g.(.% %       X ",
"Y.E.E.E.R.R.R.R.R.R.R.R.R.R.R.R.G.G.G.G.G.G.G.G.G.G.G.G.m.m.m.z.9 4 4 4 4 j B 4 4 4 4 4 4 4 4 9 b.A.A.A.Z.Z.Z.Z.e.e.e.e.r.r.r.y.'.'.'.'.'.'.'.'.'.'.'.'.'.'.'.'.< & & & & & & & & & & & & & & 2  XoXoXoXoXoXoX X+             !.d.#.#.#.X.X.X.i.!.            + ",
"Y.E.E.E.R.R.R.R.R.R.R.R.R.R.R.R.G.G.G.G.G.G.G.G.G.G.G.G.m.m.m.z.9 4 4 4 4 4 4 4 4 4 4 4 4 4 4 9 b.A.A.A.Z.Z.Z.Z.e.e.e.e.r.r.r.y.'.'.'.'.'.'.'.'.'.'.'.'.'.'.'.'.< & & & & & & & & & & & & & & 2  XoXoXoXoXoXoX X+               Q.Q.d.#.X.i.W.W.              + ",
"Y.E.E.E.R.R.R.R.R.R.R.R.R.R.R.R.G.G.G.G.G.G.G.G.G.G.G.G.m.m.m.z.9 4 4 4 4 4 4 4 4 4 4 4 4 4 4 9 b.A.A.A.Z.Z.Z.Z.e.e.e.e.r.r.r.8.< < < < < < < < < < < < < < < < ; & & & & & & & & & & & & & & 2  XoXoXoXoXoXoX X+               > > d.Q.W.W.X.>               + ",
"U.Y.Y.Y.T.T.T.T.T.T.T.T.T.T.T.T.L.L.L.L.L.L.L.L.L.L.L.L.L.L.L.D.i i i i 4 4 4 4 t t t t i i i i A.H.H.H.K.K.K.K.p.p.p.p.s.s.s.y.< < < < < < < < < < < < < < < < < < < < 1 1 1 1 1 1 1 1 2 2 2 r  XOXOXOXOXOXOX X# # # #         > > > > > > > >         # # # # ",
"# + + + X X X X G G G G P P P E ,X,X,X,X,X,X,X,X,X,X,X,X,X,X,X,X>X>X>X>X>X>X>X>X>X>X>X>X>X>X>X>X,X,X,X,X,X,X,X,X,X,X,X,X,X,X,X,X>X>X>X>X,X,X,X,X>X>X>X>X>X>X>X>X>X>X>X>X>X>X>X>X>X>X>X>X>X>X>X>X,X,X,X,X,X,X,X,X>X>X>X>X>X>X>X>X>X>X>X>X>X>X>X>X>X>X>X>X>X>X>X>X",
"#             . F F F F J J J E ,X,X@X@X@X@X@X@X@X@X@X@X@X@X@X@X+X+X+X+X+X+X+X+X+X+X+X+X+X+X+X+X@X@X@X@X@X@X@X@X@X@X@X@X@X@X@X@X+X+X+X+X@X@X,X@X+X+X+X+X+X+X+X+X+X+X+X+X+X+X+X+X+X+X+X+X+X+X+X+X@X@X@X,X,X@X@X@X+X+X+X+X+X+X+X+X+X+X+X+X+X+X+X+X+X+X+X+X+X+X>X>X",
"#             . F F F F J J J E ,X@Xn.n.n.n.n.n.n.n.n.n.n.n.n.n.n.n.n.n.n.n.n.n.n.n.n.n.n.n.n.n.n.n.n.n.n.n.n.n.n.n.n.n.n.n.n.n.n.n.n.n.n.n.,X~.n.n.n.n.n.n.n.n.n.n.n.n.n.n.n.n.n.n.n.n.n.n.n.n.n.n.n.@X,Xn.n.n.n.n.n.n.n.n.n.n.n.n.n.n.n.n.n.n.n.n.n.n.n.n.+X>X",
"#             . F F F F J J J E ,X@Xn.n.n.n.n.n.n.n.n.n.n.n.n.n.n.n.n.n.n.n.n.n.n.n.n.n.n.n.n.n.n.n.n.n.n.n.n.n.n.n.n.n.n.n.n.n.n.n.n.n.n.n.,X~.n.n.n.n.n.n.n.n.n.n.n.n.n.n.n.n.n.n.n.n.n.n.n.n.n.n.n.@X,Xn.n.n.n.n.n.n.n.n.n.n.n.n.n.n.n.n.n.n.n.n.n.n.n.n.+X>X",
"X               D D D D J J J E ,X@Xn.n.n.n.n.n.J.J.J.J.J.J.J.J.J.J.J.J.J.J.J.J.B.n.n.n.n.n.n.n.J.J.J.J.J.J.J.J.J.J.J.J.S.S.S.S.n.n.n.n.n.n.,X~.n.n.n.n.n.n.n.n.J.J.J.J.J.J.J.J.J.J.J.J.n.n.n.n.n.n.n.|.,Xn.n.n.n.n.n.n.n.n.n.n.n.n.n.n.n.n.n.n.n.n.n.n.n.n.+X>X",
"X               D D D D J J J E ,X@Xn.n.n.n.n.[.,X,X,X,X,X,X,X,X,X,X,X,X,X,X,X,XF.n.n.n.n.n.n.#X,X,X,X,X,X,X,X,X,X,X,X,X,X,X,X/.n.n.n.n.n.n.,X~.n.n.n.n.n.~.,X,X,X,X,X,X,X,X,X,X,X,X,X,X,X~.n.n.n.n.n.|.,Xn.n.n.n.n.n.n.n.n.n.n.n.n.n.n.n.n.n.n.n.n.n.n.n.n.+X>X",
"X               D D D D J J J E ,X@Xn.n.n.n.n.[.,X,X,X,X,X,X,X,X,X,X,X,X,X,X,X,XF.n.n.n.n.n.n.#X,X,X,X,X,X,X,X,X,X,X,X,X,X,X,X/.n.n.n.n.n.n.,X~.n.n.n.n.n.@X,X,X,X,X,X,X,X,X,X,X,X,X,X,X,X@Xn.n.n.n.n.|.,Xn.n.n.n.n.n.n.n.n.n.n.n.n.n.n.n.n.n.n.n.n.n.n.n.n.+X>X",
"X               D D D D J J J E ,X@Xn.n.n.n.n.[.,X,X,X,X,X,X,X,X,X,X,X,X,X,X,X,XF.n.n.n.n.n.n.#X,X,X,X,X,X,X,X,X,X,X,X,X,X,X,X/.n.n.n.n.n.n.,X~.n.n.n.n.n.@X,X,X,X,X,X,X,X,X,X,X,X,X,X,X,X@Xn.n.n.n.n.|.,Xn.n.n.n.n.n.n.n.n.n.n.n.n.n.n.n.n.n.n.n.n.n.n.n.n.+X>X",
"X               D D D D J J J E ,X@Xn.n.n.n.n.[.,X,X,X,X,X,X,X,X,X,X,X,X,X,X,X$XF.n.n.n.n.n.n.#X,X,X,X,X,X,X,X,X,X,X,X,X,X,X,X[.n.n.n.n.n.n.,X~.n.n.n.n.n.@X,X,X,X,X,X,X,X,X,X,X,X,X,X,X,X@Xn.n.n.n.n.|.,Xn.n.n.n.n.n.n.n.n.n.n.n.n.n.n.n.n.n.n.n.n.n.n.n.n.+X>X",
"X               D D D D J J J E ,X@Xn.n.n.n.n.[.,X,X,X,X,X,X,X,X,X,X,X,X,X,X,X$XF.n.n.n.n.n.n.#X,X,X,X,X,X,X,X,X,X,X,X,X,X,X,X[.n.n.n.n.n.n.,X~.n.n.n.n.n.@X,X,X,X,X,X,X,X,X,X,X,X,X,X,X,X@Xn.n.n.n.n.|.,Xn.n.n.n.n.n.n.n.n.n.n.n.n.n.n.n.n.n.n.n.n.n.n.n.n.+X>X",
"X               D D D D J J J E ,X@Xn.n.n.n.n.[.,X,X,X,X,X,X,X,X,X,X,X,X,X,X,X$XF.n.n.n.n.n.n.#X,X,X,X,X,X,X,X,X,X,X,X,X,X,X,X[.n.n.n.n.n.n.,X~.n.n.n.n.n.@X,X,X,X,X,X,X,X,X,X,X,X,X,X,X,X@Xn.n.n.n.n.|.,Xn.n.n.n.n.n.n.n.n.n.n.n.n.n.n.n.n.n.n.n.n.n.n.n.n.+X>X",
"X               D D D D J J J E ,X@Xn.n.n.n.n.[.,X,X,X,X,X,X,X,X,X,X,X,X,X,X,X$XF.n.n.n.n.n.n.#X,X,X,X,X,X,X,X,X,X,X,X,X,X,X,X[.n.n.n.n.n.n.,X~.n.n.n.n.n.~.,X,X,X,X,X,X,X,X,X,X,X,X,X,X,X~.n.n.n.n.n.|.,Xn.n.n.n.n.n.n.n.n.n.n.n.n.n.n.n.n.n.n.n.n.n.n.n.n.+X>X",
"#             . D J J J K K K T ,X@Xn.n.n.n.n.V.J.J.J.J.J.J.J.J.J.J.J.J.J.J.J.F.n.n.n.n.n.n.n.V.J.J.J.J.J.J.J.J.J.J.J.J.J.J.J.B.n.n.n.n.n.n.,X~.n.n.n.n.n.F.J.J.J.J.J.J.J.J.J.J.J.J.J.J.J.F.n.n.n.n.n.|.,Xn.n.n.n.n.n.n.n.n.n.n.n.n.n.n.n.n.n.n.n.n.n.n.n.n.+X>X",
"#             . D J J J K K K T ,X@Xn.n.n.n.n.n.n.n.n.n.n.n.n.n.n.n.n.n.n.n.n.n.n.n.n.n.n.n.n.n.n.n.n.n.n.n.n.n.n.n.n.n.n.n.n.n.n.n.n.n.n.n.,X~.n.n.n.n.n.n.n.n.n.n.n.n.n.n.n.n.n.n.n.n.n.n.n.n.n.n.n.|.,Xn.n.n.n.n.n.n.n.n.n.n.n.n.n.n.n.n.n.n.n.n.n.n.n.n.+X>X",
"#             . D J J J K K K T ,X@Xn.n.n.n.n.n.n.n.n.n.n.n.n.n.n.n.n.n.n.n.n.n.n.n.n.n.n.n.n.n.n.n.n.n.n.n.n.n.n.n.n.n.n.n.n.n.n.n.n.n.n.n.,X~.n.n.n.n.n.n.n.n.n.n.n.n.n.n.n.n.n.n.n.n.n.n.n.n.n.n.n.|.,Xn.n.n.n.n.n.n.n.n.n.n.n.n.n.n.n.n.n.n.n.n.n.n.n.n.+X>X",
"# o o o X X X X E E E E T T T / ,X@Xn.n.n.n.n.n.n.n.n.n.n.n.n.n.n.n.n.n.n.n.n.n.n.n.n.n.n.n.n.n.n.n.n.n.n.n.n.n.n.n.n.n.n.n.n.n.n.n.n.n.n.n.,X~.n.n.n.n.n.n.n.n.n.n.n.n.n.n.n.n.n.n.n.n.n.n.n.n.n.n.n.|.,Xn.n.n.n.n.n.n.n.n.n.n.n.n.n.n.n.n.n.n.n.n.n.n.n.n.+X>X",
"q.6.6.6.6.6.6.q.=X;X;X;X>X>X>X>X,X@Xn.n.n.n.n.n.n.n.n.n.n.n.n.n.n.n.n.n.n.n.n.n.n.n.n.n.n.n.n.n.n.n.n.n.n.n.n.n.n.n.n.n.n.n.n.n.n.n.n.n.n.n.,X~.n.n.n.n.n.n.n.n.n.n.n.n.n.n.n.n.n.n.n.n.n.n.n.n.n.n.n.|.,Xn.n.n.n.n.n.n.n.n.n.n.n.n.n.n.n.n.n.n.n.n.n.n.n.n.@X,X",
"t.7.7.7.7.7.7.t.;X,X,X,X>X>X>X>X,X@Xn.n.n.n.n.n.n.n.n.n.n.n.n.n.n.n.n.n.n.n.n.n.n.n.n.n.n.n.n.n.n.n.n.n.n.n.n.n.n.n.n.n.n.n.n.n.n.n.n.n.n.n.,X~.n.n.n.n.n.n.n.n.n.n.n.n.n.n.n.n.n.n.n.n.n.n.n.n.n.n.n.|.,Xn.n.n.n.n.n.n.n.n.n.n.n.n.n.n.n.n.n.n.n.n.n.n.n.n.@X,X",
"t.7.7.7.7.7.7.t.;X,X,X,X>X>X>X>X,X@Xn.n.n.n.n.n.n.n.n.n.n.n.n.n.n.n.n.n.n.n.n.n.n.n.n.n.n.n.n.n.n.n.n.n.n.n.n.n.n.n.n.n.n.n.n.n.n.n.n.n.n.n.,X~.n.n.n.n.n.n.n.n.n.n.n.n.n.n.n.n.n.n.n.n.n.n.n.n.n.n.n.|.,Xn.n.n.n.n.n.n.n.n.n.n.n.n.n.n.n.n.n.n.n.n.n.n.n.n.@X,X",
"t.7.7.7.7.7.7.t.;X,X,X,X>X>X>X>X,X@Xn.n.n.n.n.n.n.n.n.n.n.n.n.n.n.n.n.n.n.n.n.n.n.n.n.n.n.n.n.n.n.n.n.n.n.n.n.n.n.n.n.n.n.n.n.n.n.n.n.n.n.n.,X~.n.n.n.n.n.n.n.n.n.n.n.n.n.n.n.n.n.n.n.n.n.n.n.n.n.n.n.|.,Xn.n.n.n.n.n.n.n.n.n.n.n.n.n.n.n.n.n.n.n.n.n.n.n.n.@X,X",
"t.7.7.7.7.7.7.t.,X,X,X,X,X,X,X,X,X@Xn.n.n.n.n.n.n.n.n.n.n.n.n.n.n.n.n.n.n.n.n.n.n.n.n.n.n.n.n.n.n.n.n.n.n.n.n.n.n.n.n.n.n.n.n.n.n.n.n.n.n.n.,X~.n.n.n.n.n.n.n.n.n.n.n.n.n.n.n.n.n.n.n.n.n.n.n.n.n.n.n.|.,Xn.n.n.n.n.n.n.n.n.n.n.n.n.n.n.n.n.n.n.n.n.n.n.n.n.@X,X",
"t.7.7.7.7.7.7.t.,X,X,X,X,X,X,X,X,X@Xn.n.n.n.n.n.n.n.n.n.n.n.n.n.n.n.n.n.n.n.n.n.n.n.n.n.n.n.n.n.n.n.n.n.n.n.n.n.n.n.n.n.n.n.n.n.n.n.n.n.n.n.,X~.n.n.n.n.n.n.n.n.n.n.n.n.n.n.n.n.n.n.n.n.n.n.n.n.n.n.n.|.,Xn.n.n.n.n.n.n.n.n.n.n.n.n.n.n.n.n.n.n.n.n.n.n.n.n.@X,X",
"t.7.7.7.7.7.7.t.,X,X,X,X,X,X,X,X,X@Xn.n.n.n.n.n.n.n.n.n.n.n.n.n.n.n.n.n.n.n.n.n.n.n.n.n.n.n.n.n.n.n.n.n.n.n.n.n.n.n.n.n.n.n.n.n.n.n.n.n.n.n.,X~.n.n.n.n.n.n.n.n.n.n.n.n.n.n.n.n.n.n.n.n.n.n.n.n.n.n.n.|.,Xn.n.n.n.n.n.n.n.n.n.n.n.n.n.n.n.n.n.n.n.n.n.n.n.n.@X,X",
"t.7.7.7.7.7.7.t.,X,X,X,X,X,X,X,X,X@Xn.n.n.n.n.n.n.n.n.n.n.n.n.n.n.n.n.n.n.n.n.n.n.n.n.n.n.n.n.n.n.n.n.n.n.n.n.n.n.n.n.n.n.n.n.n.n.n.n.n.n.n.,X~.n.n.n.n.n.n.n.n.n.n.n.n.n.n.n.n.n.n.n.n.n.n.n.n.n.n.n.|.,Xn.n.n.n.n.n.n.n.n.n.n.n.n.n.n.n.n.n.n.n.n.n.n.n.n.@X,X",
"t.7.7.7.7.7.7.t.,X,X,X,X,X,X,X,X,X@Xn.n.n.n.n.n.n.n.n.n.n.n.n.n.n.n.n.n.n.n.n.n.n.n.n.n.n.n.n.n.n.n.n.n.n.n.n.n.n.n.n.n.n.n.n.n.n.n.n.n.n.n.,X~.n.n.n.n.n.n.n.n.n.n.n.n.n.n.n.n.n.n.n.n.n.n.n.n.n.n.n.|.,Xn.n.n.n.n.n.n.n.n.n.n.n.n.n.n.n.n.n.n.n.n.n.n.n.n.@X,X",
"t.7.7.7.7.7.7.t.,X,X,X,X,X,X,X,X,X@Xn.n.n.n.n.n.n.n.n.n.n.n.n.n.n.n.n.n.n.n.n.n.n.n.n.n.n.n.n.n.n.n.n.n.n.n.n.n.n.n.n.n.n.n.n.n.n.n.n.n.n.n.,X~.n.n.n.n.n.n.n.n.n.n.n.n.n.n.n.n.n.n.n.n.n.n.n.n.n.n.n.|.,Xn.n.n.n.n.n.n.n.n.n.n.n.n.n.n.n.n.n.n.n.n.n.n.n.n.@X,X",
"t.7.7.7.7.7.7.t.,X,X,X,X,X,X,X,X,X@Xn.n.n.n.n.n.n.n.n.n.n.n.n.n.n.n.n.n.n.n.n.n.n.n.n.n.n.n.n.n.n.n.n.n.n.n.n.n.n.n.n.n.n.n.n.n.n.n.n.n.n.n.,X~.n.n.n.n.n.n.n.n.n.n.n.n.n.n.n.n.n.n.n.n.n.n.n.n.n.n.n.|.,Xn.n.n.n.n.n.n.n.n.n.n.n.n.n.n.n.n.n.n.n.n.n.n.n.n.@X,X",
"t.7.7.7.7.7.7.t.,X,X,X,X,X,X,X,X,X@Xn.n.n.n.n.n.n.n.n.n.n.n.n.n.n.n.n.n.n.n.n.n.n.n.n.n.n.n.n.n.n.n.n.n.n.n.n.n.n.n.n.n.n.n.n.n.n.n.n.n.n.n.,X~.n.n.n.n.n.n.n.n.n.n.n.n.n.n.n.n.n.n.n.n.n.n.n.n.n.n.n.|.,Xn.n.n.n.n.n.n.n.n.n.n.n.n.n.n.n.n.n.n.n.n.n.n.n.n.@X,X",
"t.7.7.7.7.7.7.t.:X,X,X,X,X,X,X,X,X@Xn.n.n.n.n.n.n.n.n.n.n.n.n.n.n.n.n.n.n.n.n.n.n.n.n.n.n.n.n.n.n.n.n.n.n.n.n.n.n.n.n.n.n.n.n.n.n.n.n.n.n.n.,X~.n.n.n.n.n.n.n.n.n.n.n.n.n.n.n.n.n.n.n.n.n.n.n.n.n.n.n.+X,Xn.n.n.n.n.n.n.n.n.n.n.n.n.n.n.n.n.n.n.n.n.n.n.n.n.@X,X",
"t.7.7.7.7.7.7.t.:X,X,X,X,X,X,X,X,X@Xn.n.n.n.n.n.n.n.n.n.n.n.n.n.n.n.n.n.n.n.n.n.n.n.n.n.n.n.n.n.n.n.n.n.n.n.n.n.n.n.n.n.n.n.n.n.n.n.n.n.n.n.,X~.n.n.n.n.n.n.n.n.n.n.n.n.n.n.n.n.n.n.n.n.n.n.n.n.n.n.n.+X,Xn.n.n.n.n.n.n.n.n.n.n.n.n.n.n.n.n.n.n.n.n.n.n.n.n.@X,X",
"t.7.7.7.7.7.7.t.:X,X,X,X,X,X,X,X,X,X@X@X+X+X+X+X+X+X+X+X+X+X+X+X+X+X+X+X+X+X+X+X+X+X+X+X+X+X+X+X+X+X+X+X+X+X+X+X+X+X+X+X+X+X+X+X+X+X+X+X@X@X,X@X+X+X+X+X+X+X+X+X+X+X+X+X+X+X+X+X+X+X+X+X+X+X+X+X+X+X+X>X,X@X@X@X+X+X+X+X+X+X+X+X+X+X+X+X+X+X+X+X+X+X+X+X@X@X,X,X",
"q.6.6.6.6.6.6.q.*X-X-X-X>X>X>X>X,X,X,X,X>X>X>X>X>X>X>X>X>X>X>X>X>X>X>X>X>X>X>X>X>X>X>X>X>X>X>X>X>X>X>X>X>X>X>X>X>X>X>X>X>X>X>X>X>X>X>X>X,X,X,X,X>X>X>X>X>X>X>X>X>X>X>X>X>X>X>X>X>X>X>X>X>X>X>X>X>X>X>X>X,X,X,X,X>X>X>X>X>X>X>X>X>X>X>X>X>X>X>X>X>X>X>X>X,X,X,X,X"
};
