/* XPM */
static char *spongebob[] = {
/* columns rows colors chars-per-pixel */
"128 128 202 2 ",
"   c #979797",
".  c #9C9A9C",
"X  c #080800",
"o  c #050500",
"O  c #000400",
"+  c black",
"@  c #949694",
"#  c gray60",
"$  c #030300",
"%  c #432D0C",
"&  c #432F0C",
"*  c #B57921",
"=  c #724C15",
"-  c #5A3810",
";  c #050305",
":  c #080408",
">  c gray97",
",  c gray99",
"<  c #FFFBFF",
"1  c #C6C7C6",
"2  c #C9C7C9",
"3  c #C6C3C6",
"4  c #FFFEFF",
"5  c #FFFCFF",
"6  c #CECFCE",
"7  c #CBCCCB",
"8  c #CBCBCB",
"9  c #B57621",
"0  c #AD7521",
"q  c #B07621",
"w  c #B27821",
"e  c #5A3C10",
"r  c #181400",
"t  c #392408",
"y  c #724A15",
"u  c #B57521",
"i  c #CECCCE",
"p  c gray98",
"a  c #CECBCE",
"s  c #C9CAC9",
"d  c #7B7D29",
"f  c #7B7A29",
"g  c #7B7829",
"h  c #7B8E18",
"j  c #7E911B",
"k  c #F7EF63",
"l  c #FEF66B",
"z  c #F7F36B",
"x  c #B26A63",
"c  c #B06863",
"v  c #B06663",
"b  c #8F9397",
"n  c #8C9294",
"m  c #8F9597",
"M  c #E7EBF7",
"N  c #DEEFF7",
"B  c #E1EBF5",
"V  c #DEE7EF",
"C  c #6B2831",
"Z  c #632429",
"A  c #DEF3FF",
"S  c #7B7529",
"D  c #7B7629",
"F  c #7B9218",
"G  c #81931E",
"H  c #849621",
"J  c #FCF468",
"K  c #B56D63",
"L  c #B56963",
"P  c #94969C",
"I  c #919799",
"U  c #949A9C",
"Y  c #E7F0FC",
"T  c #E7F2FF",
"R  c #66252C",
"E  c #719AAC",
"W  c #31657B",
"Q  c #39697B",
"!  c #A1C0CE",
"~  c #DE0029",
"^  c #9DBECE",
"/  c #769CAC",
"(  c #FAE566",
")  c #F7DB63",
"_  c #4A595A",
"`  c #849218",
"'  c #D65931",
"]  c #F0BC56",
"[  c #B56A63",
"{  c #949999",
"}  c #949799",
"|  c #949294",
" . c #E7EFF7",
".. c #E7F2FC",
"X. c #68292E",
"o. c #66272C",
"O. c #6B2C31",
"+. c #EFF7FF",
"@. c #21617B",
"#. c #6E99AC",
"$. c #6BC7F7",
"%. c #325461",
"&. c #6B96AC",
"*. c #215D7B",
"=. c #E7F7FF",
"-. c #E15B79",
";. c #E498AF",
":. c #A2BFCE",
">. c #49839E",
",. c #101008",
"<. c #F0BF56",
"1. c #E79E4A",
"2. c #F7E363",
"3. c #E7A24A",
"4. c #F7B1AD",
"5. c #F7AEAD",
"6. c #EFFBFF",
"7. c #6890A2",
"8. c #9FBCC8",
"9. c #9FBAC5",
"0. c #688E9D",
"q. c #F0C156",
"w. c #E7F0FF",
"e. c #F7B2AD",
"r. c #18516B",
"t. c #184D63",
"y. c #EFBA52",
"u. c #94AEDB",
"i. c #6386C6",
"p. c #E7EFFF",
"a. c #7E931B",
"s. c #FFF36B",
"d. c #FFF46B",
"f. c #F7D35A",
"g. c #FCEA65",
"h. c #B56E63",
"j. c #94928C",
"k. c #21596B",
"l. c #A7BFC8",
"z. c #A7BDC8",
"x. c #21556B",
"c. c #E7F3F7",
"v. c #F7FBFF",
"b. c #84951E",
"n. c #B57163",
"m. c #949A94",
"M. c gray3",
"N. c #F7B6AD",
"B. c #D0D628",
"V. c #B5C300",
"C. c #E4E443",
"Z. c #F0ED56",
"A. c #D6DB31",
"S. c #BDC300",
"D. c #D6D729",
"F. c #F0EB53",
"G. c #D6DB29",
"H. c #E5E541",
"J. c #FFF363",
"K. c #F7EF5A",
"L. c #FCF465",
"P. c #E7E342",
"I. c #DEDB31",
"U. c #F7EF52",
"Y. c #FCF462",
"T. c #F6F05C",
"R. c #F0EA51",
"E. c #FFF766",
"W. c #F3EE56",
"Q. c #F5EF56",
"!. c #DEDF31",
"~. c #EFEB4A",
"^. c #FFF466",
"/. c #B8C400",
"(. c #CED321",
"). c #DEDF39",
"_. c #C6CB10",
"`. c #DBDB32",
"'. c #F0ED53",
"]. c #C6CF10",
"[. c #DBDE32",
"{. c #EAE849",
"}. c #CED318",
"|. c #EDEA4C",
" X c #C4CD15",
".X c #EFE74A",
"XX c #BDC708",
"oX c #D5D92D",
"OX c #EFEB52",
"+X c #C6CF18",
"@X c #EDEA50",
"#X c #FEF668",
"$X c #BEC90C",
"%X c #C0C80A",
"&X c #BECA0C",
"*X c #FAF466",
"=X c #E7E74A",
"-X c #F7F363",
";X c #F6F15F",
":X c #CED721",
">X c #F3EE59",
",X c #D5DA2F",
/* pixels */
"  . . . . . .   X o o o O O O O + + + + O O O O O O O O O O O O O O O O O O O O O O O O O O O O O O O O O O O O O O O O O O O O O O O O + + + + O O O O O O O O O O O O O O O O O O O O O O O O O O O O + + + + O O O O O O O O O O O O O O O O O O O O + + + + ",
"@ # # # # # # @ $ + + + + + + + + + % % & & & & & & & & & & & & & & & & & & & & & & & & & & & & & & & & & & & & & & & & & & & & & & & & % % + % & & & & & & & & & & & & & & & & & & & & & & & & & & & O + % % % & & & & & & & & & & & & & & & & & & & & % % + + ",
"@ # # # # # # @ $ + + + + + + + + % * * * * * * * * * * * * * * * * * * * * * * * * * * * * * * * * * * * * * * * * * * * * * * * * * * * * + = * * * * * * * * * * * * * * * * * * * * * * * * * * * & + * * * * * * * * * * * * * * * * * * * * * * * * * % + ",
"@ # # # # # # @ $ + + + + + + + + % * * * * * * * * * * * * * * * * * * * * * * * * * * * * * * * * * * * * * * * * * * * * * * * * * * * * + = * * * * * * * * * * * * * * * * * * * * * * * * * * * & + * * * * * * * * * * * * * * * * * * * * * * * * * % + ",
"@ # # # # # # @ + + + + + + + + + % * * * * * * * * * * * * * * * * * * * * * * * * * * * * * * * * * * * * * * * * * * * * * * * * * * * * + = * * * * * * * * * * * * * * * * * * * * * * * * * * * - + * * * * * * * * * * * * * * * * * * * * * * * * * % + ",
"@ # # # # # # @ + + + + + + + + + % * * * * * * * * * * * * * * * * * * * * * * * * * * * * * * * * * * * * * * * * * * * * * * * * * * * * + = * * * * * * * * * * * * * * * * * * * * * * * * * * * - + * * * * * * * * * * * * * * * * * * * * * * * * * % + ",
"@ # # # # # # @ + + + + + + + + + % * * * * * * * * * * * * * * * * * * * * * * * * * * * * * * * * * * * * * * * * * * * * * * * * * * * * + = * * * * * * * * * * * * * * * * * * * * * * * * * * * - + * * * * * * * * * * * * * * * * * * * * * * * * * % + ",
"@ # # # # # # @ + + + + + + + + + % * * * * * * * * * * * * * * * * * * * * * * * * * * * * * * * * * * * * * * * * * * * * * * * * * * * * + = * * * * * * * * * * * * * * * * * * * * * * * * * * * - + * * * * * * * * * * * * * * * * * * * * * * * * * % + ",
"@ # # # # # # @ + + + + + + + + + % * * * * * * * * * * * * * * * * * * * * * * * * * * * * * * * * * * * * * * * * * * * * * * * * * * * * + = * * * * * * * * * * * * * * * * * * * * * * * * * * * - + * * * * * * * * * * * * * * * * * * * * * * * * * % + ",
"@ # # # # # # @ + + + + + + + + + % * * * * * * * * * * * * * * * * * * * * * * * * * * * * * * * * * * * * * * * * * * * * * * * * * * * * + = * * * * * * * * * * * * * * * * * * * * * * * * * * * - + * * * * * * * * * * * * * * * * * * * * * * * * * % + ",
"@ # # # # # # @ + + + + + + + + + % * * * * * * * * * * * * * * * * * * * * * * * * * * * * * * * * * * * * * * * * * * * * * * * * * * * * + = * * * * * * * * * * * * * * * * * * * * * * * * * * * - + * * * * * * * * * * * * * * * * * * * * * * * * * % + ",
"@ # # # # # # @ + + + + + + + + + % * * * * * * * * * * * * * * * * * * * * * * * * * * * * * * * * * * * * * * * * * * * * * * * * * * * * + = * * * * * * * * * * * * * * * * * * * * * * * * * * * - + * * * * * * * * * * * * * * * * * * * * * * * * * % + ",
"@ # # # # # # @ ; + + + O O O O + % * * * * * * * * * * * * * * * * * * * * * * * * * * * * * * * * * * * * * * * * * * * * * * * * * * * * + = * * * * * * * * * * * * * * * * * * * * * * * * * * * - + * * * * * * * * * * * * * * * * * * * * * * * * * % + ",
"@ # # # # # # @ ; + + + O O O O + % * * * * * * * * * * * * * * * * * * * * * * * * * * * * * * * * * * * * * * * * * * * * * * * * * * * * + = * * * * * * * * * * * * * * * * * * * * * * * * * * * - + * * * * * * * * * * * * * * * * * * * * * * * * * % + ",
"@ # # # # # # @ ; + + + O O O O + % * * * * * * * * * * * * * * * * * * * * * * * * * * * * * * * * * * * * * * * * * * * * * * * * * * * * + = * * * * * * * * * * * * * * * * * * * * * * * * * * * - + * * * * * * * * * * * * * * * * * * * * * * * * * % + ",
"  . . . . . .   : ; ; ; O O O O + % * * * * * * * * * * * * * * * * * * * * * * * * * * * * * * * * * * * * * * * * * * * * * * * * * * * * + = * * * * * * * * * * * * * * * * * * * * * * * * * * * - + * * * * * * * * * * * * * * * * * * * * * * * * * % + ",
"> , , , < < < < 1 1 1 1 2 2 2 3 + % * * * * * * * * * * * * * * * * * * * * * * * * * * * * * * * * * * * * * * * * * * * * * * * * * * * * + = * * * * * * * * * * * * * * * * * * * * * * * * * * * - + * * * * * * * * * * * * * * * * * * * * * * * * * & O ",
"> 4 4 4 4 4 4 5 6 7 7 7 8 8 8 2 + % * * * * * * * * * * * * * * * * * * * * * * * * * * * * * * * * * * * * * * * * * * * * * * * * * * * * + = * * * * * * * * * * * * * * * * * * * * * * * * * * * - + * * * * * * * * * * * * * * * * * * * * * * * * * & O ",
"> 4 4 4 4 4 4 5 6 7 7 7 8 8 8 2 + % * * * * * * * * * * * * * * * * * * * * * * * * * * * * * * * * * * * * * * * * * * * * * * * * * * * * + = * * * * * * * * * * * * * * * * * * * * * * * * * * * - + * * * * * * * * * * * * * * * * * * * * * * * * * & O ",
"> 4 4 4 4 4 4 5 6 7 7 7 8 8 8 2 + % * * * * * 9 0 0 0 0 0 0 0 0 0 0 0 0 0 0 0 q * * * * * * * 9 0 0 0 0 0 0 0 0 0 0 0 0 0 0 0 w * * * * * * + = * * * * * q 0 0 0 0 0 0 0 0 0 0 0 0 0 0 0 q * * * * * - + * * * * * * * * * * * * * * * * * * * * * * * * * & O ",
"< 4 4 4 4 4 4 4 6 6 6 6 7 7 7 1 + % * * * * * e + + + + + + + + + + + + + + + r q * * * * * * t + + + + + + + + + + + + + + + e * * * * * * + = * * * * * = + + + + + + + + + + + + + + + = * * * * * - + * * * * * * * * * * * * * * * * * * * * * * * * * & O ",
"< 4 4 4 4 4 4 4 6 6 6 6 7 7 7 1 + % * * * * * e + + + + + + + + + + + + + + + r q * * * * * * t + + + + + + + + + + + + + + + e * * * * * * + = * * * * * % + + + + + + + + + + + + + + + % * * * * * - + * * * * * * * * * * * * * * * * * * * * * * * * * & O ",
"< 4 4 4 4 4 4 4 6 6 6 6 7 7 7 1 + % * * * * * e + + + + + + + + + + + + + + + r q * * * * * * t + + + + + + + + + + + + + + + e * * * * * * + = * * * * * % + + + + + + + + + + + + + + + % * * * * * - + * * * * * * * * * * * * * * * * * * * * * * * * * & O ",
"< 4 4 4 4 4 4 4 6 6 6 6 7 7 7 1 + % * * * * * e + + + + + + + + + + + + + + + r q * * * * * * t + + + + + + + + + + + + + + + e * * * * * * + = * * * * * % + + + + + + + + + + + + + + + % * * * * * - + * * * * * * * * * * * * * * * * * * * * * * * * * & O ",
"< 4 4 4 4 4 4 4 6 6 6 6 7 7 7 1 + % * * * * * e + + + + + + + + + + + + + + + + q * * * * * * t + + + + + + + + + + + + + + + y * * * * * * + = * * * * * % + + + + + + + + + + + + + + + % * * * * * - + * * * * * * * * * * * * * * * * * * * * * * * * * & O ",
"< 4 4 4 4 4 4 4 6 6 6 6 7 7 7 1 + % * * * * * e + + + + + + + + + + + + + + + + q * * * * * * t + + + + + + + + + + + + + + + y * * * * * * + = * * * * * % + + + + + + + + + + + + + + + % * * * * * - + * * * * * * * * * * * * * * * * * * * * * * * * * & O ",
"< 4 4 4 4 4 4 4 6 6 6 6 7 7 7 1 + % * * * * * e + + + + + + + + + + + + + + + + q * * * * * * t + + + + + + + + + + + + + + + y * * * * * * + = * * * * * = + + + + + + + + + + + + + + + = * * * * * - + * * * * * * * * * * * * * * * * * * * * * * * * * & O ",
"< 4 4 4 4 4 4 4 6 6 6 6 7 7 7 1 + % * * * * * * 0 0 0 0 0 0 0 0 0 0 0 0 0 0 0 0 w * * * * * * * 0 0 0 0 0 0 0 0 0 0 0 0 u u u u * * * * * * + = * * * * * * * * 0 0 0 0 0 0 0 0 0 0 0 0 * * * * * * * - + * * * * * * * * * * * * * * * * * * * * * * * * * & O ",
"> 4 4 4 4 4 4 5 i i i i 7 7 7 1 + % * * * * * * * * * * * * * * * * * * * * * * * * * * * * * * * * * * * * * * * * * * * * * * * * * * * * + = * * * * * * * * * * * * * * * * * * * * * * * * * * * % + * * * * * * * * * * * * * * * * * * * * * * * * * & O ",
"> 4 4 4 4 4 4 5 i i i i 7 7 7 1 + % * * * * * * * * * * * * * * * * * * * * * * * * * * * * * * * * * * * * * * * * * * * * * * * * * * * * + = * * * * * * * * * * * * * * * * * * * * * * * * * * * % + * * * * * * * * * * * * * * * * * * * * * * * * * & O ",
"> 4 4 4 4 4 4 5 i i i i 7 7 7 1 + + % % % % % % % % % % % % % % & & & & & & & & & & & & & & & & % % % % % % % % % % % % % % % % & & & & % % + % & & & & & & & & & & & & & & & & & & & & & & & & % % % + + % % % & & & & & & & & & & & & & & & & & & & & & & O O ",
"> p p p < < < < a a a a s s s 1 + + + + + + + + + + + + + + + + O O O O O O O O O O O O O O O O + + + + + + + + + + + + + + + + O O O O + + + + O O O O O O O O O O O O O O O O O O O O O O O O + + + + + + + + O O O O O O O O O O O O O O O O O O O O O O O O ",
"d f f f g g g g g g g g g g g g h h h h h h h h h h h h h h h j k k k k l l l l z z z z k k k k x c c c v v v v b b b b n n n m M M M M M M M M M M M M M M M M M M M M N N N N N N N N B B B V C Z Z Z Z Z Z C > > > > 4 4 4 4 A A A A A A A A 4 4 4 4 > > > > ",
"f S S S D D D D D D D D D D D D F F F F F F F F F F F F G G G H J l l l l l l l l l l l l l l J K x x x L L L L P P P P I I I U M M M M M M M M M M M M M M M M Y T T T T T T T T T T T T T T B C R R R R R R C p 4 4 4 4 4 4 4 A A E W Q Q ! A 4 4 4 4 4 4 4 p ",
"f S S S D D D D D D D D D D D D F F F F F F F F F F F F G G G H J l l l l l l l l l l l l l l J K x x x L L L L P P P P I I I m ~ ~ ~ ~ ~ ~ ~ ~ ~ ~ ~ ~ ~ ~ ~ ~ M T T T T T T T T T T T T T T B C R R R R R R C p 4 4 4 4 4 4 4 W W E ^ ! / Q Q 4 4 4 4 4 4 4 p ",
"f S S S D D D D D D D D D D D D F F F F F F F F F F F F G G G H J l l l l ( ) l l l l l l l l J K x x x L L L L P P P P I I I m ~ ~ ~ ~ ~ ~ ~ ~ ~ ~ ~ ~ ~ ~ ~ ~ M T T T T T T T T T T T T T T B C R R R R R R C p 4 4 4 4 4 4 _ E ^ ^ ^ ! ! ! / _ 4 4 4 4 4 4 p ",
"g D D D S S S S S S S S S S S S ` ` ` ` ` ` ` ` ` ` ` ` ` ` ` H l l l l l ' ' ] l l l l l l l l K [ [ [ [ [ [ K @ { { { } } } | ~ ~ ~ ~ ~ ~ ~ ~ ~ ~ ~ ~ ~ ~ ~ ~  .......T T T T T T T T ...... .X.o.o.o.o.o.o.O.< 4 4 4 +.+.@.#.$.$.$.%.%.$.$.$.&.*.=.=.4 4 4 < ",
"g D D D S S S S S S S S S S S S ` ` ` ` ` ` ` ` ` ` ` ` ` ` ` H l l l l l ' ' ] l l l l l l l l K [ [ [ [ [ [ K @ { { { } } } } -.-.-.-.-.-.-.-.-.-.-.-.-.-.-.;. .......T T T T T T T T ...... .X.o.o.o.o.o.o.O.< 4 4 4 +.+.@.:.$.>.,.,.,.,.>.$.^ *.=.=.4 4 4 < ",
"g D D D S S S S S S S S S S S S ` ` ` ` ` ` ` ` ` ` ` ` ` ` ` H l l l l l l ] l l l l l l l l l K [ [ [ [ [ [ K @ { { { } } } U T T T T T T T T T T T T T T T T ........T T T T T T T T ...... .X.o.o.o.o.o.o.O.< 4 4 4 +.#.#.:.$.,.,.,.,.,.,.$.^ *.^ =.4 4 4 < ",
"g D D D S S S S S S S S S S S S ` ` ` ` ` ` ` ` ` ` ` ` ` ` ` H l l l l l l l l l l <.1.2.l l l K [ [ [ [ [ [ K @ { { { } } } U T T T T T T T T T T T T T T T T ........T T T T T T T T ...... .O.X.X.X.X.X.X.O.< 4 4 4 +.#.#.:.>.,.,.,.,.,.,.>.^ &.&.=.4 4 4 < ",
"g D D D S S S S S S S S S S S S ` ` ` ` ` ` ` ` ` ` ` ` ` ` ` H l l l l l l l l l l ' ' 3.l l l K [ [ [ [ [ [ K @ { { { P P P U T T T T T T T T T T T T T T T T T T T T T T T T T T T T T T T T 4.5.5.5.5.5.5.4.4 4 4 4 6.7.7.8.>.,.,.,.,.,.,.>.9.0.0.6.4 4 4 < ",
"g D D D S S S S S S S S S S S S ` ` ` ` ` ` ` ` ` ` ` ` ` ` ` H l l l l ] l l l l l ' ' q.l l l K [ [ [ [ [ [ K @ { { { P P P U T T T T T T T T T T T T T T T T w.T T T T T T T T T T T T T T T e.e.e.e.e.e.e.e.4 4 4 4 6.8.r.8.$.,.,.,.,.,.,.$.9.t.9.6.4 4 4 < ",
"g D D D S S S S S S S S S S S S ` ` ` ` ` ` ` ` ` ` ` ` ` ` ` H l l l y.' ' l l l l l l l l l l K [ [ [ [ [ [ K @ { { { P P P P u.u.u.u.u.u.u.u.u.u.u.u.u.u.u.u.w.T T T T T T T T T T T T T T T e.e.e.e.e.e.e.e.4 4 4 4 6.6.r.8.$.$.,.,.,.,.$.$.9.t.6.6.4 4 4 < ",
"g D D D S S S S S S S S S S S S ` ` ` ` ` ` ` ` ` ` ` ` ` ` ` H l l l y.' ' l l l l l l l l l l K [ [ [ [ [ [ K @ { { { P P P P i.i.i.i.i.i.i.i.i.i.i.i.i.i.i.i.p.T T T T T T T T T T T T T T T e.e.e.e.e.e.e.e.4 4 4 4 6.6.8.r.$.$.$.$.$.$.$.$.t.9.6.6.4 4 4 < ",
"f S S S D D D D D D D D D D D D ` ` ` ` ` ` ` ` ` ` ` ` a.a.a.H s.l l d.f.g.l l l l l l l l l s.h.L L L [ [ [ K P } } } P P P P i.i.i.i.i.i.i.i.i.i.i.i.i.i.i.i.T T T T T T T T T T T T T T T T e.e.e.e.e.e.e.e.4 4 4 4 4 4 4 j.k.l.l.l.z.z.z.x.. 4 4 4 4 4 4 < ",
"f S S S D D D D D D D D D D D D ` ` ` ` ` ` ` ` ` ` ` ` a.a.a.H s.l l l l l l l l l l l l l l s.h.L L L [ [ [ K P } } } P P P P i.i.i.i.i.i.i.i.i.i.i.i.i.i.i.i.T T T T T T T T T T T T T T T T e.e.e.e.e.e.e.e.4 4 4 4 4 4 4 4 l.k.k.k.x.x.x.z.4 4 4 4 4 4 4 < ",
"f S S S D D D D D D D D D D D D ` ` ` ` ` ` ` ` ` ` ` ` a.a.a.H s.l l l l l l l l l l l l l l s.h.L L L [ [ [ K P } } } P P P U c.c.c.c.c.c.c.c.c.c.c.c.c.c.c.c.T T T T T T T T T T T T T T T T e.e.e.e.e.e.e.e.4 4 4 4 4 4 4 4 v.v.v.l.z.v.v.v.4 4 4 4 4 4 4 < ",
"d g g g g g g g g g g g g g g g b.H H H H H H H H H H H H H H H s.l l l l l l l l l l l l l l s.n.h.h.h.K K K K m.m.m.m.U U U U c.c.c.c.c.c.c.c.c.c.c.c.c.c.c.c.X X X X M.M.M.M.M.M.M.M.X X X X 5.e.e.e.e.e.e.N.4 4 4 4 4 4 4 4 v.v.v.v.v.v.v.v.4 4 4 4 4 4 4 < ",
"l l l l l l l l l l l l l l l l l l l l l l l l s.s.s.s.s.s.s.s.l l l l l l l l l l l l l l l l s.s.s.s.s.s.s.s.l l l l l l l l l l l l l l l l l l l l l l l l z z z z z z z z z z z z z z z z l l l l l l l l l l l l l l l l l l l l l l l l l l l l l l l l ",
"l l l l l l l l l l l l l l l l l l l l l l l l l l l l l l l l l l l l l l l l l l l l l l l l l l l l l l l l l l l l l l l l l l l l l l l l l l l l l l l l l l l l l l l l l l l l l l l l l l l l l l l l l l l l l l l l l l l l l l l l l l l l l l l l ",
"l l l l l l l l l l l l l l l l l l l l l l l l l l l l l l l l l l l l l l l l l l l l l l l l l l l l l l l l l l l l l l l l l l l l l l l l l l l l l l l l l l l l l l l l l l l l l l l l l l l l l l l l l l l l l l l l l l l l l l l l l l l l l l l l ",
"l l l l l l l l l l l l l l l l l l l l l l l l l l l l l l l l l l l l l l l l l l l l l l l l l l l l l l l l l l l l l l l l l l l l l l l l l l l l l l l l l l l l l l l l l l l l l l l l l l l l l l l l l l l l l l l l l l l l l l l l l l l l l l l l ",
"l l l l l l l l l l l l l l l l l l l l l l l l l l l l l l l l l l l l l l l l l l l l l l l l l l l l l l l l l l l l l l l l l l l l l l l l l l l l l l l l l l l l l l l l l l l l l l l l l l l l l l l l l l l l l l l l l l l l l l l l l l l l l l l l ",
"l l l l l l l l l l l l l l l l l l l l l l l l l l l l l l l l l l l l l l l l l l l l l l l l l l l l l l l l l l l l l l l l l l l l l l l l l l l l l l l l l l l l l l l l l l l l l l l l l l l l l l l l l l l l l l l B.V.V.B.l l l l l l l l l l l l l ",
"l l l l l l l l l l l l l l l l l l l l l l l l l l l l B.V.l l l l l l l l l l l l l l l l l l l l l l l l l l l l l l l l l l l l l l l l l l l l l l l l l l l l l l l l l l l l l l l l l l C.V.C.l l l l l l l l l l l V.V.V.V.V.V.Z.l l l l l l l l l l l ",
"l l l l l l l l l l l l l l l l l l l l l l l l l l l l V.V.V.l l l l l l l l l l l l l l l l l l l l l l l l l l l l l l l l l l l l l l l l l l l l l l l l l l l l l l l l l l l l l l l l l V.V.V.l l l l l l l l l l C.V.V.V.V.V.V.A.l l l l l l l l l l l ",
"l l l l l l l l l l l l l l l l l l l l l l l l l l l l C.S.S.l l l l l l l l l l l l l l l l l l l l l l l l l l l l l l l l l l l l l l l l l l l l l l l l l l l l l l l l l l l l l l l l l B.V.B.l l l l l l l l l l B.V.V.V.V.V.V.D.l l l l l l l l l l l ",
"l l l l l l l l l l l l l l l l l l l l l l l l l l l l l l l l l l l l l l l l l l l l l l l l l l l l l l l l l l l l l l l l l l l l l l l l l l l l l l l l l l l l l l l l l l l l l l l l l l l l l l l l l l l l l C.V.V.V.V.V.V.D.l l l l l l l l l l l ",
"l l l l l l l l l l l l l l l l l l l l l l l l l l l l l l l l l l l l l l l l l l l l l l l l l l l l l l l l l l l l l l l l l l l l l l l l l l l l l l l l l l l l l l l l l l l l l l l l l l l l l l l l l l l l l l V.V.V.V.V.V.F.l l l l l l l l l l l ",
"l l l l l l l l l l l l l l l l l l l l l l l l l l l l l l l C.G.G.H.l l l l l l l l l l l l l l l l l l l l l l l l l l l l l l l l l l l l l l l l l l l l l l l l l l l l l l l l J.K.L.l l l l l l l l l l l l l l l l C.V.V.V.V.P.l l l l l l l l l l l l ",
"l l l l l l l l l l l l l l l l l l l l l l l l l l l l l l B.V.V.V.V.I.l l l l l l l l l l l l l l l l l l l l l l l l l l l l l l l l l l l l l l l l l l l l l l l l l l l l l l B.V.V.V.C.l l l l l l l l l l l l l l l l l U.U.Y.l l l l l l l l l l l l l ",
"l l l l l l l l l l l l l l l l l l l l l l l l l l l l l l V.V.V.V.V.V.T.l l l l l l l l l l l l l l l l l l l l l l l l l l l l l l l l l l l l l l l l l l l l l l l l l l l l B.V.V.V.V.V.C.l l l l l l l l l l l l l l l l l l l l l l l l l l l l l l l l ",
"l l l l l l l l l l l l l l l l l l l l l l l l l l l l l C.V.V.V.V.V.V.P.l l l l l l l l l l l l l l l l l l l l l l l l l l l l l l l l l l l l l l l l l l l l l l l l l l l l V.V.V.V.V.V.B.l l l l l l l l l l l l l l l l l l l l l l l l l l l l l l l l ",
"l l l l l l l l l l l l l l l l l l l l l l l l l l l l l C.V.V.V.V.V.V.P.l l l l l l l l l l l l l l l l l l l l l l l l l l l l l l l l l l l l l l l l l l l l l l l l l l l l V.V.V.V.V.V.V.l l l l l l l l l l l l l l l l l l l l l T.P.R.l l l l l l l l ",
"l l l l l l l l l l l l l l l l l l l l l l l l l l l l l l V.V.V.V.V.V.E.l l l l l l l l l l l l l l l l l l l l l l l l l l l l l l l l l l l l l l l l l l l l l l l l l l l l V.V.V.V.V.V.B.l l l l l l l l l l B.B.W.l l l l l l l l V.V.V.Q.l l l l l l l ",
"l l l l l l l l l l C.C.l l l l l l l l l l l l l l l l l l C.V.V.V.V.C.l l l l l l l l l l l l l l l l l l l l l l l l l l l l l l l l l l l l l l l l l l l l l l l l l l l l l B.V.V.V.V.V.C.l l l l l l l l l l V.V.!.l l l l l l l l V.V.V.~.l l l l l l l ",
"l l l l l l l l C.V.V.V.B.l l l l l l l l l l l l l l l l l l C.V.V.B.l l l l l l l l l l l l l l l l l l l l l l l l l l l l l l l l l l l l l l l l l l l l l l l l l l l l l l l B.V.V.V.C.l l l l l l l l l l l B.V.W.l l l l l l l l C.V.B.l l l l l l l l ",
"l l l l l l l ^.V.V.V.V.V.C.l l l l l l l l l l l l l l l l l l l l l l l l l l l l l l l l l l l l l l l l l l l l l l l l l l l l l l l l l l l l l l l l l l l l l l l l l l l l l l l l l l l l l l l l l l l l l l l l l l l l l l l l l l l l l l l l l l ",
"l l l l l l l I.V.V.V.V.V.B.l l l l l l l l l l l l l l l l l l l l l l l l l l l l l l l l l l l l l l l l l l l l l l l l l l l l l l l l l l l l l l l l l l l l l l l l l l l l l l l l l l l l l l l l l l l l l l l l l l l l l l l l l l l l l l l l l l ",
"l l l l l l l I.V.V.V.V.V.V.l l l l l l l l l l l l l l l l l l l l l l l l l l l l l l l l l l l l l l l l l l l l l l l l l l l l l l l l l l l l l l l l l l l l l l l l l l l l l l l l l l l l l l l l l l l l l l l l l l l l l l l l l l l l l l l l l l ",
"l l l l l l l I.V.V.V.V.V.B.l l l l l l l l l l l l l l l l l l l l l l l l l l l l l l l l l l l l l l l l l l l l l l l l l l l l l l l l l l l l l l l l l l l l l l l l l l l l l l l l l l l l l l l l l l l l l l l l l l l l l l l l l l l l l l l l l l ",
"l l l l l l l I./.V.V.V.V.C.l l l l l l l l l l l l l l l l l l l l l l l l l l l l l l l l l l l l l l l l l l l l l l l l l l l l l l l l l l l l l l l l l l l l l l l l l l l l l l l l l l l l l l l l l l l l l l l l l l l l l l l l l l l l l l l l l l ",
"l l l l l l l l V.V.V.V.(.l l l l l l l l l l l l l l l l l l l l l l l l l l l l l l l l l l l l l l l l l l l l l l l l l B.B.l l l l l l l l l l l l l l l l l l l l l l l l l l l l l l l l l l l l l l l l l l l l l l l l l l l l l l l l l l l l l l l l ",
"l l l l l l l l l B.B.C.l l l l l l l l l l l l l l l l l l l l l l l l l l l l l l l l l l l l l l l l l l l l l l l l l B.V.V.G.l l l l l l l l l l l l l l l l l l l l l l l l l l l l l l l l l l l l l l l l l l l l l l l l l l l l l l l l l l l l l l l ",
"l l l l l l l l l l l l l l l l l l l l l l l l l l l l l l l l l l l l l l l l l l l l l l l l l l l l l l l l l l l l l V.V.V.G.l l l l l l l l l l l l l l l l l l l l l l l l l l l l l l l l l l l l l l l l l l l l l l l l l l l l l l l l l l l l l l l ",
"l l l )._.`.l l l l l l l l l l l l l l l l l l l l l l l l l l l l l l l l l l l l l l l l l l l l l l l l l l l l l l l l B.B.'.l l l l l l l l l l l l l l l l l l l l l l l l l l l l l l l l l l l l l l l l l l l l l l l l l l l l l l l l l l l l l l l ",
"l l l I.].[.l l l l l l l l l l l l l l l l l l l l l l l l l l l l l l l l l l l l l l l l l l l l l l l l l l l l l l l l l l l l l l l l l l l l l l l l l l l l l l l l l l l l l l l l l l l l l l l l l l l l l l l l l l l l l C.C.l l l l s.l l l l l l ",
"l l l Z.[.{.l l l l l l l l l l l l l l l l l l l l l l l l l l l l l l l l l l l l l l l l l l l l l l l l l l l l l l l l l l l l l l l l l l l l l l l l l l l l l l l l l l l l l l l l l l l l l l l l l l l l l l l l l l l l V.V.V.V.l l l d.l l l l l l ",
"l l l l l l l l l l l l l l l l l l l l l l l l l l l l l l l l l l l l l l l l l l l l l l l l l l l l l l l l l l l l l l l l l l l l l l l l l l l l l l l l l l l l l l l l l l l l l l l l l l l l l l l l l l l l l l l l l l V.V.V.V.C.l l l l l l l l l ",
"l l l l l l l l l l l l l l l l l l l l l l l l l l l l l l l l l l l l l l l l l l l l l l l l l l l l l l l l l l l l l l l K.B.V.V.V.}.|.l l l l l l l l l l l l l l l l l l l l l l l l l l l l l l l l l l l l l l l l l l l l V.V.V.V.l l l l l l l l l l ",
"l l l l l l l l l l l l l l l l l l l l l l l l l l l l l l l l l l l l l l l l l l l l l l l l l l l l l l l l l l l l l l l V.V.V.V.V.V.V.C.l l l l l B.V.C.l l l l l l l l l l l l l l l l l l l l l l l l l l l l l l l l l l l B.V.V.B.l l l l l l l l l l ",
"l l l l l l l l l l l l l l l l l l l l l l l l l l l l l l l l l l l l l l l l l l l l l l l l l l l l l l l l l l l l l l B.V.V.V.V.V.V.V.V.l l l l !.V.V.V.l l l l l l l l l l l l l l l l l l l l l l l l l l l l l l l l l l l l l C.l l l l l l l l l l l ",
"l l l l l l l l l l l l l l l l l l l l l l l l l l l l l l l l l l l l l l l l l l l l l l l l l l l l l l l l l l l l l l V.V.V.V.V.V.V.V.V.B.l l l !.V.V.V.l l l l l l l l l l l l l l l l l l l l l l l l C.l l l l l l l l l l l l l l l l l l l l l l l l ",
"l l l l l l l l l l l l l l l l l l l l l l l l l l l l l l l l l l l l l l l l l l l l l l l l l l l l l l l l l l l l l C.V.V.V.V.V.V.V.V.V.V.l l l l B.B.l l l l l l l l l l l l l l l l l l l l l ^.B.V.V.V.V.V.C.l l l l l l l l l l l l l l l l l l l l l ",
"l l l l l l l l l l l l l l l l l l l l l l l l l l l l l l l l l l l l l l l l l l l l l l l l l l l l l l l l l l l l l C.V.V.V.V.V.V.V.V.V.V.K.l l l l l l l l l l l l l l l l l l l l l l l l l l V.V.V.V.V.V.V.V.).l l l l l l l l l l l l l l l l l l l l ",
"l l l l l l l l l l l l l l l l l l l l l l l l l l l l l l l l l l l l l l l l l l l l l l l l l l l l l l l l l l l l l C.V.V.V.V.V.V.V.V.V.V.L.l l l l l l l l l l l l l l l l l l l l l l l l l C.V.V.V.V.V.V.V.V.V.C.l l l l l l l l l l l l l l l l l l l ",
"l l l l l l l l l l l l l l l l l l l l l l l l l l l l l l l l l l l l l l l l l l l l l l l l l l l l l l l l l l l l l l V.V.V.V.V.V.V.V.V. Xl l l l l l l l l l l l l l l l l l l l l l l l l l V.V.V.V.V.V.V.V.V.V.V.l l l l l l l l l l l l l l l l l l l ",
"l l l l l l l l l l l l l l l l l l l l l l l l l l l l l l l l l l l l l l l l l l l l l l l l l l l l l l l l l l l l l l C.V.V.V.V.V.V.V.V.).l l l l l l l l l l l l l l l l l l l l l l l l l C.V.V.V.V.V.V.V.V.V.V.V.l l l l l l l l l l l l l l l l l l l ",
"l l l l l l l l l l l l l l l l l l l l l l l l l l l l l l l l l l l l l l l l l l l l l l l l l l l l l l l l l l l l l l l A.V.V.V.V.V.V.B.l l l l l l l l l l l l l l l l l l l l l l l l l l C.V.V.V.V.V.V.V.V.V.V.V.l l l l l l l l l l l l l l l l l l l ",
"l l l l l l l l l l l l l l l l l l l l l l l l l l l l l l l l l l l l l l l l l l l l l l l l l l l l l l l l l l l l l l l l C.B.V.V.B.C.l l l l l l l l l l l l l l l l l l l l l l l l l l l C.V.V.V.V.V.V.V.V.V.V.V.l l l l l l l l l l l l l l l l l l l ",
"l l l l l l l l l l l l l l l l l l l l l l l l l l l l l l l l l l l l l l l l l l l l l l l l l l l l l l l l l l l l l l l l l l l l l l l l l l l l l l l l l l l l l l l l l l l l l l l l l l V.V.V.V.V.V.V.V.V.V.V.l l l l l l l l l l l l l l l l l l l ",
"l l l l l l l l l l l l l l l l l l l l l l l .XU.l l l l l l l l l l l l l l l l l l l l l l l l l l l l l l l l l l l l l l l l l l l l l l l l l l l l l l l l l l l l l l l l l l l l l l l l l B.V.V.V.V.V.V.V.V.V.B.l l l l l l l l l l l l l l l l l l l ",
"l l l l l l l l l l l l l l l l l l l l l l l V.XXl l l l l l l l l l l l l l l l l l l l l l l l l l l l l l l l l l l l l l l l l l l l l l l l l l l l l l l l l l l l l l l l l l l l l l l l l l V.V.V.V.V.V.V.V.V.J.l l l l l l l l l l l l l l l l l l l ",
"l l l l l l l l l l l l l l l l l l l l l l C.V.XXl l l l l l l l l l l l l l l V.V.V.l l l l l l l l l l l l l l l l l l l l l l l l l l l l l l l l l l l l l l l l l l l l l l l l l l l l l l l l C.V.V.V.V.V.V.V.l l l l l l l l l l l l l l l l l l l l l ",
"l l l l l l l l l l l l l l l l l l l l l l C.V.oXl l l l l l l l l l l l l l l V.V.V.l l l l l l l l l l l l l l l l l l l l l l l l l l l l l l l l l l l l l l l l l l l l l l l l l l l l l l l l l l B.B.V.B.C.l l l l l l l l l l l l l l l l l l l l l l ",
"l l l l l l l l l l l l l l l l l l l l l l l C.l l l l l l l l l l l l l l l l V.V.V.l l l l l l l l l l l l l l l l l l l l l l l l l l l l l l l l l l l l l l l l l l l l l l l l l l l l l l l l l l l l l l l l l l l l l l l l l l l l l l l l l l l l l ",
"l l l l l l l l l l l l l l l l l l l l l l l l l l l l l l l l l l l l l l l l l OXl l l l l l l l l l l l l l l l l l l l l l l l l l l l l l l l l l l l l l l l l l l l l l l l l l l l l l l l l l l l l l l l l l l l l l l l l l l l l l l l l l l l l l ",
"l l l l l l l l l l l l l l l l l l l l l l l l l l l l l l l l l l l l l l l l l l l l l l l l l l l l l l l l l l l l l l l l l l l l l l l l l l l l l l l l l l l l l l l l l l l l l l l l l l l l l l l l l l l l l l l l l l l l l l l l l l l l l l l l ",
"l l l l l l l l l l l l l l l l l l l l l l l l l l l l l l l l l l l l l l l l l l l l l l l l l l l l l l l l l l l l l l l l l l l l l l l l l l l l l l l l l l l l l l l l l l l l l l l l l l l l l l l l l l l l l l l l l l l l l l l l l l l l l l l l ",
"l l l l l l l l l l l l l l l l l l l l l l l l l l l l l l l l l l l l l l l l l l l l l l l l l B.V.V.XXXXoXl l l l l l l l l l l l l l l l l l l l l l l l l l l l l l l l l l l l l l l l l l l l l l l l l l l l l l l l l l l l l l l l l l l l l l l l l ",
"l l l l l l l l l l l l l l l l l l l l l l l l l l l l l l l l l l l l l l l l l l l l l l l l +XV.V.V.V.V.V._.l l l l l l l l l l l l l l l l l l l l l l l l l l l l l l l l l l l l l l l l l l l l l l l l l l l l l l l l l l l l l l l l C.C.l l l l l l ",
"l l l l l l l l l l l l l l l l l l l l l l l l l l l l l l l l l l l l l l l l l l l l l l l B.V.V.V.V.V.V.V.V.V.l l l l l l l l l l l l l l l l l l l l l l l l l l l l l l l l l l l l l l l l l l l l l l l l l l l l l l l l l l l l l l V.V.V.C.l l l l l ",
"l l l l l l l l l l l l l l l l l l l l l l l l l l l l l l l l l l l l l l l l l l l l l l C.V.V.V.V.V.V.V.V.V.V.C.l l l l l l l l l l l l l l l l l l l l l l l l l l l l l l l l l l l l l l l l l l l l l l l l l l l l l l l l l l l l C.V.V.V.C.l l l l l ",
"l l l l l l l l l l l l l l l l l l l l l l l l l l l l l l l l l l l l l l l l l l l l l l B.V.V.V.V.V.V.V.V.V.V.B.l l l l l l l l l l l l l l l l l l l l l l l l l l l l l l l l l l l l l l l l l l l l l l l l l l l l l l l l l l l l l V.V.V.l l l l l l ",
"l l l l l l l l l l l l l l l l l l l l l l l l l l l l l l l l l l l l l l l l l l l l l l B.V.V.V.V.V.V.V.V.V.V.B.l l l l l l l l l l l l l l l l l l l l l l l l l l l l l l l l l l l l l l l l l l l l l l l l l l l l l l l l l l l l l ).D.F.l l l l l l ",
"l l l l l l l l l l l l l l l l l l l l l l l l l l l l l l l l l l l l l l l l l l l l l l B.V.V.V.V.V.V.V.V.V.V.B.l l l l l l l l l l l l l l l l l l l l l l l C.V.V.@Xl l l l l l l l l l l l l l l l l l l l l l l l l l l l l l l l l l l l l l l l l l l ",
"l l l l l l l l l l C.l l l l l l l l l l l l l l l l l l l l l l l l l l l l l l l l l l l C.V.V.V.V.V.V.V.V.V.V.C.l l l l l l l l l l l l l l l l l l l l l l l V.V.V.(.l l l l l l l l l l l l l l l l l l l l l l l l l l l l l l l l l l l l l l l l l l l ",
"l l l l l l l l l S.S.l l l l l l l l l l l l l l l l l l l l l l l l l l l l l l l l l l l l V.V.V.V.V.V.V.V.V.V.l l l l l l l l l l l l l l l l l l l l l l l l B.V.V.(.l l l l l l l l l l l l l l l l l l l l #XE.#Xl l l l l l l l l l l l l l l l l l l l ",
"l l l l l l l l l V.V.l l l l l l l l l l l l l l l l l l l l l l l l l l l l l l l l l l l l P.V.V.V.V.V.V.V.V.).l l l l l l l l l l l l l l l l C.B.B.B.l l l l l ).).^.l l l l l l l l l l l l l l l l l l C.(.$XV.V.B.C.l l l l l l l l l l l l l l l l l l ",
"l l l l l l l l l V.V.l l l l l l l l l l l l l l l l l l l l l l l l l l l l l l l l l l l l l C.V.V.V.V.V.V.B.l l l l l l l l l l l l l l l l V.V.V.V.V.V.B.l l l l l l l l l l l l l l l l l l l l l l l V.V.V.V.V.V.V.V.C.l l l l l l l l l l l l l l l l l ",
"l l l l l l l l l C.l l l l l l l l l l l l l l l l l l l l l l l l l l l l l l l l l l l l l l l C.B.V.V.B.l l l l l l l l l l l l l l l l l V.V.V.V.V.V.V.V.C.l l l l l l l l l l l l l l l l l l l l l V.V.V.V.V.V.V.V.V.V.l l l l l l l l l l l l l l l l l ",
"l l l l l l l l l l l l l l l l l l l l l l l l l l l l l l l l l l l l l l l l l l l l l l l l l l l l l l l l l l l l l l l l l l l l l l B.V.V.V.V.V.V.V.V.V.l l l l l l l l l l l l l l l l l l l l B.V.V.V.V.V.V.V.V.V.V.B.l l l l l l l l l l l l l l l l ",
"l l l l l l l l l l C.B.l l l l l l l l l l l l l l l l l l l l l l l l l l l l l l l l l l l l l l l l l l l l l l l l l l l l l l l l l l V.V.V.V.V.V.V.V.V.V.Z.l l l l l l l l l l l l l l l l l l #X%XV.V.V.V.V.V.V.V.V.V.&X*Xl l l l l l l l l l l l l l l ",
"l l l l l l l l l V.V.V.V.l l l l l l l l l l l l l l l l l l l l l l l l l l l l l l l l l l l l l l l l l l l l l l l l l l l l l l l l l V.V.V.V.V.V.V.V.V.V.=Xl l l l l l l l l l l l l l l l l l E.V.V.V.V.V.V.V.V.V.V.V.V.-Xl l l l l l l l l l l l l l l ",
"l l l l l l l l C.V.V.V.V.B.l l l l l l l l l l l l l l l l l l l l l l l l l l C.V.B.l l l l l l l l l l l l l l l l l l l l l l l l l l l V.V.V.V.V.V.V.V.V.V.Z.l l l l l l l l l l l l l l l l l l E.V.V.V.V.V.V.V.V.V.V.V.V.#Xl l l l l l l l l l l l l l l ",
"l l l l l l l l B.V.V.V.V.B.l l l l l l l l l l l l l l l l l l l l l l l l l OXV.V.V.C.l l l l l l l l l l l l l l l l l l l l l l l l l l B.V.V.V.V.V.V.V.V.V.;Xl l l l l l l l l l l l l l l l l l #X_.V.V.V.V.V.V.V.V.V.V.:XJ l l l l l l l l l l l l l l l ",
"l l l l l l l l B.V.V.V.V.B.l l l l l l l l l l l l l l l l l l l l l l l l l =XV.V.V.C.l l l l l l l l l l l l l l l l l l l l l l l l l l C.V.V.V.V.V.V.V.V.B.l l l l l l l l l l l l l l l l l l l l B.V.V.V.V.V.V.V.V.V.V.C.l l l l l l l l l l l l l l l l ",
"l l l l l l l l C.V.V.V.V.C.l l l l l l l l l l l l l l l l l l l l l l l l l l B.V.B.l l l l l l l l l l l l l l l l l l l l l l l l l l l l B.V.V.V.V.V.V.V.l l l l l l l l l l l l l l l l l l l l l l V.V.V.V.V.V.V.V.V.B.l l l l l l l l l l l l l l l l l ",
"l l l l l l l l l B.V.V.C.l l l l l l l l l l l l l l l l l l l l l l l l l l l l l l l l l l l l l l l l l l l l l l l l l l l l l l l l l l l C.V.V.V.V.B.l l l l l l l l l l l l l l l l l l l l l l l l V.V.V.V.V.V.V.C.l l l l l l l l l l l l l l l l l l ",
"l l l l l l l l l l l l l l l l l l l l l l l l l l l l l l l l l l l l l l l l l l l l l l l l l l l l l l l l l l l l l l l l l l l l l l l l l l l l l l l l l l l U.).>Xl l l l l l l l l l l l l l l l l C.,X,X,X=Xl l l l l l l l l l l l l l l l l l l l ",
"l l l l l l l l l l l l l l l l l l l l l l l l l l l l l l l l l l l l l l l l l l l l l l l l l l l l l l l l l l l l l l l l l l l l l l l l l l l l l l l l l l l V.V.V.l l l l l l l l l l l l l l l l l l l l l l l l l l l l l l l l l l l l l l l l l l ",
"l l l l l l l l l l l l l l l l l l l l l l l l l l l l l l l l l l l l l l l l l l l l l l l l l l l l l l l l l l l l l l l l l l l l l l l l l l l l l l l l l l l V.V.V.l l l l l l l l l l l l l l l l l l l l l l l l l l l l l l l l l l l l l l l l l l ",
"l l l l l l l l l l l l l l l l l l l l l l l l l l l l l l l l l l l l l l l l l l l l l l l l l l l l l l l l l l l l l l l l l l l l l l l l l l l l l l l l l l l C.B.C.l l l l l l l l l l l l l l l l l l l l l l l l l l l l l l l l l l l l l l l l l l ",
"l l l l l l l l l l l l l l l l l l l l l l l l l l l l l l l l l l l l l l l l l l l l l l l l l l l l l l l l l l l l l l l l l l l l l l l l l l l l l l l l l l l l l l l l l l l l l l l l l l l l l l l l l l l l l l l l l l l l l l l l l l l l l l l l ",
"l l l l l l l l l l l l l l l l l l l l l l l l l l l l l l l l l l l l l l l l l l l l l l l l l l l l l l l l l l l l l l l l l l l l l l l l l l l l l l l l l l l l l l l l l l l l l l l l l l l l l l l l l l l l l l l l l l l l l l l l l l l l l l l l ",
"l l l l l l l l l l l l l l l l l l l l l l l l l l l l l l l l l l l l l l l l l l l l l l l l l l l l l l l l l l l l l l l l l l l l l l l l l l l l l l l l l l l l l l l l l l l l l l l l l l l l l l l l l l l l l l l l l l l l l l l l l l l l l l l l ",
"l l l l l l l l l l l l l l l l l l l l l l l l l l l l l l l l l l l l l l l l l l l l l l l l l l l l l l l l l l l l l l l l l l l l l l l l l l l l l l l l l l l l l l l l l l l l l l l l l l l l l l l l l l l l l l l l l l l l l l l l l l l l l l l l ",
"s.s.s.s.s.s.s.s.z z z z z z z z z z z z z z z z z z z z z z z z z z z z z z z z z z z z z z z z z z z z z z z z z z z z z z z z z z z z z z z z z z z z z z z z z z z z z z z z z z z z z z z z z z z z z z z z z z z z z z z z z z z z z z z z z z z z z z z z "
};
