/* XPM */
static char *t_whale[] = {
/* columns rows colors chars-per-pixel */
"32 32 4 1 ",
"  c #15171B",
". c #232935",
"X c #546078",
"o c #B0BBCD",
/* pixels */
"XXXXXXXXXXXXXXXXoooooooooooooooo",
"XXXXXXXXXXXXXXXXoooooooooooooooo",
"XXXXXXXXXXXXXXXXoooooooooooooooo",
"XXXXXXXXXXXXXXXXoooooooooooooooo",
"XXXXXXXXXXXXXXXXoooooooooooooooo",
"XXXXXXXXXXXXXXXXoooooooooooooooo",
"XXXXXXXXXXXXXXXXoooooooooooooooo",
"XXXXXXXXXXXXXXXXoooooooooooooooo",
"XXXXXXXXXXXXXXXXoooooooooooooooo",
"XXXXXXXXXXXXXXXXoooooooooooooooo",
"XXXXXXXXXXXXXXXXoooooooooooooooo",
"XXXXXXXXXXXXXXXXoooooooooooooooo",
"XXXXXXXXXXXXXXXXoooooooooooooooo",
"XXXXXXXXXXXXXXXXoooooooooooooooo",
"XXXXXXXXXXXXXXXXoooooooooooooooo",
"XXXXXXXXXXXXXXXXoooooooooooooooo",
"................                ",
"................                ",
"................                ",
"................                ",
"................                ",
"................                ",
"................                ",
"................                ",
"................                ",
"................                ",
"................                ",
"................                ",
"................                ",
"................                ",
"................                ",
"................                "
};
