/* XPM */
static char *_83496812a5144c6f1ad587f1c52c0d8nhcVl6tUJenKGXZV[] = {
/* columns rows colors chars-per-pixel */
"455 501 256 2 ",
"   c #010106",
".  c #03040C",
"X  c #06090E",
"o  c #09090F",
"O  c #09060D",
"+  c #060710",
"@  c #040B13",
"#  c #0B0C14",
"$  c #080C18",
"%  c #110E16",
"&  c #120E19",
"*  c #0E1016",
"=  c #0E121A",
"-  c #05131C",
";  c #13141B",
":  c #15181E",
">  c #17161C",
",  c #0E0B0D",
"<  c #091926",
"1  c #141622",
"2  c #151B23",
"3  c #1A1C23",
"4  c #141D2A",
"5  c #1C1E2A",
"6  c #191622",
"7  c #101C2F",
"8  c #211E29",
"9  c #0B222C",
"0  c #1C2126",
"q  c #15222C",
"w  c #1D222C",
"e  c #19262B",
"r  c #0A2737",
"t  c #142433",
"y  c #1D2432",
"u  c #1D2A34",
"i  c #1C2C3B",
"p  c #152A38",
"a  c #1D323C",
"s  c #17323B",
"d  c #0B323D",
"f  c #21242C",
"g  c #23292E",
"h  c #242429",
"j  c #222533",
"k  c #232B34",
"l  c #292C35",
"z  c #232C3B",
"x  c #2A2E3B",
"c  c #232638",
"v  c #24323C",
"b  c #2A333C",
"n  c #263238",
"m  c #31343D",
"M  c #15211F",
"N  c #1A2E42",
"B  c #1C3343",
"V  c #1C354A",
"C  c #1C3B4C",
"Z  c #173746",
"A  c #1C3D53",
"S  c #183D56",
"D  c #0A3348",
"F  c #252E41",
"G  c #233443",
"H  c #2A3543",
"J  c #243A45",
"K  c #2B3A44",
"L  c #23354A",
"P  c #243B4B",
"I  c #2B3C4A",
"U  c #2A364A",
"Y  c #323B44",
"T  c #333B49",
"R  c #233D53",
"E  c #283D54",
"W  c #333D51",
"Q  c #123F60",
"!  c #1C4254",
"~  c #1C445C",
"^  c #19475B",
"/  c #194350",
"(  c #24414D",
")  c #2C424D",
"_  c #2B4248",
"`  c #33434D",
"'  c #38444C",
"]  c #244354",
"[  c #2B4453",
"{  c #2C4A55",
"}  c #23445B",
"|  c #244B5C",
" . c #2C4C5B",
".. c #284758",
"X. c #334553",
"o. c #334A55",
"O. c #334C5B",
"+. c #3A4A58",
"@. c #2B515D",
"#. c #34525D",
"$. c #3B525D",
"%. c #1C4B63",
"&. c #194A65",
"*. c #1B536B",
"=. c #1B5875",
"-. c #0D4C69",
";. c #234C63",
":. c #294C63",
">. c #354D62",
",. c #2C5363",
"<. c #28556A",
"1. c #345463",
"2. c #3B5563",
"3. c #3C5A65",
"4. c #345B6C",
"5. c #3B5C6B",
"6. c #355768",
"7. c #255B75",
"8. c #375D72",
"9. c #3C616D",
"0. c #28637B",
"q. c #3C6373",
"w. c #396679",
"e. c #1D617D",
"r. c #444F5A",
"t. c #435C6B",
"y. c #455966",
"u. c #4B5B6E",
"i. c #46626D",
"p. c #436473",
"a. c #4B6573",
"s. c #4B6A75",
"d. c #446B7C",
"f. c #4B6C7B",
"g. c #466778",
"h. c #546A78",
"j. c #4C717D",
"k. c #56727D",
"l. c #54636C",
"z. c #64717C",
"x. c #615A6F",
"c. c #423C4E",
"v. c #296886",
"b. c #356C86",
"n. c #37738C",
"m. c #3B7C9B",
"M. c #367695",
"N. c #2D7191",
"B. c #2C6E90",
"V. c #476D82",
"C. c #4C7384",
"Z. c #497589",
"A. c #537483",
"S. c #5B7483",
"D. c #547A8C",
"F. c #5C7C8B",
"G. c #587887",
"H. c #457C96",
"J. c #577D92",
"K. c #546E82",
"L. c #637C8B",
"P. c #667A86",
"I. c #697C8F",
"U. c #407EA1",
"Y. c #3D819D",
"T. c #3E82A2",
"R. c #48839C",
"E. c #5A8497",
"W. c #5B818E",
"Q. c #67828D",
"!. c #648493",
"~. c #6B8C9B",
"^. c #688797",
"/. c #738C9B",
"(. c #768A96",
"). c #79929D",
"_. c #708993",
"`. c #4888A7",
"'. c #548CA7",
"]. c #5793AC",
"[. c #5897B4",
"{. c #4E90B0",
"}. c #678DA2",
"|. c #6B94A7",
" X c #7493A3",
".X c #7B94A3",
"XX c #789AAA",
"oX c #659CB7",
"OX c #789DB2",
"+X c #758DA2",
"@X c #69A3BB",
"#X c #7AA4B7",
"$X c #7CA1AD",
"%X c #5EA1BB",
"&X c #77ABC4",
"*X c #7BB2C9",
"=X c #6CA8C4",
"-X c #639FC1",
";X c #84949D",
":X c #848D9A",
">X c #869AA7",
",X c #8C9DAD",
"<X c #89A2AD",
"1X c #94A4AD",
"2X c #88A7B7",
"3X c #97AAB6",
"4X c #9AB2BC",
"5X c #8BB1BE",
"6X c #A3B3BC",
"7X c #A8B6BD",
"8X c #A2ADB8",
"9X c #A29FB2",
"0X c #88ADC2",
"qX c #89B5C8",
"wX c #98B7C7",
"eX c #92B8CE",
"rX c #ABBBC4",
"tX c #A6BAC7",
"yX c #B2BDC8",
"uX c #A5BBCF",
"iX c #9AC4D6",
"pX c #93C1D2",
"aX c #ABC2CC",
"sX c #B4C3CC",
"dX c #B9C5CD",
"fX c #A9C7D6",
"gX c #BCCBD4",
"hX c #B6CAD6",
"jX c #BAD2DC",
"kX c #ABD1DD",
"lX c #B9D6E5",
"zX c #ADD1E4",
"xX c #B3DCEE",
"cX c #C3CDD7",
"vX c #C4D3DC",
"bX c #CAD5DD",
"nX c #C7D6DB",
"mX c #CCD5D8",
"MX c #CCDBE4",
"NX c #C6D9E5",
"BX c #D2DDE4",
"VX c #D3DDE9",
"CX c #C7DAEE",
"ZX c #CBE2EB",
"AX c #D4E3EB",
"SX c #D8E4EA",
"DX c #CAE6F5",
"FX c #D8EAF5",
"GX c #DAF4FD",
"HX c #CCF2FE",
"JX c #E3ECF4",
"KX c #E8F6FC",
"LX c #F4FCFE",
"PX c #E3EAED",
"IX c #BEBECD",
"UX c #827C90",
/* pixels */
"; ; * : ; ; ; ; 3 6 > > > % % ; # 3 3 ; + # : 3 * * + 3 3 + + ; ; 3 0 : 3 0 : 0 6 6 w 0 6 3 w w l 3 : 3 # : h 3 : ; = = : 3 3 : w y y b z 2 ; 3 3 l j 1 2 5 k g 3 w 3 ; 3 3 : * : # + # ; ; ; # # # 3 g 0 # ; 3 3 ; 3 3 : : : 3 5 5 f j l l l 5 2 3 6 w l f * 3 % > ; . : % . % h ; .   + ; 3 : ; * = + ; : 3 : 3 3 3 3 : : : 3 f 3 5 f 1 : 6 3 3 ; # : : : 3 h 3 ; 6 1 f g f f 5 5 3 3 3 3 5 3 ; 3 f f 5 f f f 8 5 5 6 5 j j 8 5 8 f l 5 3 5 ; 3 j f 5 ; * 3 f j f 5 5 5 5 5 l 5 5 f j j f 5 5 f f 5 f j f 3 5 f 1 f 5 3 f 6 f f 5 ; 1 3 3 j l 3 3 f 5 3 3 3 3 5 3 1 f f 3 f j f j j 5 3 1 3 g 5 3 3 3 g 5 : 3 ; # f j 3 ; ; 3 3 w f 1 3 f 6 3 f f 3 3 5 3 3 3 6 : 5 f 3 5 f 3 3 f 6 3 3 ; ; 1 3 5 5 5 1 6 5 5 j 3 3 5 6 ; : 5 2 k j 5 j k j j k k l k j 2 2 5 3 f 3 : 3 3 3 * : : . o f ; # * . ; ; ; ; % = # # : 3 ; ; : 1 : ; # # # ; = ; : + # * # # + + + . # # + . . . + . ; ; + + + + . + . . o o   . o . . . + # + . .   . . . + . . ",
"; ; ; 3 ; ; ; ; ; & % # > > > > > : # . . * ; # ; ; : 3 ; ; f : # ; : # ; g 0 6 ; 3 3 = ; 3 3 1 k ; # : ; : 0 3 # : 3 3 : 3 3 3 5 y z v 5 2 3 # 1 j j 2 3 2 w 5 5 3 3 ; ; # # ; # # # # + # : 5 # ; 3 f 3 ; 3 : ; # ; : : 3 3 g j y f j 5 1 j x 3 w w w 3 ; ; 6 ; 3 ; O ; # . ; 3 + o ; 3 ; ; 3 # : : # : : : h ; ; : : : : : 3 3 3 5 5 : 1 3 : 3 : ; ; ; ; 3 3 f 3 5 3 f f 3 3 1 3 6 3 3 3 5 5 3 l 5 : f f : f x j 5 5 8 5 6 & j f f g 3 1 3 : 1 j f 3 3 5 l 5 w 5 w j 5 5 5 1 x w 3 3 j f 5 5 f f 5 g f 6 : 6 5 6 f 6 1 f 3 1 3 j f 5 5 f j 5 8 8 5 1 3 3 3 5 5 f f j 5 3 3 5 3 l l 3 3 5 5 1 : 1 3 f j 3 ; 3 3 ; f g 6 6 5 l 3 3 5 5 w 3 : 3 3 3 5 5 3 3 3 3 3 3 3 3 w 3 3 : ; 6 : 6 3 6 3 3 1 w j j w 5 3 1 f w f 3 ; 6 3 1 w k k k b j 5 w j 2 w l j 2 w j 3 3 : : : 3 0 * + = + ; f : + + ; ; = ; > > > # 3 # # : ; . + 6 ; ; ; : # # * ; ; # + + # # + . * # + . * # . . # + . + + . . + . o + o + # + + . . . . @ + . . . . . . . . . ",
"; ; ; 5 ; ; ; ; 3 6 > ; ; > 6 3 f ; . . + ; ; # ; * 3 f * ; 3 # * ; ; # * h w 6 6 3 : * ; 3 2 6 j ; o ; 3 3 3 : = 3 f 3 ; : 3 5 w w z b 5 = ; + 2 w j 2 5 2 w 5 f 3 : ; ; # # ; + ; 3 : + # : 3 : 3 3 3 ; ; 3 : # = 3 3 3 3 : f 5 5 y j 4 $ 5 j 1 3 g g 3 6 w 3 ; : ; + # % + ; : + + : : = # : * 3 : * 3 3 : 0 ; = ; : : : : : 3 f w 3 3 3 3 3 ; : 3 3 3 3 h f f 3 5 f 3 3 : 3 f 5 1 3 g 5 5 3 5 g 3 ; 5 3 # : g 5 3 5 g 5 5 5 j 5 8 j 3 1 3 3 5 f 8 3 3 f f 1 5 6 5 j 3 5 f 5 j 5 2 3 5 5 5 5 3 5 3 f g 3 f j 3 3 3 5 f j j f f f f l j 5 5 3 8 g 5 1 5 5 5 f 6 5 5 3 1 3 3 3 ; 8 g 3 3 5 f 5 3 3 3 3 f 3 * 3 3 3 5 3 * 6 5 f ; : 3 f 3 3 : 3 w f f 3 3 3 3 3 3 3 : 6 f f 3 3 3 3 5 3 : 3 f g 5 j j w 5 5 5 5 3 ; 6 3 3 3 3 3 j k j j k w 2 y f 1 3 k f 5 f f 3 3 3 3 : 3 3 # + ; = ; 3 ; = = > ; # ; ; ; ; . 3 ; # ; # + + ; # * ; ; # ; ; : # # # # # + + ; 3 ; # # * # # + . . + . + . . . . + + . . o o . . . . . . . + + . . . . . . . ",
"; ; : f ; ; ; ; ; ; # # # > 6 > f : + . + ; * ; # # * : ; # # . 3 6 ; ; ; w 3 0 6 ; # * 6 3 2 w f # o ; 0 3 3 : 3 3 3 ; ; : 3 3 g x z l j ; # ; 1 w w w 5 2 g j 5 ; # # # # # + * ; ; # . # ; ; 3 0 0 3 * * 3 : ; : : 3 3 : ; 3 5 y z x c 5 5 6 3 1 5 f 3 w w 3 ; : ; # # ; % > ; ; ; ; ; ; ; ; # # : 3 : 3 3 : 3 ; ; 3 3 3 : : 3 f 3 ; : : 3 3 3 3 3 3 ; ; 3 3 3 3 3 3 3 3 : 5 5 6 1 3 5 3 3 1 3 ; ; 3 w 5 3 : f f 5 5 f 3 5 j 5 5 5 f 3 1 f g f 8 3 5 f f 5 5 5 5 5 5 j j 5 f 3 5 5 5 5 5 5 5 3 5 5 g 3 : 5 3 f f 3 f g f 5 3 j 3 ; f j 3 3 3 ; 8 3 3 5 3 3 f 3 3 5 1 ; 5 3 6 8 5 5 5 3 1 3 5 5 f 3 3 f 3 ; 3 w 3 5 3 5 g f 3 : 3 5 3 3 5 f 3 3 3 3 : 3 3 3 5 3 3 : 3 f 5 6 3 3 6 f 3 : w 3 3 5 j k 5 3 w f 5 5 ; 6 f 3 : : 3 5 y w w w w 5 c w 2 5 w 5 w w 1 6 ; 3 3 3 : : . # ; : : : ; ; ; # % # ; ; ; 3 3 ; : : # # ; : # * ; ; * ; ; ; # * + + ; * # # ; + . . . . . # : . . + . # # . . o . o + . . .   . . . + + . . . . . . + + + . ",
"; 3 : 6 ; : + ; ; * + o + ; ; 3 w # + . . # + ; : ; ; : ; ; ; 3 0 0 3 3 6 : 3 3 ; . o * * ; w g 3 * # ; 3 : * ; 0 3 : ; : 3 3 3 3 x b w 2 3 6 > 5 w 3 5 2 2 j j 6 ; ; ; # # ; # ; : ; + + * ; ; 3 3 3 3 ; # : : : 3 : : 3 : 3 g g y b H x j f 3 g f 6 3 3 6 : 5 3 > # # ; ; ; # + : 3 ; ; : : + # # 3 3 * # 3 3 3 : ; ; : : : : 3 5 3 3 3 : 3 f 3 : 3 : * ; 3 f : ; 3 f 5 3 : 3 ; ; 3 5 3 3 3 f g 3 3 3 f f f 5 3 f 5 6 1 6 6 5 f f f 5 1 3 3 3 f 3 3 f f 5 3 j 5 5 5 j x w 5 j 5 j j 5 3 f j 5 f f f f 3 3 f 1 f f 3 8 f 3 5 3 5 5 3 3 f f f 6 3 3 1 1 f f 3 5 5 f j 5 5 l f 5 l 5 3 f 3 ; ; 5 3 3 5 g f 3 3 1 3 3 3 3 w g g 3 3 5 : ; 3 j g : 3 3 5 5 : : 3 f 5 3 3 3 3 3 3 3 : ; 5 6 3 f 5 1 5 f f 5 2 w j 5 3 3 3 6 : 3 5 3 3 w c k x k c k 5 5 3 3 f 5 6 & ; 3 3 3 3 : ; # : ; : : : : : ; ; ; ; # # % ; 8 ; # # ; ; ; ; ; # : # o ; = o + ; # # ; ; # # ; # + .   . . . * * . . + # . . + . . . + # # o . + + + + + . . . . . . . . . . ",
"6 3 : # * 3 # # 3 : ; + # ; : 3 w * # + # ; # ; ; ; 0 3 # : 3 3 ; 3 3 6 ; 3 0 : ; * * # # 3 w 3 3 ; ; : : : ; : ; : : ; : 3 3 3 3 5 w w = ; 3 > w w 2 2 2 3 j f 3 3 3 3 # # ; * * ; ; ; ; : 3 3 f 3 : 3 ; ; 3 3 : 3 : 3 0 3 3 3 w 5 G I G y 6 3 f w 3 w f ; ; w > ; # ; > : ; % # * ; ; ; : : : ; : ; * ; : : 3 3 3 ; ; ; ; : ; 3 3 5 j g 5 3 5 : : 3 3 3 3 0 0 3 : 3 f 5 3 3 5 5 6 5 5 f g 5 5 5 f 5 5 j f 3 3 6 f 5 3 5 f 3 3 5 5 f 5 3 5 3 3 3 3 3 3 3 3 6 5 5 6 5 f 5 2 5 j 5 j j 5 2 5 5 5 f f 5 f j l x f 3 f 3 3 f f f 5 3 5 5 g j f f 5 8 f 5 3 f f 5 k 3 5 f f 5 f f f f 5 3 8 5 3 3 3 3 3 3 f 1 3 3 3 : 3 3 3 3 3 3 3 3 f 3 f 3 3 3 : 5 5 5 f f 3 : ; 3 : 3 3 3 5 f w 3 3 w 3 3 5 5 6 5 w 5 3 5 f j w 5 3 3 3 6 3 5 f l j c x b k j j 5 5 1 1 f 1 1 3 3 3 3 : : ; ; ; : = ; = ; ; * # # # % % ; ; ; : ; ; ; ; ; * * ; o # + o : ; ; ; : 6 ; ; + . + 6 # ; + . + . + # + + # + + . . + . o o O o + + . + + + . . . . + . . . . . . . ",
"; : ; . + 5 ; + 3 3 ; @ ; : : h 3 # # # ; : # 6 # # : ; + + + # = : : : ; 3 0 : ; ; * # ; f j 3 3 ; : : : 3 3 3 = : : : 3 3 h 3 6 3 5 w 6 # ; 3 g w 2 2 2 w w 3 3 3 ; # # # # # + + . + # * 1 5 g 3 : 3 : ; 3 3 3 : * ; : = # . 3 2 x I G y 3 8 3 3 w g w : 6 f ; ; % : 3 ; ; ; : * + # ; : : 3 : : * * ; 3 : : : 3 3 ; ; : 3 : ; : 3 f 5 3 3 : 3 : : ; ; : 3 3 3 6 3 3 3 3 3 3 f 5 5 ; 5 f 3 1 ; 3 3 3 g f 3 5 3 f w 5 g f 3 3 8 5 5 3 5 5 3 3 f f j 5 3 8 3 5 j 5 5 5 1 1 5 f 2 5 j k 5 2 2 3 5 3 6 5 f 5 f f 3 f 3 3 3 3 3 3 3 3 3 j j 3 5 f 3 3 f f 5 3 3 f 3 3 6 5 3 3 5 g 5 5 5 5 5 f f 6 3 5 3 f 3 3 5 3 3 f 5 f w 3 w 5 3 f f f 3 ; 3 3 5 3 3 3 g f 3 : : 6 3 3 3 5 f 5 : 3 3 3 3 3 1 ; 5 5 w 5 j j j 5 l 3 3 f 3 : 1 f x j y j y w w f 5 5 3 : w : : 3 3 : 3 3 ; ; ; ; = # ; ; 3 : + # > ; 3 3 > : % ; ; 3 3 ; # : 6 ; # # = ; # # = ; 3 ; # # # # # + . + + . . + + # . # # . + # # . . o o .   . . . + + . . . . . . . . . . . . + ",
"+ + # . . f 6 . k l f ; 3 6 2 k 6 # # # ; ; # 3 : : ; * : ; + h : * # : : 3 0 6 * @ . . 3 k j g 3 ; : ; = : 3 0 : 3 : ; 3 h f 3 * f g 6 3 ; # : k g 2 g 5 j w = 3 ; + . # # # ; * # # ; 8 3 8 g f 3 = ; ; * 3 : l 3 ; ; # # : + ; = y i t j 3 3 5 3 w w ; 3 f 3 : ; ; 8 ; % ; % : ; = ; 3 : ; = ; ; ; 3 # : 3 ; ; 3 h 3 : 3 f 3 ; ; 3 3 : 3 3 : : : 3 3 3 0 3 : 6 : 3 3 : 3 3 3 1 f k 3 ; 3 5 f 3 3 5 3 ; 3 f 3 3 5 3 5 f 3 1 f g 5 5 3 f 5 3 3 3 3 j 3 3 f 5 3 6 j f 2 j f w k j 5 5 j k w 5 j f 5 6 f j 3 1 j 3 f 5 f j 5 f l 3 f 5 1 6 5 f 3 3 3 5 j f f 3 3 j 8 1 5 f 1 3 3 j 5 5 f 5 f f 3 1 f f g g 5 3 3 ; 3 1 5 f 5 f 3 1 5 3 1 1 5 g ; f 3 3 5 f 5 3 3 f f 3 ; 3 3 3 : 3 f 1 1 3 5 5 5 k j 5 5 w j j 5 3 1 3 5 3 f k k j k k w w k y 6 3 w 3 6 > 3 3 3 ; # 3 3 : : : ; ; ; ; ; : : # 3 3 ; ; % % ; : 3 ; 3 3 ; # 3 3 : ; * 3 3 . O ; : # ; : : # # # # * : * . # # + . . + . . . . # * . . o # # . o # . . . + . . . . . . . . + . . ",
"* ; + # # ; : + = T l 6 5 3 x x 3 ; . ; 3 ; = = 3 ; # # ; : 3 ; ; 3 3 : h 3 : * ; . o ; 3 g g 3 : # : : # # 3 3 : 6 ; 6 : 6 3 w 5 l w # : w 3 5 w w k w 3 w f j w : * * ; ; % # ; . % 6 8 g w w k # ; 3 6 w 3 w w 6 3 * # * ; * * # = w w w w 3 1 5 w 5 3 5 5 w # + ; 3 : : o   * * ; : 3 ; * ; ; : : ; # ; : 3 : : : ; 3 3 : ; j g 1 3 5 5 g 3 ; f ; ; 3 3 3 3 3 3 1 & 5 5 1 l : w g 5 3 * 3 f 5 8 3 1 f f 3 f f 5 8 j 6 5 5 5 5 w 6 3 3 3 w 3 ; 5 f 5 w w w 5 5 w w 5 5 5 5 5 x k w 5 w y j k 5 w j 5 2 5 w l j 2 j w 1 5 5 j j w 5 f 5 1 j w x 5 5 5 5 5 5 2 f 5 w w 2 j f 5 w l j 3 j 5 5 5 f f 5 3 5 5 5 3 3 = 1 5 f 5 2 5 3 : 5 f : 3 5 : 1 5 j j 2 5 5 3 f 3 1 k j 3 f f f 5 5 w w 2 1 5 8 g g 8 f 3 3 3 3 5 f 5 5 c b b w j j w g w w x l j 8 8 6 3 3 3 ; 3 3 6 1 # * ; + : ; + ; ; : ; : ; = * ; # ; 3 : ; 3 3 : : : ; 3 > % # ; > 3 ; > ; 8 3 + ; #   ; # + # . + + . . . # ; + . . # o . + # o o # . # ; # . # # . . . . . . . . . ",
"+ + . # + + # * 2 b f 3 6 5 z x 1 ; + # ; ; ; : 3 3 # + * ; : = : 3 3 : 3 3 3 3 # @ ; 3 3 g g 3   # 0 h * # : 3 6 : ; 3 w w 3 5 f l f : * # = 5 w w w 6 6 5 w k 6 : * * # # # # ; + 6 3 8 j y j m 3 3 6 6 3 3 3 w w 5 6 6 ; o ; * @ # 6 w 3 3 3 w j j f j w 5 6 ; o ; 3 h 8 = # 3 ; ; 3 : * * ; ; ; ; ; = : ; ; : : 3 3 : ; ; : f 5 3 5 f 3 3 ; ; 3 ; ; 3 : : f 3 5 5 5 f 5 1 f 5 w w 3 g 6 3 6 5 5 3 5 j l 5 f 3 5 5 5 5 f j 5 3 w 6 3 3 w g w 3 5 j w j j j 5 j 5 5 5 w w w w 5 w w w w y 5 1 5 j j w 5 5 5 5 j 2 j 5 6 w 5 5 5 w 5 j j w w 2 w 2 5 j j j f f 3 5 j w 5 j j j 2 5 w 5 5 5 w j f f 5 3 1 5 f f w 5 5 w w 5 5 5 f 3 5 5 : 3 w 3 5 6 1 2 f w 5 1 3 1 3 5 5 5 3 3 5 j j j w 5 2 5 3 8 f 3 5 5 5 f 1 5 f y c k v k w w w w k w j b z 5 3 3 8 8 3 6 f f 6 6 3 * # # 5 f 3 ; 6 : : ; : ; ; = : ; ; : 3 : ; : : : : ; ; ; % % ; ; ; # ; # ; ; + % # . ; # + + + # # # # . . + # . . # + . o + o o o . # # + . . + . + . o o o . . . ",
"+ . . # + . . ; w j 3 3 1 j x y 6 ; # o # ; ; : ; : # + ; ; : # : : : : ; 3 f 3 . @ ; 6 3 g f ; + : 3 : ; : 3 3 w 6 : 3 f w w 5 j j 5 3 ; @ 1 x w w g 5 3 3 1 1 3 : * # # # # # ; ; f 3 5 l j z x w 3 3 w w 3 w f k k f w 3 # : ; # # ; w 3 3 3 g g w w f 5 1 = 6 * : 3 3 3 = ; : ; ; 3 0 ; ; ; # # # # ; : : = 3 3 3 3 : ; ; : 6 ; 6 3 3 6 : 3 : 3 ; 3 3 ; ; 3 3 3 5 f 5 5 6 5 f 5 3 3 f 1 1 ; g 3 1 1 f f 5 1 3 f 5 3 1 5 f 5 3 g w w w w w 6 2 5 f 5 5 5 5 5 f 5 5 5 w w j j 2 w y y y c j w 5 5 5 5 w 5 5 5 j 5 j 5 5 j 5 5 3 f f j j j w 2 5 5 w j w w w 5 5 5 j w 5 5 5 j 2 5 w f 5 5 w j 5 f f 5 6 5 f f 5 5 5 5 5 5 5 w f f 5 3 1 3 3 3 5 2 3 f j 5 5 5 ; 3 5 1 5 5 3 3 5 k x j w 5 5 5 3 3 3 5 5 5 f f 3 3 f j j e e u w w w j l w 5 5 y 5 6 6 3 3 3 : g 8 6 3 3 : 3 : 3 5 1 1 3 : : : : 3 : ; : ; ; ; 0 3 ; + ; : : ; : ; % # # # # + ; % # ; % # # # ; # + + # # ; ; # . . . * # + + # + o . . o . . + # + . . . . . . . o . . . . ",
"; . + # # + . = w y 5 2 1 Y H 1 ; # = ; ; : # * + # # # ; : : # : : : : = 3 h 3 @ # 6 3 3 g w * : 3 ; + ; 3 h : w 3 3 3 0 w 3 5 j 5 ; 6 : * 2 x 4 w g w g w 6 ; h 3 * * ; ; % # # 1 k 5 5 z z b 5 3 : w g g w g w 3 j f : 3 3 3 6 * * * w w w 3 f 5 2 2 5 3 3 6 ; ; 3 3 3 ; ; : ; ; 3 3 0 : * # ; # # ; : : 3 : 3 : ; : : : 3 : 3 6 3 6 3 3 3 w : ; * : 3 ; * ; 5 5 5 5 5 5 5 5 5 1 1 5 5 1 3 5 8 5 5 3 1 1 3 5 1 3 3 3 6 5 f f 3 w w w f f g 5 5 j j 5 w j f 5 5 w w 5 5 5 j j w c c y w w w y 5 w 3 5 5 5 j w w 5 5 5 5 j 5 2 3 j j w w 5 5 w j j j 5 6 w w 2 5 j j 5 w 5 6 5 5 5 f j 5 3 5 5 5 f f 5 f f f 5 5 w w 5 5 5 f f 3 5 3 3 5 f 3 5 5 5 5 j w 5 5 5 5 5 5 ; 3 5 3 8 5 j k j w 5 5 5 5 1 1 g 5 3 3 5 f f f 5 5 1 2 w 1 2 w k k w 2 2 w 3 6 6 3 5 3 2 1 3 3 3 3 3 h h * 1 2 5 3 3 3 3 : 3 : ; ; ; ; : 3 3 3 : 3 3 ; # 3 : = # + # % ; = > % ; ; # o # ; # + . # # * # ; # # * # + . . # # + . o . . o . . + # . . + .   . . . . . . ",
"; + + . # ; + # 2 j x y z T k = * + : : ; + + : # o o ; : : : ; : ; : 3 : 0 3 ; 6 ; 6 w k g 3 * # ; : ; : 3 3 3 * 6 6 3 3 3 w g k f 3 3 6 ; 1 5 w c w 3 w 3 3 3 g : ; ; # + # 3 ; 1 5 k z z j j 3 3 6 w k w 6 3 w 3 f 3 ; 3 f 3 3 3 3 3 g g g g 5 3 w w w w f g : ; ; ; : : : ; ; ; ; ; ; ; ; ; : : ; ; : : : 3 ; 3 3 ; # ; 3 3 6 ; 6 ; 6 f 3 ; 3 ; ; : 3 : ; 6 3 1 1 1 6 3 5 6 5 * 1 1 5 1 1 1 3 3 3 3 3 3 3 3 3 3 5 f f 3 3 8 w 3 3 6 3 w 5 5 j 5 5 5 5 w 5 5 2 5 j j f f f j w w w y y 4 4 w j j w f 5 5 j j 5 j w 5 w f 5 w 5 j w 5 w 5 5 j 5 5 5 w w j j 5 j f j 5 j j w f 5 5 5 w k f 5 w f 5 5 5 f 5 3 3 j 5 5 5 5 5 w w 5 5 5 5 j j w j 5 5 5 3 5 j 5 1 f 5 f 3 5 f 1 5 w w j j w 5 5 5 5 : 3 f 3 : 3 : g j 3 1 1 2 2 2 6 5 j w 5 w j 3 w 5 6 6 8 j w 2 2 y v e w g w ; 2 5 w 5 3 3 3 3 3 3 : ; ; ; : 3 3 3 0 3 * ; : * # % ; ; ; ; ; ; = 3 % ; ; % # . # # # + # # + # ; ; : ; + . . + # + o # # . o # + . + + . . + # . o o + o o . ",
"+ . . . # ; . # 1 c K H H z w 1 ; o * 3 ; # # : * # o ; : ; : : : : : 3 3 f 3 ; 3 ; ; w g w 6 * # ; : 3 : : 3 : ; 6 3 w 3 3 3 3 g 5 3 3 ; ; 2 5 z H j 5 w 3 3 3 g : * * * # # ; ; 3 w z Y x y 6 w 3 : 3 w 3 ; 3 k k f : 3 f 5 f w f f w w g g w ; 6 5 w w f g w ; ; ; ; : ; : = # ; ; ; ; : 3 ; = ; ; : : ; : 3 ; 3 : = # ; : * ; : 6 * * ; : 3 3 : ; = ; ; : 3 ; 1 5 5 3 5 5 6 * 2 j 2 5 5 5 j f f 3 3 w f 3 3 3 3 3 5 f 3 3 j w w w 3 6 3 3 3 5 5 3 5 5 w 5 5 2 5 f j j l j w 4 4 w y w 4 4 w 5 w f j 5 5 f j w j w 5 5 j w j j 5 5 5 f w 5 5 j 1 6 j j 5 5 5 j f j w j k f j j w 5 w k j w 5 f 5 5 5 3 3 5 f 5 5 3 2 2 3 5 w 5 5 2 2 5 5 5 j w 5 5 5 5 j w 1 f 5 5 f f 5 1 3 5 5 f k j f 5 1 3 5 5 1 ; 3 5 : 5 w 6 ; w w 3 1 2 j l g w w w w w 3 6 6 5 3 5 w i K ) v w k k u c y 5 2 ; 1 1 : 3 3 : ; : ; : 3 f 3 3 ; . # ; ; + # % # % ; ; ; + ; # # ; # # O . # # # + + + ; # # ; ; . + ; ; + o + # # o + # . . + + . . + + . . o o o . . ",
". . .   # * . + 3 c K K v y 2 ; ; + + ; ; # ; ; # + o # : ; : : : : : : 3 3 3 : 3 ; 6 w g 3 ; * ; ; : 3 : 3 3 ; 3 3 w w w 3 3 w 5 3 : : ; 1 4 y y x j w w 3 3 3 0 ; # # * * * # % 5 c z H x y 5 3 ; 6 3 0 f 3 f j f 3 ; 3 5 3 5 g g f 3 3 w w : * 3 3 3 6 w w 6 o # # ; : ; 3 3 ; ; : : : : ; ; = = = = ; = ; : ; : : ; : 3 ; o 3 3 3 5 ; # * : : ; * # o # o + . @ + + . . @ . . 5 k + . @ + . . + # + # ; ; g 3 3 3 1 5 6 6 5 3 3 3 : 3 w w w w 5 5 5 j j y 5 5 f j j j k j 5 k y y c y w w w 5 5 5 w w 5 5 j j j 5 5 f j w f j 5 w w 5 f 5 5 j 3 5 k j 5 5 5 j 5 j j j j 5 5 j j 5 w f j w 5 f 5 5 5 3 3 5 f 5 w 5 3 5 j k l w w w 5 5 w w j j j j j j w f 5 f 3 5 j f 3 3 6 5 5 f j f j w 3 3 f 3 : : 3 3 3 3 3 6 3 j f 6 3 1 w j j k g w w 0 0 3 6 6 2 w i U ] { C t c H ` K z w 5 3 3 3 5 3 3 3 : 3 : : 3 : : 3 : ; ; # # ; : ; # % ; ; # o + % % ; % + # # # * * + + # * ; # # # + + * + o o # # o + = . . + . + + . . + . . . o o . . ",
". . . . # * . . f c v F i y w # + # * : ; ; 3 ; o + o = ; : : ; ; ; : ; : ; : 3 * : 3 w g 3 : ; + ; 3 h 3 3 3 : w 3 3 3 w w g k w 2 ; # ; 6 w y y b j 5 2 6 3 3 : : ; # # * ; # # j b z y y c z 3 * 6 : 3 g 3 k l 6 : 3 3 3 3 3 g w 3 : ; 3 3 @ 6 3 3 3 6 g g : ; = o : 3 ; ; ; # * ; 3 3 : 3 3 h 3 ; = # # # ; ; : : 6 3 3 3 : # + + w w = + . . . + = w g w w b H y 4 y c b x H l.l.H ' r.r.' b x w 2 y 2 . . . @ 1 1 5 5 5 3 5 3 5 6 2 5 3 5 5 3 3 5 j j y 5 j j k j 5 5 5 w w w w c j c c k z j j w 5 5 3 w j k 5 3 k j 5 5 f 5 j 5 2 w 5 5 j j j j 5 5 w j 5 2 w j w w 2 1 j j 5 w 3 j j 5 f 5 3 5 f 5 5 f 2 w w 6 1 j k j j c k k j y w j j w w j j 5 5 j l f 3 f f 3 f 3 5 j k j 2 f j g w 3 : 3 0 3 : 3 6 5 5 j g 3 ; f f w 3 w j w 6 w 3 w 5 3 j k H W U B C B p u G I v y 4 w 1 ; ; 5 3 3 3 3 3 : : 3 3 3 ; ; : : ; : ; 3 3 ; % : : % % + % > ; ; + ; 3 ; # # + * # + * . + # # * * . . + ; o   + ;   . . . . + . . # . . . . . O . ",
". + + . + # # . 5 j 5 F c 4 w # + * 3 ; + # ; # + + * ; 3 : ; : 3 ; 3 f ; ; 3 k 6 3 : 3 3 6 3 : + ; : 3 3 3 3 h w 3 3 3 3 3 : w 3 ; # # f w 4 y G y w 5 6 6 5 : 3 * 3 3 % . . 3 1 w k i i t y y 2 # = f 3 w h h f 5 5 3 6 3 3 5 : w w 6 3 3 * ; 3 w w 6 : w w ; * # ; 3 3 ; & ; w : * : f 3 3 ; > O & # # 3 ; o * o . . . . + . 1 w K i y._.l._ k.S.Q.(.3XaXwXwXaXhXaXtXaXhXNXjX4XaXAXhXjXGXjXNXZXvXMXvX3X(.l.+.v K q + + . + . = 3 w w 2 4 5 5 1 c f 5 5 j j 1 w 2 5 j w w y z j w j k y w 5 y 5 w y y 4 5 c y 2 j l w 5 5 w f 5 5 w y 5 y j w 5 f j f 5 5 5 5 w w 5 5 5 5 w w f j w j j w 5 5 5 5 5 5 5 w 5 5 5 2 5 k j j j w w f 5 2 y w w 4 j z 5 5 l j 4 5 w 1 5 j 5 5 5 w j 1 5 b k w w w 3 3 3 3 3 3 3 w j 5 6 5 5 j j 5 y w w w 2 w w w l w w y H H z j 4 t p t G U G i u w 5 6 f 5 3 : 3 : 3 3 ; ; : : : f f : # : : ; ; = ; # = = : # . 3 # . ; ; # + o # % # . # # . ; ; # + + + # . . # # @ * + . # o . o . # # + # # + . . . . . ",
". + + . . + # + 5 5 z H H j 3 # ; : 3 # o # ; * o # = ; 3 : ; : 3 : 3 3 # # 6 3 0 6 ; 3 0 0 0 : ; : 3 h 3 3 3 0 3 3 3 ; 3 k 0 3 3 6 ; ; 3 3 1 q v z 2 # : * : : 3 w f 3 # + # ; w l b K i t y k 2 * 6 g f 3 0 w 3 3 6 3 3 3 3 5 w g 3 * ; * * 3 k k w 3 : f g 3 * ; ; % > 3 > % 3 ; 3 3 + # f f O O   .     + X X u v r.l.l.I.Q.(.gXAXMXFXNXjXlXjXfXDXfXwXkXfXlXfXfXfXjXZXZXhX<X_.hXZX4XfXaXaXZXFXNXaX<X).).vXjXZXNXaX;Xu.+.' K 1 @ . @ 1 5 w 5 5 8 j 8 5 5 4 k c w w y w w w j y w j j 4 5 w j y y w w w w k 4 5 w f w 5 5 w f w w j y 5 j k y 5 w j w w w w w 5 w w 5 w w w w 5 5 w w f j 3 w j f w j w 5 w 5 j w w j k 5 3 5 w j j w j y w w j l j j j j 5 5 5 5 5 1 5 j 5 k w 4 w l z y y w g f 3 w w 3 w g j 4 6 5 5 f j j w w w y w w g g k z u H K z j 5 2 4 q y H F i y x j w f f 5 6 > 3 3 3 3 : : 3 3 : 3 3 ; # ; : ; ; # ; * ; ; : # ; : . + * ; ; + # = ; ; % ; # O * ; # + # # + + + # . . ; * + + o . o . . . . . # + . . . . + ",
"# + . . + . . + 5 5 z H x w ; * # ; : ; # * ; + # ; ; ; : : ; 3 3 : 3 3 ; ; 3 3 0 6 ; 3 w 0 0 : ; : 3 3 3 : 3 3 3 3 w : 3 g h 0 3 : ; : 1 6 1 q v u 5 g f 3 3 1 1 l k 3 ; ; % # g l b K v i v b 2 ; w k k w 6 6 ; ; : 3 6 3 3 5 k g ; # ; * ; g g w 6 : 3 g k w @ ; 3 > 3 8 3 > % 3 ; . 3 6 . . . ; j ' l.z.).).<XlXNXlXDXDXGXFXtX1XfXhXhXfX4XwXjXaXkXkXwXfXjXlXjXhXkXlXjXhX5XQ.wXfX<X.XaX).<XaX3X<X3XfXjXaXhXZXZXlXCXZXhXtX4X<X1X>XP.X.< $ $ 5 8 8 f 8 j 8 1 5 j j w w y w w 5 4 4 w 5 w j k k j y w w w j k 2 f 5 w j j j j j w y j w 5 j k j 5 5 w w w w w w 5 w 5 5 f w w w w 5 j w 5 j 2 f k j f f j f 5 w 5 5 5 w j j 5 j 5 f j j j w w y j l j j z j j z j j j 5 w j 5 j k k w w j j w j j 5 5 w 3 3 3 5 j 5 5 5 w j j j w w w y j j k j f x j b v w w 1 5 5 y x H F c y y 5 3 3 f 8 6 > 3 3 3 3 3 3 3 3 3 3 3 ; ; : ; # h : : : 3 ; = = 3 ; + # ; # * # ; : > : 3 ; # # + : * + ; ; . # # + . + # * # . o . o . . o . o + . . + + + . ",
"# + . + + . . . 3 3 5 c y 1 # # ; ; : 3 ; ; * . ; : : : ; : : 3 3 : 3 : ; ; 6 : 6 3 : 3 0 6 3 3 ; : 3 3 3 : : : 3 3 w 3 3 3 w g : * ; ; : 2 2 y I u w 5 6 3 j 5 1 x j ; : ; # # ; 6 w j w c z k 2 6 w l l g 3 ; # ; 6 3 6 3 3 5 k f ; * ; : w g w 3 6 3 ; 3 3 ; ; * ; : : ; # ; > ; ; = . + 4 ' P.1XhXAXAXZXlXlXkXfXkX5XOX5X2XwXwX~.!.2XwX5X4X5X>X4X2XwXwX2XfXuXtX3X5X<X>X2X<X).1XtX.XfXNXaXfXaX3X1XaXfXDXGXjXjXjXaXtXjXGXGXGXlXwXhXCXAXhXl.$ + * 8 5 6 3 f j 3 5 5 w w w y w 1 w y k w w j j w j j w w w j z 2 5 5 5 5 w w w 5 5 w w 4 2 y k j 5 5 5 5 5 5 5 5 5 w 5 5 f f w w w 5 j j 5 w 2 w j w 5 5 f j w w w w 5 5 j w w j 5 5 j j w 5 5 y 5 l j j z j j c f 5 j j w j j j k z w w 5 w w k 5 3 3 3 3 3 3 5 x j 5 5 j j j 5 w w w j j j j g 3 f w y j w f 5 5 y y y j z j 4 4 w 5 1 f 8 3 > : : 3 3 3 3 : : 3 3 3 ; ; 3 : = : = * ; 3 ; = ; ; ; * ; ; # + ; # % ; % ; + . # + : * # 3 * . # + . + # + + # . o . o . o + o o + . . + + + + ",
". . . . + # # + # 3 2 z b 6 * # = o ; 3 3 ; # # ; : : ; ; ; : ; 1 6 ; ; ; ; # ; 3 3 : 0 0 6 3 3 3 : 3 f 3 ; ; 3 3 3 3 3 6 6 0 g ; * ; % ; 1 5 v J z 1 ; 6 6 = 5 y H j 2 w : % : # # * = 2 k l w w 5 w f k k 3 # + ; 6 3 3 3 5 5 j 6 ; ; ; : 3 3 w 3 3 3 3 3 ; # ; 3 6 * : k w * ; . . @ q y.<XFXNXlXlXfX4X<X X2X XJ.fXzXXXOXOX!.2XW.F.XX2X2X0XwX+XwX<X<X2XXX2X<X/.XX5X2X4XwXwXjXhXhX<XwX4X4XjXFXFXNXtX4X3XaXZXfXjXZXZXZXwX/.>XwX4XQ.L.(.<XvXdXz.3 . . + 3 5 ; f w j w w w 5 2 2 5 k j j j j j 5 5 j k j w w k w 5 j j 5 3 5 5 5 w w w w w w y j j f w w w 5 5 w 5 w w 5 w j j j 2 j 5 k w j j j j w w j l j j w j w 5 w 5 5 w 5 f w f j w 4 2 5 j z z j k l y 5 k 3 5 w 5 w j k j 5 w j j 5 w f 3 5 w 5 w j j w l c j y f f f f j j w w j g g j 5 3 5 5 w j j l y j c 5 4 5 y w w z k 3 3 3 3 > 3 3 3 3 3 3 3 3 : : : : 3 3 3 3 ; ; # ; ; : ; ; ; : ; + : : + + ; O # ; # # # + + * ; ; ; # + + + + # ; + # + . . o . o . . . . + . . + . @ + ",
". . . . . # # . * 3 6 j x 6 ; # = . ; 3 3 ; # ; : : 3 3 3 3 3 ; : : ; ; ; ; ; 6 0 0 : 3 h 3 3 3 : : 3 3 3 : : : 6 3 6 * 3 3 0 : ; ; > : 1 6 4 z J u 5 ; 3 6 1 1 c v w 5 3 # + ; # # # ; 1 j j w w w w 3 f g : # ; : 3 3 1 3 3 5 g 6 ; : 6 w g 3 k w 3 3 w 3 6 ; ; ; ; * 6 : + + . 4 U I.tX3X>X2XfXwXXX0XiXwXeX5XwXOX5XfX2X#XwXqX#XW.!.~. X X XXX5XwXfXfXfXfXwXwX<XwXaX5X2X>X2XhXwX3X4XtXfX1XtXjXZXZXAXZXaX3X2XlXZXjXtX3X<X)./.>X4XtX4X4X>XP.1XLXSX_.r.k 2 l ; j 5 w w w w w w w 5 w 5 w k k j w 5 y c c w w k j 5 l x j w j k k k k j w j y w j k j j j f f j f 5 5 5 5 5 j j w 5 l 3 l j j j w j j f j l j w 5 j f 5 f 5 5 f 5 w 5 f j w j c k j j l j j k 5 5 5 5 5 5 w 5 1 5 w 2 5 j w 5 w j 5 w f w w j j y 5 c l j w 5 w j j j j w g w w g 5 5 j w w l j x j c k j f 5 5 5 2 j k w 6 3 8 3 : : 3 3 3 3 : : : : 3 3 3 3 : : ; : ; ; ; : ; ; # : : + ; ; # * ; % ; > ; ; ; ; + # ; : ; # + + # # * ; # # # . . o . o o . + o . . . + + + . ",
". . . . . # # . # 3 = 2 j 3 ; * : # : h 3 # o # : ; : 3 3 3 3 ; ; ; ; ; 3 3 6 f 3 0 : : 0 6 6 : # ; : ; : 3 3 3 3 w : * 6 3 0 ; ; ; 3 6 1 6 4 z ` y 2 1 @ : 3 = x x 4 5 6 o o # # # # # % ; 6 2 5 k w 1 3 0 ; ; # % % % 3 3 w j w 1 : 6 6 k k 3 k w w w 3 ; * # ; = ; # @ X @ u h.uXZXlXwXfXwXf.XX<X X0XwXOX$X XW.D.G.~.OX|.OXOXD.|.W.E.~.g.6.j.!.F.^.!.L. X2XfXfXkXfXaXfXaXfXwX3X4XfXfXhXfXlXNXCXCXlXfXFXGXaXtXhXNXNXhXZXGXDXaX<XjXKXFXLXKXFXvXKXMXNX>Xl.l.Y + 1 5 w 5 y y j y j j w j j w 5 5 w y w j y w c w 6 5 j 5 5 j j j k k c w j w y j j f w j f j f f w 5 w w 5 5 w 5 5 k 3 j w k j 5 j 5 5 w w 5 5 2 j j j f 5 w w 5 w 5 5 j y z x z j j x j j l j 5 1 5 5 5 j j 2 5 5 5 5 w f w 5 5 f j j w f j j j 5 z z y w 5 w c j j j 5 5 3 3 w 5 f l j w j j l w y w 3 5 1 1 6 1 5 w 3 3 3 8 8 ; 3 3 : : : : 3 3 3 3 3 : ; ; : # ; # # ; : ; ; # ; : # + ; * ; % # % ; # ; % ; # # ; ; # # + + + + # ; ; * + . o o . o + + # # # + . . . . . ",
"+ . . . + * # o o : # # 3 3 + = : * : 3 : # ; ; * # = 3 : ; ; # ; ; * ; 3 : : f 6 3 ; : 6 ; : : * 3 3 : : 3 h 3 3 w ; 6 6 ; 3 : 3 : 3 ; ; 1 q G v u 3 ; 3 w ; 5 x G q 2 ; # & o % o o O % # # 6 6 l g ; : 3 ; 3 # % # # ; 3 5 g w 1 : 3 : g g : : ; : 3 3 ; # . # : ; . @ i l.3XZXHXzXkXiXwXkXpXf. XwXwXE.9.C.#XXXE.XX0X$X2XOXXXE.}.OX}.W.D.F. X~.OX~.F.!.<X5X2X5XwXwXfXfXfXhXtXlXhXaXlXwXfXfXjXjXlXlXfX3XCXGXjX4XrXvXAXZXjXZXFXZXtX>X>X(.(.).(.;XP.i.h.u 4 y.r.= 2 5 5 j w w 5 k j 5 j k w 5 5 k w 5 w j w j w j f j j j f j j w j j 5 y y j j w 5 5 w 5 5 5 5 j 5 5 w 2 5 5 5 5 j 5 w 5 x j j k w 5 5 j j j j w j j w j j 5 5 f 5 5 5 w z z j y j x j 5 j j j w w j 5 1 j j 5 2 j f 5 j j 2 2 j j j w f f j j z z j 5 w w w w 5 j 5 3 3 2 6 3 3 j j j w w j j w c w ; 3 5 f 3 f g g w f 3 3 3 ; 3 3 3 3 3 3 3 3 3 3 3 3 : 3 h : : ; 3 # : : ; # + : ; ; 6 * + # % # # ; ; # ; ; * # ; # + + + . . # # ; # .   . o . o o . o . # + . @ . . . ",
". . . . . ; ; . # + . . 1 3 ; : 3 ; : ; + * ; : o # ; 0 ; # * ; : 3 ; * 3 3 5 g : 3 3 3 3 : : w 3 3 6 ; ; ; : 3 : 3 3 3 0 : : : : ; * 3 3 1 i W u w 6 # f k 5 2 K a w 6 * : ; ; % > > > O . # 1 w l g 3 3 ; : 3 : # # * 6 g w w 2 # f f ; 3 f # + ; : : ; # ; ; O   . ' y.;XAXlX2XOXF.j.d.9.g.D.^.~.OXXX~.E.W.E.$X#XeX5XXX2XqXOXXXOX$X X X2X5X$X0XwXeXiXzXlXlXkXwXwXfXfXhXfXfXhXjXhXCXfXfXtX3X2X>X5XXX>X1X).aXKXKXdX6XtXrXhXaXaXaXAXaX).;X;X>XaX6XNXaXP.jXu.- w 4 4 1 5 j 2 j k j 5 5 f j 5 5 l z j j j j y 5 5 y j j y j z 5 y 5 j c c j c j 5 5 w j j f j f 5 y w y w 2 j y 5 y c c j y w w w y w y c k k j 5 w 5 5 w w w w y j j j j j j j j b w 2 w j z j 1 j c c j 5 w w 5 5 j f w y y k b l j j y 5 y j x z 5 w y y w w w 3 5 5 3 3 3 3 3 5 5 k w y j 5 w 5 5 5 5 5 f g 3 w w ; * 3 : 3 3 3 3 6 3 5 3 5 3 5 g f : : 1 ; f ; : 3 h : = # ; > # % : 3 > : % > % % # % ; ; ; % % + . # ; > + + # # . * * +   * + . + # # + + . . . o ; # + ",
". + + . . ; ; . . . . @ 2 5 ; ; : : 0 3 # = ; ; + ; ; 3 ; * : 3 6 : ; : 5 f 5 5 ; 6 3 6 3 6 ; * 2 5 5 : ; 3 3 ; 6 3 3 3 ; ; : : 6 : * 6 3 4 B E e w f w 6 # : w K v e w : 3 % ; , , , # # # ; 3 k g 5 w j 6 3 3 : # ; ; 1 g g k b w 6 f 3 : % : % O + 3 # . : . + Y >XMXKXsX<X).@.5.A.G.~.~.d.~.eXOXJ.E.|.}.$X^.D.E.E.$X$X X X~.!.~. X2XOX~.XXOX5XeXfXwXfXfXfXwXfXlXfXfXfXkXfX2XXXwXtXfXCXjXNXlXlXfXfXtX4X).h.z.4XhXaX>X4XNXhXhXtXhXjXjXjXvXjX4XsX<XfXwXP.uXvXh.< - 1 : 6 3 j 5 3 j j w f j j 5 4 y j 5 5 j j y y y j y y j y j j j j z j j j j 5 f j j 3 5 5 5 k w j k y j w w j y w w y w w w 4 j j 5 w j j 5 j w 5 w 5 w j j y w y w w w w w w 5 5 w w y y 5 w 2 2 w 5 w j z 5 j w w k j c k z j j 5 j l x l x j c k c w w w w f w 5 w 5 3 3 4 y k k k j j 5 f 5 3 f 6 6 3 f * 3 3 3 : ; 3 w 1 3 1 3 3 1 3 6 3 f 5 : ; : ; 3 3 3 ; + = : ; # f : ; ; % % ; % ; # ; ; ; > ; ; # % # o # % % O . # # # ; : ; # + + + + + + + . o . . . + o O ",
". + + . . # # . .   . @ 5 w : : * : f 3 ; * + + # ; ; ; ; # ; : : : : 3 3 3 3 1 3 3 3 3 6 ; * # 6 5 w 3 3 5 3 3 3 3 3 : : : 3 3 3 6 * = 2 u P ( 4 : 3 5 : # 6 y K i w w f g ; ; # , O o % ; 1 3 z w 5 j g 3 3 3 # + # # ; 3 3 w 0 g 3 : f : . # > o = : * . . k >XKXLXFX6XQ.h.L.aXkXxXDXkXzXGXlXwXF.!.uX#X|.pX|.^.D.W.C.|.5XW.W.XX$X$X5X#X2XwXwX5XwXwX5X2XwXfXfXwX<X$X5XwXwX0X5XlXfX5XfXfXhXlXjXZXGXDXGXKXGXgX>Xy.k.tXNXgXZXKXZXvXgXZXZXaXvXNX6XaXtXk.G.h.O.k.P.a.- . # 2 g h 8 5 l k 3 2 f j 5 4 j k y 5 j z j j w y j 5 5 5 y c c j z y y y j y j y 5 4 5 y y z 5 w z k j w c j w 5 w y w w w 5 j j w 5 w y w w w w w w j k j w w w w w w w w y y j j 5 w w w w 2 2 w w w j x w j w w k c w w j j j j l x x j j y c c w 4 w w g w 5 5 f 5 3 2 y k w y f w l w w 5 5 5 1 ; 3 f 6 3 6 6 6 ; 3 w 5 3 3 f f 3 3 3 3 5 3 3 3 3 ; ; 3 : # # : 3 3 ; > : : > % % % % % + ; : ; : ; ; # ; ; # ; % O O + # # # # ; ; # . + # + . . . . + o . . . . . ",
". . . . . # + . .   . + 2 w 3 3 ; : h : 3 : # + ; : ; # * + = ; : : 3 0 f 3 5 3 w 3 3 5 6 # # 3 2 4 w w 3 : 3 g 6 0 3 : 3 3 3 ; 3 3 * = < a ] P q : : ; 3 j w w J t 4 w h f * + ; % # # # ; 1 3 w w g g 6 3 3 : + # ; ; * = @ # : k w ; ; ; # o o = : . . + ` NXKXCXjXP.).tXjXDXhXfXfX2X X XOX2XOX}.^.2XuX2X5XeXXX|.XXW.}.|.C. X#X~. X2X2XeXfXiX5XwXwX2XXX$XXX X!.~.XX!.A.!.!.5X^.G.Q. X^.<X X_.2XfX4X3X4XaXGXGXCX1X_.tXFXFXMXFXAXMXAXFXgX3X1X6X1XNXlX>X>X<X2X<X!.h.y.w + @ > h f g j g w 5 5 5 k j y y y y y j j w y z w w y y c z z j y j c y j j y 4 y j k j j 4 4 w w w w k y w w j y w w w y w j k j w w y 4 5 w y c z k w w w w w y y y y k y j k y y y 5 y c c y w j j w k j 5 5 j w w w 5 y j z x l j 5 y c z c 4 4 j z w 3 3 3 5 3 3 2 y j w 5 w f j 5 3 f f 3 3 3 3 3 f 3 * 6 3 w g 3 3 3 3 f 5 1 6 3 5 5 5 3 f 3 : ; 3 : ; 3 3 3 ; ; + % 3 : ; > ; % # + ; > ; ; % # # ; ; % ; o . o ; # # + . + # # + + + + . . + # + o o . o o + ",
". . . . # + . .   . . . ; j 5 ; = 3 : ; : 0 ; # 3 3 3 ; : ; ; : 6 0 3 3 l l f w 6 ; ; 6 ; + # 5 f w j j 3 ; ; 3 : : : ; : 3 : ; : 6 ; = 9 J  .J q f 3 : 3 3 w u H q 2 2 f 5 1 # + # ; ; 3 3 w j w w f f ; : f ; + # ; ; # * @ # 3 8 3 O . ; > : ; ; . @ +.1XZXtXlX.Xs..XwXlXfXwX5XXX~.C.5.,.! 6.!.|.J.^.OXOX~.!. XqX X~.$XC.G.2X5XpX2X0X5X5XfX5X$XwXfXfXqX<X XF.D.F.5.] q.g.A.F.f.A.G.~.~.!.p.Q.)..X3XwXaXaXtXhXCXAX4XQ.,XNXKXFXFXAXAXFXKXVXsXrX6XP.>XDXOXG.s.>XlXGXgX(.` X . ; * 3 f f 5 j g g j w 5 5 5 4 5 w 5 5 j j y j z j y c z c y c z j y z y 5 z c j j w w w y w c y y k k k k y 5 5 w k y w c k j j j j y w w y k j 5 w j c j y w w k w 5 5 w w w w w 4 w y y y w w 4 w j f 5 w y 5 y j j j x l y 5 j y y c k w y c z w 5 5 5 w 5 5 j w w k k k k w 4 3 3 5 5 5 f g g 5 3 3 w 5 3 f 1 1 3 3 f f 3 3 3 5 f 3 : : ; : : 3 3 : : : = ; : ; % ; ; ; : ; # > ; ; ; ; % # # ; ; # # : # O # ; * + # . * ; # * . + * # # # #   . . . . . . ",
". . . + # + . . . o @ . ; l g 6 : : ; # 3 3 ; ; : 3 : ; : ; : ; 3 3 : : l l 5 1 3 3 6 ; ; ; ; 1 5 w j w 3 f 3 ; : : 3 : ; ; ; 3 ; : 1 2 p ( { B 1 : 3 > 5 1 q K H q 2 : 3 5 3 ; + % 6 5 f w w j j w 5 w ; ; 3 ; % % # # # * # * ; 6 6 # + : : . + . ' tXZXlXfXwXs.G.wXfXlXwX>X~.^.E.C.g.4.8.q.<.4.D.Z.}.}.W.!.C.~.XX2XXXj.W.pX5X2XkXkX2X$XwXwXwXwXfXwX5X5X2X5X5XiX X~.OXwXwX<X2XDXfX5XkXkX2X<X4X<X3X>X5XaXfXlXCXlXlXNXaXk.k.tXFXjXNXGXKXFXFXFXKXGXAX<X!.uXwX>Xa.^.<XtXCXjXs.q . w 3 3 6 f 3 5 j 5 j k y y 5 5 w j j y y w y z j c j c z z c j j y c c j y y y j w j c y y j 5 2 k k c c w 5 y k k j w 5 w k k y c j w w w j w w w y j j w w y j w w w j w w w w w w w w j w w w 5 f j w j j 4 j x j j l j 5 5 l j 5 w c l c w 4 5 3 5 f 5 5 5 f 1 5 x j 5 w 4 w g g g f 3 3 w j 5 3 3 5 1 1 w 1 3 5 5 f f 5 5 5 6 5 3 3 6 ; : : 3 3 : ; ; 3 3 ; ; % : > : : ; # 3 3 ; : ; ; % % ; ; # # ; # + # # + + + # * # # ; . . * # + . . . . o # o . . ",
". . . # # . . . . + @ . * l j 6 f 3 ; # 3 3 ; : : 3 ; ; ; : : = 3 : ; 3 k w 5 3 g f 3 ; # ; : 1 w j j 5 f f 5 ; 3 : 3 3 ; ; ; 3 ; ; 1 j a ) [ t : ; > 3 5 1 t I H w g w 3 w 5 ; * ; 3 g j w y j j w 3 3 # # : % ; ; # # # * # * @ ; 2 # $ @ . < ` L.,X~..XwX^.1.!.kXfXwX/./.2X2XXX#X2XW.}.}.4.d.E.C.D.|.C.W.#XW. X XA.p.XXkXwX0XeXwXwXwXwXwXwXkXfXfXfXwXiXeX2XwX5X<XkXwX$X<X X2XwX2X/..X5XaXlXfXlXDX2X^.A.p. XfXfXkXfXaXtXL.2.$.>XL.P./.lXKXGXFXFXFXsXhX3XNXsXrXh.s.I.<XwXXXi.a 2 ; ; 3 3 3 w f j z z z j y y y z z y w y y c j c y c z z z c y y y z c y y j j j k c w y j w 5 j w w y w w j l j y w w y j j w j j w w j j w c y y y y w j j y j j k k w w w w j j y w j w w j w w j f k k w j x j j j j j j l k 5 e z b z j 4 5 5 w j w 5 5 y 5 w c 5 5 5 5 w j j w w w w w j j w 5 5 1 1 w 2 3 5 5 3 3 3 5 5 5 8 3 f w 3 3 : 3 3 3 : : 3 3 3 ; ; > 3 : ; ; # ; 3 % ; > ; ; ; ; % # # # % # # + # # # * * # # : . . * + . + . . o + # o o + ",
". . . + * . . o   o @   @ k g : 0 3 3 # 3 : # : 3 3 3 3 : : 3 ; f 3 0 l j 1 5 x j 5 ; # + + : g j k j w f 5 3 : : ; : 3 ; # + ; 3 3 3 c B ( K < 6 > 3 8 3 w i G y w j g g f 3 ; ; 6 3 5 f w w c j y 5 3 # + ; % # % ; # 6 2 ; 1 w e v H X.K J (.aX5X!.5.q.f.D.qXkXkXXXG.G.^.2X2X#X}.W.D.D.C.p.^.}.~.D.C.^.XXD.W. XG.p.OXlXwXwXiXfX5XOX0XwXwXkXwXqX5XwX2XpXpX$X2XwX2XwX5XXXwXwX.X)..XwXwXaXwX5XwX5X2X/.XX$Xj.@.Z.^.XXwXwXwXCXuXt.a.CXfXo.$.1XhXDXFXAXjX6XsX1XLXbX(.P P A.$X5X!.] y z w + @ 2 5 * z 5 4 y j j y j j j w y c y y y y c c c y z c 4 y y c c y z z k x x k w w k k z k w w j j y 5 j w w j b x w 5 w y y j j k w 5 y j w w w k k j w 5 5 w j w w w w 4 y y 2 w c j w j j j 5 w c y k c y 5 j z l j 5 w 2 e z l c c j c w w j j w w k w j w w c w k 5 w w 4 2 k k j w j j j x 5 3 f 6 5 j f 5 3 3 f f f 3 : 3 3 ; 3 3 f 3 6 6 6 ; ; : > ; > : ; % ; ; # : # # 3 ; ; : ; % + o # % % # ; : : ; ; # # * 6 # # # . + ; # . . . o . o # ",
". . . . + + .   . o . . . 5 w w w * : 3 3 1 : 3 3 : ; ; # ; 3 h g ; w j j 3 = f l 3 6 f ; # * ; w j f f 3 3 3 6 * 6 3 ; : 3 : ; 6 = e i ] ] e 6 3 : 3 > : w G I 5 f j f 3 6 3 g 3 ; 3 3 3 w f 5 1 w 1 * # # # . . ; . 6 w + u ' 4 4 . @ y.jX.Xs.5X X!.~. Xq.D.2X2Xf.G.}.^.D.~.}.1.,.C.D.G.!.$X0XOXzXkX$X0X$XD.qX X}.fXeXwXkXlXzXwX5XwXOX2XiXpXqXwX2X2X X#X2XeX2XqX2XwXfXaXaXtXaXfXkXfXfXwXaXlXfXaX4XfXuX2XiXqX}.g.C ~.fXXXXXzXjXG.P aXGXh.h.>X3XsXGXKX>X6XdX1XGXGX4X$.- < O.<XOXN O.1. .B < - c < 4 z 4 x y 5 j 5 z x y q c j y j j j j z j y y c z z j H j j j j y j z z j y k j j j 4 y y z Y x j y y y y j z w w w j j y w 5 j l j 4 5 j j 5 y 5 j 5 5 z j 5 2 j j w w j w w j 5 5 z j 5 j l 5 w w j 5 j f j 5 y j j z y y y w y w w w j j 4 y y y j 5 4 z j z z y 4 5 5 f k j j 5 5 3 3 5 5 5 2 5 j 5 5 3 5 1 5 3 2 = 2 k l f 6 6 5 1 ; : : ; : ; * 3 3 ; o ; ; ; ; ; # * 3 % # # ; ; : ; % ; + ; # + + # ; # # # # # # # # . + ; ; + . . ",
". . . . . . . . . o . . . 5 w g g 6 3 3 f 5 : : : : : : ; : 0 3 ; ; g k w 2 1 l 5 : ; : : 3 3 ; 5 g w w 5 3 6 6 3 0 6 * : : ; ; * ; i ) >.P < * 3 3 8 3 ; 0 J G 4 5 f j : # 8 j f f g 5 3 g w * @ 1 6 3 b b b l b j b Y + K X.@ @ $.k.L.4XXX5XQ.p.d.!.f.C.|.~.~.C.p.$XW.W.XXV.| w.|.|.}.|.~.2X2XfX X!.~.XX2X2X2XG. XwX5X0X0XfXwXfX5X2X5XwXwX|.D.W.wXzXpXwX$X2X X~. X2X5XwXlXkXlXDXZXZXkXlXDXxXlXDXDXlXfXkXzXwXpXqX#XW.A.5XfX2X~.uX).B _.FXP.h.2X4X6XZXFX1XFXdXjX<X(.y.<Xl.- < 1.1.Z < W.F.5.I t v G 4 y 5 5 H 5 5 j z y y y y y j j j j j j c c z z i y c j y y j j z j y y y x j j j j y y c F H z c y j y y y k c j y j y w w 5 z z j 5 5 j l y y y 4 5 j j y 5 j j 5 5 5 w j j 4 6 j j j c l f j w j 5 k j 5 y y z z z y 5 5 w w 5 w w 5 w w j y j z y j y 5 c c c y y y w j w j f g f 5 5 5 5 3 5 j 5 5 3 1 f f 3 2 2 5 j j k 3 1 3 1 1 : : ; : ; # : 3 ; # 3 3 3 : : = # # ; % ; ; ; ; ; % . . # + + ; ; # # # # * + . . . # # ; # # + + ",
". . . . . . . . . o . . . 3 g l g 6 3 3 5 5 : # : : : : : 3 w ; % 3 k g 3 6 3 j 3 3 : ; : 5 w 6 3 w 3 3 w 3 6 ; : : ; ; 3 : : 6 3 5 p ] 1.P q h 3 3 8 3 6 e I G 4 8 3 f 3 ; f 1 5 3 5 ; + $ w Y Y Y b b b b b l w K r.J S.).< < 3.^.2XhX2Xs.5XXX XA.G.G.G.~.5.1.G.5X$Xj.E.4.^ E.|.V.V.d.C.W.E.|.|.D.~.5X~.}.5X5XfXwXOX2XqX X2XwXwXfXfXuX2Xd.! q.q.D.~.XX2X~.<X2XwXwX5X~.2XkXkXkXCXlXDXHXlXkXlXDXlXzXkXzXkXwXfXDXxXiXwX X!.0XlXuXfXlXtXX.l.hXL.F.lXtX,XwXKXjXZXNXLXNX1XAXhX/./ 9 6.5.r r A 5.C s [ ) i y 6 5 y H 5 c j 5 c c y w j j j j j y y y i z z i y j j j j j z j 5 y y z l j j j F z c y F F x z c j y 5 z k j w j j y y j j j y j j j j y y j z j j y y w w w y w 5 w j x j 5 j j j j j 5 w 5 f w k j 5 5 y j x j 5 5 5 j k j k j 4 w j z y x x z x j k j y c z z j w f w j g f f 5 f 3 5 5 f j 5 5 j j f 5 3 g g w j w k 5 6 3 1 1 : 3 ; ; ; * ; : ; ; 3 3 : ; : ; ; = # + # % ; ; ; % # # # # # ; # . : : : ; # # # * * # # # ; # # ",
". . . . + + . . . . . . . 5 g b 3 ; 3 3 6 3 ; # : 3 : * 1 5 f 3 3 l g w 1 2 5 6 1 3 : # ; 3 w 5 6 5 3 3 w 3 6 ; 3 : : : 3 ; ; : 6 t B ..1.L 4 3 6 3 8 3 < q I F 5 j 3 ; : 5 l 2 2 2 y z b Y ' ' b j = = @ @ # X . - q B 3.< 3.f..XlXlXfXG.3XhXwXg.F. X2Xp.! ,.D.q. X9./ | w.|.OX7.w.4.w.}.|.E.D.Z.}.XX#X$XXXOX5XwX^.}.|.!.2XeXwXfXuXOX<X5X}.|.kXpX|.G.A.wXeX<XeXeXiXpX#X^.5XxXlXwX0XXX|.#X}. XkXDXlXkXwX5XzXkX~.C.!.2X2XXXf.p.2XwXfXNXNXh.y.NXQ._.FXjXQ.wXDXDXKXJXJXLXKXfXjXHXG.- < >.] 5.F.p.r d t.k.I.u.- < z j l c 5 c z j 4 c c j j y j c c y i z c j z z j j j j y y j y y j y 5 y z c y y z F x z c c j 5 c j j y j j j j l j 5 y z z j 5 j y y j j y y k w w y z w w w w x j j j j j j j 3 w w j 5 j j j y y z H z j j z y c j k c w j k w 5 z j 5 5 4 z y y y c z j f j 3 g w 3 3 3 5 3 j w 5 5 5 5 f j 3 1 5 l k w j 5 5 j 3 3 3 ; ; 3 ; ; ; : : : ; ; 3 8 3 ; ; ; = # # # # ; ; : ; ; : ; # # # # # * 3 : ; # + . . + # . + + ; ; * ",
". . . . . . . . . + . . . ; f k 5 6 3 f : 3 : * 3 ; # o ; 3 : w l b w = = 6 g ; # * * ; 6 6 1 1 3 w 3 6 3 3 : 6 3 : : : : * ; 3 1 t ! ,. .p 2 : w 3 6 3 < i I i 5 j 5 1 f w 2 w 4 W r.' b k = + @ * ; g g 3 ; = - < l.) @ s fXL.3XjXjXI..XfX Xf.,.F.~.C.,.g.}.p.F.,.1.q.g.Z.D.V.<.8.<.w.w.w.w.8.V.E.8.8.}.~.D.D.^.XX$X}.wXiX$XeXuX2XXX0X0X|.}.^.XXXX5X$X~.wXDX<X<X X<XwX$X^.D.D.F.F.g.W.~.C.q.g.~.XXwXkXwXzXuXA.] XXuXfXlXwXF.p.XX<X).rXKX4X(.CXI.).KXKX_.Q.Q.<XZXNXvXjXDXKXKXZX1X .9 4.f.r W.XX< < [ [ S.s.r < j c c 5 j k y j j j j j y y z K i F F z j j j j y y y z z y y y y j c j y y c c i z x z z c j y k j y w y y y w 5 y j j j 5 j l w 5 5 j y 5 y j c y y c w w y j j j j j j j j j y z j c 5 j j c z z z b z 5 j j 4 5 w w w j y j 5 j y j y 1 5 y c y y x z y w j 3 3 5 2 3 5 3 5 w 2 1 5 w w 5 1 f 3 5 5 3 3 5 3 1 5 3 3 f : + : : ; ; : : : ; ; : f l 3 = # # . > 3 > ; 3 > # ; : # + # + + * 3 ; # # # # # . . . # # # * * * ",
". . . . . . . +   . . + + = w k w 6 3 3 ; : ; # : ; # o 3 0 6 w z z w * * 3 g 3 6 6 ; ; 3 6 1 1 3 5 3 6 3 w 6 3 ; ; * # 3 : : 3 1 G ;.<.V 4 2 3 f 3 3 5 7 U [ G 1 3 5 w w w = u +.X.z - = w g w ; w 3 w w 3 3 g @ o.o.@ { fXaX4XfXuXuX/./.A.5.^.|.q.,.6.p.4.A.g.G.f.p.,.6.5.Z  .C.! :.:./ <.w.Z.w.d.q.w.V.4.4.C.|.OX#X#XOXXX~.$XOX2X2X5X~.D.~.D.XXqX5X0X#X XiXDXwX2XwX2XfXzX#XG.!.f.E.pXkXiXeX~.1.F.}.F. XfXHXDXXX~.fXfXwXkXlXwXtXfX3X)._.aXGXDXjX>X4XCXhX<XwXi..XKXZXGXkXk.a ` ,XjX#Xr r :.d f.F.g.[ $ Z p.$.< < 4 j l j y 4 k j j k j j j z x z z z y y c j j y j y j j y j k 5 j x x j c F x i c z c z c j y j j y w w w w w 5 j j j 5 5 j j 5 5 5 k c y j y y j k k j y j c j j 5 5 j j j 5 j z w w j z c k z z c c y 4 5 5 w w j w w c y w y j 5 x Y z z k x c z x x j 5 5 2 2 w 5 5 5 3 5 1 3 2 5 f 5 5 5 5 3 5 5 3 5 3 1 5 5 5 3 j 3 ; : 3 : : ; ; : : : ; 3 h 3 ; ; : ; ; : ; % : ; # ; # ; # # # # + . ; * * # ; 1 ; # + # * ; * * ; ",
". . . . . . . + . . . + + $ 3 g 3 ; : : ; ; ; ; ; ; # + 3 3 : g b v q = ; w w 3 6 3 3 : 3 3 1 1 3 w 3 6 3 3 : 6 : : ; ; 3 : * # 4 P <.;.L 4 4 w g 5 3 5 i O.L y 3 ; ; 3 2 q k K y z k w 3 3 ; 3 3 w : ; 3 = . @ 9 .X#.s.4XwXwXDXfXXX^.^.p.4.d.^.,.Z Z ....|  .} ,.6.6.,.] [ [ P 6.g.} :.4.,.4.4.,.<.d.C.q.<.4.w.d.E.#X5XXX^.D.D.W.^.W.C.D.E.5XqX2X<XiXOXXXqXXX5XGXwX2XwX2XwXlXzXzX2XW.^.2XfXfXwXwXuXuX2X^.G.C.XXlXlXlXwXfXuXfXCX<XtXNXhX3XP.2X4XGXFXjXGXLXNXvXNX>XaXZXjXF.k.l.l.+.$.XX#X^ / C @ 1.~.XXf.< r 3.k.a < w j j j w c 5 5 j z k z z c z i i c j c j y j j y j j j z j y j j j j z z i c y y y c c j j w w w w w w y y j j j j 5 j j 5 j j 5 y y y z j w c k j y j y c j j 5 4 l z j j j l w w y z j y c c c y z j j j y j k c w j y j y y 5 z H z j j F z c c k j w 5 5 2 w w 5 5 3 f w j 5 5 3 1 3 j 3 3 f 5 3 f 3 3 5 5 f f 5 5 3 : : : : ; # : 3 : 3 3 3 3 # ; ; ; # # % % # % ; > . * # # * # + . ; ; ; * # ; ; * + # # # # # * ",
". . . . . . . + o # . + . @ * w ; * ; 6 # ; : w ; # # + 6 3 = y I J y 1 3 g w : o ; 3 : 3 3 1 1 3 w 3 6 : 6 = ; : : ; ; : : : ; i R %.| U 5 1 3 g 5 5 w a O.p - 5 6 1 w w u K < q k u 2 w 3 ; ; 3 ; . + b ' T +.k./.DXDXwXwXF.^.!.g.:.5.| ! | D ! ,.d.E.p.f.f.g.g.,...1.p 7 G < p N .. .] C ! 4.p.5.q.q.q.d.V.<.D.| 9.XX#X5X#X|.W.D.d.W.q.D.2X5X0X2X2X5X$X~.XX XaXNX<XwXfX0XkXfXOXkXlXeX~.^.wXlXlXwXwXkXkXwX~.C.q.F.XX0XDXDXwXuXfX.XtXjXNXGX3X!.Q.(./.<XhXNXFXLXZX4XlXwX>XNXLXLXKXFXfXE.*X'.A ] r ,.p.lX!.r d ( s.[ i t 4 z c w j j j y y c z c z z z H z z y 4 j z y y j z x y j z c j y c H x c y y y c j j j w w w w y y j c j j j 5 5 z l j y y w y j y j y 5 c c 5 w y y y z j y y j j z z w c y y w j y y y j j j z z j y 4 5 j j y y y x z j z j z c 5 z z j y 4 5 w j j w 3 5 5 3 3 3 j 5 5 2 5 j w 5 5 3 f l f 1 3 3 3 5 ; 5 f # ; 5 1 ; : 3 : * : : ; : : 3 : ; = * o ; # ; 3 + ; 3 > 3 ;   . # # # ; ; : : ; * # # + + # + + + # # ",
". + + . . . . . .   . . . . @ ; h 3 ; + ; # # ; # + # ; > & 4 L I G 4 2 g j w 3 @ 3 3 ; 3 3 f 3 6 3 3 3 0 ; ; : 3 3 3 ; % % ; = U R  .B q 5 3 3 j 2 j u a v 4 y w 5 1 w w ' ` - w w w 2 1 3 3 8 # = v y.' ' w + Q.5X.X.XkXXXA.g.1.| d.G.p.A.j.q.XX5X|.|.A.@.2. .C r r < P s r B R V p t t i i O.1.#.#.] W.q.<.w.D.4.! ,.q.W.XXE.C.,.4.J.$X2X#XXXOXOX2X0X2X/. XXX2XfXwXfXwXwXwXlXwX5X2X Xf.]  .W.0XfXfXwX2X0XxXHXeXG.j.W.~.$XwXlXDX2X3XNXjXjXFXNX.Xk.F.k.!.<X).1XLXGXFXKXCXtXsX4XvXjX3XG.E.#XeXE.<.D ,.C.xXC.@.] 9 O.] ..( r - w j k w 5 c x H y y z q c c 4 c y j y c x y z F y y F c x y i H y c H c y H y 4 x x y y j j j j j 5 5 5 5 z y 5 5 y j j j z l j j z y y z x c y y x z H j y y y y y y z z y y x z 5 j k j j j w 1 y y y c y c H z z 5 z z y c 5 5 w w j k w w y 1 w k j 5 w 5 5 j j 1 ; 3 5 5 5 5 3 5 5 5 5 2 3 3 3 3 3 : 3 g f : ; 3 3 w w 6 ; 6 : : ; : 3 : ; ; : 3 # # ; ; % ; . ; : * o + * # : 3 # + 6 # # + o ; * ; 3 * + ",
". + . . . . . . . . o o . . @ ; : 3 3 : : * # ; ; & ; % & & i [ [ t - 5 l 3 = w ; ; ; ; : 3 f 3 3 3 w w 0 ; : : 8 ; ; 3 3 3 3 2 B ] X.i 2 5 w 3 w 2 q u K K 2 w j g 1 w 1 u ` - u w 5 2 5 6 6 & j b T v - @ + ).FXaX2.../.f.f.W.^.D.G.F.~.XXXX2X2X0X5XZ.p.A.t.2.C 6.F.p.#.p.5.#.>.>.U i a K [ ) p 9 - < 6.| / w.,.! q.,.C ! ! D Z C.d.d.q.q.}.kX0XOX2XwXuXuX~.>X5X2XwXXXXX X~.2XwX^.XXXXD.C < d j.E.OXwXOXf.C.^.2XDXlX~.j.q.4.^.2XCXCXlXjXDXCXaXNXZX).G.$XDXaXP.P.P.rXKXLXKXFXlXGXtX/.2X~.W.E.8.:.C.d q.qX|.@.F...r r } ] O.) 4 7 z y y H y y H U F y c x y y W x x c c x x y y z F i z x y z y z c y y c y y z z 5 j j j j c c z j j j j y y y j l l j j j y j j j c z H x c y y 4 i c c z z c j y z z y j z c l k k j j w 5 4 x c c y y c z i j 4 c i c z j j 5 w c j w w w y y z k w y j y w 5 3 w f 5 3 3 3 5 f j j w 3 : : 3 5 5 3 3 f f f ; ; = ; 3 3 6 w 3 3 3 : > ; % ; ; h 3 : > ; ; > + * = : ; # ; ; ; # # # ; + ; + . # # # ; # # ",
"+ . . . . . . . .   o o . . # 3 ; : ; ; # ; ; ; : ; : # $ < L ] P q 4 5 j j 5 3 3 * : : ; 3 f 3 3 3 w w 0 6 3 : 3 ; ; 3 8 6 3 y B ..I 4 1 3 w w 3 2 2 u T v 1 w g f 1 w 1 < K q w f g j 1 8 l j k j 4 @ - G ^.2X^. X3X>X>X4X4X5XOX XXX~.9.p.W.W.G.P < 1.^.wXlXDX2XQ.s.] C ] / ! 1.C Z #.$.p.j.3.d B O.1.] ] ,.4.d.q.E.}.!.8.Z } q.d.$XZ.,.q...q.XXeX2X2X2XwXfXXX!.k.F. XF.5.5.W.#XJ.|.iX0XW.@.@.~ Z.Z.w.V.J.E.V.j.W. X#XkXpX$X}.^.~.~.fXDXDXCXCXaXNXHXlX^.^.GXKX8X:XP._.rXKXKXKXvX1X/._.{ B g.OXXXZ.0X0./ w.| < b.0.&.r 7 G O.2.@.9 < z y y G c F H H c c z y F v v c c x c y c x H c z H t c z y y c x y y c c z j z z y y y y j j j j 5 y y y j c l c y 5 j j y j z z z z c 5 y 4 y c c x x z c j z c y j z 5 x k k x x c j j x c y y c x i y j w z F c c j f j c w w y w w k c k k k k c j w 5 f f f 8 5 3 1 5 w j k f 3 ; ; w 3 3 : 3 f f 3 ; ; * * 3 w 3 w h 0 3 3 3 ; % ; 3 g 3 # ; ; ; ; : : ; ; # + ; ; ; + # * : + : ; . = * # o # ; ",
"+ . . . . . . . .   . . . + ; g 3 ; + + o : 3 ; * ; ; # * < C ..i < w 5 5 k 5 ; : ; h 0 # : f 3 6 3 3 3 0 3 0 : : 3 3 : ; % 1 y C [ i 1 ; ; 6 w w w < c b w * 6 3 3 1 j 4 2 K b w 3 3 w 6 5 j 5 1 j - @ < h.!.)..XI./.,XaXZX.X3.5.A.g.O. . .@./ < r P  .] { #.5.j.,...5.4.| ..q.F.5.Z  .3.@.1.d.q.6.1.p.s.p.4.| :.q.4.S ,.V.J.!.#Xw.D <.^.W.j. Xg.4.!.0XwX2XXXW.W.@.C ^.f. .2.] p.D.V.J.}.~.^.q.;.}.#X#X#XOX0XiXqX XW.j.W.wXlXkXlX$XG.G.F.wXGXCXCXlXlXfXwX6.W.FXJXLXSX>X,XFXMXMXvXvXZXNXtXL._.P.F.wX0X@X7.^ :.r D -.H.V.- 7 < ] f.!.E - z G t i i i T K y H F c c y z H i y c H i U F x c y x x y y F H y y c y c j z x y y j j 5 5 y j 5 y y 5 j j j c j j l j y c z y y c z y y y y c y c c y z c z c j z z 5 w 5 5 j j w y j y y 5 y x H u q y y F G F z 5 5 k j w w k k w w k w j x b j w w w f f 5 g f 3 3 3 2 5 j w 2 6 3 3 5 f 3 1 3 3 3 6 3 : 6 w w 3 3 h 0 3 3 3 > ; 3 g g ; + ; > > % = : ; # # = 3 3 # + + + 3 + # ; o : : ; # ; : ",
". . + + . . . . . O . . . + 3 k 3 ; ; : 6 3 6 ; ; ; > ; 2 9 R ] i = 2 w w f 3 w # ; : 3 3 f f 1 w g w 3 w 3 w 3 % ; ; 6 % 1 y G [ [ c 1 6 ; 2 w 3 g l H j 1 1 5 3 3 4 k k 4 w z 1 w w 5 k 4 1 5 W y - { XXQ.<X>X/.I./.hX_.P P s 3.a.S.L.p.C ..d.F.f.p.2.C B s  .Z Z ,.4.D | j.~.F.1.1.5.| ! ! ,.V.V.4.C ,.D.4.S <.q.J.q.4.J.8.! D.uX|.Z.Z.E.eXqXOX6.6.!.2XXX|.0X2X1...p.F.U i 7 7 N p ..K.J. XJ.C.0XfXiXwXwXwXOX~.2XkXfX).F.XXlXlXDXwX<X XA.^.DXDXZXjX2XwX5X( #.3XLXKXKXSXvXKXSXKXFXJXGXAXNXVX1X] ^.iXq.V.<.4.E.0.<.b.#X+Xr < t 7 +._.I.B < t I H F z z c y F H G i c v c y i z H H G F y t z c i z z c y c c c j j c z y y c j y 5 j z j z j j 5 5 j j j j l j z z c y y y z x H H c y y y z y z c c c c x x c z x z z z j j k x x z y G x z c w y H G F y 5 5 j w c k j w j k k w w k x j w w f 5 5 2 j w w j 5 3 5 j w 3 3 f 5 f f 5 3 3 3 3 3 w w 6 w 3 3 3 3 3 : : 3 3 ; 3 f f 3 : 3 ; ; ; # 3 3 3 ; + * + # + # + : + + ; o ; ; ; ; # # ",
". . + + . . . . # O . . . + w k 3 ; ; ; : ; ; ; 3 ; % + 4 p C L b 3 3 g f f w f # ; 3 : ; 3 1 & f g 3 6 3 : 3 ; 3 ; ; 6 3 5 i [ [ J y 1 : 6 5 w 3 w k b w 1 6 5 5 5 w z b y 2 j b 4 2 w w y x x 1 - s.kXDXlX/..XlXHX>XX.p B h./.<XwX3XG.O.p.F.C.f.A.!.>XS. .r 1.Z.9.4.4.,./ / | C ] 5.,.C.V.4.| w.w.4.| q.C.q.V.E.g.,.J.eX2XC.q.~ ,.E.E.:.! ,.$XW.1...N R !.~.|.|.W.^. .y.h.7 z F < < i ) 2.p.V.p.~.5XlXfXwXfXDXwX~.Q.wXHXlX.XQ.wXCXuXfXHXkXW.s.aXlXfXjXhXGXGX( y.gXaXAXLXgXFXJXJXSXJXKXSXKXJXLXCXs.s.iXE.^ #X5X,.:.C.^.DX2X7 + F < t h.2Xh.7 t i U c y F y c x z c y t H z y z U y t z z i c y c c i c H x c c c c c z y y c y j j j z j j j j z j j j 5 5 j z z c j y y y c x v x y y y c x i z c c z z z z z k z j y y j j j c z c c y c v x j c F F c y j j c w y k w w j j w w w w w j y 5 5 5 5 w j f w j w w j k j 5 6 3 f 3 1 1 3 5 3 ; 3 w w 6 6 3 w g : 3 3 : 3 3 : > h 0 : 3 ; ; : ; # = ; : ; + * ; : + ; ; ; # ; # # = + + + . o ",
". . + + . . . . # O . . . # g l : ; ; * ; ; 1 3 3 ; # . 9 J I p 5 f : 3 3 3 f 3 ; ; : ; 1 1 ; & 3 f 3 6 : ; : ; 3 6 1 3 3 y C  .[ u 1 ; : 3 2 3 3 5 j j 5 1 2 3 5 5 q z b w 4 w v 4 q b H k 4 $ - 9.lXDXG.S.jXDX0X8.r  ./.4X3X1X.Xa.7 @ L 5.Z r ] 1. .B 1.XXW.C.d.| | q.F.C r C s B ..q.b.Z.E.E.4.Z.q.! G.E.D.9.|.wXC.6.,.| ^.eXE.D.}.E.OXD.D D Z J i y < G F.D.W.eXwXq.g.^.L G W X.` i a ) ]  .f.a.L.wXfXwXtXhXwXkXwX5X4XZXGXkXG.XXhXDXfXlXZX<Xi.XXDXlXfXlXZXDXs..XjXaXsXMXgXAXKXLXPXKXKXSXgXcXKXGX>Xs.~.$X|  .r @ Z |.w.kXDX2.- 7 i < 7 L./.L 4 c c i F H z z c z y t F x y F H t t z x y y y c y y x x c j c y y y y y z x c j j j j z j j y z z z j j j j j x x c c i i i c x c y c i c x y c c z x z y y z z x z c c x x z y y y y y c x c y c i u F x c j j j y w k j w 5 w j w w 4 y j w 5 w w w w j j w 5 f k k j 5 6 6 : 3 5 3 3 3 3 3 3 w w 6 6 3 f j : 3 3 : 3 8 : ; 3 3 : ; ; ; : ; : ; * ; ; + # ; ; . ; # # # ; # ; * # # # + ; ",
". . . . . + + . .     . . * k l ; ; ; * 6 3 f f 1 % # + u ` I 4 ; 0 ; 0 g w g f : = * : 3 3 1 1 : w 3 w 3 : 6 ; : 5 w 3 6 i ! | U 1 @ 1 3 6 = 3 f w w 5 5 5 1 3 w w e v k 4 y < t I v q 4 + $ J kXkXXXXX2XfX.XS.C 8.OXkXuXQ.k.2.s r [ O.p.F.q.1.G.OX] Z Z ,.XX#Xd.| !  .p...p.Q.] Z | d.q.D 9.E.8.d.8.| Z ! D./ @.$XqXE.~ / j.W.C.C.^.#X#X2X|.^.3.s - 1 $ - s f.p.}.~.2XwX5.>.A.2.y.a a $.2.s.!.)._.S.^..XXXwXuXzXaX3XaX.X_.lXGXHX<X/.hXNXaXNXKXfXQ.3XZXaXCXtXhXkXk.wXGXtX4XaX3XMXKXLXPXLXSXcXcXdXbXKXjXG.~.!.< $.$.+  .|.D 2XKX>Xi - H t - W ).+.y G F y F z c y z H z y i z G i z F z c y 4 y c y c x y 5 y x c c y y y z x y y y y y z z y 5 j j j j x x 5 5 H H x x c c c c x c t z x i i y c z x H c t t c y j z z z y y c y c z z c x c y c z i i G x y 4 1 c k w k y 4 w j g w j 5 y k k j w 5 4 4 k k 5 1 5 j j f 5 3 3 : 5 f f 5 3 5 g 3 w 5 6 3 f f w ; 3 3 ; 3 f 3 * ; w f 3 3 : 3 ; ; ; * ; : : ; o # + ; # ; ; : : + . + ; o + ; ",
"O O . . . # o     . + . . w b w ; ; : : 5 g g 3 : ; ; = y Y l 6 : w w 3 w k w ; ; 3 h : 3 f ; ; 1 w 3 3 0 3 ; 3 3 3 3 6 2 B | :.z & * 3 5 5 2 5 5 2 k w 6 j 3 3 ; w n b 2 < < p O.#.p 4 u @ J fXKXXXs.kXlXf.p.6.F.uXwXL.k. .r d 1.^.2X^.A.G.j.!.~.G.p.2XOX! | q.,.4.| | 5. .@.1.C 1.| r Z / C { k. .D q.XX4.4.q.| @.| q.|.}.D.q.V.| ! 8.J.^.|.eX#XD.1.r t v - < s.4.q.XX0X^...G.f.V.2.5.p.G.f.!..X>X2XXX X5X X2XwXfXtXtXfX2X.XNXlXlXwXG.hXZXaXwXfXtXy.>XLXCXZXlXjXlXp.wXGXGXgX6X3XjXKXLXPXPXLXLXPXSXMXKXGXlXlXO.. z.I.- W.#Xr I DXuXt - c c 4 i S.a.B N i c Y c y y j j c G I G G F z z i c z x y F j c z y c c F c i y c i y z c y y F y 4 z x j F z c c y y F y z F z i c z z y y x F y y c y F F c z F z i i c i z H F c z H c y y y c c u z x x z z v u e j Y 5 y y w j 1 6 w g j j 5 w c j y y y j w 5 2 1 l f j k 5 f f 1 f = 3 w j 5 2 j j 1 ; 3 w 3 3 3 3 f 3 : 5 1 1 3 j k w 1 3 3 3 ; ; 3 ; + + * ; o : : ; ; : ; ; * ; ; ; + ; + + ",
"O O . O . . .   . + + . $ x H 5 * ; ; ; 5 w g 3 # o # = b Y j ; = : 6 w g j w 3 3 3 3 : 3 f 3 3 ; 5 6 ; 3 3 ; 3 3 3 3 3 w L :.:.z 6 1 6 5 5 2 w y y k f & 5 j f 6 w v v q G $.i.s s t p < h.lX2X3.k.HXlX5.5.2XwX_.2.2.t.p.!. X^.$X~.E.E.W.^.XX2XXXA... X#Xf.D 4.W.d.C @. .6.5.p.~.XXd.D Z { @.Z { p.r ] 9.| ,.4.^.q./ ! q.,.q.$XqXE. . .A 4.g.C.~.E.eX#XC s $.o.Z q.D.D.~.uX}.g.C.g.~.!.W.f.~.5XkXfXwXXXXX5X X.XaXfXlXfXlXCX4X>XDXjXDXtXL.NXlXjXhXaX).l.h.jXfXZXfXlXfX3.lXKXKXGXfX2X>XAXLXLXLXKXKXLXKXKXFXKXKXFXi.7 L.L.D kX2X< - XXhXN < q K t 7 u.t.9 4 F y y z z z z y i G H G F z z c z z z z F z z c c c y z z c c z c y c y y y y c c H z c F z c F z y F y z F z c c z F z i j j c z x x F F z F F z c i x c z F F c i c u u x z z c y c x x c c z u w j b y z z j c 5 5 w w w w w j c y j j 5 5 2 5 f j f 5 f j w 5 f 3 5 2 2 j j 5 5 5 l j f 3 3 3 3 3 6 5 3 1 5 5 5 5 k b k 2 5 5 3 ; ; ; ; : : * * # + ; : : : ; ; * ; : : # ; # # ",
". . . # . . ; . . + . . 3 m b 1 ; ; : 1 5 w j 3 o . @ 1 Y x 5 w * * 6 g g w 3 3 3 : 3 3 3 3 3 3 3 g 3 : ; ; * : 3 3 3 3 u ( ,.| t 5 6 = 3 w 4 y c c z j 6 3 f 6 3 j 4 a o.2.O.9 < t r r s.lXlXf.^.lX<X5..XwXQ.s.1.< [ G.~.wXkXwX2XG.p.^.!.G.^.XX~.5.6.^.d.D.g.j.|.W.q.5./ @.q.E.}.}.C.q.C.C.W.D.! 1.| q.| ,.,.d D q.D.d.g.| ..C.d.d.~.G.F.g.C.! | q.q.#XqX]  .fX5.< q...G.0X$XW.~.^.0X|.p.!.kXfXwXuXwX2X2XaXwXwXwXfXjXaXtXlXjX<XaXDXDXGX4X2XlXjXDXGXGXNXh.3X>X>XaXfXHX<Xi.hXAXZXKXDX.XO.Q.ZXAXLXLXLXKXKXhXhXlXDXGX$XD r r } DX2Xr < g.lXR < t z t t +.y.p < F y z z x z c t B I G G z z z z c c c i c y i z z x y y c z z c i z y x c y z x F j y c y y F c y z z z z z z z z x F c y y H x c z z F F F F z z z H z c z z c y y y c H F z c y k z x k k k y y c y y c j j j j w w 2 6 2 j x z y y j 5 5 2 5 g k 5 3 w j w w f 5 5 5 5 f w 5 j 5 5 j f 1 3 f f 3 3 w 3 6 5 w 5 1 k b k 3 3 3 6 % ; 3 : : : ; ; # + ; : * * ; : 1 : ; : # # * # ",
". . . . . # f ;   . . + g m j ; > 6 3 3 5 w j 3 o . # 5 Y w 1 3 # ; 3 g g 6 * ; : : : 3 : ; 3 ; 3 f 6 * : : : 0 3 3 3 2 p ( ,.] 4 6 1 = 5 w w z c z j f 3 6 3 8 5 < J 2.r < Z [ L t N  XlX}.!.GXKXk.@. X.Xk.2.2.^.5X2XF.,.| ] V 6.G.F.V.A.^.L.5.^.q.f.A.f.W.$X^.^.C.D.q.s.g.D.Z.Z.D.Z.D.E.Z.D.q.Z.<.|.|.Z.d.W.w.~ S ~ } } ! .. .Z ] 5.s t.L.eX$X~.D.D.,.w.|.C.q.$XXXC 9. .1.0X2X~.2XqX}.p. XwX2XfXfXfXwXfXjXtX2X2XfX4X4XwXfXFXlX5XlXlXFXKX>X2XDXlXjXGXKXNX3XFXtX>X!.pXKX~.!.NXlXFXGXDXXXf.Q.O.X.).<XfXZX>X.XhXCXhXqXq.^ < < Z qX}.} Z 1.0X..B F F F 7 +.t.B t F z z z z F z G J G G z z z z c c c y z y i z i i y y i y z c c F y H x y c z c y j x c j F z i F x z c c F F z z y i i z c c y c F F z F z z F H T F c c z z c j y c z z i z c x z z j j z y y z u x z j j 5 j y j 2 1 4 y x x y 5 y y j 5 w 5 5 5 3 y c w w j f j j 5 5 6 5 j 5 1 2 4 3 g g f 3 3 3 6 5 5 5 5 5 z b l f 3 5 3 ; ; 3 : ; ; : : # # : 3 ; * ; ; : ; * : o . + + ",
". + + + . * j ; . . O 6 x l 3 ; 5 : = w k j 5 ; ; # @ ; b j 3 ; : 6 3 3 3 3 3 : : 3 3 3 : ; w 3 5 5 3 3 3 6 : : 3 : 1 w s ..| C 4 3 3 2 w w w y c y w 1 f 5 $ 4 t [ p.Z 9 C ! q.Z C wXCX.XuXHXkX!.f.W.p.B L.5XXX9.~.F.t.]  .5.g.5.2.f.~.OX}.!.W.^.q.C.|.^.C.C.D.A.d.E.A.D.J.D.q.! C.|.d.8.<.w.Z.Z.w.|.D.Z.Z.D.Z.}.Z.V.8.8.g.A. .] 5.] < $ C p.!.j.}.|.Z.H.Z.Z.E.2XwXC.@.^.5. .iX~.#X^.^.5XuX2XOXwXtXaXwXfXfX4X.XwXwXwX2X3XtXfXDXaXuXfXDXGXfX.XDXDXuXsXVXKX1XsXGXhXtX_.Q.ZX<X4XZXCXFXGXDXDXZX>Xv ) t.wX<X+X2XaXwXfXfX~.q.] < [ R >.p.g.! } F.N L F H i 4 P 3.a 7 F F F z F G J J G G z z z z z z c y z z c F y c H x c c F F c y c y c c z F z y c c z z y z F F z F z z F x c F x c z x c i F F F H H F F z z z H F z c c c z H c y i G G z c c x z c j j y t i i I z c j c j w y w y y c v H v y y 5 5 f j g w 5 5 y x y 5 5 5 w 5 j 2 1 5 f w w y q 5 f f 3 3 3 1 5 j y 4 y c z l g w 3 1 : : f : = : : # = ; ; : : 3 w 3 ; ; 3 ; 3 ; o * # ",
"+ + + + . ; x w O O o > g f ; # : ; # 3 k j 3 * = ; 6 3 z w 3 : 3 ; # + ; 3 3 ; ; : : : ; : 5 3 f w 5 3 0 3 : ; 3 1 5 c C | ..B y 5 5 w q q q q y 5 3 % h g @ < L g.r Z 5.] | d / $XlXXXwXCX X5.~.^.] C  X2Xh.p.G.9./.4X X X^.^.!.h.J. X}.~.^.~.E.4.D.OXC.4...C.g.C.J.W.g.J.Z.d.8.4.4.} <.8.8.w.b.b.E.|.}.|.OX|.E.J.|.OX}.C.A.q.f.A. .R 1.6.C D D D ,.W.}.E.V.w.C.5.XX~.6.0X1.@.^.$X#XXX0X0XqXwX~.<X5XwX0XwXwX2X.XwXwXuXuXwXuXfXfXlXuXCXlXZXwX4XGXKXNXvXtXNX3XNXvXNXjX2XXX~.S.KXLXFXCXGXKXKXKXKXaX1X).L..XQ.L.F.3XfXeXq.D d G k.X.i ] 6.p. ...N F y x z < L  .s 7 t F F x G v a G G G z z z z z c y z F F F c F F F F c c c c z z y z x c c y c y j c c q i z z c F F z z z c F K z i z c z F F H F F z i z F F z z c c y c z F H c p B L i z y u j j c c c i U B L i y c z z c 5 y z H c z z z z j 5 5 j j w 5 5 5 y z y 5 4 5 w 2 j w 2 w 5 w u H v q 5 w 3 5 5 5 f y 5 4 y z x y 3 3 ; ; 6 3 f 3 ; ; ; = : ; 3 : ; 3 f 3 ; : 3 : : ; # ; # ",
"+ + + @ * j b 6 . . . # 3 3 % + # + # 3 l j 2 # o : k k w 2 3 3 3 ; # . ; 3 3 ; ; 3 ; ; ; : 6 6 w 5 3 3 3 3 3 6 3 1 5 b C ] P i y 2 2 w j u u u 2 1 8 8 % ; y >.I.<.w.7.4.f.f.6.W.pX).5XZXXXF.XX2.< f.2Xh.K.A.j.^.!.3XtX/._.G.L.!.F.G.f.d.D.D.V.q.,.| q.q.f.4.C.5.d.V.A.D.D.Z.Z.5.A A 1.V.w.w.J.}.b.<.w.|.eXqX|.|.#X#X|.}.E.}.q.<.4.4.} d.g.C.,.q.,.q.J.V.E.#Xw.! | ! W.5.6.OXZ d d.2X5X X!.2X5X~.$X2XeXpXkXlXfXuXkXuXwXfXfXlXaXhXCXhXaXjXFXaX.XGXGXKXGXNXAXaX<XZXjXZXZXDX4Xs h.CXNXFXKXGXFXSXFXLXLXAXgXNXNXaX4X>X XqXzXE.] p 2 l.k q t 2.}.:.Z s ` t i X.7 B p.i 7 z U z z i i i v G F x z z z F z F z x F y H y z z c c c c z c c F x y y 4 z z z z z c z F z y F F c z z c F z i i z G F i u F F F i i F F F c z z z c z z z F z i B L N z y u u j j z z L ] ! A B i y y j w w y c z z z z i z j j j j j w 2 5 j c c z y 5 5 f 2 j j 5 5 w w u I v 4 w j f 8 5 5 5 6 y y z K z w w 5 3 3 5 8 3 f : # * 3 h ; 3 3 : 3 5 3 ; : ; 3 ; ; # ; # ",
". . + # w Y l .   .   O ; 8 3 % + + * w b l 5 * O : g l w 1 w 3 6 1 : ; 6 3 w 3 ; 3 : ; 3 f 3 ; 2 3 6 1 ; : 3 3 g 2 5 z s C J u j 5 3 j w w e w l : : h $ - u.2XV C.eX|.,.C 2.aXfXwX5XfX/.L.wXp.9 .X~.G.p.K.!.F.G.fXtX,X.X2X+X_.L.F.6.1.q.9.4.,.~.q.,.q.D.^.5XD.! :.p.d.^.C.w.d.] ]  .1.q.4.w.Z.R.D.w.D E.|.|.OX5X0X#X}.Z.Z.oX|.8.V.Z.4.~ 4.V.q.4.g.q.,.| ~ w.fXqXV.w.,.^.g.< f.1.Z <  .q.C.D.}.W.E.C.D.C.^.~.^.0XzXHXkXhXNXNXNXjXlXfXwXfXZXaXaX>XwXKXFXVXNXNXtXgXFXZXNXDXCXuX[ p.hXvXvXgXvXAXFXKXSXKXLXFXvXrXsX,Xt...J.w.D P <   n 2 y <  .^.| N G U c c z 7 R >.p i H z z z i z z F G x z z z c c z i z z y H z x z y F F z y y c F c F c y H z F x z F G z i i F c y H H z z F G z F I G u z i F F F i F F c c z F H F H x c y z B L P G x y z v z k z i C ] | ~ ! B y y i i G z i y G G G i y j j j j j w w j z z b b z y 5 j 5 5 k 5 2 c y u K v 4 w j 5 3 5 j 5 1 5 c x v 4 2 3 g 5 5 3 6 3 3 ; : : 3 3 : 1 3 3 3 3 : ; : ; 3 # * # ; + ",
". . . ; 3 5 * . . @ @ + 3 8 : + # + ; 3 b w * * + 3 l l 3 6 3 : w ; # # w g w ; ; 1 ; = j b g w j j 5 ; 3 > 3 f w y G [ ) a e w l f 3 3 w j w 2 3 3 :   - h.tXr < q.W.d.- - ~.xXaXtXjX).t.+X,X>X>XL.5.D.2Xp.P 2XlX3X,XuX3X<X/.^.F.L.K. Xq.q.q.S d.| 1.p.! ,.XX!.5. .p.^.W.d.j.! |  .s.d.,.4.d.q.V.E.Z.4.q.w.w.W.D.XXD.E.#X|.}.J.Z.:.Z.0X8.4.Z./ ,.D.q.,.| C.| 4.|.#XD.D.! A. .Z s.W...9 q.OX#XOX#X~.}.wX}.g.d. XOX~.L.aXGXjXjXNXZXjXNXfXZXlXFXGX2Xa.3XGXNXNXAXjXtXNXjXjXlXFXKXNX{ >XKXdX1XdXMXgXMXFXJXMXKXLXbX3X>X).>XwX<Xq.Z [ s e < i U r 4.,.Z < i T z i G r 5.V N i U z y c x i y z z z z c H z G G G z z i G F y c H H x y z F z i F F F z y y i z F z z F y c c c c z z i U F i i F i F U I u F U G G F F z y z z x z i F z G P ] P G z l 5 g l w y y L ] :.;.^ Z F i B [ P B B G G G G x y c k k w c x b k y y z z y j j 5 5 5 f y 5 w c e z y w w w 5 5 w w 3 1 j y y u 5 w 6 3 3 3 6 3 : : 6 3 : 6 3 3 3 : ; : ; # ; + 3 * # : # # ; ",
"o O O ; ; 3 3 ; . .   . : 3 ; + # # 3 w x w # * = k b g 1 3 3 3 @ # * 3 f g 3 6 $ 2 w 2 w j 2 w 3 3 6 ; 3 : 1 5 4 G I P G u e g w 3 w k k j g 3 : 6 . < G.tXP - W.^./ - d p.$X).NXFXX.$.h.O.DX+Xt.f.OXwXG.A.aXtXwX3X>X>X.XI.p.I./.F.f.A.C.V.w.w.,.d ..p.g.@.D ^.f.5.d.A.4.,.q.d.] ] q.C.A ! q.d.,.8.,.| | q.d.w.w.D.Z.E.E.H.E.|.#XE.OX|.V.Z.w.~ D d.C.J.8.4.V.^.D V.|.E.w.! A.9.d 6.2XF.! q.J.#X2X#X0X2XlXzXuX5XlX2X~.^./.lXZXhXlXZXZXZXhXZXZXjXDXDXL..XGXDXlXCXNXNXhXhXhXjXNXDX2X@.wXKXNXNXFXKXjXhXNXFXSXKXLXLXKXhX_.Q.<X5Xf.< t v b K N B ,.wX~.5.9 t G t x i N >.L i i y v c x c y c z x x z x x G J G i i i i G F H z j c c F z z i F F c F x x F G G G G G x x x z c x G G G G F G G i i F G i G G F F x z F z x z i z i G z G P P C B c j j j l j j c L R ~ %.%.! L G C ! | ! C B G z z u u w e y j k c y H x c G x y y y 5 f 5 w j w w z c c w w k k c j w w 3 3 j w w y w g 6 3 w 3 3 6 6 : : : : ; ; ; 3 3 3 3 ; # ; ; ; # * ; # # ; ",
"O # # ; # 6 5 j 6 = @ # : 3 * + + ; f k k 6 @ $ 1 x b 5 6 3 : 3 # ; 6 3 w w w 6 $ 2 g w w w 1 w w 3 3 3 : 6 2 q B ] [ U y q 0 w f w w g k g w 3 3 * < _.fX{ @ F.d.4.D Z C.5X<XhXCX$.O.P P lXF.5.g.}.2XA.^.fXtX4X1X1X>X,X<X.Xp.A. X Xp.q.D.D.E.w.4.:.} 6.!.f.9 1.}.g.D.4.1.| ,.6.C ..O. .] ] ] ] Z  .] 1.6.C ..j.|.D.w.w.w.0.E.eX|.}.0XZ.V.Z.w.8.<.^ :.Z.0XJ.:.2X2X! ! $XqX<.^ #X1.< 6.XXq.! C.|. XqXkXwX XeXOX X2X2XfXiX~.2X4XlXjXlXZXNXaXNXjXaXaXCXDX2X~.lXGXCXZXZXZXhXtXtXtXZXFXwX^.DXKXDXhXlXFXhX6XgXFXKXKXdX7XsXZXsX+.) .Xk.< r 4 H y.< 7 a.DXDXf.< 7 K t p 9 [ L U i i i x z z i i F F F G z F z G G B i i B G F F c y c z i i y c z z z H z z z G G z G H G x z z c z U G z F N F G G F F G G G G N F z z x z F c i z i z i G L B G G z j z j z z c y N Z ^ %.;.| C P ] ! ~ ~ } P N i c c c u y y c z u 5 z z z v G z y j y j w w y w y z x 5 4 y y y y y c y w j j w w y w w 2 f k w 3 6 3 6 : : 6 3 3 3 ; : : : * # ; # # * ; ; # # ; ",
". # ; 6 @ = 2 j k g 3 6 3 3 * + . : g k w * @ = = k l w w 3 : ; w w w : 3 w w : = 2 5 w j w 1 w j 3 : 3 : 0 u a ] ] L i j g w 3 w w w g g 3 6 3 : . s.5Xs @ s.A.D S q.D.iXlXZX>Xy.a.S.B XXp.A.2X!.OXp.~.tX2XaX2X).<X2X3X2X>XF. X^.#Xg.4.q.E.w.;.!.g.,. .p.d.d 1.0XW.D.,... .C ] ] ..[ ( ]  . .V r 5.{ p.6.q.9.! w.4.q.w.Z.Z.w.b.V.E.E.D.w.w.E.E.Z.%.D ~ 8.Z.J.Z.OXE.! ,.#X#X@./ wXp.< D p.V.g.f.$X2X2X2XqX0XXXfX5X$XwXpXkX<X<X4XlXZXlXNXaX<XjXDX4X4XjXHX<Xp.<XDXDXCXZXaXfXlXfXlXKXFX$X~.GXDXjXaXFXKXMXvXMXAXJXJXFXLXKXKXKXdX3X3X{ d i q y.O.L - Z DXHX[ + G K u t t B r I u G t z z i i F G G G G G u i G G i i U U z z F z x c F F z F z i t F G z z G i i z J v z c c y i G G G G F F F F F F L L L L G F z z y c F c i i i i G G G B G H G G z y i v i N R | %.*.%.~ C ]  .| ;.;.} A B i z z z z z c z c c c c z G J i i y j y c w 4 w 4 w z x j y y y y u u G c j k j j y j w 5 6 g l g 5 3 3 3 3 3 ; : 3 w 3 : # ; # = * o * ; ; : ; * ; ",
"  = 3 w ; 1 2 w k w 5 6 ; 3 : o @ 3 l l 3 * # ; w b x 5 5 3 ; # ; w w 3 f g 3 * 2 1 3 w g 3 = 2 5 6 * 6 0 e v ) O.C p w l f 6 ; ; 3 w f w ; * 1 + T wXC @ { p.r | ~ w.}.A.h.{ J Q.>Xs._.3..X2Xh.~.] F.fX4X>X3X,X>X2X>X>X/.G.F.OXG.E.d.d.w.Z.q.8.C.D.G.f.,...,.j.2XD.W.5. . .] { { O.{ C ( 1.1.P N !. .F.A.A.j./ ] Z ,.q.w.E.w.^ 7.b.q.Z.C.D.E.D.Z.E.<.^ <.<.C } g.2XD.D ,.$Xw.,...W.XX:.r 6.g.! p.wX0X<XzXfX2XwXwXwXwXkXXX! ~.xXkXtXhXlXDXfXwXlXaXfXkXkXDX$XZ <XDXCXNXfXlXZXlXjXGXlXlXW.#XZXGXNXfXZXKXLXKXKXPXLXKXKXPXLXLXLXKXKX~.Z 9 9 p.G.r ] r ] fXaXk.< - T v $ a.t.< U i F F F z F L I P [ U N i G i G L L U L H F z x c F z H F z F c i z F i z G G G G I J z z z y i i i G F N F U F F G L G G I I G i F i F F F z F G G G G G i G I I J z z G P B C ;.7.<.;.^ / } ] ] } ~ ~ A C L G J u z x H H c y c c c c v v i i c c c l k y y y j z c c t i i G H i U x j l l z j w y 2 2 w k k w w h 0 3 : * * ; 3 3 3 : ; ; 3 = # # # * * # # * ",
"o : 3 j 5 2 2 c b w 3 6 ; 3 ;   * w k g 6 * * 1 k x k 5 f 3 : ; : 3 3 3 3 w 3 * 5 w l k w 2 ; w 6 1 : 0 w e a _ I N 4 6 : ; # # * * ; 6 3 6 ; = 1 >X3.- a a.< 6.6.C.C.^.F.$.).<X5X5.g.^.wX.Xt.>X#.5.wXuX,X1X<XtX4X!.I.<X^.G.J.C.A.D.C.d.Z.q.C.q.q.!.d.!.W.C 5.XXW./ 6.C 6. . .] ] 3.] s ) O.P L [ G.7 L.Q.Z Z 6.( @.@.| q.Z.<.<.0.w.<.w.Z.}.E.J.Z.|.E.4.q.E.} 1.! ,.q.,./ D.q.V.! D.2X|.q.9 r ^. .,.fX2X2XfXwXwXwX<XwXkXwXW... XlXCXfXlXDXDXhX3X5XkXHXfXkXHXXXA.4XCXGXCXlXCXNXjXZXNXGXwX| XXjXaXtX,X3XsXvXKXLXFXSXJXLXKXPXKXLXLXGXj.r P ( 9.F.r 2.P h.4XwX/.p q U t ) <X+.4 W z F G z N P P P P B B G G i i U [ P G G z z x c G z F F z F F F F G F F F F G L L H z z x i z B B i u N G U G G U G G G I I F i z i z z z z z G J J G G i F G H G G G U P B A %.<.<.| ^ }  .R B C A ] C L P L G u G x x x z c c c c z z i v G x y c v z u w w w y x i p s C ) U i G G z z l j w 4 y 2 4 5 k k w g g 0 3 6 : : : 3 3 : : ; ; ; # : * ; ; # ; * # ",
"* 3 5 w 2 2 4 x H 5 2 2 ; ; ; . 6 k g 3 = * = 2 z c w 5 w 3 : : 6 3 3 6 w g w * 2 w k j w w 5 g 1 ; 3 h 0 1 q i y 4 = # * ; ; ; ; + # ; f 3 * $ y.a.< J O.s J s h.XX4XfXL.h.$.[ 9.C  XOX5.L.NX,X3XwXfX3X,XwX,X<X^.s./.5XL.F.D.4.J.C.C.8.C.C.q.<.w.^.g.C f.5.5. X XC Z Z C 5.] ( P P o.X.i G I i y.P.- _.a.s C ( ( 2.{ d 4.q.| 9.b.w.<.9.C.E.W.E.w.W.E.g.g.g.5...O.B / 9.W.w.Z.^ ,.,.}.|.XXW.d r OXp.p.uXXXwXlXuX<XwXlXaXlXHX!.$XwXfXlXlXkXlXlXkX5X!.<XDXlXlXfXXX/.tXZXvXjXNXNXDXFXNXGXGX.Xk.lXhXlXNXNXjXrXgXJXLXKXJXKXJXPXKXLXKXLXLX' @ i...p.L.` @ < P.^.2Xu.7 N i - ` ).p y i G L B N P E B B B L G G N B L ..P N z z x z c G F F F F F F z z W L G G N N N p G i z x F G L P F G G G G i i z L G G U G i G z z z c F F z G G K J B a G G G G i i G L B R ;.;.| ! }  .} V N B P P B U L a a i G z i z v z i i y x J G G J z y y z z y w w w y I ( ( / / ( L G G U x y y 5 5 2 y w 5 2 y k e w f 0 3 6 3 3 0 3 ; ; = ; ; # + 3 ; ; : ; 1 ; # ",
": 3 3 3 * = 4 H x 2 1 ; # + ; + w b w 3 # * : 2 z w 5 w 3 3 : ; 3 6 6 6 l b g ; 1 1 2 3 w k w 2 5 1 3 g 3 : q e 3 1 ; # # # ; : ; o o ; 3 ; = 4 u.< u u.p.< 7 k.DXNX4Xk.+ o.P.C r 1.~.p. XDXQ..XhXtXtXtX>X,X3X3X3.h./.F.F.~.D.}.C.J.q.g.J.J.V.q.4.|.A.Z  .C 1.~.XX] 6.C O.1.] ..O.[ J G v x y y ' P.@ P.y.i I J ) ) ( C  .C.d.<.w.w.w.C.Z.w.J.Z.| D 9...] ] Z N r s < { s.d.q.,.4.q.4.D.~.~.C.d < 2XXX1.!.wXlX2XXXfXlXuXlXfXfX2XfX9.~.5XlX5XfXlXDXiXW.5XkXlXlXlX^..XjXAXZXNXjXDXVXKXvXGXKX3XfXNX4XGXKXKXJXvXvXJXKXKXPXJXKXJXJXKXLXLXLXI @ k.>.S.4X+.+ @ >XtXG.@ r [ p < G $.= v G [ R L E E B N L L L B P L V C L i z z z x z G z z z F U F c z U G G L L L L G G i u z z G L U i G G i F i F G P L N G i i U i i z F U U z G G G v v G U U G G z H U I L E } A ] ] [ [ V L G i B L B U i p B J z i i G G z i i < i U U B J G v u v v y q y c i B ] ..../ Z s L i U z 4 5 y k b y y w w w k w w w 0 0 3 : : : : ; * ; ; : ; # 3 * # ; 3 f ; + ",
": f 8 % + * q H z ; * 3 f : # ; j l k ; # = q b x 2 5 3 * # ; : ; g g 2 j k 3 ; 6 3 3 g z k w 5 1 5 l 8 : 3 c z 3 ; ; ; o o + * = * : ; : = - U H 4 K K p < f.wX).+.y.+.y.lX<X1.r k.5XwXlX3XQ.sXtX4X4XhX>X_.>X^..X>XG.^.!.J.J.C.E.D.D.^.F.f.D.g.<.E.!.Z  .F.r k.~.d 1.p.C B  .9.1.[ G G y 5 1 4 c z.- y.y.< 4 ' _ s J O. .,.Z.V.,.g.w.<.w.Z.:.<.E.,.6.1.s.p.g.q.Z B p p < P W.q.,.q.! q.f.G.C.W.Z < !.^.p.fXkXfXwXXX<XlX5XfXZX2X5XwX5.d.XXzX2XaXlXHX2X}.qXeXlXlXZXa.,XGXNXaXhXlXFXNXFXKXKXKX.XwXwX<XCXLXKXLXVXsXGXKXKXJXKXPXKXLXLXKXLXJXi - p.D G.FX(.@ @ u.wX$X/ d.C < q u 4 u i B L L L L G G i N L R R V L L L G U U G F G G N i F F G H G U F i G F G G U U G z i i i G G i L i F H z F G L B P I G F G H U G F z G H x z v z i z z P R G H F y F i N R L P U L L B i G J G B B i U U i B U i i z F z z z z i i L J J B z c z G G i z z i L B C ] [ [ B a I U G c y j x c j z k y w j k k w 3 f w ; * 6 6 6 ; : * # * # ; ; : : ; ; ; ; ; ",
"; 3 : & ; 3 v T w ; * 6 3 * * 3 l j f ; . = c Y 4 $ 6 w = * : 1 1 5 3 = w j 8 > ; 3 3 w b l j y 4 w f 3 3 w k j 6 # # * ; ; * # X * = O # + i I y w q i < P kXQ.@ l.).l.CXZX~.i.t.tX<XkX4X/.NXsX4XrX,X,X,X)..X.X<X>X!.G.!.^.OXD.E.E.J.F.g.5.C.V.8.J.f...~.!.r G.A.f.5.A.B 1.{ ..1.( G W z k w w e l.- r.y.. @ Y ` v v v ) 1.p. .] f.| D ~ <.8.4.4.9./ f.j.G.!.C.G.r k.$.B $ 9 iXq.,.,.Z ] C.XX}.F.5.Z p.q.f.0XwXwXfX0X2XfXfXlXDX<XkXW.} 4.wXCX/.wXlXDXiXXX<XfXkXlXZX.X4XlXhXaXhXZXFXKXKXJXKXlXXXHXhX>XsXKXFXAX3X>XKXLXKXJXKXLXSXLXLXLXLX3X- s { ,.wXKXrX4 @ ] lXE.^ lXh.+ q Y - I U L L G G F G L L P E R L G L G G G G F G G F G F G F i F z G u i H G z i u u G F z z F G z z G N G G z i G L J B G U G z N I U N i G G x i i J G H F V R V G G c H F N R L U U G J G G G J B B J L U U N i i i G G G z i t p N G C C C B i c y y i U I G B P C P P E [ L L I I G z y c z j c k k j w w j j y 5 w w 3 6 3 ; ; 3 : = ; : ; ; * : : 3 3 3 3 : ",
"# : = ; : w H b 2 : * ; 3 * ; j l g f ; . ; b Y = @ 3 g # # ; ; 5 f w w k j 1 + 6 f f j z y w y y y 3 ; # 3 w 2 # + # ; ; ; ; * o ; = + + - y.[ K < $ V ! fX^.C >X1X1XKXCXa.<X{ ).3XtXuXQ.<XgX6X3X3X>XP.3XtX/..X3X!.f.W.~.E.2X}.C.^. X!.g.A.E.q.~ C.A. .C.A. .G.2.<Xk.L.L 2.] C  .C a K x j w w < r.u r.l.. $ k T 4 $ = l e 4 < J ( #.,.,.q.,.C.! ~ 4.j.E.Z.D.~.E.4.! p.s.C - O.lX] q.,.,.d.^.}.~.W.0X6.Z D C.wXOXwXfX5X2XGXCXlX2X<XzXC.q.r <XhX>XlXlXwX5X.X2XwXaXCXDX>XfXZXfXlXNXDXFXLXKXKXKX4X3XGXvX,XsXAXAXhX>X1XgXKXLXKXbXBXSXFXAXSXLX' + o./ ,.4XGXJXy + P E.r [ KXP.+ z 4 F G G i G F G G R R R E U G z z G z z F F F G N L G G G F G z z z z U U G G G G G F F F F z G G G G H H z i G L B G F F z G G L L G i F G G z i F x b z V R C B B z H I V A P U G J G G H H J i F G N N G i z z t F H G z z i t N L R A R C G x y t i I I G C ..} C L L U G L L U G z z c y y k y y j y w w c j 3 3 6 w 3 : * ; ; : 3 : : = * 3 ; ; ; 3 3 3 3 ",
"+ * # : : w b y 2 6 * = 3 2 5 x f f f ; = 3 l b = 1 j g * ; 3 ; x j w j k l 3 ; 5 j f w x j y j c c ; # = 3 k 4 # ; ; + o + ; ; ; 3 ; : $ J t.] r 9 ] S qXE.C wX3XtXGXNX( <X^.o.dXrXtX4X(.3X4X1X;X,XgXyXtXtX).Q..X^.G.}.C.A. X^.g.}.XX!.A.!.|.J.| C.OXp.q.F.!.h.r  Xs.p.O.L P ] 1.] B v z 2 = w e y.v < ' @ f 5 1 l k . # o O o - 9 $.#.1.5.] 1.@.9.W.D.|.XX^.|.E.E.4.4.d.{ #.p s.f.@.9.q.@.5.F.XX^.~. X6.Z d 5.wX2XwXfX3X/.fXkXkX XwX0X|.G.] fXDXfXG.5XlXaXwX1XlXCXZXkX>XhXCXjXhXlXDXKXSXKXLXVXaXjXDXFXAXsXhXKXKXtXaXgXsXbXAXJXAXFXdXsXPXsXX X ( 1.< l.FXvXK < C ~.$ < MXh.- i z U I G G G G B ] A V L G c u i G i i F G G G G N G G U U U F F H F G z F G I W z i F F G G G U G G U F F i B G i G G z z G U L G L G G G H H G x z v G C ;.} P P G K U ] R P L B i i G G J G i F F i i i F F F i z G G G G G G i R ..} A B G F G z i G G V ! ,.} C B L G J G B L F G F c y w j w w y j j y c k 5 f 6 3 g 3 ; 3 f 3 3 : 3 3 : f 3 ; = ; ; ; : ",
"2 1 * : 3 j K y 2 6 = 3 j 5 y z 5 w : = = g l c ; 5 x 3 3 g w w k w 2 j j g 6 % 8 f 3 w k j 5 j b b 6 ; 3 5 k 5 6 : # + # ; ; ; 8 > * 2 q O.] Z d 5./ R.E.E.HX<XwXGXjX] F.lX< ).NXcX,XP.>X1X4X3X_.;XaXNXP.+._.Q.G.G.C.~.F.G.!. X~.~.~.^./.L.!.D.] G.wXd.W.D.G.5.C !.5.O.t.N ] 5. ...I K b 2 ; w e o.v - ` 1 j 1 @ q ' w ; # ; : ; 3 i J a p i t [ A.@.Z.|.}.$X~. X^.|.q.4.~.~. .P p.Z ] q.G. .~. XfXW.A.d. .6.< O.2XwXlXuXF. .g.lX0X~.zXJ.zX X< G.aX<X~.fXDXjXNXZXlXlXGXtX2XhXGXhXNXFXFXMXKXFXFXKX1XdXFXKXFXsXDXKXFXsXvXbXnXKXFXKXKXPXSXSXPXz.X @ $.y.. s.4X~.^.r Z 3.@ . 1XP.t < F U L L I E P R V N N z z x v U G i G L G N i L P L L G G z i U z p u i G G G G L L G i G L F G F i F U F G U G F F H H G L L L L L G G G G G U G G P | <.:.P [ P a L R } R P i G G G i i G G z F G F F H H F c x z i H H H F i R  .| A B i y y v K G N B ^ <.} V B J i i i N G G G G z y y j y 4 w j j j c w g g 3 3 k g w g 3 : : : 3 3 : 3 h : ; : 3 ; : ",
"z c 6 ; 3 j H c 6 6 3 k k j y j f 2 1 ; = k b w ; 3 3 # 3 w 3 w f w w u l w : # 3 3 3 w c w 4 5 c j : ; h l z w * ; * o # # # ; % # 6 @ p { A r ^.}.r w.|.DXs.).GXhXt.p.GXi.$.KXdXrXI.h.>X3XjX).).4XaX,XI y.1Xk.G.p.d.!.}.K.L./..X)._._.>XQ.f.1. .G.0Xq.}.D.G.5.2./.s.f.t.] ..O. .P L H y 2 2 2 i v K u ` 1 5 5 = . k Y w . > > O * u X.) t = . ` G. .d.E.E.2X^.XXG.|.qXd.q.q.!.1.F.< Z C.wXF.p.$X<X2XfXF.D.f.5.r 2.2X2XCX2X .9 A.lXJ.eXpX!.kXG.- j.DX5Xj.eXkXDXNXaXlXhXhXtXwXZXZXFXNXKXVXFXVXVXAX6X;XNXNX4XtX/.).FXFXAXKXKXLXKXKXKXKXPXmX8XPX;Xq @ l.(.- 3.A.G.4.r j.) + @ /.Q.< 7 i G B C L V P B B G G G G G H x i G G G i N G G N G G i G F F z F i G L B B G G G N F G L G G F c z H H L L U G G G F F G L L L L L N G F i U G G P ;.<.} V R L B L } ..V N L G G G i G G U U G G i i z z z z F F z F F z t N B A ] ] L G z u v J U N V ~ <.| Z B v y y i i G G G G v y j j w 2 w j y y j w 3 w 3 3 g g w w ; 3 3 3 : ; ; 3 : : : 3 3 : ; ",
"H H w ; 3 g k j 2 1 j x z z j y w 3 3 ; 1 l b e 3 3 * # 1 2 ; 5 y j w w k j w f ; ; 3 w w 4 y z c 5 ; ; h l j 5 ; 3 ; ; ; o o ; + ; 2 e I B C 1.wX .j.fXZXL.h.KX3XI.2XfX).o.rXAXvX.XtX/.XXfX3X/._.wXjX_.u.dX4X$.p.G.E.J. X^..X.X^.XX X/..XF.F.5. .f.<X1.^.C. Xp.L S.d.W.1.{ #.C { P B i c w w w e 2 ' ` ` e 1 6 = = k b 1 + 3 = o ; K B P [ u = : +.a.} V.}.OXJ.~.^.!.!.Z.:.D.E.D C.5.< C wX Xp.^.^.2X XW.wX$XA./.t.O._.0X2X2XXX+XfXqX0XxX}. XDXj.Z ^.lX5XXX!.<XuXjXjXFXFXGX2X2XGXFXVXFXZXDXjXjXjXNXsXgXdX4XaXwX.X>X2XtXZXKXFXLXPXKXLXKXKXcXLXSXP.I + l.Q.- 5.9.w.Z.9 { a < B g.O.B B ] L B B L G G G G L G H G z F z G U G N L L B N L G i F G i i F N L G B G L G G N G G G G G F z F U U L C C ( P B i G G B P L L L L G G i G N C C %.;.R V L L G L } } V N I G G G G G I G G i N i t i i i z G G z z F z t i i B C P B i u c k G P B C %.0.:.( a c w y z F z G G J v y j f j 5 w k w w j w 3 3 w 3 w w 3 : 3 h 3 3 0 0 3 3 = 3 3 : : : ; ",
"G J u 6 f x c k w 1 w z y c y 5 2 g 3 # 3 l x j l 6 # ; 5 5 2 w w k c j l w 1 : 5 3 g j 4 2 y z H 5 # # j x k y k h : : : + o ; 3 6 @ y.y.9 ] OXA.p.ZXDX).Q.LXtXP.fXfXlXs ).FXdXtX.XwXwX~. XXX!.2X/.).tXtXsX(.k.!. X X2X.X.X_././..X_._.2X_./.p...!.fXG.W.@. X3.P G.9.d.Z C p.] O.#.[ z T b k l k 2 K v u c 2 w 5 = . 1 K 2 ; ; = g v )  .) o.v @ - P 6.8.J.q.D.XX0X}.J.XXOX8.;.E.} E.p.< [ wXG.f.!.W.C.2XpX~.}.O.wXL.Z !.$X2XuX2XDXDX2XfXkXj.2XzX4.D eX0X0XlX X~.wXhXVXCXfX2XwXFXFXVXhXAXZXsXsXhXNXFXFXDX1X.XHXGXjXtX<X_.4XGXJXSXJXKXKXKXLXmXLXQ.O.$.@ l.P.+ p.~.d./ Z t.s i p 5.Z d ] [ P L U i F G G L G G G N F F U I L L E E P B P P i N G G G U G B G B P E L G G L L G G G F z F G G L L ( C B B G B L P U L B L E I I G G L R ! :.;.V R R L P L R ..G G I J i i G U G i G i G G F U U U F G G F F G H G U U P P P B i y k i G P C ! *.0.<.] a y w c x H u F z G z u j 5 k w c x w y z l j w f w w w w 3 ; h 0 3 : ; 3 : ; h h ; ; 0 h ",
"J J T 4 l H y y 5 1 = y x c G y j f # % n l y 5 5 : ; ; 5 j w w j c c l k w 3 1 5 f f g j 4 w k w 1 ; 1 l Y z l : h h * @ 3 . # 5 @ y.h.$ L 5...Q.GXwXG.L.lXtXQ.DXfXwX{ t.LXvXtX3X,X3X/. XXX X0XfX>X1X4X3X4X,XL. X~.$X<X5XF.F.^./.Q.a.L.).s.h.!.G./.5XW.d.| p.d { Q.]  .s O.u.[ 2.B J I i v v v b < 9 s < 4 w w f * # . l 3 ; ; ; w u ) 3.O.B i.a J P 5.] D q.4.p.A.}.q.D.2X^.w.<.<.%.#XV.< OX2X5.W.d.~.f.}.2X!.~.6.^.9.! J.|.fXuX}.2XfXXXlX^.j.iXDXg.~ 2X8.|.HXkX<X4XaXCXwXf.G.AXAXtXNXCXCXhX4X2XwXGXFXVXAXhX3XfXjXhXDXhXS.).hXJXSXLXKXJXKXPXPXLXr.) a.@ a.t.< 5.D.4.Z 2.2.- I o.s p i G I N U U B N G G N B G L U U L L L L B V P P V N N L L G L L L U L P P G L G L L N i G I F F U G U L L B L P P L P P P G U E R P L G G H i V } ;.A V L P P P V V V H K U I G i i z i i G H I H G z z z i i i F G i i a P V V B L I G i z i i B Z | 7.7.7.<.P p u j y z i y y z x x x c j 5 w x j w w w x g ; 1 l j 3 f w g g w 6 6 ; ; 3 j j 3 # 1 3 ",
"J a J 4 c Y x y 5 w w k v b b w ; : % 3 l c j f 3 ; * : 3 w y w u c c j y w 2 1 ; 3 3 5 w 5 j x l 5 1 2 w y w w : 0 w ; o : : w = K k.< B P V f.5X^.L.F.jX>Xs.jXGXQ.~.t.aXVXFX3X,X>XwXwX2X2XXX0X2X<XtX>X(.)././.~.Q./._..X/.<X2X~.$X/.G.i.t.^./.1.g.^.j.d.| p.r L <X5.( a i U X.[ ..P U ` v a K q v _ i.K - w 1 5 5 3 # l l * ; 3 b H [ ) P s { i.#.3.t...] p.W.A.A.A.C.V.OX XJ.<.w.%.9.0X} ] wXq.A.XX^.5.d.$X0X2X~.D 9.5.! D.|.zXE.,.d.OX~.fX~.}.2XJ.C 6.}.! ~.CXkXwX2X2XDXGXp.).KXfXL.4XKXNX>X>XwXZXFXMXhXFXGXhXvXhX4XjXDX3X3XAXKXKXLXLXJXPXPXAXKXs 9 B - t.[ - Z ,.D C h.r.@ B ) p i G i i G G L U U U U L N N G L N L L P E V L R R L R E R B L L L L P R [ U U G N L G G G U N L U L L G G L L L L L L L U G L L V R L G z v i B R } C L B B V R } R L a i B L G i J J G G i z G z G z z G G i N P L B C P L B V B B L B G G z i B C :.7.0.0.7.! i z b y w u i c H c c j y y y j k w w w g 3 f w 4 j j 3 1 w 3 3 h w 3 3 : ; 3 g f 3 3 3 ",
"I u z q z v z 5 2 5 w j z k y 3 * ; ; l b u w w 3 # # 3 2 5 y w w c j y w w w g : 3 3 3 w w z x k y 5 k c 4 w w 3 3 3 ; . * 6 w . y.[ r ,./ f.wX2X/.2X<XL.a.tXGXa.Q././.FXtXtX1X3X1XtXfX5X2X$X<X2XF..X3X).L.G.~.F.G./././.)./.^.~.wX2Xs.g.~.XX^.] p.~.q.9.5.G.r a.5.#.p.] P [ R ,.1.] J I i e a v _ o.$.u - n = = w 0 : w ' 6 j w H K [ B J u p t.P  .O.] Z 1.p.~. XE.}.G.0X2Xg.V.4.w.4.C.0XZ ~.J.,.W.A.p.F.0XOX#X2X~.< 1.C.! w.|.eX2Xf.d.p.DXuXg.E.0X}.:.OXOXD 5XkX2XfXtX2XuXDX@.W.lXDX^.tXDX1X4XjXgXKXKXcX6XFXVXNXKXAXgXjXFXFXgXMXFXKXKXKXLXLXJX3Xi.@ #.#.9 $.B < P g.Z r ,Xt < o.J z F i F i L P L L L L L L L L L U L L L L V R E R R E R R V B B B B V A R E U L G U L G G L N L L G G N G L L L L G G G L G L L V R L z z G i V R R V G L N C } } ] P B i B L G G G G N N N G G G G G G G P V R } A ] ] ( B B P C Z C C [ G G i B C ,.0.0.0.7.! s z b y w i i z x y y w w y j j j w w w w 1 5 w e w w w 3 g 3 3 w h w 3 3 ; 6 3 f 3 3 3 ",
"` u i u H u 5 w 5 w w w l w 1 ; 3 : 1 z I i 5 3 3 + # 3 1 2 y w z H z w c w w g f g 5 w 5 y c y y c y K b 4 c j f 6 ; * . ; 3 = 9 i.L Z ^ 4.lXjXfX>Xh.G.L.fXGXk.C fXk.>XhXjX4X,XyXtXtXtX2X5X5XOX X~..X/._. X XJ.G.Q.2X3X!.).~.!.5X~.S.G.!.!.Q.2Xs.j.}...d p.F.r S.] p.1. .p.P P  .A V U J b v u K _ a < e u v u e q 2 e w r.0 k w i i I G X.z < o.o.9 [ O.{ L (  .,.,.V.8.|.eX2XW.d.~ ~.4.^.~. .!.! } A. XC.}.}.D.C.fX~.r d.J.q.;.0XXXwX0Xg.V.zX|.XXDXkXC.r |.|.1.wXwXtXCXuX<XfXW.! D.eXGX2XNXFXNXCXdXAXSXKXnXhXKXFXAXFXKXFXAXKXFXNXFXSXSXJXKXKXKXKXKX<X9 i.( r B J i O.p.Z S./.< ) I t c H H i U L V P L V L L L L L W E L L R R E E R V V R R ] ] P P V P A R L U U U G G F N L N L G N G N G G L P P U L G G L P R R L G F z H F L E R L L P A } | ! A C L L i B i i G G G G G G U G I G N N ] ! } :.^ ^ ^ ! C L ] ] } ] A ..U G N B C ,.0.0.0.0.| s u c y v i z G G y w w w j y y j j j w 3 f 3 w j j w w w k f 3 3 w w 3 6 3 6 3 5 3 3 3 ",
"k c v v I i w g k w w k k 3 ; # f ; 3 H I F 5 1 ; # * 6 1 4 y 2 c H c y x z 5 w 3 5 2 w y c x i v v i H k 1 w g 3 w * * * f 3 . o.j.< 6.,.XXGXwXh.L.3XCXaXwXfXO.fX.Xh.NXNXhX.XtXhXhXwXaX4XtXwX).XX0X.X.X/.G.F.XXA.^..X.X/.<XXXXX X#.p./.L.p.A.XXF.f.p.Z ! p.F.] f. .G.6. . .N >.q. .O.U v b e e a _ < < Y z b K v q 0 e n z.e 4 b J t $.G U c u q 2.X.B $.J O.k.t.1.:.;.:.V.XXXXZ.w.4.|.eXr w.:.D.J.] q.2XD.,.D.C.8.eXfXq.q.<.|.D.2X0X#X^.0X8.D.lXJ.|.C.iX}.<.lXZ 6.DXwXtXNXNXwXXX4.zXC.0XGXsXNXZXFXAXcXBXSXKX;X;XJXFXAXMXLXFXAXKXFXJXFXAXKXJXSXSXKXLXLXz.@ p i.{ 9 i p  .5.d f.Z a ` i t G G G P V V P R V N L L G L L L G L L R R R R C V C R ] P P P P P A R L L L U L N N G I N B N B U L L L G L P U L L L L V R R R L F z H G L L L L L R ~ :.:.} A C V L B B B B G L L N i N B N L B N B ! ;.<.%.%.%.^ / C J Z } | } ] ] P L N L R | *.*.7.<...B u u z H U G v G b u y k j j w w j w w 5 f 3 w b k w 3 3 f g w 6 6 3 3 6 w 3 3 f j f 3 ",
"2 l K v K u w 5 l 2 w w w = # # : & 5 H L G y 3 3 % # ; 1 5 j y 4 y y y b b w 5 w j w j z c i i U J G I z 2 5 3 6 0 * * : 3 . . ).] Z W.9.5X$.+.tXhXKX3X/.lX<X>XDX^.NXCXjX>X<XaXfXtX1XtXtXwX3X)./.2X.X/..XL.!.~.!.XXQ.G._.2X X Xf.5.G.~.!.F.S.F.^.!.1.| ,.1.A.] W.! 5.C.5.,.6.6.5.>.O.G i b e K v _ q + T r.4 c 0 v n 2 e :X' - v K i y.i v H ' K i o.J a I X.I G 3.G.V.J.J.^.^.C.q.D.^ XXd.D V.XX2XC r E.#XC.XXD.XX}.2X5X|.E.}.2XeXXX}.|.E.E.Z.qX!.V.OXOXfXD.Z D.C G.lXlXjXhXDXtXG.iXDX!.aXFX3XjXjXFXNXVXAXKXvXl.AXFXjXFXAXAXFXJXSXcXjXMXFXKXLXMXMXJXLXLXo.@ a s.P i i r Z | ! { r J v i G i L L R R C R P L L E U L L N N L L R R R R R R R R V C L U L V C R E G N G G G G G P N L B L U L G U L G L U U P P L V R R E E U G F B N B L N V R } ~ } A Z V V P L L L L G L U B L L G N L B B C ~ ;.*.&.7.0.<./ Z Z Z ! | ! / P L L N L R } ~ ;.*.%.] B i i i v H z i i z u y j j j w w w 2 w l f g w w w j w 2 : w f 3 6 w w 6 w w 3 g l j 5 ",
"# 5 v G G q 5 f 5 = w j = * # % # * c U L L j 1 3 ; ; 1 5 j c z y y y y j k w 2 j l y k H c i J [ L U K c w f 3 6 w ; * 3 # . v 3Xr C.$X5.U [ wXNXZX>X>XlXfX/.GXL.1XNXlXhX XjXjXtX4X3XtX6X<X>X).<X.X(.)._.Q.!.G.F.<X/..X<X$X!.G. X~.L.k.h.A.F.!.p.G.1... .6.G.@.~.q.] 4.C.d.p. .] { O.J K K u J ) J ' - H k.q < - Y Y 2 = z.m 9 q a a h.a p G K J i K i.< K y < u v p.J.#XoXJ.D.V.C.C.~ w.kXV.Z.kXuX| Z q.,.C | 8.|.!.}.0X5XOX|.#XOX#XW.C.|.#X<.}.XXE.zXV.XXHXq.q.J.r #XCXfXhXjXZXaX/.DXlX<XCXKXtX).fXDXlXDXNXKXaX).DXGXDXNXFXKXFXMXyXsXhXjXZXKXAXvXFXKXLXMX- @ N ^.O.9 i t  ...( s J _ B L B L R E R C A C R R E U L L L L P R R R R R } R R R L U P U L P R R W G i F G G G G L B P L L I L B U G G L P P P P P C R R R R U G G B B B L V V A ;.~ A P L B V R B G L L U P E L P U L L L L L P ! <.<.&.0.n.w./ C C C ^ ^ ! C B V L L L P R A | ~ ^ C L v z i i i G i y u u y y y j j w 5 4 w l f j u w w j g 5 : 3 w 3 3 w w 3 g w w j b x y ",
". + w H H 4 w l 1 ; k l * * ; 3 % 1 z U L I c * % # 1 w x x y j c c y 5 5 j j w w j 5 y H t t G [ B a i 4 5 w w 3 g 3 : 0 @ + P.s.D d./ N 1XaX3XCX.X>XFXDXP.fXuX.XZXjXtX XhXtXdX3XyXhXtXtX1X1X1X>XP.P.(.)._.G. X2X.X^..X<XXXXXW.!.<X.XF.5.h.!./.F.d.f.| ! f.k.( W.4.D ,.C.q.] } .. .o.I K I J v a p K y z l.u t k u k v v r.@ e q i i i.p p v i i K ` X.K q c u = i O.6.w.Z.b.Z.C.A.D.D.C.^.E.E.kXlXd.q.D.D A ! ~ C C.D.5X~.|.^.2XiX0XJ.8.|.'.'.E.OX|.0XeXOX0XzX#XE.C.q.eXzXlXlXKXhX/.DXHXlXjXDXAXyX2XwXlXlXaXGXKX3X/.DXlXDXKXLXJXMXKXKXNXaX4XaXKXKXZXaXmXLX;X- < L Q.a < i B ( Z #._ a C C [ N L V A } ..C V G V L L V L L P V R R R R R R R R P P L L L L L P L L G L N L L L P L [ P B P U L L L L P P L L L E R R R V L G F P P P P R A A ~ %.^ ] [ I L L E N B L L V P P B N G L P U L L P C ;.7.*.7.H.b.^ | ..^ ;.;.! C B V R V V P L V ] ! ! L G z i i G u H I i i x z y 5 k j 5 w y w w w f k v z y w f f w 3 6 3 w w 2 j w q u K J i ",
"+ + w j 5 y j j = g k h 3 3 h : : $ c U [ K 1 :   ; 2 z x y c w b K l j j 6 3 l j w w j c G H G L L v u q w k w 3 f $ l # + t /.B N ..A <XNX).aXfX).FXFX<X>XGX1XCXjXNX1X.XlX4X>X8XcX6X3X4XaXjX1Xi.k.k.h.<X^.k.XXuX X~.F.k.Q. X^./.<X<XQ.f.~.K.5.G.d.4.4.} p.y.[ W.8.! 6.1. .5.6.1...[ i K K v a i v ) K @ l.S.< J v 9 r 2.2.< u J a q ` H q w w b K K y K X.4 v I J P  .Z <.Z.Z.}.~.OXC.C.J.w.w.5XxX$X<.,.D.V.}.}.8.:.}.|.~.D.^.g.eXlXE.0X#X}.|.E.XX|.}.qXiX}.E.OX^.J.Z D F.wXfXuXfXf.5XDXlXlXlXjXMXlX2X~.lX1X).hXGX.XuXDXCX1XtXFXKXAXLXFXFXjX>X6XKXGXgX7XKXLXy.+ + B 2X .r a J #.{ 9 J  .] L r L E E R R V L L V C ] R L L V R R R R R V L R R E R R R R R A R E U P P V V V R ..R R P P V L R R P P R P L L L P [ R R E B N U L L L V C } :.%.%.<.| C P E R L G G L E R L L L B U L I I U U B ! ^ *.0.w.0.*.^ :.~ %.<.0.^ C V ~ ~ ! C [ P L C R P G i z z i i i G L L W G y w j 5 f c j c w 2 c y w y y y j j j 3 f g 5 ; k j 3 3 w v J J a ",
". + 3 5 2 j k j f g f 3 * * 3 3 1 5 H U z q # = # 6 j I ` u z y H v 5 j j 1 1 j g w y j c z G G L G z k j w y 2 5 % f ; # @ y.K.< ..1.G.lX,X<XjXtXFXNX4XP.lXwXaXjXNXaX<XfXsXtX,X8X3X>XtXhXaXsX).h.^.S.a.!.G.p.g.4X2X2X^.Q.^.~.F.G.^.^.!.~. Xf.1... .4.4.Z 5.[ s q.w.,.1.1. .f.G.V...L p e q e k v v K v = r.S.r ) I a 9 .. .t v _ v q v y w w 3 x c K u i K v I J p [ [ 6. .4.8.8.}.OXE.#X|.V.V.w.zX|.<.D C.J.J.g.V.:.q.2X|.OX#XD.D |.HXd.2X|.|.#XqX|.<.J.b.|.XX X}.OXJ.q.J.6.2XlXCXJ.~ qX2X2XaXFXNXtXuX X<XDXwXP.Q.fXS.2XCXtX,XtXKXKXFXAXjXLXKX1X(.FXKXnXdXGXFX+ q u o.~.#.@ a #.s a r ] Z B i N L R R R L L E :.} } C V V Z A A R R R V L R R R R R E } R R R R L P R C V V R } } R R R P L R ] R P L P P L V L P P L R V V E P P U C C ~ <.%.%.;.} V B L L B i z L R R L L G B B L I L B L N C ^ *.0.w.7.<.~ ~ ! %.*.w.;.} V ~ %.~ ! P G J U B G N i F F F F G I P L R G y z j j j j w y j y z z c z z c z x 3 6 3 g g 2 j g 5 5 w e J ( L ",
"o # w 3 = 5 j w k 0 ; * # @ ; 3 ; w b G y 2 * ; # ; w H U t y w q y 4 5 j 5 2 w w w y c i i G L L a i u y 4 w 4 w 3 g ; . : P.s f.5.L.<X^.XXCXsXhXGX3Xa.<XtX).NXgXjX3XaXjXtXtXtXtX:X,XyXdX4X,XP.S.>XS.g.k.G.p.3.@.F.2X/.>XOX Xf.1.p.A.F.W.G.5.p.1.g.q.,.q.F.B P V.D 4.q.| ..@.q.V.O.) v v n n l k z u e e v G.{ q u a r ( ( u v K v u u k x j 5 w y H z y v G p { @.{ [ ( P 6.C.w.D.}.E.}.|.V.J./ #X|.4.4.q.Z.Z.| V.#X~ J.OXD.5XzX~.C.kX}.! eXE.OXOX|.w.}.V.V.|.OX}.}.0XuXxX2X5.XXeXDXE.XXlXwX,X4XtX4XaXlX<XGXDXFXhX<X4XQ.fXKXGXAXvXMXAXKXMX4XFXKX).rXFXGXFXsXLX3X. < - ..5.( d 1./  .Z C N B J B V R R C A R R E A ! S R R A } A R R R R R R R R A R } } R R R L L L L R A A ~ } } ] R R R A R ] R C V P P P V P P B V P P L E R P P C ! ;.<.<.~ } R V N G G B i N L L L L L L U U U U B i L C C ^ *.7.7.<.~ ! A A ^ %.w.<.;.A ~ ;.;.] P G G H i F z i z z z z J ] P L B i y z y j k z w y y y y j z z y w 5 5 3 w f k x y w y w w y q i K J ",
"O + 0 3 * w k w 3 * o # @ # ; 3 w j b z q ; * # # ; 2 z z 4 y y y H x j j j g j w w j c i i N L G a u u 1 1 j k 6 f ; # . ' y.r C W.CXtXG.fXgX6XKXsX<X_.4X_.ZXhXvXtX1XgXtXtXwXaXtXtXyX6X,X(./.h.P.,XS.k.F.G.F.F.1.5.F.XX<X~.F.j.W.s.C.^.C.6.6.p.G.|.q.~ V.A.s p.C.Z A | q.Z / 9.5.O.X.k 2 n b w 5 j 2 < u u k.a.u u K a { J u u i i v z v z 2 1 c b y < < q i L C @.[ I t X.2.C.E.C.2X|.E.0XV.D.D ;.zXd.;.D 8.Z.:.8.zXD.g.eX!.OXXX$X2X^.eXd.OX^.J.0XqX#XJ.OXw.}.^.^.OX0XOX|.DXXXr J.E.d.XXwXCXGXhX4X<XtXfXf.wXFXCXjXCXGXaXL.hXNXjXGXNXdXdXKXhX).FXKXtX4XZXGXnXAXGXy.- q s ( A.d d ] / ..s B [ ( P R A R Z A } } R V ! ~ } R Z S } A A R E R R V A A R } } R R R L L L L R } ~ ! :.| ] A C R ] } A R R V V R P B E P B V L L V R P P P A ! | ;.;.} R R L G G G G G G L V R R E P I [ B i U L B P ! ~ %.;.| ! C D V C ! ^ <.<.<.S ! <.<.} R G F v z G z y y j j u P ] P C B B i c y c c j y y y j 5 y c z z c j j 3 w w k Y z y y c c u q q J J ",
"  + 3 ; * w u w 3 : * # # : ; 3 w j b w 2 = ; O ; : 5 j y y k j y b z y w j l j w j y y i z G G ` n 4 : 3 5 j j j 3 $ . q h.9 s #.GXfX!.KXJX4XVXvXhXaX<X>XhXgXZXhX<XsXgXrX4XaX3X1XNXtX(.P.L.>XF..X,XG._./..X<X^.F.j.j.W.^.!.~.~.!.C.C. XG.5.p.F.F.~.g.4.V.d. .A.,.4.1.| 9./ @.9.2.[ G i w 2 2 1 f l k : j e t.k.q q J ) 3.( u n q z ' b z w w c w c w z H 4 q X.A.D 2.O.L P Z } ,./ C.E.E.eX#X0XE.9 iXW.| <.~ J.E.8.Z.J.8.d.eX|.}.D.J.W.~.pX$X|.OXXXE.wX|.E.^.XXqX0XeXeX0XC.OXzX$X}.#Xg.8.G.GXZXZXhXhXKXDXp.f.uXlXDXDXjXNX3XQ.DXjXZXFXAX7X6XGXhX_.FXGXtXgXZXKXZXGXGXi.- t Z 5.A.r / / 1.s p P ( B V R R ] A A V R A ~ ~ S V ~ } } R R ..R L V R } ~ } } ] R R R L L L L R } ~ ^ ;.%.} A R R } } A } } R C R R R L L L L B B P P R R P P R R S S A V L L G L H H I U L V R E E L G I G B U G i B ] } ~ ;.} C V V V V ! ^ %.^ %.~ ;.<.<.! B i G K i i i c z c k z ( ] ( J J G G G F z i c c c y j y y u u v z k j 2 w 5 c H H z G G I G i p i i ",
". # 3 1 4 b K K j 0 3 ; ; 6 : 3 w w g 3 * * % % % : 5 w 5 y j w w w q c b c j w 5 w y t G G G I K q ; : w j j z k w - < ^.f.r s aXGXf.4XLX8XcXFXrXsX<X(.<XNXjXZX<X4XjXNXsXtXhX3XaX1X3XP.h.h.!..X3X>X/.~.^. X$XG.F.~.F.6.f.!. X!.A.C.A.A.s.G.W.Q.W.~.9.4.D.J.5.f.] q.A.! Z ] #.#.[ E G u j 3 @ + f Y ' g g v o.Q.t < p #.1.( u n n u v u z c b Y w @ + l b 2 q K .X..r 3.[ P 1.| ~ ;.q.#X|.XXiX}.kXd.<.W.<.J.<.D.OXE.g.J.D.D J.qX}.J.}.qX|.D.eX0X2X}.2XwXqXE.0X^.#XiXOXXXfX2X!.zXHX:.E.0X}.C.~.ZXNXNXjXZXKXZX!.F.fXHXDXDXZXGXF.!.GXFXZXSXKXrX(.ZXhX).FXjX3XFXNXFXdXAX4X9 9 J d 1.{ ( .. .P < s [ P R R S A A A V A R ~ ~ R R ..:.] A A A R R R R ~ ~ } } R R R R R R L R R } ~ ^ ;.%.~ A R } } A A R } A R ] R R L L U U V V R P L L L P R R A A V V L L L G G G G G L R R R L N B B U U i G U P P ] } } R P C P L C ! ! %.^ ~ S %.<.<.! B G G G i F z z x z z v P P U G i v U [ N i i z H z 5 5 y j c y y y 5 4 w y c c z G z G U P P P B B J ",
"$ 5 c y x I J H j 0 3 : 6 3 3 w n j h : o # o % : 3 g j 5 l z y z z z K K c w 3 2 w y t G G G ) n = ; 3 f k w c c < @ [ D./ r { GX.Xk.LXaX6XLXdXhXhXk.).ZX<XhX4X).aXhXvXyXhXfXhX4Xy._.L.g.p.^.wX2X X.XQ.A.!.~.^.~.~.G.9.f.A.F.G.K.5.p.p.f.~.Q.j./.F.] } J.F.>.R Z G.5...1.Z a t E E I b w f w w w Y ' g w k a k.{ s s 3.@.C i k n e q 4 z z v H 5 + = b Y g 1 < $.S.< ( 1.6.q.<.<.8.w.}.J.|.fXV.J.$X<.C.C Z.J.8.w.}.qXOX#XC.:.|.#XZ.qX!.XXW.XXlXE.,.qXeXkXE.V.|.}.2XqX2XfXxXqXwXwXzXA.g.qXeX6. XlXNXKXsX>XDXfXXXF.F.GXGXNXZXFXh.aXGXFXFXnXKXjX_.DXNX<XKXNXhXGXjXZXZXkX{ - 9 L P #.( Z C ) < < [ P ] } S A A R R R ..| } R R R C R R A A ] R R R ~ ~ } E R L L R ] A V R R R ~ ;.;.%.~ ! } } E A R R A A A R R L L G U E V L R P A A P P R A A } ..E L P L N i i G G V R R R V N U B U U i G U U L L A R R R R ] P P ~ ! %.^ %.^ %.7.;.C G G G G G G G F G z x G P P J z u i L [ U G i i x c y j y z b z k c j 5 z z z z y z i G R } | ! A R ] ",
"+ 5 x x U I i u 4 : 3 : 3 3 3 k n w 3 * ; ; % 3 3 3 5 j w x H c y z c z u w y y w c c i i i G I k * 3 3 6 g 2 y K 7 i G./ ^ Z tXNXy.dXVX1XFXMXrXZXQ.;XjX4XtX3X/.tX4XaXdXNXhXaXNX).+.s.F.5.g.fXfX<X.X<X!.^.^.F.2XwX XF.!.A.p.f.p.f.] 5.!.!.W.p.3.).i.] 1.d.A. .N  .@.1.] ] ( p < B L K b = 6 w k w j : 2 6 j < #.3.{ ( s. .C i k n v v z T K v i c l m j w v v q . ;X+.- f.E.;.<.<.D ~ w.~.XXOX|.| q.|.D.Z J.5X~ A }.2XOX}.fXD.:.}.qX2X2XZ.0X| XXiXV.D.^.fXkX,.#X0X!.zX2X X~.2XfX.XfXfXOXD.XXOXC.wXhXhXgXtXfXwX!.lXwX).ZXCXaXKXaXS.AXZXbXMXMXLXNX>XjXtXhXFXvXbXKXZXjXHX$Xs - a ) { { d ( P a < I L A R ~ S A R R V R ] A P R R C A ] } ] A R R A ~ ~ } E L V L R } A C R R R } :.;.;.~ ! ~ } R A } R V Z R } R V U G L U L P [ A } } A C R A R :.E R V L P B B U U G B V R P L L L B L B L P B L G L C C V R R ] ] C } ! ;.%.;.^ *.7.| B i G J G U U G G L G G G U L F i z G L P L G i i x j w j 5 x K H c y w w z j c y 4 t i L } ;.| ! ! ] ] ",
". 2 w 2 b K z < 2 : ; ; f g w x j 3 = + # # % 8 3 5 5 j y c H T y 5 w c y y c c j z y y G G I ` y 5 1 5 2 j c K y . l.2.,.D k.DX.X>XKX4XVXvX_.KXaXh.NXVXVXCX_.>X3XtXyXhXdXhXfXfX>X.XL.>.1./.tX3X!.2XOXXXG.Q./.~.5X~.K.F.G.G.f.5.5. .] g.!.G.k.s.f.3.Z  .] k.i.< { p.d / 1.P o.2.[ L K K w w n v k 0 l j l v t #.) < a.F.r a K k e v K K i i v v v c H K v _ v u q l.aXr p.fX/ 8.! D A :.J.^.D.#XW.q.|.J.< s |.g.r 2.5.~.E.|.W.OXOX~.0X0Xd.iXD.| eXeXC.f.5XlX2X2XuX}.0X|.0X2X2XwX).jXfXkX^.D.#XV.XXZXjXsXFXNXZX2XG.uX+X>.1XCX3XFX2Xk.FXvXnXJXPXKXSX3X3X<XNXLXbXBXJXjX2X}.W.r @ K ) C Z ..( L k < L ] ~ ! ;.~ A R E R ]  .P L P ] P C A ] R ;.} S ;.~ S A R R R C } ! Z V V A A A S ~ ~ ~ ;.~ ~ ~ ~ A A V A R R C B L L L L E R C A ! ! S } ~ A R R E E R R ] R P P P P P P P P L L L G B L P L L P V V C R R R } C ] } ~ %.%.%.&.=.7.| B i z G G i t G L E E p I U G i t G G P C P B i v c y c u y c c H c q y j 5 1 g w y t B C ....R ( / ..] ",
"X w w : w b x 2 5 w 3 h k w y H l 6 # # 6 % % 3 3 f 5 w y c v i 2 w j y y H H i x z i z G G J G y 5 4 5 y 4 c b + $.3.( Z 6..X4X_.KX4XrXKX(.4XAXi.aXFXvXNX(.Q.tX4XyXjXNXvXgXhXhXjXwX>X/.2XwX>X>X/.L.!.~.!. Xk.G.^. X XF.3.A.^.f.G. .] 6.Q.^.p.!.^.1.] G.s.s.B U Z j.9...@.C B { 2.X.K z u e a K e k Y x v K s $.o.- t.t.J K K e y H H i t ` +.K y k K K i _ _ J 9 - wX>X] Z.Z.<. .,.:.:.OX2XD.D.5X}.<.q.1.- V.+XP  .1.C D.$X8.d.DXE.d.iXXX$X2Xq.E.kXd.F. X$XfXfXeXuX}.2XkXwX2XtXhXhXfX5XkX$XD.#X XlXGXKXMXNXhXfXkX2XwX+XB <XaXP..Xr ,XLXAXvXJXSXKXLXaX>X<XKXLXPXSXKXZXwXZ.| s < P 5. .D ] [ H - p R } ^ S S ~ A V V E ..R P P P P R R R S } ;.S } } } } A R R R ] R C C P R R S } ;.;.;.;.%.%.;.;.} R A R R R A V L P L L R R A A ~ | ~ ~ S A R E E R L R R R C V L P P P P L L L L L G L L R R L V C ] } ] R R ] } } ~ %.%.%.%.0.7.] L G v J H H G L V R [ B G U G G G G G L B P G i z c c v u y c c x z u e e w 5 j w j i ] :.] ! B B P ..! ",
"o 6 ; . # 6 ; $ 2 5 w l z i G ` b 1 # # 6 % # 1 5 j w w w w u y w z b y y K K y z y z I I G J u w 5 w f j 1 k < y h...C Z f..X.XhXtX(.gX3X).KXi._.KXvXNX4XP.4XdXtXhXNXgXyXsXaXsX3X3XtXtXaXwX>X<X2XF.F.!.F.XX^.^.G. XOXXX~.f.f.!.5.! 1.g.F.G.f.G.XX1.Z F.~.@.- t.s.p.j.5.{  .[ s O.+.I J J i p _ a v v q q v a o.X.9 k.[ L J v e K v u i J v a i i J H K u a J J < @ <XkX] C |.%.Z.w.8.<.C.OX2X#XOX0Xw.:.G.r - K.F. .8.8.4.qX^.4.}.lXq.OX#X~.2X#XC.~.F.XXfX}.<X0X2XwXqXXXOX2XwXlXCXtXtX2XwXwXZ.D.qXZXKXvXFXSXgXjX4X3XfXGX<X^.GXuX Xg.Z DXDXAXSXPXKXJXLXNXo.Q.LXKXKXSXKXKX5XD...9 Z d.w.r  .L i t 4 L ] ~ S ^ %.S R R R } R R C R P R R A A R ~ S } ~ A A R R R P R R L P R A R } ;.;.;.%.%.%.%.;.:.} R R R R ] R V L R R L R R ! C ! ~ %.:.~ ] ..} E R V R R R C V L P P V V L P R P L L L L R R P C A ! | } ] ] ] R R R ^ ^ %.%.0.;.C L J G G G I U E V V [ L B G G F G L P P P [ U z G c c z u x c c y c z e q y k k 5 j z ] 4.~ ! N i B ] ! ",
"X o . . # @ * 3 j j 5 u z i G K l 6 # # & # # ; w l l k w w w 5 c H H y 4 y z y q t L [ L G H u 5 5 j j w 4 u + +.3...D | f.I.3XKX1XdXNXk.FX>X) AXZXaXvX).>XyX1XtXNXNXyXsXhXtX3X,X1X4X>X<X4X4XL.XX!.L.~.f.F.~.9.F.~.F.!.!.p. .!.,...6.g.g.A.~.J.!.6.Z  XXXC r k.!.s.d.p.p.3.P I U X.U L o.[ ( #.K K n e p v a ( J X.h.r v i u u b u v ` T t p ` v K K X.K u i i t P 3.wXXX .E.<.0.<.Z.}.4.} q.p.^.eXkXE.5.G.- L ..g.:.<.9.D.q.E.^.E.iX!.J.eXkXeXC.f.0XF.XXXX~.~.lX!.|.E.^.~.!. XaXwX4X5X~.OX|.4.p.wXGXKXKXdXNXKXtXwXlXuX5X!.wXGXDXHXOXj.aXKXhXMXSXJXJXLXhXl.6XLXJXJXFXGXkXXX^ D r 6.W.S D R L F 4 G ] S ^ %.%.:.;.E R R R R C P C R R A S } ~ ! ~ S A A ] ] R V L L L R P V A } ;.;.%.%.%.&.%.;.;.S A E E R ] ] V P L L R R } } ! } ;.;.:.! A R } R V V R R C P R R P V V V V C ] R L L N V P R R A A ! ~ ~ ! A ] C V C ! ^ %.;.<.~ V L B B B N N L E R C ] L a J G i G G L P P P B u x x z z v H c c y y z u q y z j 5 y i ] ,.<.| C N B P / ",
"O o o o # # : j j 5 < t v v H v j ; + + ; 1 ; * k b c y l y 5 4 v v u t c c j c y t L X.L G H w j j w 3 1 j < u y.[ ! S 4.6.;XVX7XFXjX_.NXjX< fXFXrXMX<X,XaXtXwXyXhXdXhXvXNXyX,X,X,X1X1X>XXX2XK./.!.J. XA.A.^.p.k.f.A.L.p.f.G.K.C 1.,.6.f.V.C.A.g.Z 9.5XG.d 1.p.Q.Q.A.G.j. .C ) z v a G ) { ( p _ K i a K ) J a ) 2.) < u v u u u H K u z v K _ v ` v i i a J I [ C 9 2XkX,.q.D.D.<.8.D.D.,.| | d.^.wXlXD.g. ...6.<.w.S 4.4.Z C.W.C.}.zXOX}.0X$X~.F.}.G.C.5X0X5.2XXXD.OX2XuXfX2X3XwXaXwX0XG.XX|.^.5..XFXVXFXFXKXFXsXGXlXwXCX2X XuXDXDX^.s.aXNXgXFXJXAXMXLXAXP.>XKXFXnXKXKX4X^ *.d r ^.E.r N R L t t P ~ ^ ;.^ :.} E R R R R R R C R R R } } ~ ! } } } } ] R R R V L R P V A ~ ~ ;.%.%.%.%.%.;.:.^ S A E } A A A A R R C R A ~ ~ } ~ ~ %.:.} A A A A V R R R R R R C V C P R ] R A P L L L R R ] ] ] ! ! ~ ~ ! ! ! ] R A | ;.^ / ~ C V L C C C R L V } } } ..] B B i u N L R ] ( B i i z c x c y H F x y y c y c y 5 c 5 y N A ^ %.~ C B i P ] ",
"o # + . . # 3 f x j y v v u y 2 * # ; : # % ; ; 5 j y y c w w y K i t u v z y y u i P [ R G c 3 f j 5 5 5 j < r.y.s / | | p.VXVXcXKX6X<XGXi l.KXNXMX4X1XjXtXyXsXtXdXdXhXgXsX4X1X,X1X1X4X>Xh.^.XX!.^.G.G.A.p.s.Q.^.k.G.F.6.f.!.L.d.g.p.,.,.5.5.G.f.] j.}.1.] #.p.Q.G.4.9.p.9.3.J i U I J J [ ( a _ J s s _ _ a a ) X.G v q u v Y b j w q k H v q < z v I K i i ) i.C 9 ~.fXj.4.d.V.9.4.| A ,.E.qX}.^. XiX}.D ..} ~.4.<.<.,.4.9.! 1.q.Z.iXxXC.XX}.XXOXJ.^.eX2XXX!.f.xXkX2XeXfXkXlXkXkXfX4XwX2X|.eX^.kX!.(.aXsXZXNXKX4X>XHXKXzX2X2XfXzXDXaX_.{ aXhXVXKXAXMXMXLXAXI /.KXKXnXLXGXD.^ P < ,.E.,.V C O.z < P ..! ;.S ~ } R R S } } } } C R R A } } ~ ~ ;.} ~ ! } } R C V R R R A } } %.%.&.&.%.%.%.%.;.^ S A R R A A C A } ] A A } ~ ! A ! ! ^ :.;.} A A A A A R R R R R R R R [ ] R C V C R R E R R R A R ! ! | ~ ~ } ~ } } A ~ 7.<./ ! C L P A ~ } } } V A A R ] L a U L B B L P C B B G H z y v z 4 F z z z c c y x z 5 j j N B } ~ ^ ~ C N i U C ",
". * #   . * 3 w f 6 z T x 5 : ; # + ; : + # ; : 3 f w c v y y i I a t i v z y y c a R } R G 5 : 5 5 5 5 j k w +.G a Z C Z wXKXsXFXsX3XAXi.9 FXMXAXjX_.hXvX6X4X3XhXhXtXyXyXtX6XtX.X>X>X1XwX>X+X^.!.XX^.g.f.p. .F.XX X!.f.A.A.f.j.~.F.F.q. .5.5.F.f.5.C.@.9.d.] d.A.W.] / f.p.O.J q b K a a J I I v J ) _ ) _ s p I U K ' q y v b j 2 1 w e u u e 1 z U I X.i r ) p. .] 9.2XqXg.| @. .3.] r 4.~.OXW.q.2X#X}.w.;./ ] Q./ ,.d.9.Z.,.Z A.q.V.iXiX X X~.^.#X#XJ.G.2X<XG.qXkX|.eXeX5XuXwX5XuXfXwXDX2XW.8.|.kX X/.2X2X5XhX2X+XwXDXjXjXwXlXfXhXFXZX<X,XjXtXNXFXKXJXSXLXNXC Q.vXJXcXKXHX..r p r C 5...R W b 4 B ] ! %.S S ;.;.} S A S S R A R A A S } ~ ~ | ! S A } } R V A A A A } } ~ %.%.^ ^ %.%.%.%.^ %.~ S R R R A A A } } A A } ;.S A } ;.%.%.~ R A ~ ~ ] R R R R R R R R R R A C C R R R R R R A V A R ] ] } } ~ | ~ } } ! ^ 0.0.%.! C P A ~ ;.;.;.~ ~ S S R R L i B L L L P L C C L G K i i v v y z z c G G y y c x y y G / ! ,.<.;.;.] C i L Z ",
"  X o . . # : 3 0 = v ` y # O > 3 # + * # + # ; 5 f w z Y c t i G J i y y u y y p B ] ] R i 6 : f ; f 5 w w K u p L N s 3.GXsXAXvXtXjXtXt 3XKXbXFX>X3XNXdXsX8XrXgXrX,X>XtXdXyX4X<XwXtX.X<XuXXXp.G.OX}.5.G.G.1.f.!.2XF. .j.<XF.p.j. XF.6.5.p.f.k.] 5.g.Z j.W.@.j.@.p.3.p.s.#.[ J e b v i G J J J a _ X.a v J J [ [ i H c j k c - 1 k k = : b b = . y W K I a r { C C d.|  XfXq.| ] r Z d C W.^.D.C.D p.lX|.| }.4.9 9 ~.,.| C.9.q.r 5.!.,.J.qXE.g.OXOX|.0X XiXwX5X5.!.kXiX0XuXwXfXwXXX5XlXfXzXiX9.|.D.#XlXfX>X+XlXwXt.L.lX2XCXNX.X1XNXsXaXCXAX3XaXDXaXNXKXSXSXJXLXfXW.l.rXAXAXKX$X9 ( 9 r  .9 B p v J p B ~ ~ ~ :.;.} } S } } } } A A A Z A } ~ ;.;.} } ~ } } R A } S A R } ~ ! ^ %.^ ^ %.^ %.%.S %.%.~ S A } } } A } ] Z A :.:.S S } :.~ S S R } } } } R R R R R V R R R C C R } R A A A R R R R ] ] R A A ] ~ } ! ~ ! ^ %.0.7.^ A A R A ^ ;.<.%.^ <.;.~ } R L G L P R R B V P ..[ G I G z c c v y i i H H t y y c c i ( ,.;.;.<.;.;.} P i a a ",
": +   . # # # * k k J K v 1 % O + ; # # ; = ; + # f z l j 5 u U a p t y u c c i N ..} V J u 1 w 3 ; 3 3 3 = K B @.6.B < aXGXrXLXjXhX3Xo._.FXAXSX6XtXjXsXdXvX7XcXsXyX(.,XdXgXjX4X1XhXhX>X<XXXL.>X~.!.F.5.5.!.A.G.~.!.p.p.k.G.!.Q.^.F.5. . .G.F.3.Z 5.5./ j.G.W.Q.p.1.p.f.6.{  .2.K < u o.I [ L U J K J a v v s J [ t y x u l b 3 % 8 5 8 ; * k 0 < < t y.+.J a B B { B P G.XXg.q...,.6.C ! 9.d.d.d.E.} ^.~.r < XXt.P < ~.E.^ 8.q.q.r E.|.E.J.E.8.E.0X|.XX0X0XDXwXD.C.kXzX|.fXDX2XkXfXwXwXuXfXCXE.q.OXD.wXlXAXtX1XwXwXA.0XlXlXNXaX3XZXhXhXjXaXjXtXGXDX3XCXJXSXSXKXKXaX1Xh.ZXFXAX4X( D @.d [ ( B L 4 G i V R } S %.~ } } S ~ ~ ;.;.R R R } } S ~ ;.S } } S S } } } ;.~ ~ } ~ ;.%.S S S ;.<.^ %.;.~ ;.~ ~ ;.} A A A V R A ~ :.! A ] A C A A } R A A A A R R A R A R R A A A R R R A R A A } ] V L R [ A A A ~ ~ ~ ~ ~ S S %.^ %.%.^ A } } ~ <.;.~ %.:.^ %.<.:.A B [ ] ] ] ] A ] L p B B U U F z v y y x x y y x v y j y i ( ;.<.<.%.<.~ V U i p B ",
"* : * . + # + + 3 y J P i 1 * # . # # ; o # : ; % 5 k c j y i I P i y y y c i i ! :.] B G w 2 k 1 ; 3 8   z k.d ,.D < y.FXaXKXnXNXhXi.k.NXFXnX7X;XsXjXjXsXrXdXbXrX6X3XdXvXyXyXyX3XtX3XXX5XXXS.h..Xf.A.^.h.A.A.~. Xg.p.<X!.C t.k.#.F.6.1.p.6.^.1.C 9.] p.W.9.W.G.9.p.f.f.1. . .O.) u t v I +.P B I I J u v v p B y.J c x l k w 1 6 8 f ; 5 g # 0 T K J $.( P o.) 3.L - < 1.OXW.| ,.p.G.d.,.6.G.C.d.w.} - J.I.< h.2X5. .< W.d.C.J.d.! ! !.Z.D.'.8.8.}.D.}.#XD.2XwX~.$Xd.|.#X! eXkX0XzXfXkX4XwXlXlXA !.~.OXlXZXFXvX>XhXXXG.}.DXGXCX4X4XfXjXtXFXfXfXfXZXhXtXFXJXKXJXLXMXfXfXS.ZXGXGX#XD ..C L O...] G i U p A ~ %.<.^ ~ ~ } ~ ~ } ;.R R S S ~ ~ ~ S ;.R R ;.;.;.%.^ ! S ! ~ S ~ ^ ! %.S ^ ;.%.%.;.~ ;.S S } } A A A E } S S | ! A } P P P R R R R R R R R A R R R R A A R A R ] ] A R R A } ] V V V P C R } ~ ~ } } S ^ %.*.^ %.<.;.S } ~ ^ *.*.! S %.<.<.%.:.C B L C A A ! C P J i P L L U F x v y y z c y y c x c y y i C | *.<.<.| ! B L p i i ",
"# : =   . + # # 1 y J L i q ; # ; ; ; # + ; ; ; ; 5 y y y y z U ) a y w c z G B  .| Z B z 5 5 k y q = . ' h.3.C  .< Z 3XFXSXKXvX4XP.P.3XFXNXgX>XrXgXdXgXrX7XbXbXrXrXdXNXyX1X1XrXtXaX>X.X2X2X<XQ.A.f.L.<X.X~.L.L.h.h.G. Xa.B 3.S.f.A.p.p.g.5.XX9.6.@.Z G.G.1.s.@.1.3.9.3.6.5.1.P ) K u q H ` J B I K v q v K v ) O.G y 1 e e = # 8 5 5 * f l O 6 +.O.C C r s ) J f.!.B <  .~.~.~ d.d. . .f.p.g.D.D.C.Z < L.G.>. . X..!.r < pX!.~.!.J.~ C 8.8.J.}.<.w.J.#X^.OXq.lXXXJ.E.OXiX6.D.lX!.<XCXlXhXfX2XDXK.g.2X~.DXCXLXLXgX3XK.2X2X~.DXlX<X2X<X3XtXjXGXtX<XaXKXgX,XAXJXJXKXKXtXlXF.3.lXKXlX| r D P O.{ C L N 2.5.D %.%.&.^ ~ } } %.~ } } R R S S } ;.;.! ;.%.~ ;.:.%.^ ^ ^ ! ! ~ S ~ %.%.;.A S ;.%.~ } ^ ;.S S } } ~ A } } ~ S ~ } } R R R R R R R R R R } } S R R R E R A R } A R } } A R } A } ] R L B L C R } } } } } S ~ 7.<.^ %.<.%.S R S ;.;.%.S S %.<.:.S ] C V B C A A R P P G a L L G N F H b y u i i i i z z z j c i B / ^ %.<.<.| C B u v J ",
"; * .   . . ; 3 2 u P C L z 1 % ; ; ; o + ; ; : ; 3 w y x z z G J i y y b G G P ,.! N G z f j w G t < z.+.t.P }  .r 6.wXrXLXvXtXS.L.I.gXAXvX>XsXNXgXgXgXsXvXvXrXrXgXvXgX6X1X4X6XsXtX>X3X4X/./.L.f.!.A.F.!.h.k.2XL.$.g.Q.G.L.s.^.!.h.h.G.g.f.~.9.p.C | 9.5.s.W.p.C 1.s.6. . .{ ( J ) v 4 c v a G K K v e v K v K J K z * w k - = j 5 ; 1 3 h : : v o.( ( ] { a r ] J.2.C ( G.|.4.| | Z d Z ..q.D.d.q.5.] R p.R N >.K.5.J.r  .fXG.OXJ.8.} 8.<.b.'.}.8.|.|.}.eX .f.xX!.0XzXzXiXC.iXwXp.wXlX2X2XuXlXNX[ 2XJ.fXCXMXFXhXCXwXf.qX|.^.CXwX2X4Xk.).CXFXfX4X<XtXLXhX4XNXJXKXKXAX3XwX#.hXjXHXs.- ..] N s #.r - >.f.,.S ;./ ^ ~ } ;.%.%.~ S S } } ~ } %.%.;.:.%.~ %.%.%.%.%.;.%.~ ;.~ ~ ;.:.;.S S ;.;.~ ~ ! %.%.~ ;.} ~ } ;.%.S S } } } } A R R R R A R R } } ;.S S R R E R A } } R A } } A A R S R } R R V R P A } } } } } ! ;.<.<.^ %.%.^ %.%.~ :.<.<.S A :.:.} C V [ [ V C R } } R R U G U P L B G G x z i i i i H z u c z j z B ! %.%.<.<.~ R B i H G ",
"3 ; . . . . # : j G P ! [ I = . # ; 3 ; o # + : 1 2 5 y J I G i i u y c z i L } ~ C C J c j w w I W :Xy.$ K.] C.C 3.6..XKXAXNX_.wX2XS.VXAX8X1XZXdXsXvXdXdXnXsX4XsXVXgXrX4X3XyXrXaX4X3XtXtX).h.t.G.S.p.F.+XL.F..XL.2.P.Q.h.I.L.G.+X+XA.S.A.~.W.6.5.d s.1.( O.9.@./ g.G.9.C Z / [ P ) v y y c v v v z c j Y T a v a v k 2 j Y w w w w ; 3 f 3 h 0 v _ J { 5.3.( Z }  . .5.Z 9.qXC.4. .1.1.] C ! Z.V.:.G.P < L.} 5.f.>.:.g.D.$ i.3Xg.}.g.8.<.V.7.H.OXZ.w.oX|.}.~.A kXeX8.#XeXeXiX0XlX0X XlX5X5XjX3XLXu.K.2X^.lXgXVXJXDX<XJ.fXiX!.2XlXF.DXwXL.DXtXZXjXNXF.3XLX1XwXGXSXJXFXhXwX!.L.ZXLXkX/ ..C  .Z .. .< r ..:.D ^ ;.%.%.~ S :.;.~ ! S S S ;.~ ^ ^ %.%.%.;.%.%.%.%.%.%.;.:.;.:.;.^ %.^ ~ } S S ~ ~ ~ %.%.%.;.~ S } ~ <.%.! ~ S } } R A R R R A A A A S } S } } A R R } } } A S } } R S A R } } R L L R R R S ! :.:.! ~ ^ %.*.*.7.<.^ %.^ %.%.<.*.^ ~ } } A C P V R [ R } } A R R U H U P R L L i c x z G i y v z u i b z F P | 7.;.<.7.| ! P v v G ",
"# # + . + * ; ; w G C !  .U = + # ; 3 > ; # o # 1 4 5 y K ) H v t y u k u p Z ] | A P z y f 2 c y.P.r.+ ) P p.f.N h.P ).LXNX_.).jXQ.sXFXgX7XbXyXcXbXcXrXsXrXrXgXvXMXyX4X3X1XtXrXtXtXtX6XsXsX>XL.S.k.F. XF.s.L.+Xi.a.s.G.h.I.I.K.~.^.L.G.K.2X$XF.( r 9.#.] Z  . .6.p.p.1.] ] ] P P K u w c j b v u k j w b v u _ v q 3 w k n q q b b w 2 w 0 ; ; e p 9 B  .3.#.1.g.4... .Z d q.,.| ! 6.d.F.f.D C <.| 1.B - O.f.] t.r D | C.,.- k.OXkX|.D ! |.J.|.w.J.J.'.Z.OXwXG.p.pXW.J.uXeXkXfXwXzX}.5XlXfX2X_.hX,X..fXf.wXNXVXFXZXDXg.~.}.E.#XuXf.#XxXOXwXlX4XGXAX5XC tXLX/.lXLXKXtXNXFX3X9 s 3XKX@.D ! C ] { f.] < V C A D ,.%.%.~ ~ ;.;.%.~ ;.S S %.;.%.^ %.^ %.;.;.%.%.%.%.%.%.;.%.%.^ ^ %.~ ;.;.} R S S ^ &.&.~ ~ S S S ! %.%.&.~ S } } S A R R R A A A S } } S R R R } R A S ~ S ~ } } } } R } } R R V R R R R } ~ :.:.^ %.^ &.*.*.0.7.%.^ ^ ^ ^ *.^ ^ ~ ! ] R L [ R B R A ! ~ A A A L G L P R R L u y x G G i t u i i z z z i B | <.<.0.w.<.| P i z G ",
". # o . + % ; ; w K ! ~ :.B 1 * # # # : 3 ; ; ; w y j j J I G z y y u v u t Z | } R I y j w < T 1Xk.. @ a s aX1.9 t.P.FXGXaXJ 4X1X>XKXhX>XMXnXgXBXBXdXsXrX6XrXjXvXdXrXrXtX3X6XyXtX3X4X6XrX7X.X,X2XL.L.<XF.p.F.~.>Xh.O.Q.2X/.p.L./.L.~.^.A. X~.A.] s P I ] B  .2. . . .{ ] #.@.Z a v u c j w k k e b n w 0 w q ` ` u 2 w e 9 0 k v K n 1 w f # * z I G ( [ [ J [ q.C.| Z  .Z / q.@./ ! ] ..W.F.,.D  .5.#.- W ~.d p i N } 6.!.1.< ^.2XzX}.C ,.w.Z.b.^ '.|.}.J.^.}.] !.2X} 4.D.C.OXDXuX2X XiXwX2X<X.XhXP 2X~.!.uXhXFXlXGXCX}.J.^ eXDX#X<.wXzXOXfXhXh.GXGX_.5.kXGX/.VXKXZX<XhXDXaXz.e 4XG.d ~ ! ( B  .( B V [ ( B Z :.~ ~ ;.;.%.~ ! ;.~ S %.;.%.%.^ ^ %.%.%.%.%.%.%.%.%.^ S ~ ^ ^ %.%.;.;.;.;.S ! %.&.&.&.%.S S S ~ %.%.%.%.~ ~ ^ ^ } R } } } A ] A R R } R S %.%.;.~ ~ ~ } ~ ~ ~ } S } :.S A R R R P R } } ~ ;.;.^ ;.%.&.*.*.0.w.7.^ ^ ! A ^ ~ ] ] C R R L [ E V R ! ! ~ ~ S ] P L B L R R R N c F H G a i t i v i z G i Z ^ ^ %.7.7.<.| ] z y i ",
". # + . . . # : w I } | ] t - : % # # 3 : + ; w y v b z B L B i v k i v z p Z ,.] V U y j j < r.6X+ @ $ B 3.wX ...Z <XLXtXi._.NX(.hXNXrXvXMXmXdXmXBXbXgXrXrXdXrXgX7XyXvXhXtX3X6X1X4XyX6X>X>X).<X_._.^.).L.F.~.F.~._.G.s.3.p.f.<X.X~.p.G.OX!.^.q.Z ( J X. .1.....] ] ..P P 2.2.J < i z k e 3 0 w 2 l l 3 w j q n v e w w 0 9 v X.i v u 1 w w ; : y y.2.[ o.G 9 C 4.| ! C C  .q.4.| | ,...C 5.q.] ....p.F.p B G.6.< G a...:.8.J.] 9 g.qXlX5.| V.8.q.w.b.|.J.D.E.C.! ! |.g.r D ,.5.fXlXfX~.~.wX2X X5XlXp.k.fXf.<XlX4X3XfX5XwXxXE.<.D.DXw.V.eXwX2XlX/.P jXKXf.A.DX2XQ.GXGXtXhXaXNXFXsXl.W.d | ] d o.s C J p -  .C r ,.~ ^ ;.;.%.^ ! ~ %.;.%.! %.%.^ ;.^ S %.%.%.&.^ ^ %.~ ! ~ ^ ^ %.%.! S ;.:.;.} :.%.%.%.%.%.%.;.;.%.;.;.S S ! ^ %.} R } } } } ] } } R } S S ;.%.;.;.%.;.;.} S S S S ~ :.S A } } E P R ~ %.%.%.%.%.%.<.*.*.-.=.0.7.^ ~ } C ! ] ] C V R R L V P ..R } ! | | ! } ] P B L R R R V N i G G v J i i i u v I V ! ;.%.*.7.*.7.;...F y N ",
"O     o + . # 1 4 p ! | a 1 # + % # * ; ; 3 f w w u i J ] Z L G u u i J z N ] ..R R i j w z + (.r.  # c N <Xp.:.D.D 1XKXP.P.GXsX>XFXdXsXNXvXBXcXmXBXbXrXrXdXrX6XrXhXyXsXvXsX3X1X,XtX3X<X>X3XaX(.Q.L.).S.f.L. XG.i.^.i.( [ t.Q.<X<XL.2.p.2X/.j.@.B p.p.O.( f.p.@...]  .[ G y k ` u i i u n b k 3 g 3 0 k Y 4 q I u < w l 9 a ) a s v ` k 2 3 b ' i a i p B t.) 9 {  .5.f.1.:.,.| @. .| | ! ..5. .]  .#.{ ( @.9.d.< G y.1.6.S w.V.S r p.fXuX..] D.w.<.V.D.D.w.|.XXD.! C.!.E.,.! V.J.HX2XW.2XfXwX5XfX5X X] fX2X X X>XaXlXwX!.wXfX2X<.E.xXD.OXXXwX5X<XZ [ ).wX<X3.GX>X<XKXKX7XjXwX3XLXrX7 s a [ Z ..i i 4 i t r ..D ! ^ %.&.<.%.^ %.;.%.^ %.%.%.%.;.^ %.;.S S ;.;.%.%.^ S ! ^ %.%.^ %.%.^ ^ ~ S S S ~ ~ ~ } ;.} %.^ ~ ~ ~ ;.;.} ! ^ ;.;.%.} } ! R } A } } A } } } :.! %.%.^ S R ~ ~ ;.;.~ ~ } S A } V } ^ ^ %.&.&.*.<.<.*.*.*.7.0.0.*.^ A V A C V P B E [ R V E } P Z C ] ! ] P C L L P P P V L L N i i J J c H z i v a ! ~ %.%.%.%.0.*.%.:.P t N ",
"    . + ; : 3 6 y L | ! q = ; ; ; # # # ; f l x y i i P | ] J u y K v J H G C ] Z R z l c 4 G (.0 X w w ] XXZ A 8.d.ZXNX;XVXFX1XFXcXsXgXBXbXcXnXdXcXgXsXgXvXsX6X6X4XrXsX6XrXgXtX>X3X<X).>X4X4X)./.<X>XQ.O.t./.s.{ $.{ s ( p.G.3XQ.5.G.>XXXW.p.C N 1. .5. .p.C.1. .1.y.[ 4 + @ u +.I v i k u w w ; g k w j c X.y.v c c w 0 v ) J a _ ` z 5 c K J +.3.B B C P [ C r Z 6.p.q.V.,.C ] .. .@. .] 5.f.3...{ { Z { q.4.B p V O.1.} | V.V.q.D a.CXa.$ } Z.b.<.D.V.J.#XkX#Xq.C.D.OXiXd #X}.D.lXD.0XuXuXuXfXfXaX(  XwXf.F.2XaXCXDXS.L.fXzXxXE.zXqX2XxX<X2X~.3.] ^./.aX^.S.DX_.AXGXgXNXwXwXNXKXP.- - J ..R F w J v [ D  .C C ~ %.*.%.^ %.&.%.&.%.%.%.%.~ ;.;.%.%.~ ^ %.&.^ ;.%.~ ^ ^ ^ %.^ %.%.%.;.;.%.~ } ~ ~ ~ } ;.~ %.^ ^ ~ ~ ~ ;.;.%.;.%.%.S S ~ ! } } S } } S } } ~ %.^ <.<.&.S } } ! %.%.! A } A S } A ~ %.7.7.7.7.=.-.7.7.7.*.=.0.0.*.~ } ..R V V P L P L L E E } A ] R R C ] P P P L P L V P R R V z i B B H K z i B C :.<.&.^ ^ ^ *.*.*.%.R i i ",
". O . O ; 3 ; * z I ..C q 1 3 0 : ; ; ; 2 g x b i N B L C C J z z Y H t t L ] ..] ..i w q - h.z.  l g @ A.~.Z r S 2XZX3XdXAXrX1XMXrXvXFXFXMXdXcXdXdXdXdXrXrXrX6XsX6X3XtXsX4X<X3X3XwX<X_._.1X>X/.4XwX_.k._.L.G...( r B i.3.a.!.XXh. ./.5X^.F.p.Z  .1. .s.,./ 9.5.Z ..$.X.- @ w v b a a v i y u b ; l b w 5 c $.i.a K k 0 e b i i J J J t i H H t O.( #.{ Z ( ( f.@.@.4.<.<.D.d.@.d  .3. .] C ] @.2.X.$.L.s.o.@.@.(  ...] 6.p.} ! D.|.4.R F.wX5.r 4.Z.Z.<.E.E.0X}.D.|.A E.|.5XJ.d.eXD.iXeX}.5XqX0X0XwXlX .] lXf.~.^.tXaXfX>X.XXXfXxXfX| xXOX0XHXg.5XlX9.2XlX( ^.W.!.fX.XFXAXsXGX1X3XKXCXP @ a  .Z t < ) ] 6.A R C Z | %.*.%.%.%.*.&.&.%.%.&.^ ~ %.<.%.^ %.%.%.&.&.%.%.^ ~ ^ %.%.%.&.%.%.;.%.%.%.%.~ ~ ~ ^ %.%.%.~ ^ ^ ^ ^ %.%.;.;.%.;.%.~ ;.} } ~ S ! } ~ } } ~ %.<.7.7.*.%.S ^ %.^ ~ ~ ~ S A A } ! ~ %.0.w.n.b.0.-.=.0.0.=.7.0.0.*.~ R R C V V L R P V L R ..E A R R R ] R R R P L L L L P ] ] C B N C B G U F s Z S %.<.%.%.;.%.<.7.<.~ R i i ",
"O O . . : 6 # $ c J P B y w g g 6 : 3 5 w y c i B L i a N s G H G z c 4 7 E  .} | ] i u q y I.z . m - - 2Xd.5.d 1.kX>XrXrXvX>XdX>XgXSXSXVXbXcXcXdXcXgXgXrX4X8X1X6XrXtXhXtX1X,X3XaX3X).)./.3X2X2X3X.XP.P.2X>X5.P O.{ h.L.5.s.Q.G.^.3.G. X XG.1.Z  . .1.f. .C 6.5.{ B J I i v H u ' J v K _ v i e e v v k w q { $.p K k e m j 2 q _ v J H +.+.X.i B d ( 2.( ] 9.4.9.q.C.8.^ d.q. .] 1. .Z C | | ] L l.X.J i.y.#.| 1.5.] N  .} A ! w.4.g...K..XwX! Z ^.E.E.E.XXuX}.d.OXD d.E.9.$Xg.D.,.4.eX<.0XiX0X~.$XzX XZ fXp.~.XX4XtXhX4XuX5X XfXfX#X}.eX~.XXkX3.xXHX| kXfX1.$Xf./.2XfXGXAXNXjX<XtXGXL.@ C 6.Z p < i ] ^ :.N B P  .%.%.*.*.*.7.&.&.%.%.^ ^ ~ ~ <.%.^ %.%.%.&.*.%.^ ! ~ ~ ;.;.;.%.%.%.%.%.^ ^ %.%.%.&.&.%.%.;.;.%.%.%.%.^ %.&.%.%.;.;.%.;.:.;.~ ~ ~ ~ S S S ~ %.7.7.0.7.%.^ ^ *.^ ;.;.} ~ S } } ! ~ *.7.w.H.H.v.=.0.0.7.*.*.=.7.~ A V B C B B L [ E P L V R R } R R R } ] R R V G L P P P ] ! C Z V R P G G G J | ^ *.<.<.<.%.^ ;.,.;.} P i t ",
". + . # 5 5 6 2 4 z G t c Y l 3 ; ; 1 w l z z i O.P i G U s i i z y j y B [ ] A @.C u v < +.P.. b n . h.wX/ ] Z  .>XNXMXrXaX6XrX1XVXSXbXbXbXvXgXdXvXrXsXgXgXdXrX4XrXdXaXtXaXtXtXjX>X_.<X).<X.X<X/.S.L._.,X/.k.#.2.k.^.6.5.^.1.k.W.!.s.f. XF...] @.@.s.1.] 1.1.#.1.#.B i X.) u v T n a v _ ` _ v e n b u e 4 ) t.q w w l b u q a K v k i z u K I ) C { t.[  .1.! ,.q.q.q.q.C.q.] { ]  .]  ... .{ L p p J v $.k.Z | d.!  .f.A.5.| / ,.~.f.1.p.fX~.9 4.|.iXJ.V.OXeXJ.#XJ.D #X#X#XXX~.~.| 0X| C.qX2X X2XfXfXC ^.6.p.fXwXsXDX<X/.wX^.0X2XwXOX X}.~.0XqXG.DXwXG.HXeX6. Xp..X4XDXlXAXZXNX3XZX2X9 - Z @.P 7 t V D <.Z B P ..;.&.*.7.*.*.&.&.%.%.^ ^ ~ ^ ;.;.%.%.%.%.%.%.%.^ ^ ~ ^ %.%.%.<.%.^ ^ %.%.%.%.^ %.%.%.^ S S ;.%.%.%.%.&.&.&.%.%.%.S S ^ %.&.%.;.~ ^ ! S ! ~ ^ &.0.0.*.&.%.*.&.<.%.! S S ;.:.} ~ %.*.b.b.Z.H.v.v.v.0.=.*.=.*.&.^ ! R R ] R P L L E [ P V R R A } A } } A A R C V P R C C ! ~ | ! } } ] B N B [ ] :.<.7.*.%.%.;.| ] ;.} C a B ",
". . . + f 5 ; 1 1 5 u y H Y j ; ; : 1 w z z v B ..P a H P B B B i c 4 y O. .S |  .s t u @ l.r.+ Y = X .X$X,./ ( P 1XKXrXZX(.rXgXVXVXSXMXvXbXbXvXMXbXrXyXgXgXvXgXsXgXsX6XtXaX4X4XaX<X<XwX.X<X<X.XF.G.P.>XwX>X.X^.p.A.A.5.f.~.#.p.Q.2XQ.p.~.d.Z 1.5.] 6.C ] 5.1.1.p.1.[ ( ( ) ) ` n v n u u v J J u u v v j < J k.$ # 2 v a i a b e w j j j w u v a i X.#.{ #.( @.q.D.w.w.d.C.f.j./ ] 1.5.1. .] Z  .B X.` 9 o.S.p.,.D.q.A.5.q.,.q./ ,.A.<X#.Z .XlX .< ^.#X#XE.}.}.Z.OXqXw.E.|.OX0XuXwXp.|.5X| }.0X X<XwXhX( 5.~.C.zXuXaXlX3Xh.<X2X2XwX2XwXfXwXiX^.G.5.<XCX XW.GXp.k. Xk. XfXGXAXcXKXAXwXfX1.< < ]  .Z i p S %.} Z s ] ;.&.*.7.&.&.&.&.%.%.&.%.^ ^ %.&.%.^ %.;.*.%.%.^ ~ %.! ^ %.^ %.%.^ S %.%.%.%.%.&.%.%.&.~ ;.;.%.%.%.&.&.&.&.%.&.%.%.^ %.%.*.%.%.~ ~ ^ ~ ~ %.^ &.7.7.*.&.*.*.&.;.%.! ! S ~ } ~ S ^ 7.H.R.H.n.b.v.0.0.0.0.7.*.&.^ ] R R A C P P L L R V C R R A } } } } ! ! A A A R ] ! ! ^ ;.7.<.<.| ! V V B ] ! %.~ ;.<.;.<.4.C C A V p a J ",
". . . . k k = 1 ; 3 5 w v b w : 3 3 6 w z v G L ( C i v P ] ....s F 4 i  .| S <.P p y y 4 z.l w b . e ).C.w.@.s y.AXgXdXgX_.rXVXJXBXSXVXbXbXbXbXgXdX7XdXvXgXcXgXcXsXbXNX4X3XrXtX3X<X4X4X>X X X^.k./.>X3XuX>X/.$XW.A.A.~.G.p.p.f.!.Q.j.s.G.1.C D.9.1.9.Z 1. .O.5.s. .]  .@.3.#.G k j u e v v J v k i v u z 4 a P.q - u K J a k n 3 : : : g 0 u K i X.i P { { / / ,.C.Z.q.Z Z / s.s.6...!  .6.6.] 5.t.+.I h.{ P 0XC.|.2X>.r ! ,.W.E.p.9.~.4Xt.a.wXlX..D ;.Z.qXeX}.D.XXeXV.^ #X5X XjX>X<X6.zXD.6.J.|.OXwXhXG.{ XXC.wXtXhXtXuXF.OXfXXX<XuXfXwXlXuXzXZ 9 wXkXaX_.fX.X3.2XA.f./.KXAXFXJXKX).F.L p p Z ;.A B J C ^ <.D r ] <.-.=.*.&.&.&.&.%.%.%.%.~ ^ ^ %.%.^ %.;.*.%.%.^ %.;.^ %.%.^ &.%.%.&.%.%.%.&.&.&.&.&.%.;.;.%.;.%.%.&.%.%.%.%.%.%.&.%.7.<.*.<.^ ;.<.~ S ~ ~ ^ *.*.*.*.%.%.*.*.^ ^ ~ ;.S S ~ ~ S &.7.H.`.H.n.0.0.0.0.7.7.*.%.^ ~ ~ R R A ! R R L L V A R } R R } } ~ ~ ~ ~ ~ ~ | ^ ~ ;.<.*.7.0.7.7.*.^ ] R B ] :.;.! ! <.| } ] s s V V a s p ",
"@ @ . . l Y 3 ; # 5 w 2 y k w 6 3 3 6 w z G L C ] ( i i P ] ..Z a G q i  .S S :.a i b y K z.@ Y 3 . _ !.q.q.#.9 _.KXgXJXP.(.FXFXMXSXVXVXSXbXvXbXbXdXyXgXvXdXsXsXgXbXVXhX6XtXdXgXtX>X<X3X<X~.Q.Q.G.^.1X4X<XS.s.~.^.G.!. XG.p.G. XG.p.j.,.,.,.,.p.d q.C.@.9.6.f.f.Z ]  .@.q.q.] a q j l k k v J H k K b < v u a h.X.J ) o.J a k e k 0 3 w g @ : b X.+.O.L ( s.1.4.6.w.D.d.}  .,.p.d.,. ...C N C 1.p.2.B t h.S. .+X~.,.5XC 5.p.q.D.C.W.f.6.<X<XG.p.wXF.} #XV.oX'.<.w.OXiXE.;.w.d.!.uXjXkXG.^.fXA.F.A.2XwXwXwXC C.F.^.fXfXuXjXp.~.uXuX3XhX.XwX2XOXG.2XS.d 3XGXhX^.hX5..XwXA.] >XGXSXAXAXGX2XP.- X...;.| s { d Z <.D s  .<.-.=.*.&.%.%.&.%.%.%.%.%.%.&.&.%.%.%.%.%.%.%.~ %.;.;.;.;.%.&.%.<.;.%.%.%.&.*.&.&.%.;.:.;.~ ;.%.%.%.%.%.*.&.%.%.&.*.=.*.&.<.S ;.;.^ S %.<.%.*.7.*.&.&.*.*.-.%.^ ^ %.^ ! ^ %.&.%.=.v.H.H.n.=.*.7.7.7.*.%.%.^ ~ ~ A A | } ] R R V A } :.} R A ~ ~ ~ ! ~ ~ ;.<.<.%.*.7.0.7.0.0.7.<.*.%.| } C ] 7.<.~ ! ^ S Z Z ] C P P [ J p ",
". + . . l j + ; ; w w # w Y 6 3 3 ; w 2 y I R A 4...J J / ] P i u k t X.} C ~ } B y y - y.y.= H . w $.{ ^.1.C @ hXFXFXcXP.sXMXvXAXJXSXAXAXbXBXAXbXgX7X>XsX4X1XgXNXMXvXsXhXhXaX>X4X3XwX4X.X^.F.!.~.XX1XtX).S.F.F.<X!.W.!.A.p.XX^.p.G.f.4.p.C q.q.! d.4.! 5.F.^. .@.1.j.4.| q.5.{ i e 2 1 y k H v v u v v X.a < i.$.i _ v _ v e e n u e e z c c v v G P B  .p.| w.4.,.! 6.<.q.,.V.d.| 4.4.] 6.s.B L O.$.3.B ] G...}.D XXG.] 5.4.4.@.W.2XW.C. X5X~.S.fXW.W.|.<.8.;.<.oXeXzX,.! 5.5.<XlXwXuXg.uXK.!.^. X5X3X/.Z g.^.g.>XhXhXZXf.F.0XwXwXhXtX2X0XJ. XlXZX5.B CXlX>X2X2X^.lX5X~. .jXDXAX1XKXGXlXL 9 r ! ! < P [ D <.! r ] 0.=.7.<.%.%.;.%.%.%.%.%.%.%.^ ^ %.~ ! ^ %.%.~ ~ ~ ~ ;.;.;.%.%.%.%.%.%.^ %.;.&.&.%.%.%.^ ^ ~ S S %.%.*.*.*.*.%.%.&.*.*.-.=.7.%.<.%.^ ^ <.0.*.%.%.&.&.*.=.=.-.^ %.%.7.<.&.%.%.%.7.7.7.0.b.n.=.*.%.%.%.%.&.&.%.%.S A } } ] ] C ] } A } A S A A ~ } ! ^ %.;.^ %.;.7.0.w.0.7.7.^ <.<.<.*.<.^ / %.<.*.! S ~ ;.%.^ ! ! ] V B J P ",
". . . + 3 3 * 6 6 3 6 * k b = ; 3 w l 5 y L } ;.;.] P ( ! ] G q j j 4 L A ! } ..I z j 1 y.r.- y + r.B p.p.C s a AXFXJX3X>XvXvXAXAXSXSXSXMXMXSXMXcXcXgX1X;X1X7XrX6XtXrXsXsXaXyX3X,X<X<XXXXX~.!. X!.XX5X<X!.F.j. XA. XF.f.f.G./.~.A.5.C.V.| | d.5.E.g.] 1.F.~.!.O.1.6.,.@.9.p. .] i q 1 1 k j c y 2 y v a J J r X.) < v K n e n u a v i q b k c u X.o.[ B  .../ 4.| 4.,.| q.4.,.4.,.^ q.4.Z V p.G.B < B L.5.] 6.D g.] 6.HXC D 6.d.8...!.W.D.|.~.OX.X!.fX/ %.b.b.Z.Z.'.|.0X1.r  .p.wXwXuXzXf.+X^.F.fX<X<X<X/.] :.J.p. XtXwXlX/.K.kXfX>X<XGX4X2X0XDXuXtXGXg.N lXhX2XlXL.5XlXfXf.V.DXMXFXrXLXNXt.< N 4.,.9 J >.D S w.N Z =.=.7.*.^ ^ %.%.%.%.%.%.%.%.~ ~ } ~ ^ %.%.%.~ } ~ ~ ;.;.%.%.&.%.%.%.;.%.%.%.%.%.%.%.^ ^ ! S ~ %.%.*.*.*.<.*.*.*.-.-.-.=.7.%.%.%.^ &.*.0.7.&.%.<.<.*.*.*.*.*.7.*.&.7.0.*.*.&.&.<.=.7.v.b.b.7.%.%.%.%.%.&.&.%.:.~ S } ] ] ] R Z ~ ! ! ~ ~ ~ ~ ~ } ~ ~ ^ %.^ %.^ 7.0.w.0.%.*.%.<.;.<.0.7.^ ^ 7.<.%.%.%.<.%.%.<.%.<.4.| P L P ",
". . . . + ; 3 g g 3 ; ; l k ; : 2 g b w 4 G ] ,.! Z B P ] ] G c w w q B A | } R G z z 1 l.r.= @ . X.C 5Xd.4.r k.GXKXFX;XdXSXcXAXbXAXAXSXMXBXBXcXcXbXvX1X1XaXaX1X3X1X4XrXtX6XtXtX<X.X/..X<X X!.!.g.E.^. X X~.^.^.6.G.5.]  .F.!.~.F.A.D.4.Z g.J.p.OX:.D d.!.5.5.1.C | j.C.1.! C { a k c j j w v b 4 4 u K K G [ O.G e a K k e b b v v n e w w w 4 G { { ] 5.@.,.| 8.| D.C.4.g.}.q.,.C q.d.q.,.6.6.B N [  .] f.p.5...6.R zXlXp.:.} | } q.4.D.OXp.J. X5.XX:.D oXH.b.H.'.}.|.D.Z 5.F.fXfX>XlXwX5.XXq.wX<X^.G.~.p.R >.K.XXwXtXNX Xr f.zXwX^.ZXfX<X<XfXlXCXaXwXp.p.HXaX X$XOXlXfXwX .L.jXFX1XrXLX).- ..8.<.D N | D D V.} D 0.v.=.*.%.%.%.%.%.%.%.%.%.%.;.~ ~ ~ %.%.%.%.~ ~ ~ ~ ~ ^ ^ %.&.&.%.%.;.%.%.%.%.%.%.%.^ ^ ! S ~ %.%.<.*.*.*.*.*.*.&.&.-.=.=.*.%.^ &.&.*.7.*.^ <.<.<.*.&.-.*.7.v.7.&.7.w.7.<.&.&.*.*.7.7.7.7.*.%.%.%.%.%.&.*.<.;.} R } A R R R A ;.! D ^ %.%.;.;.;.%.;.^ %.^ %.%.7.0.b.0.*.*.<.<.;.7.0.7.&.%.<.&.^ ^ %.%.<.<.<.*.<.<.,.} V Z ",
". . . . . # 3 g g 3 * # 3 3 : w 6 2 j 4 4 i C :.;.A B C  .] G y 5 w i V ! ,.} B z z j @ y.y.y @ - J 1.pXq.}.9 P.GXLXgX1XBXbXAXAXcXBXAXSXbXbXbXsXdXbXgX8XrXgX7X3XsXrX6X4X4X3XtXtX.XQ.Q. X X~.!.!.^.D.J.}.p.q.^.f.~.F.C.5.p.~.G.k.F.XX!.4.r q.F.A.!.5.,.p.1.d ] p.] 1.D.G.] ( #._ u b H b w 4 c v H z q k v v $.2.i K e k e k n b e w 3 2 0 w g q < P C C 9.,.,.| ,.C d.g.<.4.E.D.] Z | g.] ,.g.C.p...C C C 1.1.g.C.6.] A.KXOX5...6.J.8.6.d.D.q.6.2XJ.| E.<.Z.b.Z.b.H.#XeX0X..} uXzXfX2XuXDX5.E.D.^.XXp.k./.3.p 2.!..X>XCX>X5.1.C.:.0X0XwXlX4X X X<X~.~.2XaXf.#.lX5XwX X2XHXHXF.B <XKXAX6XLXNXu 7 ~ 7.,.D ^ / D <.,.D e.v.7.7.*.*.^ %.%.%.%.%.%.%.%.~ ~ ! %.;.%.%.~ ~ ~ ^ ^ ^ %.%.%.&.&.%.;.%.%.;.%.%.%.%.%.~ S S ^ %.*.*.*.*.*.-.*.*.&.*.*.*.*.7.%.&.&.&.*.%.&.&.*.<.7.*.*.-.*.7.7.7.*.*.7.*.<.%.&.%.*.7.7.*.*.%.%.%.%.%.^ &.*.7.&.^ ~ ~ S R A A S :.%.^ %.%.%.%.%.<.;.;.^ ^ ^ %.%.*.0.0.0.*.&.&.*.<.0.7.7.*.%.%.%.;.*.^ %.<.7.<.7.*.&.^ | } C ",
". . . . . # ; w 3 ; o o * ; : 5 6 3 w 1 4 i B ] :.} B [  .C u 5 g c i ] ;.:.C i c z 5 . l.y.x $ H a k.qXj.~.9 <XJXFX3XAXFXAXAXvXBXSXFXMXAXBXMXMXbXsXrXrX3X4XyXrXrXrX6XrXsXtX4X3Xk.L..Xk.p.~.Q.f.~.F.A.F.g.f.f.!.OX!.!.V.^.~.F.k.~.F.d. .C J.5.]  .f.h. .D ] 6.1.] j.G.5.{ o.) i q k c j l H v 4 k K k k k v O.[ v ` u j g n 0 k w 3 3 e w 2 j ' [ ..6.5.q.| ,.C.g.| 8.J.4.,.4.w.,.Z ,.D.g.! ^ ~ ~.F.d ] 1.Z C 6.f.f.2X,.wXkXV ] E.!.4.D.D.C.D.,.}.#XE.D.Z.}.Z.8.0.b.}.OX2XC.} wXlXfXwXwXjXf.p.^.q.2X X^.^.1.r p.p.s.a.S.a.L.L.kXV.A p.wXGX<Xj.fX<XW.fXfXlXDXZ D kX0X!.f.>XDXGXQ.t..XGXMXMXKX$.@ r ,.7.D *.7.D A 8.^ 0.=.=.7.&.&.%.%.%.%.%.%.%.%.%.%.~ ~ %.^ ^ %.^ %.%.;.~ ~ ~ ^ <.*.%.%.%.%.%.%.S &.%.&.%.%.;.;.%.&.&.*.=.=.=.7.*.*.*.*.*.-.-.=.*.&.*.*.*.*.&.<.&.&.*.7.7.*.*.*.&.*.*.*.&.*.7.<.*.%.*.%.*.*.&.*.%.%.%.;.%.&.&.*.*.%.%.;.;.} R } S %.<.7.<.%.&.%.<.%.%.%.%.^ %.%.%.%.0.0.0.*.%.*.*.7.0.*.7.7.%./ %.%.*.<.^ ^ %.<.7.*.^ / ,.:./ ",
". . . . + # ; : ; # o o * ; : 3 5 c l 2 1 x J C ~ A s J C p y f w z B } ;.;.L z 4 4 y $ h.r.4 @ r.y.G.d.,.Z s ZXGXrX3XKXFXAXbXMXcXbXMXMXMXbXcXcXbXgXvXcX>X(.6XgXdXrX3X1XtXtXtX1X>Xk.f.G.Q.~.A.F.~.~.G.G.~.F.p.^.~.G.F.g.f.!.~.s.C.G.C.! ,.A.d Z 2...] C  .8.g.:.1.5.5.1.#.) a q K K z k c b z q w z j l H v [ 2.o.i e l w k : w g w j b w 1 e K 2.] 1.C.E.J.E.}.OXV.g.^.w.q.,.,.4.r ! D.qXq.~ ^ | D.g.] 5.1.Z ( ] d 5.XX5.xX] 9 q.C.8.D.J.E.!.6.V.Z.|.q.D.#Xb.<.^ E.#X~.G.I.6.+XfXlXuXuXlX<Xf.~.G.wXeX~.5.( < [ ] 5.7 [ o.1.A.2XwXOXp.d ^.wX~.qXkXfXwXkXaXDXlX9 r 2XA.~.] 4XGXwX5.1.1XZXgXKXk.r N D <.&.D :. .C 8.^ *.=.7.7.*.&.%.%.%.%.%.%.%.%.%.~ ^ ^ %.^ ^ %.^ %.%.%.^ ~ ~ ^ %.%.%.%.;.%.%.%.&.&.%.&.%.%.%.;.:.%.&.*.=.*.=.=.&.*.*.-.*.=.*.*.-.-.-.*.7.*.^ &.^ -.*.=.7.*.*.&.&.*.*.*.*.*.7.*.<.%.<.*.%.*.&.%.%.%.%.;.%.&.&.*.*.*.&.%.;.} } } ^ &.7.7.*.%.%.%.%.^ %.%.%.^ %.*.0.w.n.n.b.0.&.%.0.0.7.%.7.*.%.%.^ %.%.^ %.%.%.^ *.*.^ / :.| S ",
". + . . . . ; : ; * = = ; ; : f w k b 2 1 z L C ! A p J C r q w 3 z V } %.;.J z y 2 y @ h.` $ $ X.h.~.] q.r l.FXJX>XgXJXMXbXbXSXvXgXvXBXBXbXgXcXyX6X3XdXyXyXsXrXrX6XtXtXrX4X4X).).~.G.a.!.2X<X.X.X X^. Xf.p.~.Q. X~.~.F.C.W.F.@.f.C.q.D w.j.C ..1.d ] p.C.g.8.~ p.P P P _ K v k v b w w 2 j z v b w 5 j l e J h.o.- 4 5 ; w : e b 2 4 z H K v q 7 [ C.E.9.w.J.^.2XOX|.OX|.W.C.Z.|.} S w.D.q.| <.D C C...Z 1.9.#.q.A.D 6.5. X~.r r 6.g.8.d.V.C.w.E.#X2X,.:.|.V.;.H.#X2X2X2XOXV.8.uXfXfXwXwXwX6.f.2X2XwXXXg.O.< J O.G.s.Q..X5.] 2XlXlXwXs.@.D.|.|.wXtXfX2XfXhXDXlXr D 0X0XF.< aXKXOX0X/.lXjXGX2XD :.N | 4.D N O.s 8./ &.=.*.%.<.%.%.%.%.%.%.%.%.%.%.~ ^ ^ %.^ ^ ;.^ %.%.%.%.^ %.%.^ ^ %.%.;.;.%.%.&.&.*.*.*.%.%.^ <.;.*.*.=.=.*.=.-.*.*.&.*.=.*.*.-.*.*.*.=.&.^ ^ *.*.*.*.*.*.&.%.*.*.*.*.=.*.*.*.&.&.%.%.&.%.&.%.&.&.%.%.%.&.*.*.=.*.-.*.;.%.~ ^ &.*.=.*.&.%.;.<.%.^ %.%.%.&.7.0.*.0.n.n.n.0.*.0.0.7.<.*.*.%.%.;.*.<.<.^ %.<.<.^ %.<.;.! R R C ",
". . . . . . ; ; = # ; ; = * ; g g w g 1 2 c B ( ..] s P [ p 2 3 2 z V } %.:.L z z y z . l.T 2 4 ` P d.| 2XP (.LXvX;XKXFXSXvXSXvXnXdXdXcXgXcXcXMXsX6X3X7X3X1XrXyX1X1XyXhXtX4XrX<Xk.>X>X X!.^..X.X X.X<X>X/.^.F.Q./. XG.!.~.~.j.,.q.g. .! C.| 9.9.1.P 5.9.,.q.w.,.N [ [ p a T n b T v - 1 w w j u b k k w w < v l.+.- e ; # g w m w j c c z ` ` i I P  .C.w.D.E.C.}.^.kXiX~.J.OX}.q.S | E.5.~...D d.<.| A ] C p.( 1.p.f.5.f.F.2Xg.1.| ,.| ;.,.V.V.Z.}.^.S | E.E.w.@XiX|.^.OXXX^.,.wX2XXX2XwXfX<XF.D.|.2X<XXXL.O.P ] F.2X<XhXkX5.] 2XlXfX2XlXW.w.E.wXhXwXaXjXfXlXlXeX .5.~.wXa.< HXeXeXzX3XZXwXzX| D } ] 4.#.9 V C ,.r ^ %.%.&.%.&.%.;.;.%.%.%.%.%.%.~ ^ ^ %.^ ~ ;.^ ~ %.;.~ ~ %.%.%.^ ^ ^ ;.;.&.S %.&.&.-.*.*.%.&.&.&.&.*.*.*.*.=.*.*.7.=.*.-.^ *.*.7.7.7.=.*.*.7.*.7.7.7.*.&.&.&.=.*.*.7.7.7.*.*.%.%.%.%.%.*.%.<.%.&.^ %.%.&.*.*.=.=.=.7.7.<.^ ^ &.=.=.^ &.<.%.;.%.^ %.%.*.*.0.b.*.b.n.b.R.b.*.0.*.%.*.7.^ %.%.^ <.*.%.^ ^ %.<.<.*.7.<.~ P P R ",
"+ . o #     3 3 ; * # ; = * ; 3 3 3 j 5 y i U [ P P B B K j 3 1 z G A %.8.S N c 4 j 5 + z.' + K ` P 4.V.C.C 1XKX1XrXKXLXbXbXBXBXbXbXdXyXbXnXmXmXcXsXrX1X>X>XtXsXgX1X1X6X6XgX1X;XrX4X3X^.2XwXF.!.~.~.>X.X<X>X/.~.~.uX~.F.A.D. XXXW.C.d 1.1.q.d.p.Q.) Z p.,.w.V.| p p G ` v i k 2 e e g 3 l l w 0 l 3 3 3 2 - K i K u 0 3 w 3 e b 2 3 6 w 2 v T q I ) ( ] 6.:.V.d.J.OXuX#XOX|.0XzX#X,.D d.6.Z >X3.g.J.d.,. . .P O.[ 2.5.A :.wXwX5.G.D.q.d.D.4.8.g.V.|.}.C 4.J.Z.Z.E.qX#XJ.OX}.OX:.J.2X~.<XfXlXfX!.W.D.XXqXlXfXs.5.q.^.XX5XhX5XW.C.1.2X5X~.zXpXOXJ.2XuX3XjXhXuXhXaXCX/.K.5.>.zXg.} DXwXGX).3XZXkXJ.D V } ,.| Z ]  .] r r ^ <.&.%.%.:.%.;.%.S ;.%.;.:.%.;.! S S D D r A S } ! | %.&.%.%.^ ^ %.;.%.%.&.&.&.&.&.&.&.%.&.&.*.*.*.7.7.7.=.-.*.7.-.*.7.=.*.7.0.&.=.=.-.7.7.*.*.-.&.*.&.7.=.*.=.=.*.*.*.&.%.%.%.;.;.%.*.*.&.&.%.&.&.*.*.7.7.&.7.7.*.*.%.%.*.&.*.*.^ &.;.%.<.&.*.*.&.&.0.n.0.0.b.n.0.0.b.0.7.7.*.*.*.%.^ 0.<.%.%.%.^ %.7.*.*.7.;.A E L V ",
"; # : f % # 3 > # ; ; + # : 3 ; 3 3 l z i G B R B s C L k j 6 1 i >.4.;.4.} G y 5 y 4 $ z.r.+ T G s D.E.d.5.aXgX1XFXJXSXJXbXBXBXBXbXdXgXmXmXcXsXrXgXrX1X>X,XsXtX4XrX3XaXdXgXrX1X3XtX2X~.!./.L.I.g././..XwX2X<X/.2X2XF.f.q.s.^.G.d.f.r O.C.D.9.p.s.r ] j.C.~.E.| I G v K J e e w w k b g 0 w ; ; : 0 h 3 2 @ c v r._ 3 w 3 0 w g k l w 3 w k H v t I I [ 5.C | V.C.~.q.V.iXiX0X5XlXOXd.<.:.< ( wX} ! } f.1. .N L O.B 5.g.Z ! XX2XW.E.|.V.8.g.8.V.eX}.^.g.S d.V.w.E.^.OX2X0X|.0X}  .fXfXuXfXwXwX XC.D.2X0XDXCX XA.d.}.wX_.tXuX5.!.C.D A.OXA.eXHX5.G.eXwXhXtXwXhXlXlXwX^.zX6.:.lXA.5XaX6XGXl.ZXCX6.A 1.} Z ,.| S ,.B V A S &.&.&.%.;.;.;.%.;.%.S S D D D D D :.8.6.6. .C N r A %.%.;.;.%.^ ;.%.%.&.&.&.&.%.%.%.%.%.&.&.&.&.&.*.*.*.*.-.=.=.*.=.7.7.*.7.0.=.7.=.-.=.7.&.-.-.*.7.=.=.v.7.=.7.=.*.*.%.%.%.%.%.;.%.%.*.<.%.<.*.&.*.*.7.*.=.7.*.7.0.7.7.7.<.7.7.&.%.%.&.<.*.*.*.-.&.7.b.H.b.0.7.*.*.0.7.0.w.7.*.*.*.^ <.<.7.*.^ <.%.%.*.-.*.;.R R L L ",
"3 ; f k # # 6 : # * ; # ; 3 3 ; 2 5 H H G [ Z ! C N } P k j ; 1 N ..<.<.<.C p 4 4 5 4 1 z.y.+ $.a [ OX#Xd.p.FX1X7XLXAXbXPXBXBXBXbXvXgXcXAXSXmX7XdXVXgXtXtX>X>XP.>X6X1X4XtXrXvXgX6X6X<X<X Xt.S.>Xp.L.~.G.~.<X2X/./. Xf.s.F.C.j.d.A.f.r [ C.j.| 5.t.9 1.q.9.E.Z.4.C i v _ K n g g ; 6 0 3 : 0 : ; o 0 l l j 2 w K +.+.= k w w w w 3 x l g l l u u y v G [ p.1. .| | <.}.V.4.}.fXwXwXG.p.|.<. .Z d.2XZ ,.5.^.] 6.5...- ! q.,.r ! ~.C.E.qX^.} 8.C.,.^.^.|.E.| 8.'.b.D.}.}.OX0X XE.| D OXfXkXzXzXlXwXd.C. Xp.t.L.F.f.] G.lX<X<XfXf.!.}.^.:. XlXwXlX9.6.eXwXuXwXtXkXCXhXhX+X~.lX XA 2.W.GX4XFXKX4XfXZ Z C A ! <.8.~ A N R ,.~ ;.%.&.^ &.%.^ D D D S 6.V.^.<XwXlXDXGXGXGXGXlX2Xi.Z D %.:.} } ;.;.%.&.&.&.*.%.<.%.%.%.%.*.%.&.&.&.&.&.-.=.=.=.=.=.=.7.=.-.*.7.*.=.7.=.*.&.*.7.*.*.=.=.=.v.7.=.*.*.&.&.%.^ %.%.%.%.%.%.%.%.%.<.7.7.*.*.=.7.0.7.-.*.v.0.v.7.*.*.*.%.&.%.<.*.*.*.*.*.-.7.0.b.w.7.*.*.*.7.0.7.0.0.7.&.&.*.0.7.7.%.^ *.*.*.&.*.0.:.R R V L ",
"2 ; f 3 . # 3 f ; # * : 3 3 3 ; 1 e Y H L  .] | } } :.] K k * 4 V } <.<.,.N 4 j 6 1 q i ' y.- +.p 3.OXqXW.p.FX;XSXLXPXBXBXBXBXbXdXvXgXgXSXbXyX8XdXvXgXcXyX3X4XwX4XrX4X3X1X4XaX6X;X4XtX1X.X+X.X^.A.g.^.L.a.p./.2XF.S.Q.~.~.A.G.f.~.f.a  .p.5...5.G.P p.,.q.g.4.1.P G J ) a e j w 0 ; 3 3 3 g h 0 ; h g l l n w H k ' e j = 6 w 3 ; l l 5 w j w w b c v a [ #.5.@.D d q.#XE.g. XaXNXS.6.uX2XC.D.D C.XX:.] >.g.f.p.C  .! / ,.q.@.Z 4.J.D.0X^.,.V.E.8.|.0X8.g.w.b.|.}.OX^.OXOXD.g.8.C C.0XwXfXuXhX5X}.4.0XwXF.K.5.r D p.CXuX3XwX+X^.OXeX}.d.lXfXpXG.} 0XwXuXuXfXlXNXhXtX2Xg. XfX/.r d /.FXAXLXNX0Xq.! D ! ~ / ^ <.} V N ,.:.<.%.^ D D S ^ 8.J.OXuXxXGXKXKXKXGXZXCXZXNXNXFXLXLX3X| D } S } :.%.%.&.&.*.*.*.%.&.%.%.%.*.%.%.%.&.&.&.&.=.=.=.=.=.=.=.*.=.*.=.-.*.7.7.&.-.*.7.=.*.*.=.7.=.7.7.-.&.*.&.%.%.;.*.%.&.&.&.%.&.&.7.7.7.*.*.7.=.=.7.*.-.7.b.b.*.*.&.&.*.*.*.<.*.-.=.=.7.*.*.0.0.0.0.0.0.0.0.b.0.0.0.0.*.^ &.0.*.&.%.%.^ ^ 7.*.*.7.:.} L V L ",
"w l l * . * 5 b : # * 3 3 ; = 6 1 y x G G [ .. .R } } P K q 2 p Z <.<.~ ] G y 5 j $ K K 1 l.u v s s.XX~.W.~.6X1XLXPXPXmXdXbXSXmXvXbXMXNXMXgX7X7XdXgXcXgXgXdXsXNX6X4X4XtXrXrX4X3X3X>X4X4X2X>X^.L.>X!.F.XX Xh.>X<XS.L.F.G.~.G.p.j.W. .s O.6.C.C.W.p...q.1.p. .[ s $.X.J a < e w 6 0 = 3 w 3 g g 0 g 3 w g 2 w = < 0 g Y w w g l g 3 3 w 6 2 2 w w j 5 y u J J ( #.,.4.9.E.#XD.A.5XlX2XO.f.iX5X8.w.;.#XXXA N R B s p.@.C.q.! D.O.N Z J.:.8.xXeXOXV.Z.D.E.g.S <.D.qXE.OX^.OX0XJ.q.}.:.4.OX2XlXjXuX<X X| !.lX2XlXfX6.N 5.2X>X2XfX+X0XeXOX2XA. XkXpXW.:.2X2XuXtXfXuXwXfX<X0X0XuXhXjXfX@.r 3.1XFXKX0X;.:.1.| | <.*.;.;.} < A D D D <.w.}.2XzXDXDXCXNXjXhXjXjXNXjXsXfXsXgXvXvXcXKXLX0XD S A S ;.%.%.*.*.*.&.&.&.&.&.%.&.&.&.&.&.*.*.*.*.=.=.=.*.=.=.=.=.=.-.*.7.*.-.&.=.7.=.*.7.v.v.0.*.*.=.*.*.*.<.&.%.%.%.&.&.&.&.%.%.*.&.&.7.0.0.*.*.=.*.=.7.*.=.0.v.0.*.&.&.*.&.-.*.*.*.0.b.0.7.7.0.b.7.7.0.b.n.0.7.7.*.*.7.*.&.*.7.7.7.<.^ 7.<.%.0.7.7.,.} C V R ",
"2 Y b = @ @ 3 k : ; * ; : # ; 6 y J z z i B P P R ] ..] a q c i S 7.,.Z B z 5 5 5 $ T I @ z.r.t r $X~.G.p.F.3XdXKXKXSXdX7XcXmXSXBXvXSXBXbXdXcXcXvXbXgXrXsXyX1X(.rXaXtXhXhXrX4XrX1X).1X3X,X.XL.L.F.!.L. X2X~././.~.g.A.G.G.^.$XG.f.( s L 1.W.F.W.A...q.5.O.I I z i J J p q e j j g 3 w g k b l g k f g w = 2 < = 2 0 +.k b b b 3 h ; : 0 3 3 0 w w * e u v v a 9 { 3.g.4.g.|.~.G.2XwXa.~.^.zXOXV.<.V.0XOXC P I X.) Z p.}.6.,.] C C p.F.D Z.qXzXE.V.zXJ.!.S ~ S ^.OXqX}.}.eXOXZ.|.w.:.}.eXfXfX3Xk.2Xg.] wXOX2XCX2X>.3.2Xh.^.zXF.0XeXOX}.$XW. XfXj.g.uX5XuXtXaXfXwXfXXX.XuX+X<XfXlXfXd.5.#.;XKXiX^ ]  .] ! <.&.*.%.r < S :.Z.|.zXHXxXDXHXCXwX3XwX3X3XuXuXaXhXjXlXfXhXhXvXSXPXKXkX! ~ S S %.&.%.<.<.*.*.&.&.*.%.*.&.&.&.&.*.*.-.-.-.*.=.=.=.=.=.=.-.&.-.*.7.*.-.*.*.7.=.*.7.v.0.=.*.*.&.&.<.<.&.^ %.%.%.&.&.*.*.<.7.*.*.*.*.0.0.=.0.0.0.7.0.v.7.*.=.7.=.*.*.*.-.&.&.-.-.0.b.=.7.0.0.0.0.w.b.b.b.0.7.*.*.7.*.7.*.*.7.7.%.<.%.<.*.7.7.7.<.;.] A C R ",
"= Y l 2 # . ; w 3 ; * * ; * ; 6 H U H c y t u z H U ..( u e z J <.0.A B H j 3 f 6 1 +.J $ r.h.9 d fX^.W.( s.aXKXPXSXmX7XsXcXmXPXSXbXBXMXdXdXcXcXnXBXBXvXyXhXtX,XsXhXaXjXhXtXrXhX4X<X>X3X<XI.S.S.^.L.A.!.5X2X/. XS.h.g.f.G. X XG.1.C ( ( 5.F.6.d.!.] O.( J I c z - q I K a p u b w 0 w w g g f w f f l g ; 0 g 0 2 w y.b : = # # 3 % ; h 3 3 0 w 0 6 g j < u Y q a o.@.9.1.4.D.}.f.2X2.L.XX|.2X'.0./ <.eXG.r N +.u i E V Z 1.5.>. .d 6.^.,.|.|.|.w.qXeX2Xq.6.,.8.eX#XOX2X0XOX}.|.H.<.J.wXwXaXjX<Xf.j.,.wX0X5XkX2Xg.6.wX XF.eXV.}.5XOX5XeX~.G.HX XD.zX2XuXaXhXCXzXfXwX2X5X.X4XtXNXDXQ.|.2XS.aXzXD C Z C ,.%.^ ^ ^ w.J.#XqXxXiXXX+X2X2XwX0X2XwXfX<XwXuXwX,X2XuXhXuXtXtXhXAXJXLXDX~ S ~ &.S &.%.<.*.*.&.&.&.*.*.*.*.*.*.*.*.*.-.-.*.=.=.=.*.=.=.=.*.&.7.<.*.-.=.=.-.-.=.=.7.7.=.=.*.*.*.*.7.<.;.%.%.%.%.%.%.*.*.7.7.*.=.7.*.0.0.=.v.0.v.0.0.b.v.=.*.7.7.7.7.7.7.7.7.=.*.7.0.7.0.b.v.b.n.n.b.b.b.w.b.0.0.b.b.0.<.7.0.0.^ <.<.%.<.7.%.^ ^ ~ ] ] C P ",
"$ z c c ; . 3 k k : # ; : ; : w z c x 4 = = @ = c z U i q i t C w.b.Z u z % % : 5 y u.q $ c P.< ] kXW.W.r k.6XKXKXBXSXcXmXBXmXSXAXBXbXgXdXcXdXmXcXvXbXMXgXsXdXdX1X;X1XaXhXsXsXtXgXtX_.).;Xh._.L./.wX>X/. X~..X~.k.F.A.G.p.j.j.5.C ( [ [ A.f.D f.O.< P a i ` < b K K o.+.v q q K j g l k 6 6 3 3 6 5 l g ; 2 n 0 k w b k @ = : 3 % ; 3 : 3 3 0 w : w 2 3 e 2 e u q i a ) #.@.! p.C.G.2.]  X2X:.V.~.V.,.,.uXI.< I i u N 2.S.N 1.,.Z 1.} C.D.D.Z.E.D.;.eX2X}.! #X8.|.qXeXOX#X2XOXeX|.V.V.OX2XwXCXjX5X X5.!.wXfXjXXXG.,.2XkX X~.F.}. X2X$XXXlX5.eXOXw.uXXX2XaXaXjXuXwXfX<X5X3XtXtXhXZXOXXXlX1XfXeX~ ..C Z ^ <.7.w.oXzXlXqX#X0XXXK.^.<X>X XF.F.<XqXXXOXwX2X X~.^.^.I.>XyXtXbXPXLXGX:.D %.%.^ ;.;.;.&.&.*.*.*.*.*.*.*.=.*.*.*.-.-.*.=.7.7.=.-.-.=.7.7.&.*.*.-.-.=.=.=.*.=.-.=.0.7.=.-.*.*.<.&.&.;.<.&.&.&.&.*.&.*.=.7.-.7.7.=.0.0.=.0.7.v.v.0.0.v.v.=.7.7.7.*.*.*.0.v.b.7.=.7.v.b.b.0.n.H.n.7.0.0.w.R.b.w.b.b.w.&.*.b.0.*.0.<.*.^ &.*.<.%.S Z ! } :.",
"< T c j w * : 3 l ; + = # = : 3 6 6 ; + # : 3 * * 2 u v c c G ] b.<.C G y * # ; 3 j l.< q 4 h.p ] wXF.G.- 4XAXSXJXPXSXSXbXBXSXFXAXbXgXdXdXgXmXcXcXgXvXsXrXvXyXsXwXQ.).tXNXjX4X4X4XaX3XI.1X,X/.>X3XwX.X X0X X/.^.S.G.Q.s.f.j.W.!.2.t [ O.s.] - S.$.i I i v v u K +.G G +.K i u i Y e g n w 2 6 g g w : 3 ; : 3 : : b * l e @ ; O ; # ; : ; ; 0 h j n 4 q z K a < 7 q q t J O.{ ..j.p.9.p.~.XXC.W.D.F.! C F.fXK.7 7 I H a I 3.t.R d p.p.5.,.C OXXXV.}.q.A.fX5.] d.V.uX2X2X0X}.OX0XuX^.8.}.zXwXtXfXlX<XV.5.uXfXhX2XV.4. X2X2XG.p.0X<X}.2XkXuXA.^.G.,.lX2X2XwXwX0XuXwXfXuX3X.XwXrXjXjXGX2XFX<XwX2XD } 4.D D w.|.0X}.|. X!.G.A.J.}. XV.1.V.L.I.}.OX+XI.I.I.I./.I.S.I.wX3X3XdXBXLXLXp.D %.%.%.%.;.%.&.%.&.*.*.*.&.&.<.&.&.*.=.=.&.&.*.=.*.=.7.7.7.*.*.*.7.*.-.*.=.=.-.*.*.=.0.7.7.-.*.&.&.%.%.S &.*.7.*.*.&.-.*.7.7.*.-.&.*.=.=.0.0.7.7.v.v.7.*.v.m.v.v.7.*.*.=.*.7.v.b.0.0.7.n.n.n.w.b.b.0.*.0.b.b.w.n.w.0.b.0.7.*.*.7.0.7.7.%.&.*.w.&.*.<.^ <.;.<.",
"i W j 5 j 3 3 # f 3 ; # # = ; : ; : ; + # ; ; # . ; j x z y i ..w.;.V G b w 3 0 ; x r.+ 4 q l.) 2.2X_.$.i vXFXKXJXFXSXSXAXSXFXAXvXvXmXcXrXdXAXBXdXrXvXgX6XAXNX1XL.P.).4X4X4XaX,X,X4X1X:X3XwX3X,XwX4X4X2X2X2XXX~.!.5.f.^.1.,.d.F.[ i P 2. .C ( .Xh.[ G I ` K o.t J G < i ` v v K u w w w j j g j k f 6 % % % > ; h 3 . m _ @ ; O > ; : h 0 3 g j b 4 v v i 2.$.B L B 7 i G i B ( C 5.,.f.!. XV.C.p.A.d.C ! 6.uXF.< t K K p 9 ] F.5.] q.C 5. .q.D.}.iXXXJ.DX~.r 0X}.uX0XXX#XXX2XuX0XJ.^.OXfXwX2X5XCX^.8.}.2XfXhXtXL.g.!. X~.p.d.0X}.2X2XJ.OX0XXXZ p.lX0XwX5X<XuXfXwX+X~.>X1X3XtXMXFXAXjX4XZXf.] D ~ ! <.].'.E.}.C.g.F.A.V.g.g.K.F.G.2.6.F.+X+X,X+XS.K.S.I.I.P.+X3X,X1XtXcXBXJXLXk.D &.%.%.&.&.&.^ <.&.&.*.*.&.&.*.*.*.=.=.-.-.*.7.7.7.*.*.*.*.*.7.=.=.=.=.7.=.-.-.=.=.0.0.0.7.-.*.<.*.%.<.&.&.-.=.-.-.-.-.*.7.=.-.7.7.7.*.=.0.v.0.v.0.v.v.7.0.v.m.b.v.=.*.7.7.7.7.0.b.0.*.0.b.b.0.0.b.0.*.7.w.Z.H.b.H.n.7.*.%.%.*.0.7.<.*.*.*.*.7.*.*.<.%.:.^ ^ ",
"c T c 2 3 ; : # 3 g 3 + o * ; ; ; > > ; # ; ; ; # 6 j b H y u [ ,.Z t z K n w w * x Y ; k v T $.f.2X/.9 u.AXKXKXJXSXAXSXFXFXSXMXMXMXbXvXgXbXbXdX4X4XgXgXdXNXvX,Xt.u._.tX3X1XaX3X.X1X3X3X<X>X3X1XyXaXtX>X<X2X<X XF.p.G.Q.5.,.4.9.B r 2. .{ ( C .XS.B B X.o.#.{ Z o.P p I ) v v k k e 2 1 w 2 ; * 3 3 3 : : ; 6 6 ; : + b y.- ; O # : : 0 g w g w q t _ +.i L 5.6.4.F.p.P ..O.C < r { 1.Z F.XXZ.<.| f.d.~.w.S :.OX>XB a K o.O.(  .^.! q.| q.C.C A J.0XqXXX X2XD }.E.8.zX2X2X0X0XuXwX^.J.4. XuX2XwX5XG.,.0XuXlXjXsX~.q.G.XX XK.g.OX}.uX XJ.}.OXwXC D.fX0X2X5XfXwXuX2X+X_..X3XaXjXNXCXVXKX(.>XDXC <.;.w.R.oXE.q.p.g.>.p.g.g.f.6.>.t.t.O.>.K.XXI.+XI.I._.I.(.I.I.,XwX>X3XtXvXbXSXLX/.D &.;.%.%.&.%.%.<.&.&.*.*.*.&.&.7.*.*.*.*.*.*.7.7.=.*.*.=.=.*.=.=.*.*.7.0.7.*.*.0.v.v.0.=.=.*.-.*.&.&.%.<.7.7.*.*.-.-.*.7.b.0.*.7.*.*.=.0.b.b.0.n.n.b.7.b.b.v.H.n.b.=.-.*.=.7.7.7.=.*.*.0.b.b.7.b.R.H.n.n.n.H.H.n.H.n.0.7.*.&.&.*.*.*.%.%.*.7.7.0.w.7.<.<.;.^ ",
"4 Y k w ; * 3 3 5 x k # + * ; # # ; : ; # % ; % # + = 5 l 6 4 U [ r < y b l 0 w 6 f 6 1 w k < +.F.kXL.< 3XFXKXKXJXSXBXSXSXAXAXBXAXBXnXdXgXdXrXgXgX6XrXvXAXdX6XsXtX.X1XtX4X<X1XhX>X1X3XtXtX,XwX<X,X3X(.I..XL.~.~.h.A.G.@.1.6.d.f.N >.P B 3.{ C ^. .s C P { { { 3. .( [ o.v z K e n k w w w 3 ; # # ; 3 5 ; + ; ; . g 3 1 l.e ; % ; h h 3 h h w 2 y K G X.O.s C 1.4.E.}.g.p.A.1.] s r C r 2. XV.}.q.D ,.C.g.C.:.A 5X<Xa ) < C S.5.C C q.J.<.6.6.g.g.OXkXXX~.fXg.| qXZ.0XxX0XOX XwXfX XE.V.+XfXwXwXuXuX8.D.0XuXhXNX^.| F.0X<XL.5.E.}.OXJ.OX|.Z.#XA A.5XXXXX5XwXwX2X2X5X2X>X>XtXjXaXvXJXKXNX>XGXE.D 0.b.b.w.V.g. .V >.>.O.6.2.E L X.G G P 3.L.L.G.P.I.:X(.I.+XI./.>X>X0XuXhXMXVXLX,XD %.;.%.%.&.%.%.*.&.*.*.7.=.-.&.*.*.*.=.=.*.*.=.*.=.7.7.=.7.*.*.7.7.7.7.0.v.0.=.=.0.v.v.7.*.*.=.&.&.&.&.&.<.=.-.=.*.*.=.n.R.n.0.7.&.-.=.7.v.n.n.H.`.b.0.n.H.n.n.n.b.7.*.*.7.0.7.*.*.0.b.b.n.n.b.n.'.R.R.R.n.H.b.H.Z.n.b.7.*.%.%.^ *.*.&.^ *.0.b.0.7.%.S ;.A S ",
"+ 2 1 ; * # 3 j w x k 2 ; # # ; # ; ; ; % # % # . o @ # & $ 2 ' F q 1 1 0 0 = 2 ; 6 # 6 * w . i ).DXt.s NXFXFXSXFXSXFXSXbXMXBXFXbXMXbXcXcXcXyXgXcX6X6XdXgX1X;X3XdXl.Q.<X3XfXtX1XtXtX<X<X4X,X<X1X4X<X>X<X>XL.Q.G.A.1.g. .@.,.f.f.N t.....g.f.5.f. .p. .( ] ( { ] { o.o._ v i y j 0 0 3 : ; # : + ; 3 : 3 ; + 6 3 ; h f . s.J . 3 3 k h 3 w 0 w 0 z i G J a.5.B 6.d.:.V.E.D.C.G.|.p./ ..( < ~.OXD 9.Z  ...5.,.5.C < ).Q.r [ J < t.g.} A q.E.:.! ,.J.XX2X5X XlX|.D |.E.|.2XeX2X<XuXCX^.#XeXJ.2XlX2XwXHX}.C }.2XhXjX!.} ~.wXXXf.4.~.C.J.J.J.V.g.+X5.f./.XXwX0X5XwXwX<XXX.XwXtXwXaXvXvXMXMXLXjXDX'.D Z.w.V.g.1.[ L B E O.y.+.L G U i < z U 3.G.I./.).:X>X>X>X3X+XP./.+X>XwXtXgXbXLX1Xr S &.%.&.&.&.&.*.=.*.*.*.*.=.=.=.*.*.*.*.*.*.*.=.*.7.=.=.v.b.7.=.=.=.7.v.v.v.v.v.0.=.b.v.*.*.*.*.&.&.*.&.&.*.*.*.*.*.7.n.`.H.n.=.-.=.7.=.0.n.n.n.H.v.b.H.n.n.0.0.7.=.*.0.n.n.0.=.0.n.M.H.`.'.n.n.R.H.H.H.n.R.R.H.R.H.n.7.%.7.^ &.*.%.&.<.0.b.b.w.7.<.S S A S ",
". @ # * ; * 5 g w z l w 1 * * ; ; ; ; ; ; % % % ; % # # & % 1 c 4 1 ; : : : # # + 3 3 f ; 5 + = .XlX5.$.FXFXJXJXSXAXSXbXcXBXSXSXBXbXBXvXsXvXgX7X7XgXgXdXsXrX>X1X6Xz._.I.G t.3X2X3XwX>X).1X<X,X.X>X,X2X>X>X^.h.2.5.C { f.5.p.p.5.3.] ] 1.5.F.!.!. .5. .,.]  .( ) o.( $.K u v w : = 3 0 3 # : 3 * 3 3 : 3 f 3 3 f h f j + s.y.X f h g g w g g n n k i v G P [ P Z  Xd.^ w.|.E.q.,.Z.Z.9. .- 1.zX/ ..p.] r 9 2.O.B < B 2X2.( a.P 7 S.a.A  .A.p.Z F.G.~.0X2XfXlXOXS ;.8.XX0XE.fX0X0XkX0X|.|.K.2XxXwX0XqXXXD D.5XhXlX}.8.}.2XG. .5.|.~.!.A.V.6.p.G.h.5X~.wXfXwXwXwXXX2X~./.4XfXhXjXZXSXMXbXAXLXlX8.w.V.q.,.V p G N G O.X.>.+.H K b 2 w Y $.L..X+X4XtX4X).:X4XsXtX>X,X+X+X2X4X6XdXLX3XD ^ ^ &.&.%.%.&.*.=.=.=.*.-.*.=.7.*.&.&.=.7.=.=.*.*.=.=.7.M.m.n.7.7.v.v.b.0.v.n.m.b.=.n.n.=.*.-.&.&.&.*.*.*.7.=.&.*.*.7.b.H.H.n.*.=.v.v.=.0.v.0.H.`.H.H.b.n.H.0.0.7.=.*.0.b.v.0.7.*.0.n.H.`.R.b.b.H.R.R.R.n.b.b.H.R.R.H.0.*.*.^ *.7.7.7.0.w.b.w.w.w.w.;.A S S ",
"# : 3 f ; ; j j 5 j z k 3 ; # # ; # # # # + o + ; ; ; # & > # + * : > ; ; * % # # 8 > 3 ; ; # + <XfX .i.VXMXSXSXBXbXMXcXbXBXbXbXAXMXMXdX1X7XcXyX6XvXNX6XrXhX6XtX1X,X4XaXL.t.k.a.S./.<X<XtXtX3X,X(.>X>XL.~.A.t.O.O.] #.5.s.p.9.5.] Z s s.p.5.XXW.1.} ,.q.2.[ B X.G a ' K y l l * . # ; : ; 3 > 3 3 3 ; 2 b w 3 3 0 3 x = X.i.q g g w w g g 0 g k e K v J v I 2.[ Z f.g.q.W.E.^.OXZ.|.q.D. .< k.fX/ / O.U v I i i i B 9 .Xs.p +.' I [ s C 5. XN s 5.F.wXzX2X0XOX~ |.'.J.}.Z.D.iX0XwXkXXXD.^.0XuXkX<XF.#X4.q.fXhXNX2XC.!.XXV. .6.^.J.g.,.d.V.C.p.f.hX4X1XtXwXwXfXF.G.!..X.X3XaXhXMXMXPXgXGXGX!.8.:.P +.X.i t z I y.2.I G G c b j 3 f j y.P./..X>X>XuXwX>X2XjXNXhXwX,X>X2X2XyXbXLXtXD ^ %.&.%.%.;.%.*.=.=.=.=.-.=.=.=.=.=.*.-.&.7.N.=.=.=.=.N.m.M.b.n.M.R.H.M.v.b.R.R.n.=.n.`.v.7.*.*.*.<.*.*.*.=.*.*.*.*.v.n.n.H.b.7.7.v.v.=.=.0.b.`.].[.`.H.H.H.v.v.v.b.v.v.0.7.=.7.*.0.R.n.n.b.b.b.Z.R.R.n.0.*.7.R.H.n.R.R.w.0.*.7.0.0.0.0.0.0.0.w.0.b.8.~ ;.^ ",
". 3 l f # * f j 2 w c x w ; # # ; # # # % # # # & > : % O & ; # # ; ; # # # 6 % % 3 : 3 h # . . wXfX{ l.KXKXJXbXbXdXvXvXvXbXcXBXbXcXcXbXcXcXvXrXsX4XrXrX3XhXsX6X3X1XP.>XuX2X.X<XS._.<X.X_._.3X4X>X/./.<X Xg.S.G.t.5.Q.p.f.6.p.s.| C C p.p.,.C.C.C  .] p.t.I G U < K b 2 w g 3 6 * # * 0 f 3 # g g w w l l 3 : ; 2 * l 2 9 a e b 0 3 0 w e 0 g j 1 v K q q J ) i.O. .s.q.| | 8.|.&XE.|.V.W.] 3.G.lX] B O.G q e k ` [ B s 2X$.@ r.H +.[ B < O.h.] 6.$X2XqXuX XOX0X}.xX!.q.D.<.E.qXfXfX2X#X^.^.XXfXwX2XeXZ.S fXaXlXuXJ.OX Xf.q.5.^.p.D ,.:.;.D.p./.3X1XtXaXhXaXwXXX5.f.^.^.3XtX6XsXSXSXFXGX5.C } :.I 4 c H H H _ G J I ` K H l : 3 # 1 P.h.t.L.S..XwXGXhX1XjXKXFXgX3XwX2X>XvXBXLXhXD ^ &.%.%.%.%.&.*.=.*.*.-.-.=.=.-.*.*.*.&.*.7.N.v.0.=.=.n.n.7.v.n.`.`.R.b.0.b.R.`.H.7.H.'.b.v.=.*.*.*.*.*.*.=.*.7.7.*.b.H.M.H.0.m.b.b.b.v.*.*.M.n.b.'.[.`.H.v.7.7.0.7.*.0.7.0.v.b.b.H.`.R.n.0.0.n.Z.H.b.7.*.*.0.H.[.R.Z.H.Z.n.w.0.0.7.*.7.7.7.0.0.*.0.7.%.:.^ ",
"# # x k # ; g l 5 w 5 w g w ; # # # O # = ; = ; # % + # # # ; ; + # * ; : ; ; : % > * g l 3   = uXeXP Q.LXJXMXMXbXnXvXvXMXvXdXbXcXbXcXdXbXBXdXgXvXvXrXsX6X6X;X3X3X>X/.S._.>X4XtX3X>XwX.XS.k.4XfX.X>XL.^.k.G.!.h.k.k.k.f.p.6.A.^.q./  .5.W./ d.~.6.( O.i.$.` u w e w j 3 6 : # ; 6 g g 3 3 ; * j x l : w w = e 0 w l b 1 e b 1 k 2 w j w w e 0 0 k H v q q v v i I t.j.4.| 4.g.g.OXV.5X0X,.,.^. ...$X .O.a i ' k v v I B O.hX$.< +.i U P o.9 G.1.6.1.2XXX0XkX}.OX}.E.iXC.OX0XV.|.DXfXwXDXK.t.wXfXhXwXfXXXr C.4XNXkXZ.^.uX^.5.!.6.6.,.} } | G.t._.>X4XlXNX<X3X5Xg.1.5.XX).,X4XrXAXmXKXVX>.V X.G G y e b v e u i i i t z z T g # + @ W h.h.a.p.h.+X3XuXCXuXtXAXJXKXVXtXtX1XsXBXKXhXD %.%.;.<.%.^ &.<.*.=.=.-.=.=.=.*.-.7.=.*.=.=.v.=.=.-.=.H.n.7.=.n.R.].R.M.v.v.'.@X`.b.b.m.R.`.n.7.&.&.*.&.7.=.*.=.*.=.7.v.n.H.b.R.R.R.R.v.=.v.v.M.H.R.'.`.H.b.0.7.=.7.=.0.b.0.b.b.n.R.H.n.H.n.b.b.b.b.H.n.<.0.R.H.R.Z.n.b.R.Z.w.*.7.7.<.%.*.0.0.7.7.<.*.<.^ ^ ",
". 3 T j o = 3 2 k b w 3 b x 2 = : ; # # ; ; # # + # + # ; # ; * ; : : : ; * * ; ; 3 * 0 h ; . e 2X2X[ >XLXBXcXbXcXvXnXvXVXMXcXbXBXBXdXyXdXdXdXdXgXgXrX3X1X1X1X1X(.4XwXwX/.+X2X2X>X.XwXtX.X_.wX)./.hX^.^.^.h.Q.G.s.h.p.9.p.p.L.<X9.,.s.5.9./ W.W.] ( [ I < < k k b k w 2 g m k ; 6 w g 2 w e w w b e : 2 w w 3 3 j b b y b k 3 w 2 0 w e w g w w 4 w < = u b K v v 9 s .. .,.p.G.D.0X~.|.$X4... X..6.XX5.P I i v < b i i t r tXy.< $.p [ i.J ] d.,.C !.fXXXeX#XC.J.C.}.}.fXDXD.D.zXlXuXlXwXI.<XwX1XtX0XqX|  .fXhXwXV.D.eX|.V.A.R  ...:.8.J.J.p.2XtXsXNX3XL./.S.6.,.J.~.aXfXtXgXbXLXLX) $ O.U x 5 j e e e u k v K ' 4 2 j b k : @ U +.2.>.2.a.I.2X+X.X1X4XaXZXSXLXKXMXhXtXyXAXLXVXD ^ &.;.;.&.%.*.7.*.=.=.-.*.=.=.=.&.=.*.*.=.*.=.=.0.=.v.M.n.v.0.0.n.H.n.b.v.M.oXoX[.'.M.v.H.[.`.0.*.*.=.*.7.7.7.7.*.7.v.v.m.H.`.R.R.`.'.H.v.n.n.H.R.H.n.H.n.v.b.b.b.b.7.v.n.0.v.b.H.R.R.R.H.n.n.0.b.w.n.H.b.H.R.R.R.b.w.Z.].R.b.%.=.7.0.*.<.v.0.7.7.*.%.*.^ ^ ",
"# 3 x w ; # % ; j H j 1 x Y w 6 ; : : # ; ; # : # ; # ; ; # ; # ; ; * # ; # # ; > h = 3 0 . . Y wX#X] >XLXmXvXvXcXbXbXvXbXnXgXnXSXbXdXsXgXgXgXcXMX4X4X1X1X6XhX>XQ.).>XwX/.<X1X(._..X2X3X3X/.2X)./.fX2XXX^.G.F.f. XF.s.s.s.f.~.wX/ ,.W.j.6.Z W.A.r a I i @ 5 Y l l 2 = j b b b k 1 6 w j b b b j 4 2 w g n b h g w w 5 w w ; ; = 2 : 3 2 3 0 0 3 = 6 6 3 w e e 0 j 1 q J J a B { @.d.^.D.5XE.:. .A.5.E.!. .[ 9 q < z H 4 z $ X.>Xi 7 t.B o.p ] 6.6.g.4.qXJ.2XXX|.zX|.g.J.OXfXqX}.wXCXuXwXZX<X).~.wXfX#XiXV.w.lXfXwXC.p.wXD.C.g.C ..R ..p.+X^.p./.hXZXhX3X)./.F.5. .} L.^.1XjXjXMXGXy.7 4 x x 5 f j e 4 w l j k H e q c k k 3 3 l r.X.I I X.3.s.!..X>X.X2XfXvXSXLXKXFXNXaXrXBXLXAX! &.&.*.&.&.&.7.7.*.=.=.=.-.=.=.=.-.=.*.*.=.*.*.=.*.*.v.N.v.0.v.v.v.v.=.=.0.H.[.[.[.[.'.n.H.[.R.7.-.*.*.=.=.*.=.7.*.7.v.M.R.b.M.n.H.'.].'.n.b.b.H.'.H.n.H.b.0.n.b.n.n.0.b.n.v.v.H.R.H.H.H.0.0.b.w.n.n.n.R.H.'.R.R.R.b.w.R.'.n.*.0.0.0.0.*.*.0.0.7.*.&.%.%.^ ^ ",
"# * 5 j 2 # % > 3 j 5 = 5 x j 3 # : f 6 ; ; # ; ; : ; ; ; * ; ; ; ; # # = # # ; ; g : 0 h . + +.lXXXZ 1XKXVXMXcXbXBXBXvXbXMXvXbXbXdXvXdXdXgXrXsXgXsX4X1XdXgXsX4X>X(..X2X+X4X>X(..X>X.X/././.2X2X~..X<X.XG..X^.p.XXp.s.G.5.p./.$X| ,.j.s.5.Z A.p.< ` r.T e w w w 4 w u v v q i _ b w w b K u u e q v q w n k g h g 3 3 3 3 ; * * 3 = ; : = : : : # 0 f 0 6 = * = 5 6 f j w i _ $.@.!  .,.5.#XC.D C J.E.C.5.P y.X.q q H X.z u.@ +.+Xp P 2.9 < Z 6.C |.!.f.OX!.0XOXeXqX0XeXE.kXiX2XkXlXaXuXGX3X/.2XfXfXOX#XE.| 2XlXuX}.q.#Xq.d.p.>.>.C A 5.~./.a.k.tXjXtXwXwX2X!.5.5.+X XL.L.>XKXFXy.< T ' = f 3 3 w 2 = w l w 2 w $ w b k w 2 l r.K G I X.I ) O.u._.4X1X3XaXdXMXFXKXKXAXhX8XMXLXGX<.&.&.&.*.-.*.=.7.*.=.e.=.-.-.=.=.=.7.=.*.=.=.7.=.=.=.7.v.n.b.v.v.v.v.7.*.7.0.M.'.R.R.H.H.`.'.H.v.=.*.=.7.=.*.7.=.*.=.7.R.].b.0.R.R.'.].'.H.n.n.H.oX'.H.n.v.0.M.H.H.H.v.n.n.v.n.R.H.n.H.H.0.0.b.n.'.R.H.R.R.'.R.R.R.b.w.b.H.b.0.0.7.7.0.*.&.7.0.*.*.^ ^ %.^ ^ ",
"O * w b 4 $ ; % * 6 f 3 ; 3 f f 3 2 k g : : # . + + = ; ; ; : 3 3 ; * ; ; + # ; ; j ; h l . + u.iXp.B VXJXSXbXbXSXVXbXBXAXSXBXnXnXcXBXgXdXbXyXyXsXNXhXgXhXaX4XyX4X).3XtX1XP.P.1XuX2X>X.X XXX>X/.S..X<X>X.X).F.F.G.p.~./.1.3./.2Xd.D.9.Z  .] !.t.u K v j j 4 q i K +.a < i I _ v ` q e k k 9 n b i K b w 3 * : : : # : 3 l w # ; = = 0 e = 0 3 # # 3 * ; 3 3 w 3 6 3 ; 8 3 ; q v o.J ( { ,.| C.<.A 4.V.! 5.r < y.O.p i $.t I [ B K.Q.r U K p s  .! :.|.C.OX0X2X2X~.zX}.iXJ.zXuX|.wXkXjXjXNXaX2X2X2X0X|.OXeXr ~.GXwX2Xd.|.d.C.5.p.[ P [ p.XXF.S.3XjXdXfXwX2X<XF.2.g.a.^.CX4XfXhX$.r J b 0 3 : ; 2 w 3 w w j w * ; w = w w 1 w T K v ` X.v i v i v l.tXtX1XtXrXdXBXFXFXAXNXyXAXLXKX8.Q &.*.=.*.*.=.7.=.0.e.=.=.-.=.=.=.=.=.*.*.=.=.*.7.b.b.b.`.R.7.v.=.b.v.=.=.v.n.n.v.v.M.`.'.R.`.v.7.0.=.=.=.*.*.=.=.=.v.R.].R.0.n.R.R.R.H.b.n.H.H.oX].H.n.b.n.n.n.n.n.n.H.R.n.n.R.R.H.R.R.H.b.H.R.R.R.R.[.R.Z.b.n.n.b.b.0.n.n.n.0.*.*.7.*.*.*.7.7.*.%.%.%.%.%.",
"  . = K G 7 3 # * 1 f 5 ; ; 3 w k j g 3 ; 6 3 ; + + ; ; ; ; * : : ; ; ; ; * * ; w l ; f f . r W.^.d ` LXFXFXAXvXBXMXcXbXBXSXBXbXbXMXMXbXdXyXyX4XvXvXMXAX6X3X3X4XhXwXwXuXtXP.G.<X,X,X2X3X4X4X<X>X/.<X2X^./.Q.3.G.s.s.^.Q.s.G. X<X,.j.3.(  .1.~.O.` n = 1 1 q J J [ [ B p [ [ [ O.i 4 e e v a _ ` v K T e 3 0 * 0 : : 3 3 k h @ : = = : 3 = 3 w ; : w : 3 f 2 3 = 3 3 6 8 h 3 : 0 e J s ( C C ,.}.6.r p.A ] P < i 5.] B v ` < $.O.- s..X- 7 I ..A 4.D D 0X}.2X2X|.D.0XuXOX}.}.xXeX2XlXCXaXtXCXkX2XXX2XOXiXfXA. .lXfX2Xg.D.:.C.f.1.3.P L.!. Xk.1XsXvXhXhXfX5X3XXXL. Xh.3.).ZXfXJ 9 I v w 3 8 > # g w 3 5 w j w 2 3 f 6 = 2 w H z u z I K 4 q l 4 - +.3XsXtXaXsXcXSXSXFXJXSXbXJXLXLXw.D -.*.=.=.=.=.0.0.e.v.=.=.*.=.=.=.0.v.7.7.=.*.=.=.n.m.H.m.n.7.=.=.b.v.=.0.b.m.0.=.0.n.H.n.n.'.b.0.v.=.*.*.*.*.=.=.7.n.H.R.H.n.R.].'.R.n.w.n.R.R.oX].'.`.R.R.H.n.n.n.n.n.H.n.0.R.n.H.M.H.H.n.H.'.R.R.'.@XR.n.b.n.H.n.n.0.n.n.n.v.=.*.*.7.*.%.*.7.<.*.%.%.%.%.",
"O   . K O.L z = # : 3 3 : ; ; * w l 2 1 2 2 g w ; ; ; ; ; ; * ; ; ; : ; : 3 3 6 g f . 0 1 @ ,.|.p.< l.LXFXFXSXbXVXbXnXSXSXBXSXAXAXBXMXAXcXdXbXcXcXMXNXgXdX6X3XtXtXtXwX3X3XwX<XQ._.<X2X.X<X XA.L..XL.G.t.k./.s.G.~.XX^.G./.<X2X~./ Z ] 2.2.2./.B i q 1 4 < I s.1.d B #.s.O.r N i.K n b k v n v u +.i u = 3 n ; ; l l e 0 g 0 X * = : = = = 3 g w 5 j 5 k k 2 1 1 2 w : : 3 : : 0 : K X.s 3...d C.wXC d V 2.X.` 9 5.6.B u u J 2.s - < 2Xu.+ I ..6.,.! Z !.}.~.|.G.2XZ.zXV.|.J.uXkXwXfXCXCXhXjXfX2X0X0XwXzXuXwXr g.lX0X!.A.| D.~.5.L r !.XX3.h.gXtXNXCXjXCXuX2X2X>X/.3X<XtXwXO.( I 4 k w ; : # 3 1 5 5 3 5 f 3 5 f : f w b Y H q H y c k 4 w b h * J P.3XfXjXhXvXFXVXJXJXMXmXPXLXLXV.D &.=.=.=.=.=.=.=.=.v.7.*.*.7.=.=.v.v.v.v.v.=.=.=.n.`.R.v.=.e.=.0.M.N.=.0.0.v.v.0.0.v.b.v.v.R.M.n.n.v.=.=.=.=.=.v.v.b.M.H.b.b.b.H.H.n.w.b.R.oXoX|.'.'.].].].`.n.0.7.7.b.H.R.n.b.n.b.0.n.n.n.H.R.R.`.`.].n.n.n.n.M.n.b.v.b.v.b.b.7.-.&.*.*.&.*.%.%.&.^ ^ ^ ^ ",
"O # . u  . .U 2 # ; ; ; 3 ; # o # l w w w = ; 1 6 : : ; # * ; 3 ; : : ; * ; : * j f o k - @ q.E.d.< I.LXSXFXSXBXvXcXcXSXSXSXSXSXSXMXAXSXvXbXNXAXMXgXMXsXgXsXgXyX4X,XwXjXtXtX/.I.Q..X.X.X.X X~.^._.L.S.S.G.F.G.k.5. X<X/.Q.<XpX5X| r C O.9 r .XE 7 e q 4 a t.F.| 5.1.5.1.P C C P ' v v q v K _ i q q 4 4 2 0 g 0 0 3 = 0 g ; * * * 3 : : w 0 w k c j 2 w x y c z v H j w = . . = 0 - e _ ) L r Z G.).< O.P I K ) ] ] O.X.- v G a #.s p ,XK < C f.6.8.>.,.XX~.|.wX2X#XZ.E.}.OXXXHXfXfXNXZXhXfXfX5XwX2XfXkXCXtXp.3.2XwX~.C.w.D.E.f.P [ ^.uXB k.fX4XNXNXNXjXuXtX<X4X<X_.NXCXa t ) 7 3 3 f ; f : 5 k 5 3 3 5 3 ; 5 5 3 # 2 Y T K v X.K 4 2 w w j f g x U P.1XwX3XtXcXVXJXLXBXbXPXLXLXV.D *.=.*.*.=.=.=.-.-.=.7.*.*.=.*.*.7.v.=.0.v.v.=.=.n.m.n.v.=.=.=.v.m.b.0.v.0.=.v.0.0.0.b.n.b.v.b.n.H.n.=.-.=.=.7.v.v.=.n.'.n.n.n.R.R.R.n.n.R.oX].].'.].[.].].R.'.0.7.n.n.H.H.0.w.R.n.v.n.b.b.n.R.R.`.R.H.v.0.0.0.b.b.b.b.0.=.=.b.7.*.&.*.=.^ &.&.*.<.<.%.%.%.",
". o . 9 ,.8.V < * = 3 ; O # # # 6 : g w 5 4 = 6 g f 3 ; ; 6 : # ; # # ; f : ; 3 5 3 # g + 7 D.E.~ Z dXLXPXPXBXbXbXnXMXnXbXFXVXbXbXSXcXvXAXvXnXMXvXMXhXgXaXrX6XgX4X4XjXrXtX3X/.1Xh.k..X_.>X/.2X<X/.4X/./.G.s.p.#.#.G.s.G.2X/.5XiX..] t.p - ] 0X1.` v + - a.A.6.d.q.q.1.C { o.J i < 5 K ' ` u y y v 4 l w * ; 3 h 0 : o 3 0 3 ; # # * w b b j l l T y x y y y q t y._ u e 2 b v q j 3 ; 0 e K $.Z B t.a.) B G +.U G [ G I I t X.G H u t ) <X) r 1.6.}  .C 2.5X XE.E.eX#Xw.E.J.2XlXfXfXhXjXhXjXCXuXXXwXfXCXCX,XF.p.2X}.!.D.g.4.D.C.>.h.<X0X1.XXuXwXtXjXFXFXvXvXtXuXtX4XI.< 4 x @ 2 k 5 3 f g w ; 1 j f 8 5 5 5 3 3 1 w Y ' < q Y K j y c j 2 5 g @ x +.u.S.3X4X4XjXJXJXPXPXBXPXKXLXD.D =.=.=.*.=.=.=.*.-.=.v.=.=.-.=.=.=.v.v.=.v.v.N.M.N.m.v.*.7.*.-.v.`.n.7.v.b.=.=.v.v.b.b.n.n.H.R.H.m.n.=.-.-.7.v.=.v.b.n.n.H.H.0.H.oX[.'.].|.E.|.@X@X'.R.M.n.n.b.H.R.R.R.H.Z.H.R.H.H.b.b.v.v.v.R.R.R.n.0.b.b.n.*.v.b.7.b.0.*.7.0.b.=.7.b.7.*.%.%.%.*.<.<.%.^ ",
"# .   q 1.:.V i 2 # # ; % > : % * ; 3 6 w b c 1 6 3 3 6 ; ; ; ; ; * * ; : # # ; g g % * + a.iX|.<.0XKXLXPXSXBXbXBXMXbXnXcXbXbXbXdXbXgXvXMXdXgXjXMXvXdXrXaXjXgXNX4XtX1X>X3XtX4XO.$.h.L./.!._.S..X>X3XjX.X!.L.p.p.F.s.L.L.L.1.G.iX@.,.[ X.O.2.XXZ < a p 3.Q.g.6.q.,.1. .( ( J s a l 5 c K v q y z l 2 b l 3 w 3 3 6 0 ; 3 0 f 3 : 6 0 l Y e = 2 b K i H H y u i B ( 3.) v a X.t.B v e = : 3 v X.I i t O.O.B C U h.+.i p G y.I p H H < 9 v y._.r B >.9 r s.] 6.OXE.d.!.uX}.| Z.fX2XwXfXhXNXjXjXCXjX<XfXlXCXNXuX.X .!.zX~.|.,.d.d.q.p.h.2X!.5.wXhXuXjXjXVXFXKXFXFXFXFXz.@ + 5 w w l w 3 : ; f f 5 l f f 8 8 8 5 5 5 e m Y Y b Y Y y y w w w w c x 5 1 y U a..X X>XhXSXPXJXPXSXPXKXLXJ.D =.=.=.*.=.=.*.7.v.=.=.=.=.=.=.=.=.b.v.v.v.v.n.v.v.v.v.=.=.=.7.v.m.M.v.N.b.0.v.v.v.v.0.v.n.H.n.M.R.H.b.=.0.n.b.=.7.b.H.H.R.'.n.'.[.].].oX|.@X|.|.].R.H.0.0.n.R.R.R.'.'.'.'.].`.R.H.n.b.v.7.=.b.M.H.n.n.n.b.b.7.=.b.v.=.=.v.n.&.0.b.n.n.7.&.*.%.%.%.*.*.&.%.",
";     1 G L G H K < @ 3 6 % ; . + ; * * 2 b H 5 1 ; 3 3 ; # # 6 * ; ; * # * : 3 k 3 + $ (.tX Xq.V.DXKXKXKXSXSXBXnXcXdXdXdXcXvXmXyXgXdXMXbXsXrXrXhXMXnXsXrXNXNXrX4XsX,X,X>X3XhXU a _./.>X~./.) h.>X2XwXXX.XG.F. X.XS.G.t.3.] C.XX,.d O.a.P g.!.Z C O.p.s.6.5.f.1...( P P B o.3.o.1 = u K i u J U y = w w 3 3 ; * = h h g 3 3 3 w w g k b e = = b H b H ' z i I P { ] s 2.g.5.6.] ] ) 9 e - . 4 2 H ` B O.OXR V 3.t.[ [ L E O.[ i i U - < - ' .XC B B p L ..Z 8.eX#XJ.OX|.C.Z.2XeX2XuXjXZXCXCXCXfX2XwXfXjXDXCX2XC g.DX|.D.w.^.W.g.5.f.aXp.( wXjXFXjXFXCXCXlXlXGXDXy.- 4 5 5 Y w g 3 w 6 * : 6 1 5 3 3 5 5 3 1 1 3 b K b b ' ' z y 4 2 2 2 f j j 3 + $ e r.L.k.F.wXgXPXKXKXPXJXJXLXJ.D *.*.*.=.=.=.=.7.7.v.v.*.=.v.=.=.=.b.N.v.v.v.b.v.M.v.v.0.=.v.v.v.n.n.n.M.N.b.v.b.N.v.0.v.n.n.H.R.[.].M.v.n.`.m.R.H.H.R.R.R.'.R.R.R.'.@XoX].|.|.|.'.R.M.0.0.R.].'.'.'.'.R.'.].'.`.R.H.b.v.0.*.=.0.v.b.n.n.n.n.v.7.n.v.7.n.R.n.0.b.0.v.b.7.&.&.^ &.*.*.*.&.%.",
"; . X # 1 y v v X.t @ 1 6 + ; ; + : # * * 2 z l 5 6 6 3 6 * # ; # ; ; # ; ; ; ; 3 b . x LXQ.2.] D.fXJXKXPXBXBXbXBXBXcXcXgXdXcXmXdXyXrXsXgXgXjXaXhXaX;X4XrXsXNXaX4XfXsXhX3X3XjXP.a h.wX2X/.>XG.k.)..X~.4X Xs.Q. X^.a.{ t.Q.5.^. X| / [ N P <X~. .s.5.] { A.f.] #.] P B a G $.i.X.4 g b k u K $.+.u : 2 0 6 3 3 w k 0 3 h g 0 6 : 3 3 0 e n e : w 4 5 4 c z u K B O.f.O.d 5.f.5.q.q.1.{ B a J t q q l.h.D W.p.9 [ a.V N [ P 7 O.O.t W b 4 = - _.i.p I ` [ C Z w.J.0X0XOXOX$X4.6.kXwXwXwXtXtXaXCXlX2X.XaXNXNXlX2Xq.p.5X0XW.OXE.E.D.q.s.wXp.S.tXjXKXNXlX<X2X2X>XQ.` @ < z Y 5 5 k 2 3 k l w k g 2 3 w f g j 5 1 6 f b j j l b b k l w g 3 ; 3 f f 5 3 # j +.y.>.a..XyXSXKXKXJXJXJXLXE.D =.=.-.&.=.=.=.=.=.7.7.*.-.=.=.=.=.v.v.v.=.=.7.n.R.v.v.v.=.b.N.v.n.M.m.M.N.M.n.m.M.M.v.n.H.`.`.'.oXoX'.`.'.'.m.].'.'.`.R.H.R.R.R.'.oX@X@X@X].].|.R.n.v.0.b.R.[.].'.R.R.H.H.R.].'.'.H.n.n.v.7.=.0.0.0.0.n.R.'.b.7.0.7.b.H.`.n.n.v.7.7.7.*.*.*.&.<.0.b.0.*.<.",
"c # O   + 5 w u ..V < @ 1 % + 3 ; : ; : * # w b w w 5 5 w 1 * # 5 # 1 3 3 w ; * 3 Y y y.NX$.[ Z p.wXLXLXSXPXAXVXVXBXbXbXdX7XdXSXvXsXrXsXhXjXjXrXfXtX(.3XrXsXvXaX1X3XtXjXjXwX>X).S.L.2X/._.>X>XL.Q..X>X<XQ.k.f.G./.G.#.a.G.] |.|.Z p.6...>.2XOXp.,.6.A.5.A.F.] 2.5.$.[ B a U ) P K k q < u K K u q e j 2 = w g b 0 = 3 g h w h 0 w g w e j e e g w w $ w v 0 q i e _ o.P  .5.5.g.V.Z.w.g.f.5.#.a t 9 5.1.5. Xr B ] >.P >.2.t V B P G +.4 6 1 < Q.J p ) L [ 5.<.4.}.wXfXwX2XD.w.#XeXwXaXhXuXtXhXGXfX^.wXZXCXlXwXXXd.E.lXXXJ.OX~.C.W.~.XXf.fXaXdXKXHX2X6.p.L.O.< + v v q 2 k b l w 1 w k j k g w 6 w g j k f 3 5 k l b l g w w g w 3 g w * : 3 5 3 h 3 j H v [ h.>X4XVXJXKXKXPXPXLX^.Q =.*.*.=.-.=.-.=.=.-.=.v.=.-.=.v.v.v.v.v.7.=.=.M.m.v.7.=.=.b.N.M.M.M.n.N.N.m.n.M.M.N.n.M.R.`.R.R.].'.`.`.H.n.M.M.H.H.`.].'.H.n.R.[.@XoXoX@X#X@X|.R.0.7.v.m.].].R.E.'.'.R.R.'.].`.R.R.H.b.7.*.0.v.0.0.b.b.`.`.R.b.b.b.n.b.n.H.b.0.*.7.0.0.v.0.0.b.b.n.b.7.7.",
"I @   O . @ 2 X.,.6.p @ ; % + ; : = # * : * 6 3 3 f j f w 3 ; * f * 6 : 5 g 3 6 y < y.Q.>X).) < ] fXLXKXKXJXSXAXBXbXbXbXcXyXdXMXMXgXgXvXgXjXsXwX>X4X4X1X;X7XrX3X3X<X/.,XhX4X>X).NX.X/.Q.S.>X4XL.Q.aXaXP.L.~.~.^.s.G.G.h.1.@.5X^.r 1.p.p.6.+Xf.] f.6.F.k.1.G.o.J 2.3.O.[ ) ) I J v K v v K v i y k k w = 3 l g : = : m n 3 0 g b k w w w 0 e k j 1 5 w b ' n u b q 9 p B s d t.f.,.J.J.}.Z.q.j.9...B r ! D F.k.s B t.h.L i U >.O.B o.a 4 ; 2 a k.5Xr P $.N 1.8.8.OX0XfXiX$X2X}.<.2XuXNXDXAXhXuXlXGX<X3XFXVXZXwX$X^.V.xX|.,.0X#Xd.F.wX~.| wX<XwXlXwX2XV.2.3.t @ u ` K b w b Y 1 1 j l l l w w w w w 2 3 w f 3 3 j m k 6 3 l k 3 ; * w h : : ; * # 8 ; : w t +.k.(.>XtXNXSXKXPXPXLX}.D *.-.=.v.=.v.=.v.v.=.=.v.v.=.=.v.N.v.b.b.v.v.M.m.b.v.0.=.7.7.N.n.b.v.v.v.v.M.=.=.v.v.N.n.n.n.R.`.`.M.v.v.v.v.M.b.n.H.H.].oXn.b.R.oXoX].].].oXoXR.n.v.v.b.H.oX].R.R.|.].R.R.].oX].'.`.n.7.*.-.=.=.0.v.M.M.H.n.R.n.b.b.b.7.7.7.7.0.7.=.7.0.b.b.b.b.b.0.=.7.7.",
" .< . % + . = ) ;.8.P < * : # % : # # # 3 ; # 1 = w c k j w 3 1 3 = 3 1 6 3 ; * 2 4 k.>X.XfXv t O.hXKXPXLXJXSXBXVXVXBXBXBXcXdXcXMXbXvXvXgXjXhXaX3X,XrXdXyX7X;X)./.Q.h.P.1X.X>X4X_.>X>X2X2X.X.X).k.wX>Xt.G.^. XG.p.t.k.k.#.{ wX~.] 2. .1.!.wX#.{ { A.!.p.2.$._ ) B [ O.O.o.X.v q r B I ` b v k u b v w 2 k l 0 * g w b 0 3 3 3 0 w ; 3 e q n b 3 . ; g b m k 6 g 0 < p 2.p.9 d G.p.5.D.d.d.d.6.q.|.E.;.D < r l.P.L - U r.X.G X.K.L [ J i q q o.9 $X5.9 t.B V XX}.I. XwXfXXX XE.7.OXwXjXjXNXjXuXfXDXwX>XFXNXCXkXwX^.q.qX|.8.E.$X~.D.pXD.| 0X#X0XOXG.OXg.p u w q K v K < w j = j j e w e j w w w w k w w j j w f l b ; # 0 l f 0 3 3 h h ; ; ; ; : : : * 2 y +.u.P.I.>XhXMXKXPXPXLXOXQ =.=.=.=.=.v.v.=.v.v.v.v.v.=.*.=.v.v.v.v.=.b.`.M.v.b.v.v.b.7.n.N.v.v.=.=.v.v.v.=.=.v.v.v.b.N.R.m.v.e.e.v.v.v.n.m.H.H.M.'.].R.R.].[.].oXoXE.R.H.n.n.M.n.n.H.].'.R.R.oX].R.R.].].oX`.H.b.7.=.7.*.-.7.b.R.R.H.b.n.R.H.n.H.M.n.0.0.b.v.0.=.*.v.n.v.b.b.0.7.7.0.",
"q.d #   . @ @ < ;.8.>.q ; 6 ; ; : # = ; : # . : @ 6 w j x c w 2 ; ; f 3 : g g k 5 4 >X>X4XZX- L 3.hXKXKXPXJXJXbXbXBXBXnXbXbXcXMXvXMXvXgXhXjXhX4X4X>X3XsXdXsX1X1X1X>X.X.X).S.P.<Xk.<X.XQ.>Xh.L.^./..Xa.p.G./.G.p.k.1.s.!.i.] 5Xs.C 2.] p.C. XQ.G.G.!.f.L.Q.a 9 $.X.U [ { J t 2 4 +.[ G i q b K k u u w v b 3 : k 3 3 w 0 k w 3 b 3 * k Y n b l ; . * k j k b 6 w w . a o.] O.5.P y.O.] q.W.C.~.D.4.|.D.C.p.r 9 [ (.G 4 H +.F i [ P P C t p i a < ! |.Z  .2.L I.+X X2XwXfX2XOX}.V.OXiXlXhXhXhXuXfXjXwX/.DXNXCXlXqX^.XXOXXXV.|.2X2X~.#Xd.4.|.E.}.5.R h.i @ j b j u < u w 2 w w j j w w w b w w w w l w 2 j g 5 w l ; @ 3 0 * * g 3 : ; = ; 3 ; : 3 * w 2 2 c K ' P.h.(.tXMXLXPXKXLX2XQ *.*.*.=.-.=.v.7.v.v.v.v.v.=.v.v.v.v.v.v.=.M.M.v.v.b.v.m.H.v.M.N.v.v.v.v.v.=.v.=.=.7.v.v.v.v.v.v.=.=.v.v.=.=.N.'.m.7.n.`.`.].'.'.R.R.R.'.].R.R.H.H.'.H.H.`.].R.R.'.[.'.'.'.'.'.[.H.n.v.7.v.n.=.*.v.n.H.'.`.H.n.'.R.b.R.H.H.n.n.n.b.0.b.b.v.0.-.7.v.0.0.v.0.",
"<.! 4 #   X ; 2 ..4. .t ; % ; ; # ; # * = * : ; 3 + ; j H H y 2 3 > > # w 2 w x ; 5 1X3XgXtX7 [ L.GXLXLXPXSXSXBXMXcXsXcXbXnXSXSXAXbXnXAXvXjXtXfX3X>XsXsXyXsXgX6X6X3XjXtXtX4XP.<X4X<X_.P.S.a.S./.<X>X^.L./.F.F.s.1.G.^._.p.C wX .B s.5.C.G.^.s.p.G.k.k._.i.< r +.) _ y.J < 7 I v X.G 4 v T K J v v e : 0 k g 0 2 b e = w w 2 l k h g e 0 w g w 6 6 3 k n w 2 w j j u q q t ` ` i P 2.~.J.q.C.W.2XOXd.|.eXXX6.O.- ) l.G - N L B P 2.( 1.[ i t i G D |.F.( O.g.!.|.|.+XwXjX>X0XiXE.V.fXlXhXNXjXwXlXfXlX<XhXGXZXkXfXF.!.^.^.#XE.#X2XOX|.,.w.#X<.S ,.z 4 y b c x c b y y 2 j g g j : 3 h f g 5 ; k g $ w Y k j j : w # f f f 0 : 6 w h g : 3 3 ; : 3 2 w w w 1 w ` +.h.>XtXAXKXJXPXLX2XQ &.*.=.=.v.v.v.v.v.v.v.v.=.v.v.v.v.v.N.v.0.v.m.N.v.7.0.N.N.v.M.v.v.v.v.b.v.v.N.=.=.v.N.N.v.v.=.-.-.v.=.0.v.N.H.'.H.n.b.R.`.m.m.M.m.m.n.n.n.`.].].'.'.].'.`.H.n.b.'.'.H.H.R.H.n.b.n.b.v.b.b.b.b.n.R.n.H.].].R.v.R.].`.M.b.H.M.H.H.v.v.n.n.H.0.&.0.0.=.v.H.n.",
"<.| c & . # & ; a ,. .r ; & ; ; ; : ; : ; = : ; ; : : * 1 H H y ; ; 3 : w w w j > ; 1XcXcX:X< } K.FXLXLXPXSXAXBXbXbXbXBXMXnXbXAXAXMXnXgXNXNXsXfXjX4XyXhXsXyXsXsX1X4XaXaXjXhX3XtXtX4X>XS./..X).<X3X_.2XwX_.Q.k.5.1.f..X.X#.i.kX .s #. .f. XF.#.j.s.] 3./.#.B >.[ o.o.9 q r.I +.I i z y v H v a a +.K < 0 k n k = u b q < 1 w b w 0 w 0 : 0 k e 6 g w l n 1 w v k z e 4 u e e k I P .. .D.~.XX XD.|.$X$XE.2XE.4.{ < O.i.p r S.O.N t.g.} t.N i z p N ^.2XZ O.] W.#XZ.K.wX2X5X2XOX#X#XpXlXNXDXCXaXjXlX4X2XfXGXNXlXlX~.}.q.V.eXZ.E.qXOX|.,.| ^.6...O.y 5 5 w w b c 1 5 j j j 2 6 f f 8 f 3 3 3 1 b b c j w k l 3 3 f g l ; : 3 3 ; ; h h ; ; 3 : = : 0 w w j w c K I l.1XhXNXKXFXSXLX0XQ 7.=.=.=.=.=.v.v.v.v.=.=.v.v.v.v.v.v.N.N.v.N.m.v.v.v.v.v.v.N.N.v.v.v.=.v.v.n.M.N.v.=.=.v.v.=.v.=.=.v.v.v.b.n.n.'.`.m.N.M.N.v.v.v.b.n.M.M.b.H.].'.'.'.].R.n.v.b.H.'.`.H.H.n.n.7.=.v.v.7.b.n.n.M.n.H.n.`.].`.b.H.H.R.R.H.v.n.M.n.n.n.n.v.v.n.0.0.n.n.v.v.H.H.",
"<. .y ; * * ; # < (  .a = % ; ; : : : : ; * ; * ; : : @ @ c b v j y w c 1 1 1 5 : + (.NXvXP.9 A !.KXKXPXKXJXSXSXnXBXSXMXcXcXcXbXdXvXvXdXdXdXjXjXhXtXfXNXjXyXsXsX4X3X>X4XjXhXtX<X4X1X<XQ.<X1X>X2X<XQ./..X^.>Xk.p.^.[ O.i.3..XlXp.Z [ #.@.F. X^.j.9.p.p.s.G.o.[ [ y.u @ $.k.` ` G i i u ` $.J ) o._ ' v b b g k : q u e q 1 w b g w w 0 : w k k w k w l k = w b b n u q k v q q J B [  .5.,.!.iX5XD.OXXX2X~.4.| W. .9 N L. .F./.< B p.C q.d.( s t Z  . X! ] 1.q.<.J.J.2XwXwX2XJ.OXeX5XkXCXZXNXjXfXlX<X2XwXFXNXlXzXlX~.D.<.E.w.4.qX~.^.g.] O.U v v z j j w w b Y y 4 z Y b w w w g 3 : ; 3 g k Y T x K y y k x m g l k # : : 3 3 ; ; 3 3 : 3 ; * 3 w w w w g n T I y.<XtXdXFXSXSXLX0XQ 7.=.=.=.=.=.=.=.v.N.v.=.v.=.=.v.=.v.m.N.v.v.v.=.=.N.N.v.v.M.v.v.v.v.=.=.v.N.M.v.v.v.v.=.=.v.v.=.=.v.v.v.b.n.R.H.`.'.M.M.b.v.v.v.N.n.n.b.v.n.`.'.'.R.H.n.v.0.v.H.M.n.].'.n.v.0.7.N.M.0.v.b.n.n.v.M.H.`.`.n.7.n.n.M.H.`.H.R.H.M.b.b.0.b.n.7.v.0.0.v.b.b.M.H.",
",.] < $ 6 ; ; . + L { B = % ; ; ; ; ; ; # + # + ; # ; ; ; 5 j z x x y z 5 5 w j ; . i.rXdXl.r | I.KXLXKXKXSXSXSXnXBXVXsXrXgXgXgXcXbXvXdXtX6XNXjXNXhXaXhXNXaXaXsXjXaX<X4XaXhXlXtX3X>X3X1X.X/.3XaX<X<XwX>X!..XQ.g._.g.3.{ C 5XlXO.{ Z p.3.q.!.$X^.k.s.#.s.3.] B O.J 9 _ y.I a I y a I I o.o.) $.X.a K K ' k 1 e k e e u K l 2 g k g w 0 ; 0 0 w w k 3 g k 4 1 k K u k u k z v k u [ P O.f.Z ] !.OX|.|.2X2XxX2X:.Z.1.] N ] !.r g.] < >.] ! G.,.....< ] !.5.d 4.w.w.V.J.2XxXuXwX|.#XOX~.fXlXlXjXlXfXlXwXwXfXNXFXlXwXzX XOXV.^ w.9.W.9.V.f.P q < 3 k 3 5 f k l c K H < 4 b x w w 2 3 g w 3 l z v H z z U v y w Y Y g 3 f ; 3 3 3 0 0 * ; 3 3 ; * = w 3 w w ; ; e T ` r.(.>XrXJXSXSXLX0XQ 7.=.=.=.=.v.=.v.v.v.v.v.=.=.=.=.=.N.`.M.v.0.N.v.v.N.N.v.v.v.v.v.v.v.=.v.v.N.N.v.v.v.v.=.=.v.=.=.v.v.v.v.v.b.`.R.H.'.m.M.N.N.v.b.M.n.v.v.=.N.n.`.`.n.v.v.v.0.v.m.n.n.oXoXM.7.v.7.N.M.0.0.v.n.b.v.n.b.n.b.b.b.n.H.R.n.R.].'.n.R.n.7.=.n.m.7.v.*.-.=.b.n.n.H.",
"! ] < = k 6 . @ + i O.P 1 ; ; + ; * : ; ; ; * ; ; ; ; ; ; 2 5 2 x K x z y j 5 f f @ X.4XdX[ r 4._.LXLXLXKXPXPXJXVXBXcXrXsXbXgXgXNX_.z.4XgXsXjXsXvXtX6XsXvX4XtXhXhXsXtXtXtXtXtX4X4X<X2X3X_.Q.<X1X>X4XwX2X.X/..Xf. .p.k.g.B wXlX{ / 1.Q.j.d.9.k._.s.k.k...P O.S.2.< a y.$.J J u U I J G O.o.a B ( X.a q q w j b ' q e u b j 2 w w 0 : 3 0 w w 2 k k w 3 j k 2 4 k q i k e q v v H X.o.r C #.6.K.D.|.$X}.0X<XXX^.zX,.,.A.>.6.6.N k. . .5.Z Z w.d.p.< 6.5.6.D <.<.}.q.V.eXuX0XwXOXOXE.}.kXlXhXNXDXhXhXjXfXfXhXGXDXwXOX2X2XJ.r Z.d.q.D.C.{ p 0 0 : = 5 5 j b H y c z < w b x w w e u j w b b H T v u K H b y 5 w 5 k : 0 g k 6 3 ; : * ; ; * * * * 6 6 h l 3 * 6 l T y.l._.sXFXSXJXLX#XQ =.=.=.=.=.v.=.v.v.=.v.v.=.=.v.v.N.`.{.m.v.N.n.N.v.v.v.v.N.v.N.v.v.v.v.v.m.m.v.v.=.=.=.=.=.=.v.v.v.N.v.v.v.v.R.'.`.H.b.m.M.v.v.m.`.m.v.=.0.v.v.m.Y.v.=.v.b.N.N.M.M.m.`.`.m.7.b.v.v.b.v.7.=.v.M.b.n.b.v.0.0.v.n.n.n.M.H.].'.H.H.v.v.b.7.0.n.b.v.0.v.b.v.n.`.",
"Z ] i t b w   # + c [ a 3 : ; # ; ; ; ; ; ; ; ; 6 # # : 6 ; ; * l Y b w w 5 1 1 g * _ 1XgX+.r ! <XLXKXPXKXPXJXJXSXbXcXcXMXMXcXvXdXy.+.;XdXMXMXMXgXtXrXaXsXtXtXaX>XtXaXsXhXtX1X3X3XaXwX,X).tX).t.).>X<X2X2X).wX^.k.f.s P #.fXwXZ p...^.~.@.p.F.3.i.k.5.] [ A.a.J U O.) J ) I 7 K ) J I y.$.P ) 2.I u 4 4 v ' K n b k u j 2 = 6 6 w : 3 w m b 3 w g w 3 w b l e j q 4 q u z v z K ` G B ( {  .p.2XD.C.}.2XwXXXg.iXeXE.Z.8.V.F.< s.p.Z V.} C :.8.| B $.P ,.Z.Z.0.w.V.^.}.2X2XuXeXXX^.|.fXlXjXNXZXhXhXlXfXaXjXDXHXwX^.XXOXOX/ w.q.,.&X}.a < 0 h : # f f j k H z y 4 u v Y b b j e u u u H H K ' K k b w y w 2 ; @ f f 3 0 0 : 3 # * * ; ; # . @ ; 0 0 3 h h ; = w ' r.X.P.vXFXBXPXLX#XQ =.-.=.v.v.=.=.v.v.v.=.=.v.v.v.v.m.'.R.M.N.m.v.M.N.0.v.N.m.m.v.=.v.v.v.v.m.m.v.v.=.=.=.=.v.=.v.e.v.v.M.b.b.n.R.'.`.H.n.H.n.=.N.`.`.`.N.v.v.v.N.N.N.v.v.v.v.b.n.M.M.M.n.M.M.v.b.v.v.v.v.v.=.v.n.M.`.m.b.=.=.v.n.0.0.n.m.m.n.R.m.m.v.v.=.=.n.H.n.n.v.7.7.b.R.",
"r ( ( a K n @ # ; l K 9 ; ; # $ ; ; ; ; ; ; * ; 3 = # 3 3 # = ; 6 w g ; 3 5 5 5 # = i Q.NXy.d / ).KXKXPXPXSXAXVXBXBXcXbXBXbXgXcXsX4XrX1X).gXnXFXNXgXgXrXtXtXwX,X.X3XsXjXtX4XtXaX3X/.k.tXfX4XL.<X>X^.<X4XL. XwXA. X/.s s s.lX<XZ f.1.1.j.p.G.a.a.F.@. .p.F.t.P r 2.a.o.G J ` q - t G I i a O.O.) i i v b Y K n u T k j l w 2 3 f 3 ; 0 w b k ; = w w w 3 l b b j u q q k v z q u X.v #.( C t.P ( W.C.g.XX2XuXE.J.E.|.J.V.6.OX^.Z 2.N p.q.q.:.6.[ 9 J P  .Z.R.V.<.8.XX!.0X+XeXfX2X#X}.2XNXjXhXjXfXlXDXzXfXfXjXHXfX2X2XD.}.b.S D.,.|.|.a : * ; : b $ 1 5 w T H y t v v c j b e 9 p G J X.v z T v w 5 3 3 : 3 6 * : h : : : ; 0 * # 3 0 3 ; . . ; 0 3 : 3 3 : 3 k r.` +.(.NXFXBXPXLX|.D =.=.=.v.v.-.=.v.v.N.v.v.v.v.v.v.M.m.N.v.N.M.M.M.N.v.v.v.N.N.v.0.v.b.=.v.M.m.N.v.v.N.v.v.v.v.=.=.=.v.N.v.B.M.R.].`.H.M.M.b.N.M.`.`.m.v.v.v.v.N.N.N.v.v.v.v.M.M.M.v.N.b.n.R.`.b.v.0.=.0.v.b.n.b.m.`.n.0.=.e.N.M.0.0.n.n.v.0.b.b.H.0.=.=.7.b.n.b.v.7.=.0.n.H.",
"< J { s p ` 2 @ w H K - o = @ * : ; ; ; ; ; * ; ; w : # # : h ; # : h 3 w g 5 ; 3 3 < l.gXy.D G.4XLXKXKXPXSXAXAXbXSXcXdXcXdXsXyXsX8XvXsX1X3X;XgXrXsXVXjX3X,X>X>XtX4XaXjX4X4XaX4X3XhXQ.<X_.>X1XlXwX2X<X.XG.wXwXk.A.Q.3.G..XhX^. .j.5.] j.5.G.s.Q.p.f.f.f.F.K.P P h.t.$.) i +.K ` +.I I G a o.[ U a J J v u < i _ u w w w w w 3 ; : 3 g w k k 6 6 3 g g w w j l k 4 u k u y x z z - J X.P a [ P r f.|.}.!.2XeXC.}.}.q.eX|.w.6.uXW.6.3.} V.6.V.K.h.7 $.U D <.Z.b.:.:.C.#X0XE.0XzXwXeX}. XNXsXtXtXwXhXZXkXlXwXfXlXkXfXwX|.:.J.^ d.! D.!.9 X : 3 = w g x b z K z 4 u W K y w 2 < u ) X.[ X.z 4 b w * w w # * 3 ; ; ; 3 : ; : ; f 3 6 6 3 : 3 3 ; 0 h : ; > ; 3 k k T I l.>XNXFXSXKXLXE.D =.=.=.v.v.=.v.v.v.=.v.v.v.v.N.v.v.v.v.N.m.n.M.v.b.v.N.N.=.v.M.v.v.N.v.v.N.M.v.v.v.v.=.v.v.=.v.v.v.N.N.v.M.`.R.'.`.H.n.M.N.H.`.{.`.M.0.0.v.v.v.M.M.v.v.v.b.M.n.M.N.n.N.M.'.[.R.n.M.v.v.n.m.m.b.M.m.0.0.=.e.v.v.v.v.e.=.N.v.0.0.b.v.7.7.0.v.=.n.v.7.7.H.H.n.",
"4 i ..r t ` z y  .( < X # # # : ; # : 3 ; ; ; # ; ; : 3 ; ; : h 3 3 3 * # 3 g 3 ; = - y.aXf.r ~.AXKXJXKXPXBXbXSXVXVXcXyX7XyXrX7X7XdXvXNXFX;Xr.P.rXdXMXVX,X1X3X_.>XaXtX(.<X3X4XtXtXCX3X>X,X4X1X>X4XhX.Xk.2X5XL.!.L.p.3.^.aXlX^.] 6.A.f.j.1.G.<XG.3.p.s.g./.3.r P.h.) t.[ I q W r.y.X.I [ a o.2.J { $.$.a v i i K w 0 w 3 6 3 : * 3 w w k g 3 w g w w n k 0 : w u u e b y w c c v z z 4 J i u i [ C.D.|.2XC.OX}.G.2X XeXwX5.C C W.p.2X,.R  .V ,.>.X.i B B 4.%.~ C.g.d.^.~.C.OXwX XqX2X!.lXNXwX>XuXF.kXlXkXwXwXlXkXaX4XeX,.<.<.C.d q.~.p - 5 3 3 ; f k k H T H x G X.I 0 q 4 t [ 2.I z H z 4 w w * : : : : : = & > ; : f 6 5 w w 1 2 : : 3 h 3 3 3 = = ; 3 b b l i L k.<XFXSXbXFXGXn.-.=.=.=.v.=.=.=.=.v.=.v.v.v.=.N.v.v.v.v.N.v.N.Y.m.N.v.M.v.v.N.N.v.v.v.v.v.b.M.v.v.v.v.v.N.v.v.v.v.v.M.n.n.H.`.'.'.H.M.n.n.m.n.].{.M.N.v.e.v.v.v.N.N.=.=.v.v.v.N.M.M.M.n.m.[.=XR.'.m.b.v.v.n.b.b.N.b.v.e.=.e.v.v.v.v.n.0.=.0.b.v.7.7.v.7.7.v.7.v.b.v.0.v.b.b.",
"1 z  .Z Z I G P :.] < o 6 6 ; = # @ ; : * ; : : * : ; # ; ; : h k w ; = * 6 w g k @ q ) ).G./ p.vXKXPXJXJXPXSXBXFXVXbXcXrXrX7XrXrXvXvXNXvX6X;X_.1XyXhXgXaXtX1X).4XNX4X).).tXaXtXlXuX<XtX3X3X4X4XjX3XL./.2X~.!.2X~.g.h.Q.wXwXg.p.F.f.G...f.5Xa.a.F.k.F./.p.C o.>XS.[ t.2.X.K i G y.O.X.X.O.+.) 2.o.a.2.a J J v u j w g w 3 3 : ; w w 0 0 0 0 g w n j g w e 3 : j l e l k w w w c v H u k v z u i } :.g.C.|.}.F.XXF.+XlXfX2X2.F.}.] ,.D.d A.5.1...P J B Z w.:.4.E.D.C.!.Z.E.OXOXOXqXkX^.5XHXfX5XjXL.2XlXDXwXXXfXlXjXaX0XC.8.,.9.Z ] <XP - 3 & > ; 3 j j c x x H U W G k g t I [ +.i 4 j b f 3 2 * ; w h 3 # # > l f 3 5 3 w y w w j 3 1 5 3 : ; ; : > 3 h j w e G u.P.1XAXBXBXFXDX=.-.-.=.=.v.=.v.=.v.v.N.N.v.v.=.v.v.v.v.N.N.v.v.N.N.N.v.v.M.m.N.N.b.v.v.N.m.m.m.v.v.N.M.v.v.v.v.v.v.N.M.N.N.H.'.'.].`.R.n.v.n.H.'.].`.v.v.N.N.v.v.N.N.v.v.v.v.e.N.m.m.M.M.m.`.`.b.R.H.R.m.n.n.v.v.v.v.v.b.v.0.=.0.e.=.0.v.=.0.v.b.0.7.7.0.v.b.v.7.v.v.0.v.v.b.",
"< J  .A ] [ L R ,.| q @ : : : * * # ; ; # ; : : # : ; + ; ; : 3 k w ; * ; # * 3 f + k G J { 4.G.yXKXPXKXKXKXSXBXVXBXcXcXyXyX7X7XdXbXgXNXMXNXAXrX3XsXrX1XhXsXtX4XaXtX1XaXhXjXtX<X4X,X3XfX/.).tXtX4XwXtX4X^./.4X/.L.A.F.i.3XfX5.( Q..XF.] F.!.i.i.p.G.S.G.a.s { L.t.Q.O.C 2.J B 2.2.O.P i y.i y.2.s ( J G I i k e j w g w f g h 3 : : 0 w 3 3 w 3 l l e 3 w k w w l w k k j l j k l Y k u K v v i ,.A } f.^. XF.F.F.!.DXfXwX2X^.2XXXC C.0X4.8.^.5.} / ..] ! 8.Z.Z.V.,.D.E.V.OXqXeXqXaX!./.FXDXlXZXuXwXfXlXzXXX$XlXjX4XXXC.w.,. .( ( .X[ < f > > 6 + 5 z b b H H G u t l b G O.[ W c 1 ; 3 : ; 3 3 ; 3 3 : > : : l 5 x Y Y x y y K Y l 5 5 3 : ; : ; ; : 3 w w H y.P.(.uXKXBXBXAXfX*.=.=.=.=.=.=.v.v.v.N.N.v.v.v.=.v.v.v.N.N.v.v.v.N.N.N.N.N.M.M.M.M.M.N.v.v.m.m.v.N.v.v.N.N.v.v.v.N.M.M.m.N.N.n.H.`.].'.R.m.v.b.R.'.`.H.v.v.v.v.N.N.N.N.v.v.v.0.v.v.M.M.n.M.n.H.H.M.`.`.'.'.m.M.n.v.v.v.v.v.v.e.=.v.0.=.0.v.0.0.v.b.0.7.v.v.7.v.7.7.7.7.7.7.7.0.",
"< I ] C C [ ] C ~ | i # @ @ * ; ; # : ; # * ; * * 3 3 : : : ; : w 6 ; ; 3 # @ 3 5 = H ` 9 9 j..X7XKXKXKXPXPXSXSXSXVXvXyX6XyXrXdXrXsX8XsXNXgXAXBXvXvXgX3X1X).>X.X3X).3XtXsX<X,X>X_.<X<X.X/.<X4X<X).fXtX>X.X<X.Xh..X~.f.#.wXfXp. .6. Xp.{ k.9.k.3.G.s.^.L.#.[ Q.i.{ 2...1.) ( t.2.B { #.O.2.P S.y.t.J J +.W i b k w w w 2 ; 3 3 3 6 ; w n 0 : 0 0 3 w l w j l w 0 j w l w g b l w j z k u _ J _ ) 1.} 6.f.6.~.~.5.g. XwXaXtXaX.X/.lX|.,.q.8.:.8.<.^.] Z ,.<.w.Z.V.C.5.XX2X~ J.eX#XOXOXuX<XuXjXhXNXuXuXzXlXHXuX!.fXhX<X~.d.d.,.] ( ] G.s < w : : % ; 1 k b H T W U H v l b C 6.O.I k 3 # + ; : 3 * g f 3 3 3 h 3 f T H x ' ' +.W +.j x H x f 3 3 8 ; ; 6 w z v ` y.u./.NXKXbXcXFXwX-.=.=.v.v.7.v.v.M.N.v.v.v.v.v.=.v.v.v.v.N.v.v.N.M.N.N.N.N.N.N.m.N.M.n.v.v.n.M.N.N.N.v.N.v.v.v.N.N.m.N.M.M.M.H.`.`.`.H.H.m.b.n.m.`.R.n.v.v.N.N.M.v.v.e.v.v.v.v.N.v.M.M.M.n.n.`.].].].R.H.R.n.M.M.n.n.v.0.v.v.v.0.v.N.v.b.v.0.0.v.v.7.0.v.0.=.7.0.7.=.=.=.7.7.0.",
"< ) O.N t J  .S ,.,.i * @ # * * # # ; : ; ; ; ; ; ; : 3 3 ; ; ; ; w w ; w ; * 6 1 1 T r.i < #.S.3XLXJXKXSXBXSXKXBXSXBXgXrXyX6XsXcXgXyXgXMXdXgXNXMXgXvXsX4X>X;X(.P.1XAXfX4X>X).>X/.tX.XQ.wXaX3X<X2X.X2XwX4X.XP..X<X/.5. .5X2XF.i.f.k.p.3.j.F.3.k..X).S.{ C k..Xi.3.P f.G.i.#.{ P 1.O...1.s h.2.{ i.P X.G J K b 2 l j l e = = : 0 g : w k w 0 0 0 w 0 k b l 2 2 w w j j w y l b z k u u a _ a ) o.Z ( p.] ..p.2X^.d }.uXuXlXjXDXaXtX5XG.4.8.<.qX8.V.:.( ( g.D.<.D.d.6.E.}.q.D.fX2XJ.}.kXwXwXjXaXDXwXwXfXlXlXfX}.kXlXwX2Xq.C.5.r u B i.P < @ # ; ; * = y H H H H G W z q ` 5.f.2.u j 3 6 f 3 ; : 3 ; h k 3 3 l b r.r.T H +.$.y.+.X.G K x y l x 6 ; f 8 w k K K ` X.u.,XZXKXcXyXGX#X-.v.=.v.=.=.v.v.v.v.v.v.v.=.=.=.v.N.v.v.N.v.N.M.M.m.M.v.v.M.Y.`.m.N.b.b.v.b.M.H.`.N.v.N.v.v.v.N.M.M.N.N.M.M.R.`.'.`.`.`.m.b.m.m.`.].m.v.N.`.T.N.=.e.v.v.v.e.v.m.m.R.m.m.m.M.m.[.].`.n.v.v.v.v.n.b.n.N.v.n.N.b.v.v.v.b.b.v.0.e.0.v.v.v.N.v.7.v.v.0.7.7.=.7.b.v.",
"t ) U 7 - J ,.^ 8. .y ; 1 1 ; * ; # ; : ; ; # # ; + * 3 ; ; : : ; 3 w 6 6 ; ; = 1 5 ' I i t s s >XLXJXJXPXSXPXKXMXBXVXBXvXyX>X1XdXdXrXyXcXvXNXgXgXrXsXgXNXvXtX<X,XsXhX4X).).k.P.<X>X^.Q.2X>X5XtX2XL.wXfXQ.).4X3XS.s.O.1.5X!.F.s. XA.p. ./.a.h.!.).<XO.{ p._.9.#.C k.h.] t.( <  .2Xp.N C t.1.Z O.s C o.i p u q q k j b n w w 0 h 0 0 k w : 0 w 0 j 0 g k 0 0 w w e u u k k k b Y J v v J B p J ( { { ( ]  .6.A.E.! 8.fX<XhXNXNXZXwX_.2XOX,.w.Z.b.Z.q.C - D V.;.V.XX4.q.V.|.J.eXA.|.J.|.kXzXfXwXlXfXfXlXlXfXuXG.XXlXaX2X4.4.5.9 p < t.a.t = 6 3 > + 1 k Y H H F G G p t #.f.f.X.2 1 j b l 3 * w f ; 3 3 3 w x T W W r.u.l.y.u.y.y.$.X.H w H Y w ; l x x z K I X.+.P.uXFXFXcXgXKX}.-.v.v.v.=.=.e.v.v.v.N.N.v.v.v.v.N.N.v.v.v.v.N.N.N.m.m.N.N.N.M.`.m.N.b.N.M.N.M.H.`.N.v.v.N.N.N.v.N.N.N.N.M.M.R.R.'.'.'.'.n.N.m.m.`.`.b.v.m.`.m.v.v.N.N.N.v.v.v.m.R.R.m.n.m.M.M.N.R.m.N.v.n.n.n.R.'.`.H.n.v.v.v.v.v.v.v.v.b.v.v.v.v.v.v.b.b.v.v.v.7.7.7.=.0.b.v.",
"s J x 1 1 H | %.8.P 1 % 6 ; % ; 3 ; ; ; ; ; # # ; # = ; = ; : : * ; 1 6 3 ; ; ; k 5 ' I i J ( < (.LXPXJXPXPXJXPXVXVXSXFXbXsX1XrXgXdX6X7XrXcXVXcXdXvXgXyXhXhX4X4X4X4X,X3X>X).a.O.Q.F.k.G.Q.Q.<X2X>X5XaX2Xk.1XtX4X.X3.2.k.uXp.3.G. XA.{ @.wXp.)./._.o.2.1XS.p.p.9.( G.p.L s B L i.^.{ C 3.F.d ] p.C { $.J i < p +.e 4 w e g g g g 0 g b 0 * 0 g k 0 w k w 0 k l w k v K ` b u k K ) ( ]  .Z Z ( C { ] d  ...p.,.q.V.<.}.2XlXNXhXhXZXaX2X5XeXJ.;.V.#X,.r p C p.| ,.2X6.S w.OXD.OXC.|.|.Z.qXiXOX0XkXzXfXfXuXkXwX~.^.fXzXOX8.,.s.< q < I u.9 2 0 3 : * 5 j y y x H H G [ ..1.:.[ n 2 @ w T Y w w w ; w g 3 w b H H z +.u.S.u.h.L._.L.2.u.y.X.T ' j 4 z b H c H X.$.+.>XNXFXVXMXBXKX}.-.v.v.=.v.v.v.v.v.v.N.N.v.v.N.N.N.N.v.N.v.N.N.v.N.N.N.N.M.N.N.M.v.v.b.M.M.M.M.m.N.N.N.N.v.v.v.v.=.v.v.m.m.H.'.'.'.].'.`.b.v.R.`.{.m.v.M.`.m.v.v.v.N.N.N.N.M.m.`.`.R.n.M.m.M.v.v.M.m.m.H.`.H.R.oX&X[.R.n.v.e.v.v.v.0.v.v.N.b.v.v.v.v.v.v.N.v.v.7.=.=.=.=.v.b.v.",
"s a y & 6 z ( 4...p # % ; # % : 3 ; ; # ; ; ; ; ; : ; ; : : ; ; 3 ; 3 g g 3 6 1 w y +.y.t t 2.J _.LXJXJXSXPXSXSXVXVXBXMXvXcX6XyXgXsX7XrXyXdXNXvXrXNXhXsXhXgX4XtX3X3X3X.X).3XhXL.C /. Xk.)./.>X2X).>X<X<X.X)./.).4XG.F.F.aXs.p.F.f.s.6.A.wX<X_.).y.o..X^.p.3.F.j.p.#. .i.J X.G I J Z 1.G.5.] 9.f.C #.#.) v < b +.e : 2 0 2 0 g h 3 0 g : : 0 0 g : 2 k k l k e k q v ' +._ i e v ( ] @.5./  .1.( ( #.1.] @.1.! ,.b.;.d.}.fXfXlXaXgXGXNX4XfXOXq.w.#X4.( y.B P } w.C.:.d 8.}.E.^.2X}.iX}.E.qXXX0XeXzXfXfX0XfXOX X!.wXzX^.d.,.S.< 4 K t +.7 1 3 ; ; # 3 w 2 y G U N N X.5.5.:.[ i 3 w 4 b z y j w = 6 j w l x x +.r.+.a.P.u.h.I._.K.L.L.a.K H r.Y 4 k z z y G O.i.h.1XjXFXVXPXFXHXD.-.=.N.N.e.N.N.v.v.v.v.v.N.N.N.v.v.v.=.N.N.v.N.N.N.M.M.N.v.N.m.M.N.M.M.N.v.N.M.M.N.N.N.N.N.M.N.v.v.v.N.m.M.`.].].'.'.'.m.N.v.R.[.[.m.N.M.`.Y.v.v.v.N.N.v.N.m.`.[.[.'.n.n.m.N.v.M.N.m.H.'.'.H.`.=X&X].m.N.b.v.v.M.v.v.v.v.v.N.v.v.v.v.v.N.N.b.b.=.v.v.v.v.b.b.v.",
"B ) y ; + * 9 o._ - * * . # * : : # : ; # : ; # 6 ; : 3 ; 3 f w 1 5 5 g 3 3 3 3 z q y.[ t < I q (.LXJXPXPXPXSXBXSXBXdXsXbXbXrX7XNXsX1X>X6X6X,X3XdXBX6X1X).3XdX1X1X3X3X1X,X>X>X3X).p._.>X3X/.4XaX>X(.1X/.wX4X).2X).G.5.).aX5.f.!.9.p.j.A..X<X2XS.a y.>Xh.L.k.#.t.5.1.f.[ y.G y t s O.#.^.f.,.f.5.5.$.p e k k y Y j g 0 * : 0 : 0 0 0 3 0 0 3 w 3 w e j j j k w n K a o.J p K u i 1.] @.1.,.4.d.! Z ,.@.! 4.C 4.4.! d.~.E.}.wXlXNXsXgXvXtX3XkXG.D.|.d C i.r N g.Z.4.D D #X'.J.8.}.2XuXeX4.#XOXkX0XeXfXlXuXwXwXXX|.H.OX|.w.A p.[ t I 7 U 4 + 1 ; o * k 5 $ q X. .] s P ,.q.,.t.X.c e 4 y H j 4 w w 1 6 w l j z ' y.y.a.h.K.h.u.G.K.L._.P.h.' T z j w H v U [ [ t.L.1XvXMXFXbXKXiX-.=.v.N.v.v.N.v.v.v.v.v.v.N.N.N.v.N.v.v.N.v.B.N.N.T.m.v.N.M.M.T.m.N.N.b.N.`.`.H.m.M.v.N.M.N.N.N.v.v.=.N.M.m.'.'.'.'.'.'.`.n.b.m.R.`.b.v.R.'.M.N.v.v.N.v.v.m.].oXoX*X].n.N.m.M.v.v.v.N.U.m.M.H.[.[.[.[.R.n.m.M.v.N.b.m.n.v.0.n.v.=.M.v.v.M.v.N.e.v.b.v.N.v.b.N.v.",
"L I 1 # O # < v n @ * * # * : 3 ; * : : ; ; * ; # # : 6 ; 6 3 5 1 5 3 f 5 3 3 3 b t y.[ z 2 K < z.KXPXSXPXPXSXSXMXBXvXcXSXBXgXcXdXvXgX6X6X3X1XsXKXgX1X>XtXrX1X).rX1XtXtX).Q.>X>X>X<XL..X.X_.4XsX4XtX4X3X(..X).2XG.s.G.4XXX .j.s.5.XX .G..X/.Q.B y.(.Q.).!.F.t.O.s.p.[ S.2.@ i J #.3.p.1.F.5.] @.p.) q q c b b w 1 k 0 = = = g g = 3 3 0 0 3 h 0 j j u w w k w q v J o.[ i J G N { @.q.@.1.^.}.4. .! | 1.| C / d.G.r f.2X4.wXfXCXlXhXjXFX4XjXwX}.iXZ 9 p.P ] V.V.D.| / OX}.V.7.OX<XwXfXC.~.2X0XwX0XkXfXfXwXOX|.}.b.H.Z.S D 6.t.- t p U x . & ; # # f 5 1 4 U 6.:.] O.| 4.<.:.L c b k j x c y w = = 2 w l 2 y H +.h.S.h.K.2.2.^.I.a.L.(.I.+.b y w ' y z +.t.5.f./.4XVXMXBXbXKXqX-.=.0.v.v.v.v.v.v.N.v.v.v.B.N.N.v.B.v.v.v.N.N.N.B.M.m.m.N.N.m.M.N.N.N.N.M.`.`.`.m.N.B.N.U.M.N.M.N.N.v.N.m.`.`.H.'.].].'.m.n.v.M.`.`.N.N.R.`.m.m.M.v.v.N.M.m.].-XoX@XR.M.m.H.M.v.v.v.N.b.v.M.M.M.`.n.H.H.m.m.m.M.N.N.M.b.N.v.=.v.b.v.v.N.M.n.n.v.N.b.v.v.N.M.m.N.",
"G J $ # # # q v j # : ; # * * * * ; ; : : # ; : ; : ; ; 3 5 5 5 1 3 3 g j 3 6 5 j < 2.I K 4 Y 1 l.JXJXPXSXPXJXSXbXMXbXMXMXMXvXbXyXMXFXMXcXdXsXcXNX6X6XyXVXNXtX_.z.>X1X/.2X.X>XwX>X2X<XwXwXS.hX3X>XdXsXhXk.).>X<Xh.Q./.fX~.3.f.p.2XfX6.F.>XtXy.y.6X;Xh.Q.S.t.Q.k.s.p.O.k.O.[ - +.O.~.#.3.F.5.D s...J i b e z Y 4 = w 3 0 0 ; g 0 6 w w g 0 0 g w k x y 5 c b k 2 u v v I I G [ O.B ..p.,.4.W.|.D...q.d.| D | ,.] p.5.9 ~.,.G.fXfXCXZXjXAXNXZXaX$XiX@./ f.2.R d.E.E.Z.<.Z.OX8.<.2XwX5XfX0X}.0X|.2XwXfXwXwXfX0XOX}.H.V.<.D :.| f.C s B i W $ * # # : > : g w p O.5. .6.6.q.:.V L G b b y j x z k q = 1 3 3 w z I +.+.a.a.2.R >.L.G.a.a.k.l.y.r.r.Y Y z W 2.2.t.A.>XjXFXNXvXVXGXoX-.0.e.v.v.v.v.N.N.M.M.N.N.B.N.v.v.v.v.v.v.N.N.N.N.m.m.U.v.N.`.M.v.N.N.N.`.{.`.R.m.N.v.N.M.`.T.`.M.N.N.M.m.`.R.n.`.].].`.M.M.b.m.[.`.n.M.`.`.m.Y.M.v.N.m.`.`.].-XoXR.n.`.'.`.m.N.N.M.M.b.v.M.b.v.v.N.n.M.n.v.M.R.m.v.b.n.m.M.0.n.n.=.n.n.n.n.b.v.b.b.b.v.m.`.m.n.",
"i K = ; o + t ` w ; : : ; ; ; ; = ; # ; 3 * ; : : : + # 3 5 3 3 1 5 3 g l 3 1 w w 2 y.O.x 1 b $ l.LXJXPXSXSXSXJXAXBXbXMXbXbXbXMXdXcXcXgXvXbXsX1X6X6XgXvX3X8XNX3X(.).)._.<X2X<X4X2X.XP..XtX).).1XaXrXaXvXP.<X_.L.)._./.hXk.p.G.9.wXL.G.fX,X,Xh.>X1X(.Q.S.2.F.h.#.s.( s.o.O.[ ) U 3.G.] 5.Q.C 1.f.B I T H 4 q T k = : 0 g 0 g : 3 w g g l w 0 g 3 6 y 5 2 j x l w w l e z i i I E C Z .. .,.1.s.p.@.d.C.j.9.| D.d.Z F. .f.fX1.}.aXwXCXNXZXAXGXtXfX2X .p.6.!.} } V.OX}.8.w.OXb.:.OXfXwXfX0XXXfX2X2X0XuXwXuX0X2XOX}.V.8.} C d.,.,.6.f.1.< U y 1 # # 3 % # g 4 t ] 6.]  .6.q.C D L [ K T c z j w z v e w w 3 w b X.+.y.h.2.L R a././.F.S.L.h.y.W +.T c Y +.X.1.f.F..XjXVXgXcXSXKX].-.v.=.v.v.N.v.v.M.N.M.M.N.N.N.N.N.v.v.B.v.M.M.M.M.N.N.M.M.M.m.m.`.M.N.M.`.{.`.m.n.N.N.N.M.U.T.`.N.N.M.M.M.Y.R.M.'.'.[.R.M.M.M.H.oX`.v.M.'.`.m.m.N.N.N.b.`.oX=X[.'.n.n.'.].H.M.v.v.`.N.v.v.v.v.v.v.n.N.m.H.m.M.M.v.v.n.n.n.n.m.m.0.M.'.`.m.M.n.n.n.v.b.n.m.`.m.N.",
"i x ; ; . . i X.6 # ; ; ; ; ; 1 ; 3 # ; : : : : ; 3 : : * * 3 6 w l j w w 1 5 k j 1 y.O.z 1 c @ z.LXJXSXPXAXSXAXSXbXvXMXbXbXbXbXyXcXBXBXcXgXcXgXNXvXNXNX_.>XdXgX3X(.).5XG.G._.4X.XL.<Xk./.aX).;XAXsXyXgX).1XL.S..XL._.jXp.1.j.9.<Xf.G.lX<Xu.,X4X>X(..Xs.a.).s.k.s.t.i.s.2.s 3.B F.@.1.f.s.9.s.O.s J v c 0 e v e = 3 w 0 ; 3 w w k 3 = w g 0 0 ; 1 j w j j 5 j j g k j q u J ) I C ( C { s.f.f.] G.W.q.d.#X6.r s.C ] G.5.wXeXg.5X<XwXhXNXgXZXaXfXaXs.C.4.0X^.D V.0X'.8.Z.}.V.;.E.2X0XwXwX0XzXfXqXkXqXlXkX2X#XE.Z.4.8.:.D q.D.|  .g.C.< G H 5 # O % % ; * 4 K P ] B N 1.q.:.:.} [ G b z k z w v T j x k 3 5 v W +.u.a.h.2.p.K.V.I.^.L.L.k.y.W T H c T U X.p.L.L._.VXAXcXdXcXDXb.-.v.v.=.v.N.v.v.M.N.N.N.N.N.N.N.B.v.v.B.N.N.N.N.N.N.m.N.N.M.N.M.T.m.v.N.`.].'.m.n.M.M.M.`.Y.M.M.v.`.m.M.M.R.`.`.Y.'.'.`.M.M.m.`.'.m.v.b.m.m.`.`.M.v.v.N.].&X=X'.H.m.b.'.{.`.m.v.v.`.N.v.v.v.v.n.m.`.N.v.b.n.M.m.m.m.M.m.n.n.m.n.0.m.].'.m.n.n.m.R.v.b.m.m.H.'.M.",
"y k * # @ < v I 2 ; ; # % ; ; ; : : * ; ; : : ; ; 3 : 3 ; : w 6 5 l l l g 1 w j j - 2.O.K y i @ :XLXJXSXSXSXSXSXSXMXMXBXBXMXcXdXcXcXMXMXvXdXgXgXMXdXsXhX,XtX4X6X>X<X<X<Xs.k.L.>X>Xy.fX3X).<X/.4XsXsXaXgX<X/./..X/.S..XjX3.( s.f.2Xt. X>X).P.hXtXQ.k.).s.G.G.a.k.i.Q.s./.O.p.P 5. .4.j.j.1.p.( P B J z c k u v < w j 3 3 : ; g w h 0 : w h ; : 2 3 f w j j 5 w l g w l k i K J X.O.2.] ..p.g.f. .6.d.G.! 9.fXq.r p.1. .C B kXOXC.wXfX4XMXAXZXhXhXjXG.q.C.OX0XA D.#X}.b.J.|.E.8.|.0X|.wXeXfXlXwX2X0X}.fXkX|.}.V.<.w.;.:.~ q.E.| ,.^ |.5.B U 5   O % ; ; * 0 ' i a G P t.f.V.C.<.6.U u e w w e H +.v x g 6 j K +.y.u.t.a.y.2.a.5.6.F.K.h.s.a.y.W c x H U u.s.h.S.).FXVXsX6XhXDXn.-.v.v.v.=.v.v.N.M.N.N.N.N.M.M.N.v.v.v.B.M.M.N.N.m.U.U.N.N.m.N.M.v.N.N.M.`.{.'.m.M.m.M.N.M.`.m.`.m.m.m.M.m.R.`.R.`.R.`.R.M.M.`.'.`.m.m.n.v.R.[.`.M.N.v.`.oXoX'.`.M.H.M.'.[.`.M.v.m.M.v.=.=.v.N.m.`.m.b.v.v.M.M.M.b.m.b.R.R.M.M.v.M.n.'.'.n.v.v.m.m.b.b.m.n.n.R.m.",
"y k * # = K [ i 1 > ; # & % % % : * ; ; ; ; ; ; # 6 # * 3 3 w = 3 l k j w 2 w j z < O.[ I p a 9 1XLXPXSXSXSXAXAXSXBXMXMXSXBXbXgXcXcXbXBXgXsXgXgXsXtXrXgX4XgXyX4X3X4X3X).3.p.Q.k./.>X<X2XP._.k.3X3XyX6XgXtX>X<X_.~.2..XtX( ] XXXX2Xp.wXG.h.).hX3X_._..X.Xi.!.i.#.s.s.!.a.1.G.@.d.D C.!.p.9.( P O.I J u k u q J q w l 3 3 0 ; 0 3 3 g g k h : 6 0 w 3 2 w g f 3 j l 2 k b k y 9 i ) [ P C P P p.s.1.@.d.d.1.$XF.6.d.C...! B 2.fXW. XfX4XZXFXjXjXGXjX2X6.w.!.kX8.V.}.OXV.Z.#X|.Z.OXqX#XwX2XwXDXzX X!.|.fXwX}.Z.V.0.8.| ~ | q.C.Z ~ b.&X~.V J 3 # o ; % o 6 w K 4 z H U O.5.q.b.7.w.[ v k e q e a ` b l g 3 j Y r.u.h.u.y.y.G.I.G.p.p.F.I.I.u.+.H H c Y +.t.6.g.L.tXKXFXhXtXAXDX<.-.v.v.v.=.=.v.N.N.N.v.B.M.m.M.N.v.v.B.M.M.M.v.v.m.N.M.N.M.m.m.m.N.N.M.H.`.'.`.m.M.N.M.M.m.m.Y.'.{.v.M.`.`.`.`.`.].m.`.R.M.m.].[.`.M.`.R.m.].[.m.v.M.N.`.-X[.`.R.M.H.'.[.[.{.M.v.m.M.v.v.=.v.v.M.m.M.N.N.v.N.M.v.=.N.v.Y.`.m.m.n.M.m.{.[.m.v.N.m.H.n.n.m.M.n.M.M.",
"c l ; * 1 T K < * > ; # & % % # ; o : 3 ; # # : + 3 * * w 3 j w 3 j w 0 6 6 j z b t O.B J q a a mXLXBXmXSXPXVXVXSXBXbXcXbXbXbXcXbXcXyXdXbXgXdXrXsXhXsXvX6X1XvXsXtX3X4X.Xs.#.2XwXt.wX.X>X/.Q.1X).1XrX1XhXtX4X>XQ.~.f..X2X#.s.2X5XG.2X.Xa.,X4XtX3X>X)..X).h.S.i.s.{ k.1.] ~.j.5.@.q.C.9.9.] B ) O.o.G y b j e _ q 4 w w 0 : ; 2 l 6 k w w l h 0 0 g 3 6 w l l 2 5 6 w u e i ` K p q a o.#.( s { p.s.p.5.^.q...G.9.q.j.D.C...r ~.qXF.0XtXZXZXvXjXKXjXjXq.:.D.xX!.g.}.&XV.V.OX}.C.J.OX|.|.OXwXlXDX XE.iXeX X~.d.d.w.~ V.6.Z <.d.| | E.E.E.R E y 3   o * @ w 0 n c y z i L  .,.<.7.q.B i K b n v a J v j w f 3 b +.y.S.S.t.S.+XG.K.I.K.L.F.L.s.u.+.+.z T +.[ 1.I..XNXFXVXcXhXGXlXD =.=.=.v.v.=.e.M.M.N.N.N.M.M.v.v.v.B.B.B.B.M.v.N.T.m.N.N.M.m.U.M.M.v.m.`.`.'.R.M.M.N.M.m.R.`.R.`.m.m.[.[.`.`.`.`.m.`.].`.m.`.[.[.`.`.m.m.m.R.].R.N.v.n.].&XoX'.m.m.H.oXoX].`.M.B.M.M.v.v.N.v.M.m.M.v.N.M.M.N.m.N.v.M.m.m.M.m.`.`.n.N.m.`.m.m.R.'.'.R.M.M.'.R.n.M.",
"l 1 3 ; w Y b = @ . % 3 ; # # ; 3 * ; : ; # # : 3 * * 3 3 2 y c j 5 3 : ; ; 4 H Y 7 3.C I < < v BXLXSXcXAXAXbXBXSXmXbXAXbXbXbXmXdXnXdX7XcXsXdX1X1XdXvXyXrX4XgXvXjXaX1X/.S..X).1Xs.a.>X^.).k.>X6X3XrXgXrXhX4X.Xh.S. XXXf.i.s.)./.#.wXS.,XtXaX3X>X,X<X.XQ.F.k.h.t.2.3.Z s.G. .Z  .q.D.1.] { [ O.J C J G w w m l : = k w = : w k k w 2 l j 6 w h 3 3 w k g 6 3 0 2 * 2 j v v u ` J p K ` ) a J O.2. .A.d.f.D.] J.A.,.}.W.^.g.] p.2XW.f.jXhXFXNXZXAXNXjXj.! C.kXOXg.E.#X<.V.#XE.8.}.E.|.|.}.wXfXwX^.J.0XeX#XZ.q.<.<.w.d.Z Z V.C.:.:.J.w.E.D } 1.q w X + 4 4 T K c z Y x L  .}  .6.O.B J K K K i a J H b b l l j T y.a.u.a.K.^.g.G. X^.L.f.>.>.2.+.T r.T L R p.^.fXVXVXNXcXcXGX2X&.^ 0.*.=.Y.e.=.v.v.B.m.m.B.B.M.N.v.M.M.N.N.B.N.M.M.M.M.M.m.`.m.M.M.M.R.R.`.R.H.R.m.N.Y.`.`.`.R.m.m.`.[.`.m.m.`.Y.v.`.].{.m.n.`.'.[.`.`.R.m.`.[.'.N.N.M.].oX].'.`.m.R.oX[.].{.N.v.N.v.v.M.M.v.M.`.{.M.N.m.M.v.N.M.U.b.H.'.=X=XoX].m.M.`.H.m.'.R.R.].n.M.R.`.R.'.H.",
"w * 6 g b b 3 # * * ; ; # ; ; # ; # o : : ; : ; 6 * ; 3 6 3 c T w 1 : ; ; 3 2 y c 4 2.P K - @ ' PXLXPXSXSXSXSXSXSXnXnXmXdXnXbXmX8XnXBXcXQ.1XvXdX3X1XyXjXsXtX(.6XNXtX>X3X1X<X/.s.2X XL.s.>X(.Q.1X3XrXvXtXtX4X>XS.g.0X XA./ 9.2XF.G.Q.a.,X1XjXtX)._.).1XL.i.G.3.{ k.@.{ p.j.C #.5.9.j.j.9. .P i J 2.) x y w j g w w 2 : e 3 e l w w j k 6 3 k g : : ; 3 w 2 6 6 2 w k j e q < J _ q K K i I p r O.2. .5.] p.8.| ^.C.W.d.C.W.:.d D.~.XX2XwXjXFXZXFXZXAX!.q.^.qX#XE.D.}.q.E.#XV.:.Z.'.|.E.!.wXwX0XOX}.E.0X0XC.8.| <.n.<.Z Z V.J.8.! Z.J.Z.r r ,.( < q - y i G z w w Y G R 6.:...L 9 G G H I I I I K z u b ' Y H T +.u.h.K.h.L.K.I./.K.G.L.h.>.O.I H H T X.O.6.I.hXFXFXSXcXNXGX}.&.-.*.7.=.v.M.v.-.B.v.B.N.B.N.B.N.B.v.N.N.M.M.N.N.m.M.M.M.U.`.m.N.N.N.`.`.].m.M.n.N.N.M.`.`.'.{.`.m.`.'.`.`.Y.N.M.m.`.{.`.R.`.[.[.].m.N.m.].[.'.m.M.m.[.&X=X].'.`.M.'.oXoX].m.v.v.M.N.N.M.U.m.m.R.Y.`.m.m.M.N.M.M.N.m.'.=XeX=XoX].M.M.Y.m.R.`.R.`.R.].R.n.R.R.R.R.",
"g ; 3 3 g f * * 3 1 : ; # : : # o ; # : ; # 3 ; * ; : : ; 2 c T j 1 1 : : 3 2 4 q t 2.2.K 4 + l.LXPXSXSXAXAXSXAXBXnXbXbXmXBXAXBXdXBXgXcX;X:XdXgXsXdXrXrXMXrX4X3XrXgX1X3XtX6X3Xl.3XtXQ.S.L.<Xh.h.wX4XhXtX1X<X X.XQ. XG.F.@.p.$XG.G.p.3.>X>XhXaX<Xh.,X).L.a.h.p.3.1.G.j.p.3.1.5.9.1.6.9.p.1.P s O.2.[ z w w k k 0 0 e w 3 w g k b c j 3 3 f g 3 0 : * = 0 g w w g w g 2 2 e e b v K ' v q ) O.[ [ ] G.] Z g.6.A E.C.4.d.q.F.C.r ,. X|.~.5XlXAXGXAXFXAX3XF.OXeXeXJ.|.0XZ.V.0XZ.<.Z.OX|.H.OXuX2X0XuXOXg.d.}.J.<.| b.w.<.4.| <.Z.8.D w.w.}.;.- V.,.Z G 4 v I z y w w i N ] :.,.,.U i G v H ` J I I J u 4 c r.r.r.r.y.u.K.P.G.+X~.^.F.K.P.+XL.O.U U W z F [ 6.5.I.hXJXJXJXBXNXxXZ.*.=.-.0.0.=.N.M.=.v.B.B.N.M.B.v.v.N.N.M.B.M.m.N.N.m.M.N.M.m.T.M.B.v.v.R.`.].`.m.m.M.N.M.`.[.].].{.T.].`.m.`.`.N.N.m.`.[.`.`.@X[.[.`.R.R.R.`.[.'.`.`.`.[.&X=X].'.`.H.].oX@X'.m.M.N.U.N.N.N.M.m.`.R.M.`.N.M.m.m.U.`.m.].=XqX*X@XoX'.M.M.`.m.R.`.`.].'.'.'.m.H.`.[.@X",
"5 f 3 + + : % # ; # ; ; * ; ; * + : 3 : # # 3 : # : > ; ; ; y H H 5 3 8 : ; 6 3 4 i t.s.p : . P.LXPXSXBXAXBXBXMXSXbXBXBXmXcXcXnXnXbXdXgXsX1X7XdXtXvXVXrX6XvXdXNX1X4X8XgX6X1XvX4X).>X>X,Xh.p.t.1.wXtXtX1XtXtX2XXX^.<X^.s.s.p.qX!.9.p.{ 3XhXhX1X/..X).)..Xa.t.G.p.k.G.#.9.3.#.1.s.j.1.( ] O.B B 2.P G v w 4 b b : = b l ; ; w w b x w w w 3 0 : h w 3 = : w 2 0 k 3 3 : w n l j 2 c K v q J 2.2.[ g.2.f.1.:.E.4.5.}.^.D.4.XXq.1.9.XXA.f.2XuXaXFXvXFXjXlX/.~.qXqXD.2XeXZ.w.eXZ.;.E.0X|.E.iXeX|.OX2XkXE.^ Z.w.D w.w.<.w.d.| S w.q.S ^ q.J.Z.< <.H.b.B t U X.G i x c t R ,.,.| ] i v u u v ' K K K K u 2 w Y r.y.y.y.h.h.K.I.>XXX+XF.u.h.L.t.[ +.W z H X.2.6.A.wXAXFXBXbXVXgXxXn.-.v.=.-.e.B.e.B.v.e.N.B.B.M.N.v.N.M.M.N.B.m.m.N.N.m.M.N.M.M.N.N.B.v.M.`.`.`.`.m.m.M.N.m.`.].[.{.`.`.'.`.`.Y.`.m.M.N.`.{.`.{.[.'.'.`.m.'.[.'.].[.{.R.`.'.oXoX].'.`.`.oX*X@XH.`.`.M.m.N.m.N.M.N.M.m.M.m.M.m.m.H.`.H.M.'.&X*X=XoX'.`.H.m.R.m.R.m.`.@X@X'.R.n.R.].oXoX",
"; 3 3 # # ; ; ; # # * : ; ; ; ; ; ; 3 * # 3 3 ; ; 3 3 % ; 3 y z U j 6 3 % ; ; $ k u [ h.9 = + P.LXKXSXBXPXSXAXSXSXMXbXBXcXsXdXBXSXrX7XbXrXgX3XyX3XtXvXNXrXsXsXcX3X,XrXgXrX;XhXaX1XsX>X).<XB f.G.p.5X3X2XwX4X,X^.^.aX.X#.p.j. XW.$Xp.{ wXZXtXk.P.,XS./.P.a.p.p.h.^.1. .p.j.3.G.f.s.d. .( C C #.G.[ i K e 9 b k 1 j j k 6 # 0 k e e w w 1 ; g h f e k e : 3 3 3 w w w 3 w k k 2 6 c H y u ) [ i L p.5.g.J.8.6.~.] D.5X#XC.D.|.g.C G.!.:.2XwXhXZXvXKXtXlX2X^.OX0XJ.OXkXOXD.0Xw.V.Z.qXw.J.eX0X2XuXfXkXXX/ w.w.;.E.w.%.w.g.,.%.w.Z.Z.^ <.H.'.} D n.7.} [ ....O.p t y u O.5.] P [ G c y z v v v v v v w y v +.u.u.u.+.h.a.G./.>X+X~.K.u.h.a.O.E +.W c H X.>.g.^.uXNXBXMXbXAXAXHXH.=.v.n.-.e.N.e.=.M.N.M.M.M.M.M.M.M.M.m.v.N.T.T.M.m.U.N.N.M.m.B.N.N.B.m.U.U.U.U.M.M.N.M.`.{.].[.`.`.`.`.'.`.`.`.`.M.M.`.`.`.[.[.'.[.`.m.`.].[.].'.`.H.H.].@XoX'.'.`.].&XqX].m.`.T.T.m.m.m.m.M.M.M.M.M.m.`.m.M.`.{.'.`.'.].*X*XoX'.].R.].`.`.M.v.m.`.[.[.m.`.'.].[.].",
"3 > > > > % % > ; 1 3 : ; : 3 ; : ; f ; + : = : 1 6 ; % ; 3 y z T j 6 : : ; 3 ; k y B a.v = + (.LXJXPXSXSXSXSXBXbXBXVXVXmXdXmXAXJXcX7XBXdXyX7X3XsX>XtXaXMXvXdXrX3XrXsXrXaX4X3X_.).4X3X,X/.6.5.qXO.wXjXjX4X,X<X<X3XfXP.s 1.G.p.XX5X1.k.3XaX4X_..X<X.X_.p.k.h.L.L.{ #.9.3.s.W.F.5.@.6.p.O.B O.3.k.X.y K v a b k e k j 6 : 3 g n n b w 2 2 w j w 0 : e g 3 6 w w 3 w w 2 w g l w w x c c v X.+.[ P r 1.5.A.f.1.^.W.q.C.~.^.C f.D.C A ^.g.I.uXuXjXVXFXvXhXwX X|.2XA.0XzX2X}.0X<.b.E.|.<.V.OX2XqXeXfX0X0X<.<.E.E.E.,.! w.g.4.8.8.H.OXV.;.w.d.4.D *.&.<.8.6.:.5.[ I H +.+.I a a i y j x z u q k v v k z x W l.h.h.h.y.O.a.I.~.^.~.+XG.u.h.h.t.+.U F H N E p.J.2XuXgXFXMXMXBXFXxX7.e.N.v.v.v.v.B.e.e.N.M.m.U.M.M.M.M.M.`.N.B.T.T.m.`.T.N.N.M.M.M.M.N.v.M.m.U.m.U.N.N.N.M.`.[.'.'.`.`.{.`.R.Y.`.Y.M.M.m.`.`.{.[.].`.`.m.R.`.].].`.`.'.`.'.@X=XoX].'.'.oX*X*X'.`.T.N.`.`.m.m.T.T.M.M.M.M.M.{.'.`.`.'.].].R.'.oX=X@X].R.`.oX'.`.M.N.Y.R.`.`.m.'.`.'.'.'.",
"3 ; = ; : # = > ; ; ; ; # ; ; # ; ; 0 : * ; # : 6 ; ; ; ; 3 y z H y 1 ; 3 ; 3 6 j v r y.' +   ,XLXJXPXPXSXSXMXbXmXbXAXBXbXcXmXmXgXSXMXdXgXrXgX8XyXsX;XtXrXrXgX6X6X1XaXgXtX4X4XP.rX3Xk.lX3X>.G.!.t.wXCXNX6XrX3XP.3XCXX.$ +.k.}.2Xf.[ 4XaX,X1X4XtX1X.XS.h.3.9.^.#. .p.#.6.d.~.s.p.p.@.#.o.o.#.{ ( I z z v _ K u b u k : O : 3 e v K k e w g k 0 0 ; 3 3 6 6 w g w w 0 6 w k b b n k z K T i G [ [ C ..1.g.p.g.C.J.d |.~.,.OX} q.5.N t.D.:.OX.X3XCXFXFXNXfX}.^.}.C.2XfXXXJ.#X;.b.|.'.<.E.2X0XeX2X2X2X2XE.V.E.].|.8.:.8.4.,.8.<.w.E.w.^ ! 9.f.9 ^ 0.w.D.V.8.V.6.O.J w 2 = w w 4 5 y b l w e u v v u z x W u.h.u.h.h.2.a.G.L.K.F.^.K.u.y.2.u.>.U F z 7 [ D.^.2XjXNXbXMXNXVXLXuXD 0.m.v.v.N.v.R.v.-.0.=.N.m.m.M.M.M.M.`.m.M.m.M.m.`.M.N.M.M.M.M.N.B.v.m.`.`.T.m.N.M.M.M.`.[.'.`.'.{.{.`.R.m.M.m.M.N.M.`.`.{.`.H.m.m.m.R.`.`.`.`.].{.`.oX=X@X@X@X[.].&XqX&X].'.M.v.m.M.M.N.m.T.M.M.M.m.m.[.[.oX'.`.].].R.`.'.].@X'.H.oX*X].H.N.M.`.`.`.'.M.m.H.R.'.'.",
"o > > = ; > ; o : # + : : ; ; * * = ; 3 3 ; : ; ; # % 6 : 3 5 y y 4 1 : 3 ; : : w K p y.y.X . yXLXJXPXPXPXAXmXgXbXbXBXBXBXbXbXnXvXcXbXrX6XcXrXsX6XsXyX,X3XrXsXgX4X4XaXhX1X4XhX3X_.1Xy._.fXp.A.5X/.L.3XrX;XrX1X_.>XNXu.@ 2.2.!.2X2.3.CXNX,X(.4XtX>X_.S.^.p.j.^.#.s.i.s.5.p.f.j.s.j.@.s o.X._ @.{ a T y q J a z v T v w * * u v u v H b w g j w g g 3 ; 3 w w f g w w w k j n k k Y b z K ` i p C  .A.5.5.g.XXD.~.J.g.|.|.XXW.d.!.[ 7 A.} !.0X~.NXZXNXhXkX X}.^.I.OXfX|.OXqXS ^ Z.E.<.~.OXOX2X2X2X2XkX#XH.'.|.#XJ.<.d.C...Z } 4.E.w.S | 4.C.r / |.w.Z.b.<.8. .s - + f 3 3 3 6 5 5 w 3 5 w j v v j j H X.u.K.y.t.a.2.W O.h.K.h.K.t.y.+.O.l.r.F F c L 6.^. X2XlXMXbXsXtXbXLXwXD =.v.m.v.M.v.b.N.e.-.-.b.M.M.N.N.N.N.m.m.M.M.M.m.m.N.N.N.M.N.N.B.B.N.M.m.m.M.M.N.m.m.U.`.{.'.`.].[.`.m.].[.Y.M.m.M.m.M.`.[.[.[.`.`.'.R.`.R.`.].].{.'.].=X@X].@X&X=X&X=X&XoX`.H.T.M.N.M.N.T.`.M.M.m.Y.m.`.[.=X[.`.].].'.n.H.'.'.[.oX@XeXoXM.n.M.`.`.`.m.Y.m.m.H.'.[.",
". : 3 = + ; 3 = : : 3 3 : ; ; : : ; : 3 h 3 > > : 3 : 3 3 1 3 : 3 3 3 : ; : 3 g 3 x U I l.+ w JXLXKXPXSXSXBXMXVXbXMXvXgXSXSXcXbXBXVXBXMXdX6XyXyXNX1X3X1X6XrXgXrXtX>X4XZX3X3XaX6Xy.).<Xy.wX!.2.<X/.Q.3X3XrX8XdX3X/._.$.B ~.9.~.f.F.Q.NXNX1X_.<XwXwXS.h.G.p.Q.s.6.G.p.A.G.@.j.f.9.j.( ) o.J p O.J H G u i +.i U i W G v i s _ ) s v b u w k w w 3 f 3 3 w k 3 3 g w 0 h g w c K W v H v K K a [  .A 6.C.J.d.q.C.d.}.2Xq.XX}.E.C.^.1.B p.V 8.OXlXlXNXNXfXwXG.eXXXOX0XOXJ.qXD.S V.|.Z.q.#XeX|.2XfXwXiXiXE.b.|.E.OXqXE.w.d.1.t B d.E.E.D 4.D.w.4.! E.Z.<.n.0.;. .. = 3 ; 3 g w l y y 1 l g l j b n w b b +.S.K.h.y.v 4 U +.u.u.K.K.h.O.I W r.T H H F >.K.J.|.wXjXcXMXsXtXvXKXE.D *.*.`.M.N.0.-.n.m.v.=.=.n.M.M.m.M.m.M.T.T.T.T.U.U.U.N.m.m.M.M.M.M.M.m.M.m.U.`.m.v.m.`.].].].[.[.'.[.U.m.Y.m.m.m.M.m.M.M.{.[.'.`.`.`.`.[.'.'.[.].'.'.@X#X@X@X&X#X#X@X@X@X@X'.`.m.N.N.T.T.T.`.`.Y.`.Y.`.`.[.=XoX'.].R.{.`.`.oX@XqXqXiXeX&X'.n.oX[.oX`.m.T.[.].n.[.&X",
"= ; ; : ; ; ; ; # = ; : ; ; : > : ; : 3 > ; ; ; ; : ; : 3 : 3 : & & ; : 3 : * f f c z i +.< Y LXKXKXPXSXJXAXBXSXcXBXbXcXbXbXdXbXMXSXSXAXdXrXsXdXdXsXtX6X).rXrX6X3XtX3XgXAX6X1XrX;Xi.>X>XG.f.k.s.Q.L.3X4XvXrX6X4XF.L.3.p f.9.p.<X.XS.vXNX>X(.3X3X4X.Xk.s.5.j.3.p.p.#.G.W.p.5.j.k.#.{ ( $.t B ) I I I I O.2.i i H I 4 H K ) #.r a v b j w 3 1 w g 3 # 3 w w w g 3 6 ; 3 w w j G x y q u z z i U t.g.C :.A.d.| q.q.1.XX0X4.}.~.,.D.f.V B C  .~.wXNXCXlXwXfX|.lX2X2XOXZ.D.eXw.8.#X#X<.E.qXeXeXwXuXuX2XOX}.Z.<.w.Z.#X|.H.w.} U 7 C d.E.:.S g.V.$Xd  .E.7.0.<.<. .@ # + 5 : 3 h g 2 2 5 l w j j k e 1 2 w I u.h.a.` - @ F W +.E O.u.>.u.+.F j j x Y F [ K.^.OXwXjXvXvXyXaXAXHXZ.D 0.-.v.R.v.v.=.*.`.n.v.-.v.`.M.N.M.B.B.M.m.m.`.`.U.U.m.m.m.M.M.N.N.M.m.m.T.M.m.T.m.T.H.'.'.'.`.].`.`.m.m.T.T.m.M.M.`.m.`.{.'.'.`.`.`.[.[.{.[.[.`.'.oX&X&X@X@X#X#X*X&X@X=X=X{.`.Y.M.M.m.m.m.T.{.`.`.m.m.`.[.-X].'.].'.[.'.`.=XqXqX&XeXqX&XoX].&X*X&X'.T.`.oX@X'.@X*X",
"= + # ; : ; ; : # = ; ; ; ; ; ; : ; ; : % ; ; > ; ; ; : ; ; ; ; * & = = 3 ; @ 5 f 5 y z v e P.LXKXJXPXSXJXSXBXBXcXMXbXgXbXvXsXdXBXSXAXbXcXdXsXyX1XAXMXrXtXdX4X,XdX3XrXdXgXrX8X4X).i.t.F.p.5./.XX3.s.4XaXMXrX>X/./.).a.s { #.( aX_.h.AXVX>X).,X,X>X2XW.9.j.s.j.p.@.@.j.G.j.] 1.3.k.2.B J a B X.[ i L B 2.2.( P o.i U G I 2.#.( i.q i w w 2 = 0 j : 5 j g l w : ; 0 : 3 w w w c z y e v e 4 z G I >.1.,.6.4.q.W.g.G.5.~.wX$X0XXXq.q.] N [ 1.F.OXuXNXlXXX0XW.lX0X~.0X8.8.uXC.4.|.E.^ |.0X|.0XuXwX2XwXE.0X#X^ b.Z.V.#XE.D.f.[ r C ] w.E.~ <.E.qXA A R.7.~  . .#.i . $ 1 3 : ; 0 3 5 6 5 1 w w j b b y z +.h.h.2.i @ - i I +.E E >.W u.+.z 2 5 c T G O.V.!.<XtXjXNXvXhXhXGXDXV./ 0.0.-.m.m.m.M.=.v.Y.m.-.-.M.Y.B.m.m.B.N.m.m.`.`.`.m.M.m.m.N.N.N.N.M.N.m.T.N.B.m.m.T.`.].{.'.`.[.{.{.`.`.m.m.T.M.m.U.M.{.[.].[.`.`.{.[.[.[.oX[.`.'.=X&X*X#X#X#X@X&X&X@X&X=X{.`.m.M.M.M.m.M.M.`.{.T.m.m.`.[.[.'.'.].oX@X].H.oX=X#XoX#XqX&X#X#XqXoX'.m.Y.'.*XeXqXeX*X",
"= # = = ; : 3 ; ; : > = * ; > ; > ; ; ; % ; 3 3 ; : ; : ; ; ; ; = ; ; = : : = 5 k y y x - T mXLXKXKXPXPXSXSXMXbXbXMXvXgXvXNXgXgXcXBXBXvXdXdXsXrX6XrXrXrXtXyXsX3XrX3X8X4X6X8XrX3X(.k.h.2.5. .f. X{ s.aXZXMXdX4X_.1X<Xt.s ..1.] fX).h.NXvX6X4X4X).3X.XG.j.9.A.F.p.] 3.a.p.p.C { #.2.{ o.a J p J ) J #.Z p.1.1.#.a G i X.+.J { i._ a k w j 5 3 w 3 ; l g g b g * : n g g k f 4 j b v z v y y v G G L ] / ,.5.,.4.C.~.$XXX!.2X^.G.6.| q.O.E ] f.~. XlXfX~.fXG.fXuX X0Xw.q.eXV.g.E.,.;.}.XXD.+X2XfXfXuXXXOX|.|.E.J.D.iX^.E.^.6.V L ..^ }.q.D V.E.6.D Z.0.Z P L U ) i + = 3 # # h 0 3 1 3 2 l l b b H H W u.P.I.u.2.X.F F W X.2.>.r.+.W W H k j j K I a.C.I.2XtXsXgXgXrXvXGXzX&.-.*.0.=.=.`.R.M.v.=.R.`.0.Q =.m.N.M.M.B.N.m.T.`.`.`.m.M.m.m.m.N.N.M.`.M.M.T.T.m.M.M.T.'.[.[.{.`.{.{.{.R.T.M.M.m.m.T.m.m.[.{.'.[.`.`.[.[.[.-X[.[.].[.=XoX@X#X*X&XoX#X@X@X=X@X`.`.Y.M.m.m.m.m.M.m.{.Y.m.`.{.[.{.[.[.[.=X*X@X'.oX&X=X].oXeXeXeXeXiX&X`.Y.m.[.eXeXeXiXeX",
": ; ; = ; : : + : : ; > : ; ; : ; ; ; ; % ; 3 3 * : : 3 3 : 3 3 ; = : ; ; 6 1 w c x y b + r.LXLXPXPXJXJXSXvXcXvXcXvXvXdXgXcXcXbXvXbXvXcXcXcXcXgXrX7XrXgX3X_.>XVXyX>XrX;X1XaX6X3X).i.2.r g.~.1.@.1.a.tXAXgXjXjX<X>X_.o.r { i.p.aX<Xh.tXsXtXNXCX2X>XQ.5.G.@.G.j.G.{ 3.S.~.3.#.G.i.p B o.$.P 2.C s { 1.3.k.1.3.{ s ( 9 X.` v o.J @ K v j x l g w 2 w 6 3 g 3 3 3 6 k k g g k 0 w Y ' v q v v y c H J ] P ( @. .] | ..XXzX4.F.^.OXW.q.d.p.B s 5.#X~.0XlXOXzXW.wXfX.X X..6.2Xq.D.^.,.E.E.|.}.XXwXjXCX<X0X2X#XiXE.V.Z.0XOXJ.8.q.V < 2.:.%.}.~ 4.C.f.Z 7.Z...s i G P O.X.4 = k 0 : k ; g g g w w j l ' I O.2.u.K.K.a.u.l.y.y.L L W W U x w j j j k H W p.F.XX5X4X3XtXsXtXjXGXeX-.*.-.n.n.-.0.R.M.v.v.0.m.R.=.-.0.M.T.v.M.N.M.T.{.`.m.m.U.U.U.m.M.M.m.`.T.m.m.m.M.N.M.`.].[.{.{.`.`.U.`.m.`.Y.M.N.M.`.`.`.[.{.`.`.m.`.[.oX=XoX].'.].'.oX@X@X#X&X&X&X*X@X&X@X[.`.`.M.M.T.m.M.m.M.m.`.`.m.`.[.[.].[.].'.=X#X&X&XqXpXeX@X'.0XkXiX0X*X@X].m.Y.].qXqXeXiXeX",
": # ; : ; ; ; ; ; = = > : ; ; ; % ; > > : ; ; % # ; ; : : ; : : 3 = : : 6 * $ 3 z b j H < P.KXKXPXPXSXSXBXcXgXcXvXcXgXrXrXdXgXvXbXcXcXvXBXbXcXdXdXdX6XrXvX3X,XrXrX;X,X4X1X6XgX3XP._.t. .6.G.1.3.#.#.>XZXhXaXaX,XL.k.y.p ( p.p.wX2X).hX6X6XsXtX>X>X_.).j.9.9.p.p.i.p.h.^.t.t.3.( $.) o.) P y.[ { ( ( p.f.@.6.{ a.{ [ a i o.) < e K b j g 5 5 w w l h 6 3 3 3 f n b b k g x g w x b w q K K u b v v P ) ( P ..5.p.,.| q.pX|.f.0X$XE.d.f...< 5.5XXX!.lXqXfXW.fXCXwX~.,.| }.g.^.J.Z.0X^.D.|.wXwXtXwXXXwXqXeX$XW.9.q.!.|.J.w.q.,.N R w./ Z.q.g.J.G.D S d.1.r q z s ] h.[ @ j m # l b w 5 5 5 ; w b r.2.>.2.y.u.t.3.a.y.X.2.E W W H Y z 2 3 w j w u U >.!.0XwXwX3X4XtXtXhXGX|.=.=.-.0.R.e.=.n.`.M.N.=.v.{.M.=.v.N.v.N.M.M.m.`.`.T.m.m.T.m.M.M.m.U.U.m.T.T.m.N.v.M.T.`.].[.`.`.U.U.m.`.`.`.T.M.N.m.`.`.[.[.[.[.`.m.`.].@X=XoX].[.`.M.`.@X#X#X&X0X0XqX&X@X[.[.].`.T.m.m.M.M.`.`.T.`.`.m.H.[.[.[.[.`.m.[.@X*XqXeXpXpX@X'.#XqXqX#XoX].].`.{.].&X#X0XqXqX",
"; o # : ; * ; : * * ; ; : ; ; = % ; > : > > = # ; : ; : * # = ; : ; 3 6 6 ; = w b c j j w 1XJXLXJXSXSXAXBXvXgXgXgXgXgXrXrXgXdXsXcXcXMXSXbXvXgXgXMXgXvX6XsXsXrX1X1X,X1X4X6XdX6X3X;X>XS.S.t.1.2.#.{ P k.NXjXaXaX>X).>XS.O.{ 1.#. X2X,XjX6XdXrX1X2X>X<X<X1.p.5.p.f.k.k.S.k.G.G.3.{ k.o.X.i G s #.p. .{ 9.] @.#.( 3.O.o.i i _ _ _ K v v q = 1 3 k l k k f 3 3 3 w b v v l j k j w g : ; w l b K ' v i v I ) t r R 5.1.^ d.j.D.$Xf.#XE.C.G.6.d f.#X}.!.0X2XwXd.2XfX2X|.D.8.d.w.}.w.d.qXXXA.XXjXjXhX2X<XfXtXfX5XW.9.| ~.E.E.}.E.A.3.N d.w.Z 4.g.~.g.d A p.8.] B I P R ] !.y.+ 2 j < k w w 5 5 w k k K u.>.2.t.a.>. .a.X.N L 2.+.U j x m 3 w k w 4 q G 2.^.wXwXuX4X3XwXtXCXHX<.=.v.*.-.m.Y.0.-.n.`.M.M.v.m.m.=.v.N.e.M.m.m.m.`.T.`.`.T.U.m.M.M.M.U.U.M.T.`.`.M.B.T.`.`.`.].`.`.`.`.`.`.].`.Y.M.m.T.`.{.[.[.[.{.`.`.`.[.&X&XoX].[.R.M.m.oX*XqXqXqXqXqXqXoX].[.[.`.`.T.m.m.U.`.`.`.`.`.`.`.[.[.].`.M.M.`.@X&X&X0X*X*X@X@X&XoX].oX[.].[.'.`.'.@XoX$X&XeX",
": * ; 3 ; # # ; ; > ; # = ; ; = ; > > ; : 3 ; ; : 3 : : : ; : : = ; 3 # 6 w w b w - z w w cXPXSXKXJXSXSXBXbXvXgXsXdXgXsXsXgXdXsXsXsXMXAXvXcXgXdXdXhXdXyX;XrXrXsXrXdX,X4X4X6X6X(.3X>X/.G.I.2.B O.{ s i.NXhXhXNX1XL.3Xh.t.O.#.@.).2X,XZXgXsXrXtXlX.X>Xk.s.3.p.#.k.#.k..XG.k.p.2.2.) X.i B L [ #. .#.h.#.r p.3.o.r i a ` u J y.K q e k w w l k j w w 3 g j ; f b j w j k k 3 w w w l 1 1 2 j K b z e v T X.I i N ..4.,.q.~.g.0XxX X~.}.!.5.Z D.}.}.XX2X0XOX! <XhX>XwX}.H.E.w.J.<.Z.OXXXK.2XCXkXjXuXfXwX3XfXwX~.$X4.d.0X}.'.^.D.p.Z ,.V.,.6.A !.w.q.! 6.,.1.P J X.L D 8.wXX.@ K y w w g f f 3 c z K +.I [ 2.t.2.[ E E L N >.W F y x Y 3 3 g c z G L O.K.2XwXtX3X,XwXtXDXkXQ =.m.=.-.0.H.m.-.=.R.'.m.v.N.`.0.-.M.v.v.m.T.T.`.T.`.`.`.m.T.U.m.M.`.`.`.m.T.`.m.m.`.`.M.m.`.`.m.U.{.`.`.`.`.T.m.M.M.m.[.[.{.{.`.H.`.'.oX*X&XoX].].`.`.].@XqXqXqX0XqXqXqX@XoX[.`.`.`.`.T.`.`.U.`.`.`.`.R.[.=X].`.T.N.N.Y.oX@X@XqX*X*X&X*XpXoX'.@X[.oX=X`.`.].&X@X#XqXeX",
"# ; ; # 3 3 # ; # > 3 : % ; ; ; ; : : ; * : 3 : 3 # # : : 3 : ; & h o # g 3 w k 4 4 x = H KXKXmXSXKXcXBXFXMXdXsX6XvXvXsXsXgXgXvXgXsXNXcXsXbXbXvXyXgXsXrX6X6XrXrXMXNXsX1X>X6XrX3X>X_.S.a.a.s.B O.3.P h.4XMXMXsX6X).>Xa.p ] #.G..X4X>XCX6XrXhX4X3X>XS.9.k.p.9.p.1...~.s./.>XZ 3.#.G a X.G B { @.9.O.#...[ P.$.) q u W t U ' v b q 2 b b b l ; 2 = = 3 3 : f f 0 : 2 w k w 2 k w 2 w l j j j = @ 2 e y w b +.G [ 1.1.5.d D.iXh.uXfX!.qX^.D.4.D.~.f.OX2XeX$X4.fXNXXX2XD.#X2XV.<.~ E.uX X}.uXwXhX>X4XjXjXaXwX!..X XF.G.lXeXE.Z.w.!.C.;.8.g.E.r g.E.g.g.D V.g.r r K G r  .J.qXp < x k w w f 1 1 x ' $.+.O.+.X.O.>.E >.y.+.7 i W x b l 3 3 w w T U i X.] !.wX>X2X>X>XwXaXDX@Xe.=.M.v.Q &.H.`.m.v.v.R.H.M.-.b.`.-.=.M.M.v.M.m.m.].{.{.M.M.M.T.`.`.m.T.`.N.T.`.m.M.m.T.T.{.{.`.T.U.m.m.`.{.T.T.`.v.N.`.{.[.'.`.`.`.{.[.oX&X=XoXoXoX].[.oX*XqXqX0X0XeXeX&XoX].[.].{.{.T.N.`.{.`.`.{.`.`.{.=X=X].m.m.T.T.`.H.[.&X*X&X@XoX@XpX*XoX=X@XoXoX'.].&XqXqX*X#XqX",
": ; ; ; > ; # > # ; > ; % : 3 3 : : ; # * ; 3 : ; : : : ; 3 : * = > # # 3 3 w c 4 c z $ r.LXKXSXSXmX7XAXFXSXcXdXvXgXgXNXvXNXgXgXgXvXgXrXgXvXgXMXhXdXdXvX6X>X1XrXNXMXNXsX4X1X1XhXrX,Xt.t.a.2.[ P { y.Q.>X6XsXsX4X1X4XQ.P 3.( 1.t.<XQ.tX1XrXaX1X.XL.Q.s.s.p.f.p...f.s.B <X1X{ $.y.J J ) J { 5.q.9.1.( [ 2.I.I I v K +.K H K u e n l b b b l f ; w 0 6 3 : 3 f * ; 3 f l g k w ; w k b j e b w 0 2 Y j 1 2 w 4 B [ [ r N ] f.!.<XCX<X~.2X|.4.,.XX0X X XwXwXq.wXFX2XF.W.0XJ.w.w.:.}.qXI.2XCXhX3X/.,XhXaXZXfX3XwX_.~.g.XX}.2XXXd.|.|.<.q.4.q.r q.g.C g.Z <.V.s t v y I ] 4.|.+X7 4 w k j l 5 j K G i +.X.$.+.X.E p N +.W G T ' H k g w l b H I J L t.A.OXwX,X,X>X<X,XuXxX`.v.v.v.Y.0.^ n.'.`.M.v.n.m.`.=.-.m.v.=.Y.Y.m.N.M.T.{.`.T.`.T.T.T.T.`.m.m.m.M.m.M.N.M.T.`.`.{.`.`.T.`.`.T.T.`.`.`.T.N.T.{.`.@X].m.M.R.].[.oX=X&XoX[.[.[.oXoX@X*X0X0XqXeXeX&X[.[.[.{.{.T.Y.M.`.`.`.`.`.`.{.[.=X@X`.M.M.T.{.{.`.[.-X@X&X=X@X&XeX#XoXoX'.[.oXoX&XqXeXqX#XoX*X",
"; ; ; ; ; ; # ; % ; ; % ; : > > : : ; # ; 3 3 : ; 3 3 3 ; : : ; 3 ; : ; ; 3 w w 4 H z @ y.LXKXKXLX8X;XnXAXSXMXcXcXyXsXvXBXgXrXsXNXbXvXvXdXgXNXvXgXgXsXrXsX3X,XgXgXvXgXsXyX3X_.3X4X3X.Xk.A.3.B { #.o.i.>XaXjXgX1X).<X/.3.k.{ ] s.<XQ.1X4XsXhXtX2X2.^.F.s.p.3.@.1._.h.#.s.o.#.2.o.B ) J P #.3.9.,...>.6.>.O.9 G [ P ) +.a K u q k j j w w w x w g g f 3 3 w w ; 6 3 3 g f j 3 ; w w b z l b l k k Y g 3 w 2 1 t z i t p s r 1.p.!.^.F.0X2X8.~ ~.fXwXXX0XOX4.|.lXfX~.| 2XE.,.4.q.D.}.+XuXhXlXwX3XjX4XrXjXhXaXwX2X!.p.F.D.|.}.E.2X^.V.Z.w.q.| d.D.! q.D ! |.O.q 4 - u [ d.V.iXs.+ f k k x z T K i i G I +.X.2.[ p i G z U T K z 2 1 z b b v J ) [ 1.F.>XwXwX3X;X,X>XfXpXv.N.M.=.Y.v.^ 7.`.`.m.M.0.v.N.M.v.v.b.0.e.`.m.m.M.M.`.`.`.`.m.T.`.`.m.m.`.T.T.T.m.M.`.{.{.`.`.U.m.M.m.T.T.`.`.`.T.T.M.`.{.[.[.'.R.m.H.[.=X=X=XoX].oX&X@X@XoX@X#X&X0XqXeXeX@X[.oX[.'.`.m.T.m.`.`.`.`.`.`.{.[.@X[.`.M.M.T.[.[.[.[.[.[.=X*X*XeXiXqX*XoX'.oX&XeXqXqXiXeX#XoXqX",
"# * : = ; 3 > % ; ; ; ; ; : ; ; ; ; ; * : 3 h : 3 ; ; : ; ; ; : : = : ; * 3 w 1 u G z @ l.LXKXPXKX8X1XcXcXSXAXvXbXvXsX6XrXrXrXdXvXgXyXvXMXMXMXcXdXvXdX3XrXgX1XgXgXgXsXrXrXtXQ.3X4XL.<XL.f.t.p I { J o.(.aXNXMX4X).(.S.[ t.( d /.fX_.3XgXdXjXtX>Xs.G.k.k.Q.5.{ i.t.S.t.3.#.a [ p $.3.C C ( ] 4.9. .6.1.1.p.O.X.P t._ y.$.i i b 2 k b w w w j n k g l 3 g l 3 g 3 : : 3 5 1 5 5 5 c x b b j e e k v n Y l g 3 2 1 4 G J X.B ..5...~.F.OXDX|.V.2X2XkX5XwX^.q.2XlXDX X! 0X^.8.8.D.~.!.XXlXDXfXtXhXtXgXgXjXZXfX2XDX!.J.^.|.}.V.OXOXZ.w.Z.d.V.4.Z.|.;.d.| S !.X.- e v u U ;.H.iX X< ; j y x K +.U B [ G F G W X.I G +.T H x z j x y c v K ` ) B C { 5.XX,X2X3X,X3XtX0XzXoXe.Y.`.=.v.v.&.&.`.{.`.`.n.Y.v.N.M.N.0.v.0.Y.{.`.T.T.N.`.`.`.`.`.`.T.m.m.T.M.T.T.T.T.`.[.{.m.`.`.`.m.m.m.m.`.`.`.m.m.m.`.{.[.`.`.`.`.`.{.[.[.=XoXoX=X@X@X&X&X#X&X&XqXqXeXqXoX[.oX].].[.T.`.M.`.`.`.{.{.`.{.[.oX[.`.T.T.`.[.=X-X[.].`.].=XqXiX0X#XqXoX@X&X&XqXeXiXkXeXqX#XqX",
": * ; # + 3 3 ; : > ; % ; > ; ; * ; ; ; : 0 3 : : ; * ; : ; ; ; ; # ; : 3 g 1 2 z z G - z.LXLXSXSXsXdXSXcXvXbXMXgXrXgXrX1XrXgXrXgXgXrXsXgXhXNXgXvXgXNXsX3XdX6XrXsXtXaXaXNXvX).;XNXS..XXXt.P o.a 9 ) o._.jXZXNX<X).).2.) k.i.Z k.hXS.>XvXdXNXaXL.^.Q.f.p.Q.p.{ #.a.k.y.#.O.[ 3.B 3.O.P  .#.] 9.1.O.V ,.J.V...O.) y.o.y.+.v q u k w 5 6 w w 1 3 0 j k 3 l b 2 j g f w g l 5 5 5 1 z z k b v w k e u v v e l l f j b z U p <  .D.q.^.2XG.2X#Xq.OXCX2X>XzX|.w.eXlXDXXXC.fXC.! p.OXOXC.I.lXlX,XfXhXaXdXgXZXhXwX4XlX!.}.J.J.2XOX2X0XJ.Z.XXE.4./ 4.eX! ~ D.5. .O.< 4 ' b 9 8.oX|.2XK @ y K K K H U P ] O.+.W G B L I W Y Y k x z z T K u I $.U P ]  .~.2X,X3X>X>XuXtXuXiXm.B.T.`.N.=.H.0.-.n.[.{.{.m.M.m.N.N.n.e.=.v.0.[.`.M.`.M.N.N.`.m.m.T.T.T.`.M.M.T.`.`.`.{.{.`.m.`.{.{.`.T.T.T.{.`.`.`.M.m.`.[.[.`.R.R.{.{.`.`.{.*X=XoX=X#XoX&XeXeXqX&X&XqXqX*X#X@X@X].`.[.`.`.m.`.`.`.{.[.{.{.[.[.].`.T.`.{.=X=X=X].`.`.'.[.@X&X#XoX&X&X&X@X&XeXpXiXzXfXfXiXpX",
"g = * * ; ; % ; ; : # + ; > ; 6 ; ; = # ; 3 3 : ; : ; ; : 3 3 ; # ; 3 : 3 w 1 w G G v + (.LXKXPXSXcXbXFXbXcXvXbXgXsXsXrX3XyXcXgXyXvXcXyX6X7XbXMXbXvXNXgX1XrXrX6X,XtXsX6XhXjX;XP.rX>X>X/.2.P o.u K X.9 s.NXCXaX>X).aXS.o.s.i.( ( 1XS.>XMXsXgXtX.X/. XF.3.3.5.i.a.).h.k.i.( i.P g.2.P N [  .#.a.#.[ [ F.XX] B t.$.o.o.G I X.q = Y j w b j w l w 3 w 3 w w w w 6 w l k k k b c 1 w y x z v v v Y m v u t y b b g l w q K +.2.] q.4.J.kX0X}.#X,.L.wXwX>XzXwX}.wXwXGXwXA.0XG.D g.0X~.D.0XCX2X_.jXhXjXdXNXAXaXfXuXwX2X~.0X8.XXzX2XOXD.E.OX^.q.! ,.eX:.r !.g.N K.r - b K r }.|.Z.iXs.- u K K U U X.1.1.t.y.O.P L [ I u j w w w z k z z i U X.I h.g.5.XX2X_.;X>X,X3X2XzX@Xe.T.m.m.m.=.H.M.*.=.`.`.{.`.N.v.T.m.N.0.*.-.e.`.[.`.M.M.m.M.`.`.m.m.T.`.m.M.{.`.`.`.`.`.`.`.`.`.`.`.{.{.`.`.{.`.`.`.T.`.{.[.oX'.`.`.{.].`.[.=X&X=X@X=X*XqXqX#XeXeX#X&XeXqX*X&X@X@X[.[.[.T.`.m.`.`.`.{.[.[.[.[.{.{.T.m.`.[.*X=X@X{.`.'.].[.@X@X&X@X&X*X*X@XqXpXfXeXfXfXlXzXzX",
"n ; * : : ; # * ; : % # > > ; > : : ; ; : 3 3 ; ; 3 : ; ; : 3 : ; : : : 3 ; = y v H c + :XLXPXPXSXBXbXMXcXdXcXbXvXgXsXyXgXdXrXyX3XcXgX6XgXvXgXBXgXvXvXgX3XdXsX4X;XtX6X>XhXAX1Xy.<XhX4XL.k.k.) t $.+.< k.ZXjXaX>XQ.tX>Xa.t.( Z 9 /.3X6XNXgX4X,X4X>X^.h.(  .] #.{ Q.aX/.a.i.g.] f...] O.2.O.2.y.B ) [ 5.p.C [ +.u X.a G r.T H n n w w b 1 ; b l 0 w 6 w 2 w w 1 j b b c w b b q H v H v k e k n v T J G G I H w 3 w 2 y x I N 5.f.8.w.2XeX|.D.wX>XkX^.0XfX#X5X>XNXfXg.E.f. .~.#X}.8.OXqXL./.uXhXtXdXFXNXjXsXtX<XfX|.eXE.D.qX0X}.J.!.}.|.~.j.,.#XZ.! C.p.Z ,.P @ x ' p 6.J.J.iXF.< H K U X.P ..5.q.6.5.1.R P O.+.z b g w w c k y K W W G I t.3.V.0XwX.X(..X0X2XfXxXN.e.T.m.M.Y.v.n.M.0.e.M.`.`.Y.`.v.B.{.`.0.0.*.0.0.`.[.m.N.N.M.M.`.`.U.m.`.`.T.`.m.m.T.`.T.T.T.`.`.`.`.{.{.T.T.`.`.U.`.`.{.{.[.[.[.{.`.{.`.{.[.=X=X@X&X&X@X*XqXeX*XqX#X&XpXqX&X&X@XoXoX=X[.`.Y.m.`.`.{.{.[.[.[.[.{.{.T.T.{.&X*XoX[.`.`.[.[.@X@X@XqX&X#X*XqX*XqXqXkXfXfXkXlXlXlX",
"b 0 * # ; : ; : = : ; ; 3 ; # ; : 3 3 3 3 f 3 ; : : ; ; ; # ; 3 3 3 ; : 0 6 2 y i v i = 1XLXVXbXmXBXnXcXsXyXvXmXhXrX7XrXsXdXyXyX>X8XsX7XrXMXvXdXgXdXvXFXrXsXNX4X1XtX1XQ.aXNXtXP.3XNXtX_._._.+.q ` X.< h.jXNXZX>X>X).<X$.3.B Z C Q.aX>XtXvX3X>XtX<Xh.5.3.f.] ( P ).3X<XL.p.1. . .B O.t.[ p J J 9 2.y.B P [ B - v a $.U H b Y 0 b v w 2 w 3 3 g g 3 w w w j q e l b b y 2 w Y b H Y z 4 4 e e e e z G U L G K y 4 q z x c G L ] ..w.D.C.2X0X5.p.fXDXL. XeXXXfXuXuXuXK.K.,.R OXOXJ.w.0XG.p.hXtXNXNXdXgXjXNXtX4X.XfX0XC.2XV.J.fXXX<X!.XX0XXXC.! E.Z.6. .D.1.D O.4 - H i B 1.d.iX#.9 i I I B r ] g.,.~ 6.5.O. .E G i H k l k K K p I +.W L t.a.5.!.+X/.).P.I.0XuXzXE.e.N.`.T.m.M.M.7.R.=.-.v.{.'.M.T.`.m.M.].'.n.*.=.e.=.`.%X`.=.M.Y.v.M.`.M.M.`.`.T.`.m.T.`.`.T.U.`.`.`.U.`.{.T.`.{.`.`.`.M.`.[.=X[.`.`.Y.T.`.[.=X@X*X&X&X&XoX#X*XeX&X*X|.#XpX&X@X@X=X[.[.oX[.`.`.`.`.{.[.[.[.[.[.[.[.[.{.`.[.*X&X'.{.`.`.[.[.@X@X=X*X#X@X*X0XiXpXfXiXkXkXfXlXlXlX",
"j g 3 : % # 3 ; ; # ; 3 : ; ; ; 3 3 : 3 3 3 : * 3 3 ; ; : ; : ; ; ; : : : w b v X.J u 2 gXKXnXBXbXcXbXbXbXvXcXNXjXvX3X,XvXNXFXdXrXsXrX4XtXsXdXvXrXsXvXMXvXyXcXrX1X6X(.<XNXNX3X).<XhXaX(.L.k.) a $.+.- y.aXZXjX4X/.3X.X2.O.P ( #.s.).).ZXrX>X3XfX<XP.L.k.s.( ( $..Xk.Q.G.^.5. .g.1.O.O.v i i J $.o.#.a I r.4 = k $.2.+.b w g k n v k w w k g 3 * 2 w j j q u m b l w b m w k w 3 2 w w u e u v K y t F i B I O.J [ G x K a [ [ ..,.C.W.D.2X} G.XXwXfX2XwXXX5XfX0XXXp.F.A  .^. X8.}.OX6.wXwXhXNXgXvXNXtXwX>X.XtXfXlXF.d.|.C.qXXX+X}.2XwXW.D.6.q.p.r P C.| Z [ u 4 X.i < p d.OXB U B ) $...1.,.4.C. .6.g.2.[ P t $.+.U ' v v X.) ( +.R O.p.!.OXF.XXI.u.z.3XfXDX*Xv.m.v.`.{.{.m.m.*.R.M.-.=.`.`.`.N.`.{.m.M.R.[.m.=.v.-.0.[.`.[.N.v.`.N.m.`.m.`.m.m.m.T.`.[.{.`.[.{.{.`.`.`.{.{.`.U.`.`.T.`.[.=XoX'.R.R.{.[.].{.@X&XqX&X&X&X*XeXqXqXqXqX&X*XpXpX&X@X@XoX@X@X[.`.`.`.`.].@X[.[.[.[.=X{.{.`.'.=XqX=X].`.{.%X[.`.].@X@X*X@X#XiXpXzXlXlXCXlXlXlXlXjXhX",
"5 6 ; ; & % 3 3 : ; ; ; = # ; 3 # * ; : 3 : ; ; : ; ; * # ; : 3 ; 3 3 0 : 1 z W a J t z VXFXyXcXFXVXSXSXNXSXvXrXhXFXNXrXrXMXdXsXyXrXjXdXtXyXyXyXdXsXvXdXgXgXdXsX6XaX3X4XaXtXrX;X>X6XrX>Xy.h.l.7 X.+.@ y.<XCXhXaX>X.X2Xs.C [ #.C 3.!.<XvX1X>X>X>X3X).k.k.O.] L Q.).s.G.Q.^.5.6.1.O.>.I ` $.a $.3.( [ a z K x c z h.#.v j k b b u < q w j 3 w 3 ; w w c x j l b w k w k l j j 3 3 5 w l b b l n H z i z p a I O.X.P X.z t U { C r ,.q.4.1.6.6.XX X2X>X X2XfXF.^.fX2XXXF.r 6.XXJ.,.}.f.}.lXtXaXsXsXNXjX3X.X>X>X3XwXtX<X^.XXd.OX2X2X X^. XOX X,. .>.r V D.Z. .[ U @ U W < < A.W.B I O.B P 2.,.} q.V.~ :.A.A.] V R O.X.O.L [ O.[ 1. .>.2.>.F.^.!.+XXX^.Q.Q.<XzXzXM.m.m.M.`.`.m.`.`.=.M.].0.-.R.].m.`.`.{.m.M.m.`.`.M.=.M.=.v.[.[.].N.v.T.M.{.{.M.m.`.`.`.M.`.[.{.`.`.`.`.`.`.`.{.[.[.`.T.m.`.].@X[.].'.'.[.`.`.'.oX&X0XqXqX*X&XqX*X&XeXqXeXeXqXqX*X@X@X@X=X@X].`.`.`.'.[.oX[.[.[.[.[.m.`.'.oX&X*X@X{.`.[.[.].].[.@X@X@X&X&XeXkXlXlXkXfXfXfXkXlXlXlX",
"2 = 6 3 8 6 ; > ; ; : ; ; ; # : : ; ; ; 3 : : 3 3 : ; # * ; = ; : 3 f 3 * 5 G U t I 7 z VXFXcXAXAXSXVXbXgXgXgXNX6XgXMXvX3XsXMX4X6XdX3XyXgX3X4XtXtX6XsXhXdXdXgXgXrX4X4XaXaX3XsX3X1X4X4X3X(.Q.P.p i X.9 y.).ZXsXsX/.P.>Xh.t.3.P P B $.<XAX8X1X1X(.,X_.y.k.2.1.J [ _._..X.X.X..] 1.[ B X.X.J i ) o.$.o.I < c c G G t.a < j b Y b u < q q 2 0 g g 0 g w 2 3 3 w j w w 2 2 3 g w 6 f 3 3 k k 5 5 1 w j c K J J v v J G U G i I [ ] D } ,.D.D.! Z ^.2X5X2X2XXXwXG.5.wXuXuXwX,.C.OXXXg.5.A.fXfXuXtXaXgXNX4X(..X3X2X3XtXfXwXD.|.|.J.2XiX2X!.!.XXOX5.C  .Z C g.C.1.I ' < X.+.< B !.6.J X.G H G B C C 4.,.<.w.J.E.d.} | q.| }  .1.2.O. .,.g.g.K.!.L.!._.>XwXI.F.zXiX'.N.`.`.N.v.'.m.`.`.m.e.=XY.=.e.`.m.`.m.`.`.`.N.N.{.[.n.v.N.=.m.[.].=Xv.=.T.m.M.`.`.`.{.`.`.{.{.`.m.`.`.{.`.`.`.{.{.{.{.T.m.].oX=X[.[.`.'.[.`.`.'.@X*XeXeXqX@XoX&X0XqXqX*X0X*X*XqX*X@X=X*X*X=X].`.`.{.[.[.oX[.oX[.{.`.{.'.'.@X&X*X=X[.-X[.].[.[.`.'.=X*XqXqXpXkXzXkXfXiXkXfXfXlXlXlX",
"2 5 c l 8 3 % & ; = ; % : : + * 3 : ; ; 3 ; ; 3 ; * ; ; ; : ; : 3 8 8 ; * y H G F I t +.MXMXvXbXvXsXdXgXAXJXAXvXvX6XvXgXrXdXrX>XsX>X3XrXrXrX6X3XtXrXrXNXdXrXbXgXrX4X1X3XtXtXNXgX>X).6X,X>X/._.$.t +.I $.(.ZXjXjX).Q.Q.3._.^.s P < J 1XKXcX7XyX4X>Xh.t.Q.s.P O.P <XtX.X!.~.2.5.f.] O.y._ I J p ` ` $.' - c K 2.h.i < 4 c j w e e k v l w w k g 6 w w 0 0 = * 2 w w w 2 6 w : ; g w 3 j f 3 5 1 5 1 < q u ' T k u X.i U U [ ( 2.5.6.5.C.q.A.] q.^.J.~.OXwX~. X4.~.fX5XqXg.E.OX2Xg.G.XXfXwX4XjXZXNXaXtX4X2X2XtXjXNXaXiX^.E.eXE.}.0X2X$X X X<XA.C ]  .1.q.| P i F T a L < ( p.Z I H i X.G 9 Z | 4.^ 8.J.E.|.OXD.q.J.w.8.g.6.] ..:.6.g.K.F.F.L.^.Q..X+XF.2XiXb.b.`.T.[.m.=.[.`.`.`.].v.[.`.Y.-.m.`.T.`.`.`.`.M.M.{.[.`.v.`.v.-.`.`.{.`.v.N.{.`.M.{.{.`.m.{.{.{.{.{.{.`.`.`.`.`.{.`.m.{.`.`.].@XoX[.'.'.`.`.T.`.[.*XeXeXqXqX@X@XqXqXqXqXeXqX#XqXqX*X*X*X*X*X*X[.`.`.[.[.[.oX].oXoX[.{.{.{.[.=X*X&XoX`.`.-X[.'.].@X[.@X&X0XqXiXkXfXiXiXqXeXuXlXlXlXlX",
"2 w H j 5 5 ; 3 3 : ; # : ; # ; ; : : 3 0 : ; : ; ; : ; : 3 : 3 3 3 6 ; 1 y i L i G 7 I >XdXJXgX1XQ._.P.z.rXAXsXNXsX1XcXtXsXdX4XrX>X3X1X3XNXsX3XdXdX6XvXsX6XvXsXsXhX<X_.).aXjXjXtX1XtX3X<X>XP.+.G +.) i k.jXAXNX<XS.Q.1.^..XO.p + q >XKXNX8XsX>X(.a.t.k.s.9 t.a..X2X^.F.L.L.Q.t. .t.O.P $.K K K a v b - y r.k.X.- 4 j j j c k n k K T l w 3 ; = 0 0 k g 0 ; ; 3 ; ; ; 3 3 * ; f 3 1 g j l b j z +.a q 2 2 w e K I 9 < <  .O.[ O.]  ...C G.p.| ,.f.W..XfXF.~.E.D.zXlX+X6.OXeX^.J.wXwX2XwXfXNXhXhX3XtXtXyXyXsXvXhX4XfXfX2XiXXXD.2X#X2X<X}.OX^.] } p.g.4.Z L q q U i +.B 5.6.P I q ' G G P ] | q.7.Z.'.oXJ.J.E.D.V.Z.}.J.f.1. .5.:.V.L.G.G.!.XX).^.|.qX0XR.-.v.{.`.{.`.=.{.[.[.`.`.e.b.%X`.=.v.{.`.`.T.`.`.T.m.`.T.`.].M.`.e.=.m.M.[.T.N.M.`.`.`.`.{.`.{.T.`.[.`.{.`.`.{.`.`.`.`.`.`.`.'.].@XoX].`.].'.`.T.].[.&XqXeXeXqX&X&X*X&XqXqXqXqX0XpXiXqX*X&X&X&X=X[.`.`.[.-X=XoX[.=XoXoX[.`.[.=X*X*X[.`.{.`.[.=XoXoX=X@X[.@X*XqXiXiXeXeXeXqXeXfXlXjXhXkX",
"2 y U z i y ; > ; ; : ; : : ; ; ; ; : 3 3 : : : : : 3 ; ; ; : 3 3 6 ; * w G B L X.i 9 h.,X).gXNXrX3X6X1XP._.1X6XhXKX3XsXsX3XhXtX4XtX4X>X1XrXsXrX3XsXsXsXdXdXcXcXsXsX<X(.k.1XtXaXsX,X(.tX>X<Xu.i H T v < i.hXFXNX>Xh.L.f./..X$.9 q < Q.GXNX6XtX>X_.G.O.p.a.B [ X.G.<XOXXX_..XS.o.2.[ #.[ P J v u v ' K y I +.I q c z z z x j w k q u k e = = ; 0 0 : 3 3 : 3 3 3 # # o : 0 : : ; 3 = 3 w g x k v z v ' r.b q < u X.I O.P ] O.L p O.,.1.6.6.,.,.}.D.G. XhXfXG.W.g.uXlXK.,.^.eXg.J.uXkXuXwXaXhX>X,XsX6X,XtXNXdXyXaXtXhXjXjX0X5XE.OXiX2X X X5XOX1...4.| 8.] p i G U 7 O. .8.4. .P B U [ P R ,.4.V.Z.b.w.V.w.D.|.|.E.|.|.J.1.V O.g.p.a.p.a.a.h.!.F.^.qXoXn.`.v.=.{.`.'.].7.m.[.[.`.`.N.=.[.v.M.=.m.{.`.T.`.`.T.U.{.`.Y.{.m.B.Y.-.=.`.`.{.`.=.N.[.`.m.`.m.{.`.{.[.{.`.[.{.`.{.`.{.{.`.`.`.[.[.=X@X[.'.`.`.`.{.[.[.@X&XiXeX*X=X&XqX#X0X*X#X#XqXeXeXqX#XqX*X&X@X[.{.`.{.oX=XoXoX=XoX[.'.[.oX@X&X@X[.[.[.[.[.@X=X@X@X@X@X@X*XqXqXqX5X5XiXfXzXhXfXaXhXlX",
"e z I L G i = ; ; ; 3 3 ; : ; ; ; # ; : ; : 3 : ; : : ; : : 3 0 3 : * = y X.P V E i 9 Q.hX6XMXMXNXvXgXAXAXsX1XgXyXSXcX_.rX3X(.<XaXjXjXrX>X>X4XsX1XsXvXrXsXcXhXvX7X4X3X4X_.(.rXsXrX1X).sX3X<X_.I z H i 9 2.tXCXaX_.S.^.F.XX.Xi.I ' q k.ZXjXaXtX3X2X^.1.k.h.B < t h.XX2X2X2X,Xy.$.o.[ 2.P [ I < 2 y $.+.U X.i - w Y y 5 x H l g w q < : : ; ; 3 0 ; * : : : : > : : : : 0 0 : : ; w 1 6 2 w j l b w z ' y.+.B s G J i s.p.p B J o.5.R C 5.8.:.;.J.^.C.K.+XCX^.5.!.^.2X5.R V.0X5.5.wXwXuX2X<XwX3X,XgXNXgXsXvXNXgXgXvXZXjXfX2XuXwXF.wXwX2X0X5X2X5.C } ,.G.O.< i O.>.p 6.b.7.7.<.! ..s 5.,.! d.w.Z.E.w.<.8.V.|.|.}.|.V.3.p.B i y.2.y.S.2.u.y.O.C.Z.].H.-.*.'.m.v.m.`.].=Xv.v.`.`.Y.`.'.=.`.v.v.=.v.`.`.`.`.`.{.`.{.m.M.T.{.e.M.`.*.0.N.m.m.U.M.v.`.`.m.M.[.[.{.{.[.{.-X{.`.{.{.`.`.`.T.`.].@X*X[.'.'.{.`.`.`.[.[.=XqXqXqX*X&XqXeXqXqXqX*X0XpXpXeXqXqXqXqX&XoX{.`.`.{.[.-X[.].=XoXoX].[.[.oX@XoX[.[.{.[.=X=X[.].@X=X@X@X#X&X@X#XqXfXlXjXlXjXaXaXNXZX",
"k z G P P G q w 3 ; : ; ; : : : 3 ; : 3 ; 3 3 : ; 3 3 3 : ; 3 3 3 : 6 5 G U C ..L i - k.FXFXVXrX6XgXdXrXdXsX6XsXBXrXVX1X_.sX>X).1XZXaXZXhXk.3XMX1X8XcX6XrXyXsXdX3X6XaXaX).z.6X1X4XNX,X;XjX1X2X2.G X.u i ) <XjXtX)..X/.g.!.!.h.X.z < k.lXhXjXtX<XwXL.O.] #.P G [ N p. X2X2X/.a +.$.2.] r X.` x < G X.[ G X.+.q w l z x x c k w * e q 0 e 0 : : 0 3 : 0 : 3 : * # * > ; * : ; 3 3 6 3 5 w w w l b x k q t B P 1.S.p + s >.X.O.s { O.R V C g.6.| q.^.eX+Xy.,XlXt.L.g.OXV.D +XOX1.j.lXfX>XXXfXwX4XhXNXvXvXyXyXvXVXJXAXVXgXdXsX5XxXG.!.fXeXOXXX2Xd.| p.f.F.[ t I O. .d 4.R.=.*.*.,.,.] } Z w.E.w.Z.J.}.V.q.C.D.q.C.G.2.[ X.X.W y.y.2.K.2.R g.w.H.].R.0.=.Q n.`.v.m.`.].&X7.-.`.`.`.{.=Xb.R.`.-.M.=.U.`.`.`.`.`.`.{.T.Y.{.T.{.e.`.Y.-.v.N.v.M.{.M.=.Y.{.].'.`.].{.`.`.{.{.{.[.{.`.`.`.`.`.].&X*X].R.[.{.`.`.{.=XoX&XeXqXeXqX=X&XqXqXqXqXqX0XqXiXeXeXkXeXqX&X@X].T.`.[.[.oXoXoXqX&X=X[.oXoX&X*XoXoX[.{.-X=X=X@X[.@X@XoX#X&X*X&X#XqXxXjXNXZXZXNXNXAXMX",
"y b z i G G G v j 3 : : ; ; ; : 3 3 3 ; ; : # ; 1 1 1 ; 3 ; ; ; g 5 1 y U L L R i i < _.FXZXvXvXvXyXgXvXsXrX3X>XsXNXcXgX3X4XsXsX).>XhX3XFX4Xk.4XcX1XcX1X_.dXrXrXvXsX4X3X1X>X(.>XtXaXtXP.1X3X(.S.) i ` p ( Q.NXfX3X1XG.2.!.G.a.G w 2 r.AXvXhX3X(./.S...1.{ P X.9 [ G.Q.!.s.G.$.[ [ u.X.< U G I u +.$.O.o.K J v T T b j 5 w 3 6 e e 0 0 = 6 3 3 3 0 3 3 3 3 3   ;   # : = % 3 ; 3 ; ; 1 g ; 6 2 l w @ 5 ` a L O.3.+.o.a - i t.#.( i P O.O.1.5.:.8.eXJ.G.>XI.jXF.6.!.D.D.6.2X!.s.2XDX0X~.XX~./.uXNXrXrXFXFXsXNXFXKXVXJXNXvXNXuXtXwXZ.iX5XXX<X X|.,.w. .C ] X.p O.( / D.R.%.7.q.}  .] Z ! 8.Z.E.D.Z.Z.5...6.t...6.g.( O.u.>.t.2.>.g.g.:.;.H.'.H.M.{.v.n.D ^ `.M.v.{.`.'.`.-.N.{.`.{.[.`.v.`.v.M.v.M.`.m.`.`.m.`.{.`.`.T.`.[.v.=.[.n.-.M.m.e.=.{.`.=.n.oX[.`.`.`.`.'.].{.{.{.{.{.].].`.{.=X&X].].[.R.`.`.`.[.[.&XqXpXeXeX&X&XeXeX#X0XeXqX0XeXiXiXiXqX&X=X=XoX`.`.{.[.-X-XoX=X*X&X-XoXoX*X&X=XoX].[.[.[.=X@X=XoX].@X*X*X=X&XqX0XfXlXjXMXZXZXMXMXMXMX",
"4 z c u K G L G w : : : ; : : ; ; ; : ; : 3 : : 1 6 3 # ; ; ; ; 3 3 1 y U G V [ I p < (.FXFXSXvXFXgXgXMXNXdXhXZX,X>XvXVXgXsXtXtXjX_.Q.sX<XFX<Xr.:XcXJX>X>XdXrXrXMXgX4X4XtX_.k.1X4XaXrX<X>X,X/.>Xh.p J a a s.jXlX<X).).2.f.L.o.J Y . ' NXNXhX4X/.Q.Q.S.O.{ P i i t.3.9.^.i.3.t.a.) I y.X.W G i a l.2.U J a v K K T l 3 ; 2 w e e e : : # 0 f 3 ; 6 3 3 3 ; 3 %   ; o # # ; 6 . % # % 6 3 * # . * 3 3 k x y G ) i t $.h.o.r r B h.$.G B O.2.V Z 6.2X}.,.+XfXuXJ.,.5.V.F.F.!.h.wXkX<XF.K.f.h.wXaXjXNXvXJXFXNXAXSXAXJXAXMXVXVXsXyXCX~.}.2X2X<XOX}.w.4.D Z ,.>.E ( r @.|.oXZ.n.0.} ..>.C D <.Z.E.J.w.| ! >.[ R >.[ R  .5.8.E >.g.g.Z.b.Z.U.oX{.`.B.m.e.n.8.D 0.Y.v.`.{.].[.-.v.`.T.{.[.'.-.].N.M.N.v.`.T.`.T.T.`.`.`.T.Y.`.[.[.N.v.=Xv.-.M.Y.N.v.'.m.-.n.@XH.].[.`.].'.{.{.`.].].{.`.`.{.=X*XoX[.@X[.{.`.`.'.[.&XqXpXeXqX*XqXiXiXqXqXqXqXeXuXiXiXqXoX|.oX=X[.{.].[.[.[.[.oX=XeX*X-X[.oX*X=X@X@X[.[.[.@XoX[.[.@XoX@X*XqX&X&XqXeXkXZXNXMXMXMXMXMXZXZX",
"2 k c c J G L J w ; ; ; ; : 3 : ; ; 3 ; ; 3 3 3 1 2 3 # 3 3 3 g 3 3 4 F U L L E t < < _.FXFXFXAXNXgXvXBXMXgXdXgX3X1X).P.NXhX3XtXFXtXk.>X,X(.).,Xk.u.tXNX3X4XrXvXrXgXsXtX3X.X_.(.3XaXhXtX(./.2X3Xi.t i J p o.tXNX4X).L.1.L.S.t.) b + y.AXMXhXsXrX).L.p.1.s C $.v J ) ) k.k.1.t.f.B J 2.O.O.P C 3.J B v X.G i v k b w 6 : 6 w k g 0 : 3 : h g 3 = 3 : : : . . o . = . X X * . + . O O O . % * # ; 3 3 3 1 = c T i G B  .p.4.d < 9 l.X.G F i t [ 5.q.$X2X6.XXfXF.N N g.^.K.XX X>XG.Q.5.6.}. XfXaXNXVXvXvXvXNXMXNXcXFXFXFXVXVXNXhXNXwXZ.2X2X X2X|.q.:.! ^ <...R ] < q.&X].R.R.w.~ | | ,.| 9.q.8.8.:.R >.>.E 7 r >.g.D.J.8.;.b.J.#X@Xn.[.[.[.`.U.N.m.M.v.8.r ;.R.N.M.[.].oXv.-.`.`.{.[.[.-.m.`.v.`.=.[.{.m.`.T.m.m.Y.Y.T.`.[.=X`.=.].[.=.=.N.{.T.Y.m.'.-.=.&X[.[.].`.`.`.].[.[.].`.`.[.oX*X*X[.].[.[.].{.`.'.[.*XqXeXpX*X*XqXpXiXiXiXeXeXfXfXkXeX&XoXoXoX[.[.-X{.`.[.[.[.oX=XpX*XoX[.@X*X=XoX=X=X[.[.@X=X@X[.@X=X=X&XqX#X0XeXkXlXZXZXnXNXNXnXNXMXMX",
"w l c y c z a G u 2 ; * # > 3 3 ; : 3 : * 3 3 6 = 2 3 # # * 1 w 5 f t G P E L B t z 9 (.KXAXvXvXvXBXMXvXvXvXgXsXhXjX>XP.CXDX>XP.sXhXNXl.).,X_.t.L.h.[ 2XNX4XtX1X7XsXaX<X)..X/.P.tXNXNXrX>Xk.wX3Xa.t.X.o.a J 3XjXaXsXh.p.~.2.y.i q + r.NXAXnXaX3X>XQ.p.1.O.O.J v < v 9 B i.h.h.5.C 2.{ [ O.#.O.O.P P I X.v q v b n g g l k 3 ; = * * 3 3 : : # # # = 3 w 6 w 0 9 ` K K b 4 + ; 6 % % + O 3 ; . . . . % 3 5 w l z H G L ..9.d.p.s s a z z F H N V d.4.OXW.}.L.g.G.R B 2.f.2X<XL.S./.F.OXkX<XwXlXsXZXFXFXNXgXvXvXgXAXSXFXFXFXgX6X4XlXW.~.OX.XXXE.8.C } ! g.:.C 5.! w.#XH.'.R.b.<.;.,.,.4.q.4.,.1.....t.t.>.N ,.A 8.b.H.R.oX&XoX&XR.b.{.{.U.U.M.v.m.{.v.:.C / %.Y.N.{.`.{.`.-.N.].].`.{.m.v.[.=.`.v.N.`.`.`.{.`.T.`.`.`.[.[.[.-X`.=.-X{.e.-.v.m.M.[.[.R.-.7.&X[.`.[.@X{.'.[.{.{.'.`.[.=X*X*XoX].%X].[.{.].[.oX*XqXeXeX#X*XeXpXiXiXeXpXwXuXkXzXqXoXoXoX@X[.[.[.].`.[.[.oX@X=XeX&XoX[.&XqX=XoX*X*X=X[.=X&X=X].[.&X&X&XeXqXeXzXlXCXNXvXMXZXZXMXNXMXMX",
"w l j 5 4 < i I J y 2 ; % 3 3 3 6 : 3 : * 3 : 1 1 3 3 : 3 * q z y j i L P [ J t t H q (.LXZXbXNXvXvXyXsXrX8XrXgXMXsXjX>XP.aXhXhXjXjXFX4Xy.3XaX<Xa.t.L.t.<XGX4X4X7XvXaX.X.X>XS.t.>XlXlXaX4XP.3X4XP._.s.( J u P.NX4XsX_.h./.h.h.` q < i gXgXgXsX;X_.Q.G.s.O.L i q e _ _ a B 2.P.3.p.3. .#.3.t.3.s $.o.) X.z 4 j j w w w g g 6 * ; g * = 5 1 - 1 j b < q i ' +.p 3.s.4.G.3.a < ; l 5 6 3 * : * @ # . . . . . # : 6 3 2 y G ..g.^.}...9 p F x T z i  .F.W.~.OXg.K.wXt.O.t.s.F.F.!.XX!.2XkXfXlXwX<XhXgXAXVXcXNXVXVXFXMXJXMXMXvXgXaX1XZX.X!.0XwXF.C.V.} C Z A.p.N } 4.0.|.H.#X@XZ.7.<.8.| <.4.q.g.} V E X.X.[ :.V.:.b.[.oXoX*X[.H.=XR.=.[.`.[.{.U.N.B.{.v.D E } S n.M.`.{.`.[.=.7.oX'.[.'.[.=.[.0.v.R.=.`.{.`.{.[.`.T.{.Y.{.%X`.[.-Xv.e.[.[.N.=.Y.T.M.{.[.`.Q v.@X@X{.].'.[.@X[.[.].'.{.=X*X@X].[.[.`.[.[.[.oX@X=X*XqXqX#XqXpXeXpXeXeXeXwXwXkXzXqX*X&X*X*X@X'.[.[.[.].oX@X&X*XpX*X@XoX*XqX*X@XeXqX@X[.[.[.oX@X=X@X&X*XpXpXkXlXZXNXjXvXZXZXZXMXMXMXZX",
"w g 5 5 1 1 i ) U u 5 3 > 3 3 1 3 3 3 : ; 3 ; : . # ; ; 3 = e v j 4 i U L P G i x G q I.KXNXFXbXcXvXgXgXvXgXsXsXsXrXMXvX).(.a.y.(.tXfXFXtX3XtX4X1Xt.a.k.P h.hX1X>X;XfX4X^..X X#.O.3XtXhXNX;X>XgX).(.Q.s p v +.hXNX2Xa.S.P.#.o.) t 4 v dXsX6XdX3X_./.^.S.O.J y.' q b ' u < < y.S.^.p.O. .t.h.p.#.) J J ` K j k w w w ; # 3 ; = ; * * 2 e K K b b ` ) o.a $.s.#.3.^.!.d.p.] r < < i < p u w + . : + + + +   . . . . ; 3 1 7 [ 4.q.8.Z E U t F W W U [ f.F.Z ,.+XF.K.>.3.2.t.s.!.wXwX<X2XfXfX.X4XZXsXsXrX6XdXNXNXcXcXFXSXgXgXMXAXtXhXaX X2XfX2X}.D.6.N N t.E N D Z.E.E.H.@XoXb.<.<.| ~ 8.4.C.p.R R V O...R } }.eX0XoXE.n.R.'.].*X7.v.[.].[.`.T.B.B.{.N.D S 4.^ =.M.N.[.`.[.m.=.'.[.[.[.@Xv.n.].=.`.v.M.T.{.[.`.T.`.{.`.`.{.{.{.{.{.-.M.*X[.v.=.Y.[.`.m.-X@XD *.'.].`.[.[.'.[.[.[.[.[.@X*XoX[.[.[.[.[.[.oXoX=X*X*XqX*X#XqXiXiXiXeXeXeXiXpXkXfXeXiXqXqX*X=X[.[.[.[.[.oX=XqXqXpX&XoXoX*XqXqX*XpXqX@X[.@X@X@X=X&X&XqXpXqXiXlXNXZXNXNXZXjXvXNXvXvXnXnX",
"w 3 6 f 6 1 t I [ p 4 3 > 3 : 1 3 3 0 3 : : ; : ; 3 > ; 3 1 u J z 4 i P B B v v H i 7 l.KXMXAXgXcXvXgXcXNXcXhXdXgXcX4XgXFXjX3X).` (.aX1XlXCXlX4XsXtX(.).>Xo.2.tX<Xk..X2XF.!.^.A.1.<XtXfXjXtX(.4X6X;X).o.G G a ).ZX<XO.Q._.$.$.r.a q u 1XnX8XdX1X)._._.5.t.$.J r.j g m 1 K J 2.G.3.2.a.a.G.a.2.3.$._ J u e w j l j w 6 * : * # @ . 1 b J y.G q v i (.>Xs.L..X).o.4XfXd.C.q...Z Z r A 5.[ H @   . + @ + o   O O       . . @ - p f.V.8...V N t t F F < p a.C 6.+Xp.I.5. .] ..F.^.C.D.V.L.0XwX<X4XaXNXgXcXcXgXhXrXyXBXBXVXSXSXMXbXaXsXNXfX X5XfX#XJ.s.p u G < L C D.qXE.R.oX}.w.<.q.! 4.g.<.5.5.O.5.8.8.5.R a.CXKXCXZXCXfXqX'.J.'.&.M.{.[.-XT.Y.=.*.N.M.Q %.<.D D n.=.`.`.`.[.*.b.[.'.].%Xm.*.[.0.Y.M.v.M.`.[.`.`.`.'.`.{.`.[.[.T.{.[.v.N.-X=X=.-.v.[.`.m.[.[.-.-.H.R.].].[.[.[.[.[.oX&X*XoX[.[.[.%X[.[.oXoX*XqXqXqX#X*XeXiXiXiXeXeXeXeXpXpXeXeXiXeXeX*X@XoXoXoXoXoXoX*XeXeXeX=XoX=X*XqXeXqXpXqX@X@XoX*X*X*X*X*XeXqXeXkXZXZXNXvXjXNXjXNXNXNXvXvXNX",
"3 : > l j 2 t J o.p 4 3 6 > : 6 3 3 h 3 3 : ; : ; 3 : # : 4 v U i t U I i a B J v y < $.KXFXbXgXgXcXgXsX7X7XrXdXrX4X4X,X4XrXMXFXNX,X>X>X.X>XP.3XMXMX1X;X1XP.a.a L.>XL.p.2XwXQ.XX9.^.hX<XsXhX1X_.rX>X(.h.J J C i.wXwX_..XQ.k.$.$.$.i + l.ZXrXdX3X1XQ.S.s.t.O.u v k = l 2 +.t.p.#.#.s.L.i.#.P 2.[ t.J i < w 5 6 ; 3 1 ; f 3 ; = = 5 u K J i.r a Q.;XgX6X6X4X<XjX<XjXNX2X~.C.,.< | b.qXqX[ - . # o . + . . O o # o = + .   + $ @ i K.5.D g.>X2.< c y @ t h.g.5.g.^.2XOXZ ..A.5.V.d.D.p.XXwX2XaX>X3XNXdXvXVXAXVXNXAXFXAXVXMXMXFXMXgXgXnXFX.X X2XJ.J.L.t < x 7 U A q.qXV.R.|.D.4.8.A.8.C.6.r C >.[ R 8.} h.fXDXyXhXAXKXKXKXGXHXzX0X;.H.M.M.`.H.'.R.@XeXqXZ.J.Z.;.%.n.v.b.[.m.=Xv.=.@X].'.@X[.^ b.*.0.v.N.`.N.{.{.{.Y.`.{.[.{.`.{.[.{.{.M.N.[.[.=XN.-.v.-X`.M.].R.-.b.n.n.`.[.[.].[.@XoX*XpX@X[.=X%X%X].].oX@XqXqXqXqX&XqXpXiXiXiXeXeXiXwXfXpXqXiXzXiXiXeX&XoX[.[.].oX#XeXiXeX*XoXoX*X*XqXeXiXpXqX@X@X=X*X@X*X*X&XqX&XqXzXZXNXNXvXjXjXNXNXMXNXjXjXvX",
"6 3 g m w < N I [ J 2 3 3 & 8 = f 0 3 w ; ; # ; 6 3 3 3 = t P B B G J i t a B [ i 4 q v gXFXAXbXbXdXrXrXyXrX3X3XyX4XhXsXP.P.(.(.jXhXhXuX3X3X>X1X3XyXsX(.<X).Q.h.( .Xk.2.O.1.G.<XG.^.fXwX3XNXsXP.:XdX>Xy.#.] [ C >X4X<X4XQ.Q.2.p X.J - a 3XfX).,X1X,X!.a.$.) t b g 3 g 1 U h.q.,.#.$.[ J O.$.[ [ $.K q K ' 3 : 3 1 . j g   . k v w K y.L J 3._ y.;XdXbX6X1XsXKXKXBXgXNXlXj.Z 2XqXn.xXzXC i 1   o . .     O O   % ; % # + + @ * + . - B eXfX .P +.5 & y X.h.,.J.}.E.OXD.6.XX^.}.eXfXfXfX4XtXaX3X<XuXfXaXhXNXNXdXNXVXNXNXbXMXVXFXgXmXSXNXaX!.0X}.D.S.< i U u X.>.<.qX}.w.w.V.,...6.,.p.] [ B L U 7 r h.LXsXNXNX1XFXFXnXmXdXVXLXCXF.kXlXwX2XfXHXwXwXGXFXXXA.|.C }.A.|.'.M.b.R.m.-.`.&X].].oX^ <.E.7.oXb.[.-.T.[.{.T.`.].`.`.{.].[.].`.[.m.v.[.[.=X'.-.-.[.%X`.'.n.-.R.oX=.v.*X-X[.@X@XqXiX&X[.[.[.[.[.[.[.oX@X&X*X@X=X&XeXiXpXeXeXiXeX0XeXfXiXqXqXiXqXeX*XoX[.[.[.oX#XiXiXeX&X[.@X=X*XqXpXeXqXqX&X@X=X=X=X*XqXqX&X*XqXkXNXNXNXNXNXNXNXMXMXvXjXNXMX",
"3 6 3 g 2 < G W J u 5 3 6 ; ; ; 0 w 3 3 3 3 6 ; 3 3 : 6 $ 4 R R B i z q u J L [ i q t < 3XLXZXvXmXsXrX7XyXgXrXtXZXtXwX>XI.L.S.).h.y.(.aXZXZXfXtX1X1XvXnX4XtX3Xk.2.( ( #.[ p < y.$X~.XXfXtXtXjX>X1X8X3Xh.#.3.O.s Q.NX4X<X_.k.o.( J a +.- ) 1X X.X.X.X^.3.$.y.` Y g 0 * = I O.9.q.3.{ O.h.i.( [ P.X.u < y Y l 3 : 1 * : + # 6 l b T J t.G.Q.Q.s.).;XnXSXsXdXAXKXLXLXBXFXhX{ 9 2XGX].e.R.<.R + . O . .       O   & > ; ; * @ . . @ X p ] ] Z 6.t.i c x $ 7 2.V.8.J.g.E.C.! 4.C.q.J./.<XCXCXhXCXlXtXCXaXjXjXsXjXNXhXyXsXgXgXNXNXMXrXdXNXvXlX.X^.|.D.F.< ] O.r L 1.,.0XZ.4.,...}  .a.6.B 2.>.N y.y.+.S.VXLXcX>XKXtXhXFXSXAXcXcXVXhXP.aXKXJXJXFXAXyX3XAXdX3XL.F.] !.2XkXlXeXqXR.@X*.b.&XoXE.0X~.4.xX4.#X#XoXoX-.m.`.T.m.{.{.`.{.[.{.{.[.[.[.v.m.%X'.[.-X=.-.[.[.`.`.=.D ].=Xm.M.[.*X].*XqX&X*X@X[.-X{.oX[.oX@XoX[.[.[.@X&XeXeXeXeXeXeXpX0XiXiXeXeXeXqX0X*X&X].[.[.[.oX&XiXiXqX=X[.@X=XqXqXpXeXqXqX&X=XoX=X&X&X&X*X@X#XqXzXCXCXNXNXNXCXNXMXNXvXvXNXNX",
"g 3 3 k 2 q U U 4 5 j 5 3 3 = : 3 w 3 6 w w 3 ; : : ; 3 2 t [ ..] L G w u J J L a i a - h.LXZXcXgXsXrXrXyXgXjXjX3X2X.Xh.g.P.u.s.h.$.i.[ P (.fXNXhX,X_.(.k.J h.h.O.<XP - B [ I B ..O.t..XtXtXgXrXrX>X>X).Q.!.i.s S.DX3X3X).h.$.o.) ) v q q i.2X_.>X2X2XF.s.s.+.b w 0 ; g b ` i.#.$.i.P.).Q.2.o.y.y.J q 4 c j w f ; @ . * g 2 0 K ) a ( L.XXQ.h.(.3XbXMXKXFXsXFXBXSXKXNX<Xi.r B <X=Xe.=.-.7.d . .   O       O O ; 8 3 > % 3 # + - j v p < [ l.q * f f w 4 +.O.N >.1.6.Z } ,.C Z R >.[ a.!.>XwXtX4X2XQ..X>XP.P.1XtXsXgXMXNXAXAXFXsXsXMXvXCXwXp.}.J.^.< C f. . .6.,.pX4.D ] ] L U a.K.V N g.V.V t.fXCXtXSXLX3XrXGX3XvXJXSXmXcXnXhX).4XAXMXbXMXvXNXrXMXdXaXXXq.6.F.5X<XKXwXGXHXHXlXd.qXwXwXCXfX .fX~.V.OX#XGX|.|.'.v.{.`.{.[.`.[.{.`.`.`.[.[.M.N.%X].=X[.v.=.Y.=X@X`.=.D '.*X{.N.n.=XqXoX=XoX[.=X[.oX[.[.@X*X=XoX[.[.=X*XeXeXiXiXiXpXpXeXiXiXeXpXpXqXqXqX&X[.[.@X@X@XeXzXiX&X=X@X&X*X*XqXeXpXeX*X=X@XoX@X=X*X&X*X&X*XpXlXCXNXlXNXNXNXNXNXNXNXNXNXNX",
"g 3 3 l u u I z 1 3 j 3 1 3 = ; 6 w 3 ; w 6 3 3 # ; ; w y i ....} R G q w v B a J J I < ' KXAXnXgXgXyXrXrXtX1X,XS.Q.L.5.t.Q.a.O.B O.[ < < < a k.<X4X/.S.k._.Q.2X^.Q.Q.[ 9 $.O.9 P B S..X/.3XvXNXrX4X(.)./.k.#.s 3.jX>X1X>XP._.h.t.o.q e q q y.h.K.L.^.^.S.y.v u b l g k : 1 o.) ) i.Q._.L.h.h.i.$.I K v l 2 : j 6 X   ; : : K y.h.a.y.L.Q.k.h.P.1XsXvXbXsX7XMXcXdX8X1XaXaXQ.< N %.e.-.B.n.<.9 + . O       . X ; . O % % . ; y ' r.p 9 p O.X.@ e w 2 z 4 p o.O.C  .5.p.C.!.}.f.a.>XL.t.a./..X_..X.X2XtXtXwXwX3X1XtXsXNXgXvXAXFXsXgXFXNXNXlXf.D.^.>.r Z q.q.4.,.,.#X<.D 1.1.O.7 < [ ..D ..,.F.,.A.KXaX8XSXmXsXKXrX6XFXAXbXcXvXvX).4XNXVXMXBXMXSX7XdXrXfXjXf. .>.p.(.FX;X1XFXNXKX_.XXkXtXaXaX{ p.fX1.S.Q.DXGXfXxXE.B.M.[.[.[.[.`.].[.[.[.{.[.v.m.%X`.[.[.v.*.v.Y.@X=X=.D M.*X[.m.R.=X*X=XoXoX-XoX[.'.oX*X*X@X@X=XoX=X=X*XqXeXiXiXeX5XpXiXiXeXeXqXpXpXqX&X[.[.=X*XqXiXzXpX*X@X@X&XpX&X*X*XqXqX#X@X@X@X=X=X*X*X=X@XqXfXlXNXvXjXjXjXjXMXNXNXNXMXNXNX",
"3 3 2 v c z H 5 # & 5 5 w 6 : ; 3 3 3 6 w ; ; 3 3 3 3 ; < i ] ..A ] J c w c v p i v z y 4 dXKXMXvXsXyXyXrX,X).h.u.O.( i.i.[ p a r $.s ) <X_.- + r S.fXNXlX,X<X/.3X4XfXhX~.k.Q.L.t.p 2.k.k..XtXhXtXsX<X_.L.i.2.( y.hX4X(._.Q._.^.G.t.J e u a t P [ O.t.h.k.r.v 4 w w w 2 3 * @ u o.$.k./.Q.h.h.P.K K v m b 3 w 3 * * * * @ v $.o.a y.Q..Xh.L.1X;XdXAXyX>X1X,X8XNXSXrX3XlXDX>XB r <.7.M.[.*.n.E.d + . . . . ; 2 1 + . . o @ b $.X.< < r B [ [ B a G c 7 i q u.i.N 1.q.q.D.XXiXwX0XaXaXlXhXhXhX3XtXfXhXtXfXlXhXsXNXtXtX4X4XdXZXZX4XsXAXMXNXDXOXZ.|.A Z D | V.C.6.g.}.:.Z q.t.L i +.] A  .A.g.A.J.< 4XLXrX7XnXFXFXAX1XgXAXAXbXbXhX3XtXdXSXcXnXBXVXyXVX).,XGX/.[ B X.k.aXNX_.6XNXvXjXQ.hXuXuXlXG.N wX..[ L.4XKX<XaXHX#XH.R.`.`.=X@X`.[.{.[.{.%X`.e.N.%X[.[.%X`.=.-.M.%X*X=.D b.[.%XY.R.].=X=X[.[.[.oX[.oX=X=X=X[.oXoX=X@X@XqXiXiXiXiXeXiXfXiXiXeXeXiXiX*XoX].=X*XqXqXiXiXqX#X@X*X*X*X&X*X#X#X&X@X@X=X@X*X*X*X=X&X=X0XkXCXNXjXjXjXjXvXMXMXMXNXNXMXMX",
": 6 4 H H z j ; > 6 4 T H 1 6 ; 6 6 3 0 f 3 6 3 = ; > 6 y B ] | ~ ..G y 5 k K G i G b j . (.LXvXgXdXgXcX3X>X,XS.t.P a 2.{ - < $.s.i._.4XQ.y.+.y.2.C ( s.Q.tX1X(.fXZXwX/./.t.2.S.t.a.t.t.h._.>X>X>X,X3X<X/.Q.s.i.y.>XNX3X_.).Q..X^.Q._ a K ' _ a i J I _ ` K u 2 5 2 2 2 e j = 9 o.$.s./.<XQ.t.X._ o.v k 6 ; 3 * = = ; : e ' J < - B { O.i.).1X>X4XyX_.P.8X1X6XSXNXFXNXlXwXa.7 t S &.m.`.'.*X*X[.,.< - = 3 3 2 @ ; # * ; - p 2.3.[ B [ #.B 2.k.[ G I t J I X.2. .p.4.A d.^.E.OXeX.X4XaXfXZXZXaXhXwX2X.X>X).,XtXtXjXjXaX6XgXAXZXhXsXAXVXNXjXfXE.J.| 8.,.<.R.Z.4.8.J.<.~ q.A...( K.A.5.:.OX+X} G.r y.FXKXmXrXgXKXFXvXaXFXAXBXBXyX3XtXtXvXcXvXbXhXyXNX>X3XZX>Xl.[ [ ] .XNX6Xz.sXvXAXS.!.tX2XuX2XZ |. X{ { Q.gX6XQ.GXKXzX@XM.R.'.`.[.{.{.{.[.-X[.{.=.M.[.@X{.%X[.e.-.v.{.=Xv.Q 0.R.'.`.n.[.=X=X@X].[.oXoXoXoX@X@X@X].=X@X@XqXiXiXiXiXpXpXeXpXpXpXpXpXpX*X@X@XqXpXqXeXfXfXeX#X&XpXeX*X&X*X*XqXqX#X@X@X&X*X*X*X=X=X*XpXkXNXNXvXjXjXvXNXNXMXMXNXNXNXMX",
"3 3 e K K y 5 ; ; ; y O.[ 4 5 > ; ; 5 k 5 5 w 3 % ; : 3 z P ] ^ ~ | B 4 1 w v a G c j 8 . r.JXbXcXbXbXgX(.h.S.#.I i a B 9 K k.,XgXQ.P.).o.>XKXhX6XhX_.< t h.NXAXtX,X_.<X<XXX/.k.h._.>XK.O.k.^.h.h.G.>X3X.X).<X3XS.P.NXjX1X3X)./.^.k.i.o.v v K _ K K u 4 0 j l g w 2 4 y y T T i _ $.2.Q.<X).k.) q k u 3 = ; 3 O # # * * u _ s Z t.L./.h.h.>X>X3X1X(._._.dXFXMXNXsX6XaXlX.X[ t < V ;.0.M.iX*X].pX*XZ.6.+.Y = @ @ + . - +.a.5.5.,.] p.2.B L ) o.I 7 ]  .C r p [ 1.1. .,.:.6.} ,.^.2X~.j.W.5XwXaXwXwXfXjXwX>XtXCX3XtXlXjXsXjXZXZXAXgXFXFXNXwXzX|.;.D E.R.V.E.Z.8.} V.V.8.6.~.F...A G.CX5.<Xp.5. Xd P NXKXFX6XtXGXNXKXdXnXFXSXVXyX;X3XtXsXgXvXvXgXjX<X<XgXMX3XP.O.r / $XaXjX;X).vXgX<X#.).>XuXlX1.1.2Xf.1.t./.jXP.>XKXGXDXiX].M.Y.{.{.[.[.{.[.-X=X@X=.v.%X%X`.=X[.`.v.M.{.[.=.-.Y.0.n.M.M.[.*X@X=X'.=X=X@X@X@X=X=X].[.@X@X*XeXeXeXiXiXiXpXiXiXiXpXpXqX@XoX*XiXiXeXeXkXkXeX&XeXzXfXqX&X*X*X*XqX*X@X@X*X*X&X*X&X*XqXiXlXNXNXvXjXjXNXNXNXNXMXMXNXNXNX",
": 3 4 z v w 3 ; ; = i [ N 7 5 % ; ; 5 l 6 w j w 3 : : w v P ! S ^ | B y 5 c H v U y ; 6 . l FXVXdXbXcX1Xh.$.O.J G t J K J 1XNX3XvXhXrXhXtXvXZX7X1X3X(.h.$.. @ ' 1XNXsX3X4XfXjX2X_.L.S.y.O.a.h.k.k.h.s.k.P./.tX4X<X3XrX7XtX3X).L.I.t.s.t.` +.X.y.` v e 2 w 0 0 3 * 2 w y c b z i p $.i.Q.)./.L.i.u e k w 0 3 3 .   # : w n K a 3.i.U O.P h.NXAXvXNX4X;X3XvXvXsX1X6X3X1X<X3Xk.I 7 < V / 0.v.H.`.R.b.w.A i w . $ 1 ; 4 4 K. Xg.} :.6.6.O.I J v < 7 B 3.A.XX .[ P  .d.6.D Z A r } 4.F.1...s.f.F.2XF.3.h./._.a.P.4XwXtXNXNXgXNXvXNXAXtXNXFXNXtXlX#XD w.E.w.E.E.8.V.8.,.J.d.D J.|.A.A.CXCXwXwX5.] W.C [ aXVXFXcX;XAXNXGXZXcXJXPXBXAX>X>XvXjXAXMXvXAXNX_.3XvXBXdXl.o.L ] 2XhX4XvXh._.sXCXh.O.>XfXlXF.C 0XF. .6.F.<X).l.vXMXNXDXHXpX[.M.`.`.[.[.[.[.[.@X[.e.-.@X*X{.[.-X`.`.`.].n.D *.@Xb.`.N.N.@X*X=XoX=X@X@X&X&X@X=X=X[.=X&XqXeXwXeXpXpXzXfXpXfXpXqXqX@X[.oX*XiXiXeXfXkXfXeXqXfXxXkXeX&X&X&X&X*X*X=X*XqXqX&X=X@X&X*XeXlXNXvXjXNXNXNXvXNXNXNXZXMXNXvX",
"3 3 2 j x j 3 ; = 4 R ,.i < ; # * 6 6 3 j 5 z K 5 5 3 3 G L Z ~ ~ ] I y e y y v b 5 6 : # @ 7XLXsXbX3X(.y.y.7 G [ ) k.>X4X3XsXsXgXMXNXvXMX7X6XdX8X1X<Xi.4 = . + * z.8XNXCXCX4XhX,X(.O.t.s.{ a.k.f...O.3.2.k.).<X3XrX4XtXtX6XP.P.;XP.P.P.a.i.i.P a k w g k g g 0 b 3 = w j j k n e u X.s..X).k.$.v q 2 : 6 3 O O O 3 : ; 3 b I K ) +.2.O.Q.1X3Xa.h.sXrXcXgXrXdX8X8XdX6X(.4X3Xy.v 2 y p Z ^ 7.b.*.Z i 7 . ; : + ; 5 $ G G.V.;.V.A.V R I u 2 6 3 2 G P f.!.1.q.1.1.h.2.W.D.d.C.4.d.^.|.2X}.!.wXNX>X^.!.L.2X/.K..XL._.1XrXhXNXCXNXMXhXjXDXNXuXfXXXV 2Xg.,.d.d.E.q.J.J.g.}.w.6.5.tXLXJXVXtXwXp.D ] d.N >XGXKXSX>X>XjXZXGXyXBXPXSXNXsXsXMX4XZXMXMXjXZX/.fXVXcXgXP.o.s.t._.hX7XnXrX2.tXFX6X{ F. XwX>Xt.>X<X5. .L._.2XI.h.NXNXhXCXGXlXpX0XoXR.M.].[.[.[.-X[.v.-.R.=X[.[.=X[.{.`.@Xn.< 7.=XR.`.m.e.[.qX=X&X=X@X@X=X=X=X=X[.[.&XqXpXiXkXfXiXiXfXfXfXpXeX*X&X[.@XqXiXpXpXiXzXuX0XeXkXzXeX@X*X&X&X*X*X&X*XiXpXqX*X&X#X@X#XfXlXjXjXjXNXjXjXMXNXMXMXNXvXMXMX",
"f f 5 j l 5 ; * 1 t } ,.i 2 3 ; ; 3 1 1 2 y G U y c g 2 y L C } A R I y q u y x z 3 1 : : . z.LXcXgXrX).y.I @ < ) k.3XgXgX8XhXFXcXdXnXPXPXcXdXmXPX3X<XP.b + + > . = = T z.>X6XdXsX3XQ._.P.3.3.i.f.2.[ O.3.#.2..XaXdX;X,XgX6XaX).;X4X>Xi.2.a.s.2.K b j w g l m n 0 ; = w g 0 0 3 # * s $._.!.h.o.b w : @ ; 6 O . + : ; + 3 x ' $.k.1X(.(.,X_._.o.I >X3X3XgXFXgXtX3X3X1X3X2X_.2.9 w 6 4 J P } :.D < 1 = # * # + 5 y 4 u.I.8.,.1.] P P v y 1 3 g z J U B C C q.{ B < P E.E.V.D.!.^.d.D.D.E.}. XwXhXfXfXfXwXtXfXhXtXsXtX<X3XrXhXnXZXNXhXNXCXlXuXI.[ 2X8.D.D XXDXXXXXuXXXeXg.F.2XgXbXKXJX.XfX5XZ d...d _.KXsXVXcX6XaXjXAXdXmXJXVXFXgXtXGX4XtXnXvXgXdX>XuXMXgXdXQ.t.O.>XG NXdXrXAX<XP.yXCXS.1.Q.^.ZXQ.p.wX~.] f./.wX,Xy.I.yXdX6XNXjXDXHXxXiXqX#XoX].R.`.'.@XH.D 7.@X&X'.-X=X-X'.oXH.D b.[.].].v.-.b.qX=X=X@XoX@X@X@X@X{.[.=XqXeXpXfXiXiXfXfXiXpXiXpX@X-X-X*XpXiXeXpXiXkXiXqXiXzXpX*X@X&X&X*X&X*XqXeXiXiXpXqX*X&X&XqXkXlXlXjXjXCXNXvXZXMXMXMXMXnXNXNX",
"f w f 5 f 6 % * 4 i ,.>.y 2 w 0 6 6 3 ; = z I G i G k 2 y U R } ! C F y q u u z j 6 ; ; 1 + j SXSXrX>X>Xh.p t p ) >XsX7XvXdXgXFXMXbXSXKXLXPXPXKXPXFXbXQ.- . g 3 ; @   + . . 2 v Y l.1XsXtX,Xa.#.p.k.t.1. .(  .p..X4XtX3XsXdXvX8X6XgX1Xl.h.G.k.i.X.' b b g g k e g h 6 6 0 : ; ; : * 4 v i.s.$.( i w w : ; % O . + : 3 0 k v J ) S..XQ.3X4XP.P.Q.>X4X6X1X1XdXtX3X1X>X/.).Q.f.p.( a * @ w y 7 t < - $ = ; * # ; k W B O.t.O.V B I I v q < e c z z H H 7 < p p.I t - B 6.q.;.^ q.D.E.D.<.:.|.2X2X<XXX2XuXwXwXfXfXCXNXCXNXCXgXhXgXgXvXtXsXDXZXwX5.P wXf.q.] GXLXfXaXtX4X5X<XGXKXJX1XMXKXuXXXfXZ G.h.r i aXbXBXbXdX4X4XgXNXvXJXSXSXFX,XvX6XaXMXvXgX1XtXtXdXbXvX3X/.[ <X( P.KXjXjXNXl.Q.hXtX5.2.5XNX3X.. X2Xd.,.^.wX<XK.S.3XgX8XrXhXgXvXNXZXZXDXlXkXkXqX#X#X5X|.<.*.R.oXoXoX=X[.`.oXR.r H.].`.[.m.-.7.`.oX*X=X@X*X*X@X[.%X=X&XpXiXkXfXkXfXiXeXeXeXqX&XoX-X&XpXiXpXpXiXpXqX*XeXiXqX&X*X&X*X*X=X*XiXiXiXiXpXqX*X#X0XiXlXlXlXjXjXZXCXNXZXMXNXNXMXMXNXNX",
"3 6 3 1 3 1 ; ; y H 1...4 ; w w : : 3 ; 1 b G i G H z 4 y I R A ] P u 4 q c c z 5 1 ; ; 6 = + 7XFX3X(._.l.p o.$.P.4XsXsXFXbX6XgXbXKXBXmXLXLXLXKXLXLXBX>Xh.- . 3 r.@ b r.. . .   . . @ w $._.>X3XL.f.1.5.1. .#.{ [ S.sXrX6XbXgXcXdX6X3X>X).L.s.#.` J i K Y e q q g k 0 ; : 0 0 0 h 3 1 0 ) o._ p q 2 3 ; ; . . . + : 3 g k i a { L.^.Q..X.Xk.l.1XjX3X;X1XP.;X3X>X<X>XF.i.j.k.j.#.) e # 3 6 + - = 4 1 * * * # 2 y X.O.E X.E i I l.q = 0 q a v G z c G G N p $.I G v y.f.q.<.q.C.8.V.E.Z.Z.Z.w.I.wX0X2X4XuXfXtXwXtX3XhXNXNXvXgXvXgXFXhXhXZXlXuX6...iX9.9 S.KXVXNXvXsXgXZX4XFXLXJXyXrXCXtX0XwXp.< ( ) @ P.FXbXdXBXgX<XaXvXgXFXbXSXKX6XdXgXaXvXvXvX1X3XtX6XdX6X<X/.[ k.2XJ aXAXgXNX>XP.tXfXwXS.h.yXjXt.j.wX2X..5.}.<X/.t.>XtX3X4XsXsXsXcXcXgXvXgXvXZXDXHXlXkXDXDXXX<.0XqXoX`.].[.`.].H.D v.=X[.*X&Xv.Q =.n.].=X*XqXqX*X=X@X@XpXiXzXkXkXiXiXiXpXqX*X*X@XoXoX*XpXpXiXiXqX*X*XqXpXqX&X&X*XqX*X&XqXiXiXiXiXpXqX&X#XeXkXlXlXlXjXjXNXNXNXMXMXNXNXMXMXNXvX",
"1 ; 1 1 5 5 * * 5 G [ B < : g g ; 3 3 ; 2 y p L [ K v i F I ] ]  .V t 4 w k j y 1 6 ; 6 1 3 . l.KXtX3XP.+.v ) y.Q.>XdXvXAXMX3X6XbXKXSXmXKXKXPXLXLXLXKXbXFXKXrXT dX(.4 b .   . O   . . . . + q X.l..XQ.t.3.1.5. .C 2.^.4XsXBXAXbXsX8XrXrX,X^.S.t.$.I J I ` v q e g g 0 0 w 0 0 : 3 8 w 1 u K X.a e = @ # + . . . # . + ; e K $.h.k.k.s.y.P.4XQ.).,XI._.;X(.;X_.L.).<X~.@.i.f.{ _ X.K y 6 & ; 6 2 2 1 * # 3 5 j H v J U L i i ' v = w K J I I G G t I >.6.} ..r r ( O.@.! ! 4.d.w.:.8.J.E.C.| 5.2XwXwX2X3XtXtXtX<XaXhXtXjXZXgXhXdXAXhXsXlXzXwXg.g.5XD { aXSXSXvXrXdXLXLXrXgXSXJXJXgXNX<XzXDXG.< G.I + $.tXvXdXdXSXsX<XNX3XsXSXbXSXbXAXFXaXsXdX3X(.hXdX3XhX3X3XS.t.i.jX2.y.CXNXcXcXP.).DXwX<X>Xh.sX2X . XlXf.D f.wX<X5.h.).>X(.1X6XgXcXcXcXgXdXdXgXdXdXgXNXFXKXDXwX5.OXxXeXR.`.].[.@X0.&.'.[.v.[.pX[.v.Q *.M.M.M.R.%X%X@X&XzXkXzXzXkXkXxXiXiXpX*X=X@X@X#XqXeXqXqXeXqX*X*XeXqXqX*X&XqXpXqX*XqXiXiXiXpXeXqXqX#XpXlXlXlXlXNXNXNXNXNXvXZXNXNXMXMXNXnX",
"5 3 ; ; f 5 ; & 5 G P i 1 : w w 3 3 3 ; 4 u a P I v z i G [ ] .. .V i 5 y l j 5 3 5 ; 1 * 3 $ k NXaX>XP.+.t B s.P._.gXSXVXSXgXcXSXJXPXLXLXmXmXJXLXKXLX>Xo.<XKXjXP k.+ w 3   O   . . . . . . . + . K u.P.Q.t...{ 1.C 2._.gXvXSXcXcXrXsXsX1X/.Q.P.h.3.o.P J K u 2 w w 3 0 0 ; ; * : 8 f 6 w b _ v : # @ @ # . . + # + + ; w v J P 3.i.#.#._.4XQ.S..X>Xy.l._.P.a.L.k.G.~.#.{ { p v a v c 2 ; : 6 3 6 1 6 3 g 5 z Y v t K I K +.b 0 k b ` o.) J i 7 i [ 6.g.A. X5. .D ! C D C  .4.,.:.J.^.q.d.E.~.~. XwX<XwXjXsXjXsXtXhXsXhXNXjXgXjXdXhXtXlXlX2Xd.q.0XZ  XAXAXSXSX6XcXLXKXdXcXJXKXSXMXKX>X^.DX Xp.aX+.- Z >XZX4XyXJXAX>XaX3XP.JXbXSXAXvXFX8X1XgXrX,XgXsX1X6X3XyXQ.Q.i.).<XP >XJXcXNX6Xh.lXFX3XwX,XP.>XL.L.fXfXg.p.2X5X>X{ O.3X3X1X3X4XrXcXMXNXcXdXyXyXyXcXcXcXgXnXGXlXF.A.kXHXeXE.R.=XpX7.D '.[.M.0.].pX*Xn.-.*.=.=.*.=.n.'.@X|.|.E.D.w.b.b.E.oX[.oXoX*XpXpXpXiXpX*X*X=X=XqX*X&X*XqXqXiXeXqXqXiXkXiXeXqXqX*XqXfXkXjXlXNXNXNXMXNXNXNXMXMXMXMXMXNXNX",
"f 3 * 1 f 5 1 = y U [ i ; ; 3 6 3 3 3 1 w i L [ z y z J P ] ]  . .L F 5 5 k j 5 f 5 1 1 1 = 5 = (.tXl.P.u.q ) h.>X(.8XbXBXMXyXgXSXBXSXKXJXdXsXAXBXLXKXP.7 $ s 6.< r I b . . . O . . . .         o + . 2 ` l.P.s.1.!  .S.rXAXSXSXVXvXdXtXwX<X_.L.t.2.#.P J K u 2 0 0 : : : : 0 3 : : 3 3 w 3 w 2 ; ; ; ; # . . + . . # 3 w c z q a o.3.S.k.s.h.Q.Q.>Xy.k.1XQ.G._.3.{ $.( _ e 9 k < q q ; 3 3 3 3 ; ; 6 w f 5 x K H K +.X.' c o : w k G ) ..B i p r 6.J.J.}.0Xg.:.8.8.:.,. .d C ]  .5.4.! p.^.XX X~.XX XwXhXaXaXaXNXNXhXaXgXvXgXsXgXZXfXfXwXXXE.<.H.! 2XAXAXnXMX7XcXLXLX7X1XLXJXJXBXLXhXh.2XDXp.^.L.- < W.5X_.4XJXnXAX;XaX<XjXMXJXbXdXFXAXrXZXrX4XhXyXaX1X,XvX)._.h.i.hXQ.X.VXcXdXAX1X>XFXNXI.NX4Xt.<X+XP.lXwX1.G.4XfX_.O.>XhX1XrXtXuXyXyXdXcXbXvXsXdXdXdXrXhXNXjXNXFX.XO.~.GXGX#XR.@XpXn.D n.=Xn.-.*.R.*X=X].`.[.Y.M.M.n.'.oX#X#XE.b.0.7.0.0.*.0.0.0.'.@X#XqXpXeX*X=X=X*X&X&X&XqXeXiXpXeXiXzXzXiXeXqXqX*XeXkXjXjXNXCXNXNXNXNXMXNXMXMXMXMXNXMXMX",
"f 5 * 3 j 5 3 ; 2 H [ a 3 > 0 3 * ; 6 3 4 a [ I 4 2 v ) ] ] ! | :.L U y 1 y j j j f 1 ; 3 = j < z.AXz.(.z.J C [ k.).(.8XMXJXgXcXVXJXSXbXbXdXnXAXSXJXFX_.I N ! q.| :.>.r t + .   . . . .       , l h 5 ; + 1 ' y.2.9.{ h.;XSXSXKXJXSXbXsXtXtX).S...2.a.t.{ K u w w 0 3 3 = 0 g 0 h ; ; 3 3 * ; 6 5 6 # . . . . . . + # ; @ w T H a ) i.F.$.C i.t.t._.k._.<X_.h.k.o.a s s k X 6 3 1 1 1 : 0 0 0 3 5 w g k 2 4 H z J v J K e * : h w v P O.O.p K X.[ ,.J.H.E.iX|.w.4.'.E.g...Z #.] ] V Z 5.A.f.OX2X2X+X<X<XtXhXtXhXjXhXjXvXgXsXrXrXgXAXhXaXOX#XpX<.:.C.wXjXcXvXNX4XsXKXLXdX1XJXFXKXBXVXLX_. .kXG.f.~.< d p.F.2X).GXbXFX1X>XNXaX3XFXvXbXSXKXvXAX3X6XNXsXCX_.(.NX_.#.P.k.).NXX.l.AXdXMXVX:XyXVXtX_.FXaXO.>X+X3XfXJ. ./.3XuX^.t.).<X<XwXtXtXrXyXgXcXdXcXgXdXrXyXsXgXvXgXgXFXNXP.a.2XHXzX@X[.qXH.D R.*X].0.*.0.v.R.[.R.=X*X*XoX|.#X0X#XqX*XqX*X*X=X].'.].H.R.].b.b.Z.R.qXqX*X*XeXqXqX*XiXiXeXiXzXzXkXiXpXeXqX0XfXlXjXjXNXNXNXCXNXNXNXNXNXZXZXMXNXMXZX",
"v y 2 5 f 8 3 3 1 v { { 2 ; : 6 k * ; 6 q K U w = w K ( ] | | | A R U y y y 1 j j 5 1 3 3 w b @ z.KXP.7X;X+.t $.o.>X3XgXrXcX7XyXBXSXKXFXKXSXSXFXSXSXAX4XB < <.<.7.Z.7.:.g.< .             O # O l f h # . . . . q K a K Q.gXAXPXJXSXnXgXyXtX3X,X_.t.$.t.( _ v 2 2 h 3 6 3 3 ; * : # + # 3 3 6 + ; * + # +   . # . . + . ; w w v j y ) #.3.O.) J $.u.2.>.g.h.[ 9 k 4 2 w : . 3 g @ # g k w 3 : 3 g f l 2 $ z X.X.I i v w 1 ; k j K B ( 3.2.U { #.O.Z <.<.H.qXxX#X8.J.8.q.5.Z ] p.5.,.]  . .f. X XXX2XuXtXwXuXhXlXtXaXsXhXjXhXaXaXsXvXtXfX2X2XXX8.C. XuXNXhXvXtXhXvXSXKXKXMXgXVXFXvXdXKXtXg.G.aX!.C.D.9 Q.I.L.L.ZXgXSXvXk.4XtXtXgXJXcXAXbXvXgX3XdXVXNXNX4X>XhX).o.t.S.s.NX4XG 4XgXcXFX,X6XgXKX3X).GXwXt.4XS.wXfXF. .XXkX4XP.y.Q.sXtX8X6XyXrXyXdXyXNXgXcXNXyXyXcXgXgXgXgXZXAX3XA.p.OXDXpXoXqXn.r w.iXpX@Xb.=.0.&.^ &.*.H.#XiXzXiX0XoX].'.'.].=X=X=X*XqXzXzXiX@Xn.b.0.m.oXeXpXqXqXkXkXfXaXzXlXkXkXiXpXpXeXqXlXlXjXjXjXNXNXjXNXlXlXlXhXNXZXAXCXMXMX",
"G z 4 1 ; 3 3 1 w v ] { t 4 6 ; 6 6 : ; u J b 5 5 4 v ) ! ^ ^ ;.V R F 4 4 j j j f 5 3 5 3 5 l + h.JX1XyX1Xh.K o.s./.s./.wXhX7XsX7XSXJXAXSXSXSXbXvXFXAXtXi.9 D <.'.H.H.H.<.N u * . . . . . % 3 f # + # + + . + : . + + - ' 3XLXJXJXSXbXcX8X8X3X,X;XQ.#.B J _ v w 0 w 3 6 3 : # . * * ; 6 : : : + . + . . . . # # # + . . * * . . + $ i J s 9 < - - i 9 < [ E i 4 c w 1 1 6 3 g w : ; w 0 3 3 3 0 ; 6 5 5 z v i B L ` Y = # 5 H i o.t.O.( t < ] Z 9 5.4.<.@X#XE.}.b.Z.w.q.d.1.A 5.f. .6.W.A.5.p.^.OX2X<X.X4XaXwXtXaXhXjXjXNXhXsXvXgXdXaXwX}.#XV.| J.}.tXhXNXNX1X4XNXKXJXFXvXyXAXSXMX8XMXsX4X!.F.s.q.~.U B h.F.s.wXvXJXAX>X_.sX6XNXcXgXSXbXVXgX6XNXAXvXgX3X8XdX>Xy.F.).h.4XFXP.u.NX8XKXyX1XAXNXjX3X>XGX3Xa.S.f.uXfX|.5.S.3XjXtX).(.hX4X8XsX6XrXyXsXhXhXgXNXVXvXbXdXBXMXgXgXNXCXzXfXI.L.0XqX&XeXE.r ^ &XeX*XqX#XE.7.Z.<.%.^ 9.}.#X0X#XoX@XoXoXoX[.oXoX&XiXiXqXqXpXpX=XR.0.b.oXpXiXiXkXlXlXkXkXkXfXkXqXeXpXfXCXlXkXhXvXnXNXjXNXlXlXlXhXjXMXZXMXMXNX",
"G v w 1 % 8 5 2 k i C { G y 4 6 ; 3 : = G I y ; 5 4 G [ ! ~ ^ ;.A U p 4 5 5 j j f f k j w 5 j . y.AXcXSXyXz.i I Q.k.2.S.L.P.>XdXnXZXcXsXdXdXMXAXcXbXMXZX4X/ d V.=X=X].b.^ ] I 5 3 : ; # . . % 3 o + ; #       + : # X . . l.KXSXPXSXVXcX6X7X4X,X>XQ.{ O.J K n w g h ; ; : : 3 * 6 ; ; : ; * ; + . + . . . + : 6 k z ' r.y.r.T x b b u p i t 9 < - < t G t t y w y 4 - q b b k * h 0 0 : 0 w w w 3 w x Y +.H t G v u ; . 5 x W I #.3.l.G < ] p.C Z  .w.w.w.Z.0X|.0XeXqX2XA.] ! 8.q.4.1.g.q.D.W.}. X2X>X).3XaX4X3XsXjXlXlXNXhXhXvXgXrXhX+XD.fXD.,.E.XXhXtXvXvXQ.1XvXKXFXSXvXdXVXSXFX7XdXAX3X.X3.p.r p.$.- h.O.P ).gXVXVX6Xh.4XtXhXyX7XMXJXAXgXrXFXMXMXtX3X3XrX3X2.F.Q.S._.KXdXJ ,XcXyXSX>XhXNXNXdXrX>XhX<XG.t.G.fXlXXX .G.hXjXwXk.;XvXvXrXtXyX1XrXgXgXgXjXvXgXcXNXNXBXvXvXvXCXCXlXCX3X XE.E.eXlXlX:.S }.DXlXfXlXlXwX0XqX#X].|.|.#X*XoX'.].=X*X@XoX&XqXpXqX&X=X*X=X@XpXqXZ.0.E.pXzXDXlXlXzXfXfXiXzXlXkXzXlXlXjXjXjXvXMXNXNXjXjXkXfXhXNXMXZXMXMXMX",
"z H j 3 3 l k 4 z y s ] P G z w 3 3 * : J I w ; = w I ] C | <.| ..G y j 5 5 6 5 j l b b k w j . v SXVXBXcX:XX.i a O.F.0X2XL.<XNXnXsX7X3X7XaXMXJXMXMXMXNX2X1.9 r ].pXH.<.S R G w j 3 ; + + . . + . + ; . . . . . + * + .   w BXKXKXPXSXvXdXdX6X>X).s.) h.) T b 3 0 0 : 0 3 3 k 3 3 : * # # . + . . . . + # # 3 l I X.k.>X>X1X1X;X(.(.z.z.z.z.l.+.' u +.+.4 y x y x z J +.r.v 2 f k h 3 : 3 0 3 = l l k w e z K K 1 * @ @ w u U 2.O.U ` p d G.f.5.p.8.| ;.w.V.eX0X#XxXiXkX2X1.8.4.} D.q.! q.~.C.q.!.$X4XwXtXjXjXuXhXCXCXNXjXhXaXaXgXjXCXJ.D.DX|.g.D.2XGX6XvXaXP.tXyXKXSXMXMXMXMXVXJXsXyXVXfXwXk.#.B #.P.< t.i B >XsXVXvXvXy.t.3XsXgX;X8XFXFXcXaXZXgXFX3X3XrXrXhXG.s.p.>XP.4XKXI.$.MX>XgXrX3XNXrXdXdXrX1X,XtX2XP  . XCXfXy.i.tXfX4X)._.6XVXtX3X3XrXvXvXhXyXsXhXgXgXcXVXMXMXNXvXvXvXNXAXlXwX2XL.h.2XlX!.R  .2XlXlXGXlXiX5X#XpXkX0X#XeX&XoX].'.].].|.#X#X'.E.'.R.H.`.'.R.].#X'.<.0.H.eXkXlXlXzXpXfXfXCXlXlXlXlXjXkXjXNXMXNXNXhXkXkXkXjXMXCXMXNXMXZX",
"u w 5 ; 5 l H < y t B ] [ L U v w * * w I J w = 1 q [ R C :.<.~ B i y 5 5 j y j 5 5 5 z b w j = 0 JXKXyXdX1XP.y.- P a.S.A.I.aXZXjX4X4X;X3XnXjXsXvXMXCXjX2Xt.t <  .f. .] L G c 3 3 % . . . . . . . . . + * * # : # % O # . # cXKXKXPXPXBXgX7X1X>X>X(.o.t.` K j w 0 w 0 3 ; : w 6 * + # ; # . . ; . + . # .   # w l.h.;XsXyXdXdXyX,X1X1X(.(.(.l.l.r.+.r.' v u z W X.W +.$.i - = 3 h 0 : ; 6 6 w q b b k q y ' Y w # : 3 = 4 v X.P I K < i p.9.4.J.}.,.r ;.w.w.qX0X!.kX0XfXDXXXq.d.~.C.4.D.W.E.~.W.D.J.2X4X<X>XwXfXtXjXfXlXNXfXsXaXNXaXDX}.W.fX!.$X5.XXGX3XhX1XP.AX6XFXJXvXFXJXNXSXSXFX8XNXhX.X] < < G Q.a y.) 7 y.wXvXhXvXP.< 4XvXjX4X4XNXFXvX6XvXNXFX,X;XvXsX3X).1.p.>X/.h.vXAX+.P.sX3XsX1XgXVXvXrXyXgXyX_.2XtX..r h.fXkX).k.>XjXNX>Xk.3XyX3X4XtXtXyXgXyXsXdXgXgXNXMXvXvXcXdXcXNXsXdXNXZXDXlX3XP.P.XX~.5.Z 5.wXlXGXHXlXlXzXkXkXzX#X#X*XqX*X*X&XqXiXfXiX&X*X=X@X@X&X#X*XqX0X@XR.7.g.OX$XXX5XiXkXzXNXCXjXhXlXjXjXlXNXNXlXjXhXjXzXfXjXvXNXMXMXNXMX",
"v c w ; 3 k U u q i P } } C P J 1 = : v I L q * 5 4 P ] ~ ;.;.A B t y 1 5 l 5 k w w 5 k b y z q = cXLXyXrX8X6X1Xr.p J L.^.F.4XjXsX;X4X6XdXjXrXrXaXaXhXhXwXp.t 4 - < q t e y 1 * + . . . % # . . + o + * : 3 : ; ; # # 6 . ; cXKXPXPXKXBXsX4X1X3X>X(.$.y.` v k b g k w : ; 6 3 3 w # # ; # + + # . * # + . . ; = X.P.tXgXsXdXMXbXcXdXrX1X;X(.h.P.u.y.y.r.I ` +.+.I I I J 9 2 g f 3 : ; 3 3 6 w w v u 4 v ' b # . ; # 3 w z H X.U G v G { 1.@.d.XX}.Z.,.4.4.| |.XX}.2X5XXXfX2Xd.}.kXJ.,. X XG.^.|.}.E. X2X<X.X XuXwXtXtXjXlXtXtXsXhXwXzXA.J.kXA. XC.2XFX4XgXQ.(.DX4XAXJXbXFXJXMXSXMXLX8XMXtX>Xs.B t G L.] { { 7 ( 4XtXsXNXaXp P.3X>XjXtX6XNXhX1XdXgXAX1X(.MXgX_.~.4.d.G..XQ._.MX;Xv hXVXyX(.dXMXdXbX6XrXNXrXL.S..Xp.r V 2XjX<XI.I.tXZX3XI.,X1X3X2X3XtXhXsXtXdXjXgXhXNXvXgXgXdXvXNXvXNXAXVXNXFXKXFX4X/.).2Xf.d Z 1.F. X2X2XXXXXwXzXiX&X@X@X=X*XpXzXfXzXzXkXiXeX*X&XqXiXkXkXqX*XpXiX|.~.#X#XE.E.#XfXjXCXNXjXjXhXfXjXlXlXlXjXhXkXzXlXNXNXMXZXMXMXAX",
"b c g 6 1 y ) P t G [  .:.~ ] B 1 : 0 v [ B 2 ; 3 4 L } :.;.~ A B w w 2 j f 2 z j y 5 w x y b c . I.LXdX8XyXcXyXz.l.q i h.k.P.Q.h.y.>XhXhX4X3XtX2X<X,X2X$XG.I @ . + 1 * 6 * . . # # # + > : ; # : ; # ; : h 3 ; ; * ; 3 . l bXPXPXPXKXBXyX3X6X1X_.P.$.y.v e 0 0 h g w ; w w * ; j # . . # # # + . # . . # ; 1 # < h.>X,X3X8XrXrX8X3X1X<X<X_.l.l.u.a.y.+.W +.2.O.t i i u 0 w l h w : ; 0 6 : 3 1 K J i +.+.; . # + = w b Y u G +.2 < ) 1.Z 1.E.}.8.J.|.W.| S D.g.wX5X2X2X2X$X#XOXkXwXF.^.OX~.F.|.#X|.XXXX2X2X^. XuXhX4XaXhXwXaXaXaXhXfX,.D.DX~.F.XXfXCX3XNXP.3XtX4XAXFXvXSXKXVXFXMXMXyXrXtX3X.X[ X.N p.4.] ] r ] wXfXsXhXhXB ( 3X_.tX>X3XjXNXrXgXNXAX3X1XcXgX).F.9.q.9.L.3Xz.1XgXy.l.NXgX:XdXMXbXvXsX3XgXsXyX).O.a.!... .f.).hX,Xu._.hXuX).(.uX,X,XwXuXtXyXsXrXrX6XsXyXtXtXtXsXdXhXNXNXvXVXgXgXMXMXnXFXjXtXhXQ.s D 4.W.2XXX XXXXXXX|.'.R.R.].&XzXCXlXiXpXqX*X*X&X*XqXiXkXpX#X*X*XlXOX5XzXiX#X|.$X2XwXaXjXlXlXjXlXlXkXfXkXlXkXlXCXAXZXMXMXMXMXAX",
"j y j 3 * 4 ) { a P ] ] <.:. .B w 3 q k ) G 2 1 1 5 U :.:.%.~ R q z w 3 j w w w 5 j 4 2 y q H v + Y LXVX1X,X1XyXcXrXz.) U a G J +.) $.i.Q.>X<XQ.s.s.h.h.#.( K w ; % o 3 l o . # 3 > ; % ; 3 f l g 3 # # ; 3 3 3 # # 6 1 $ l.JXJXJXSXJXSXdXrX4XI.h.h.+.J q 0 0 : h g 6 . 6 3 . * : + + . # ; ; . # # . . ; ; ; + 4 ' y.(.yXyX1X1XdXyX3X>X(.P.k.y.O.a.$.G X.+.>.2.+.T v b m w : ; n 0 : w w w b Y H v v T 2 * ; + 1 k b e v H K u @ q C q.,.} w.<.;.4.|.D.! | E.6.5XfX~.5X5X~.zXOX X2X2X0X<X5X5X2XXXqXeXJ.p.!.!. XfXhX3X3XtXtXaXtXtXCXeX4.E.zX2XXX}.uXtX_.jX).hX<X6XSXFXdXFXKXAXJXSXMXyXyXrX4X^.t.+.< 8.W.@.1.] R 2..X2XaXZX#.< <X/.Q.P.3X1XtXrX3XgXgX;XrXrX>X1Xs.9.4.A. .2X>Xl.rXdXI Q.AX,X1XSXBXcXsXdXgXrXdXNX3Xh.s..XG.s ..Q.tX>XP._.).tX>X3XwX+X<XwXwXyXrX3X6XtXyXyXsXtXtXrXrXsXyXtXtXNXvXdXyXcXSXSXAXVXCXNXaX^.f.G.XXwXlXHXlXiX0XoX].].].R.E.wXlXiXqXqXqXqX*XqXqXiXiXiXqXqXqXiXzXeXqXiXeXpXlXlXtX3XtXfXlXjXkXlXfXfXfXlXlXjXCXAXMXbXMXbXMXAX",
"5 k z 2 1 y L ( ] C A  .~ ^  .G 3 3 y u b w 4 z 5 y G ] ~ ;.} s 1 3 5 g k z c y c y w 5 y z H c w . yXLXMXyX:XI.I.z.(.6X>Xr.K ` a J a i G $.P.s.J v p o.J < # ; g g ; 3 3 ; 3 : : 3 > 3 3 ; 3 w 5 1 1 ; ; 3 ; + ; = . 1 2 r.FXKXKXSXSXBXyX3X1X;XI.y.I G u u j g j 3 ; 3 5 3 : + : ; ; # # ; + . + + ; : + # # @ . 1 +.P.(.3X8X8XcXrX1X:X).P.+.P.t.y.y.y.$.[ O.u.I.H H z w k w 6 w 5 f w w l b Y K 5 . . # : 3 l x v i v _ _ K u K G ] ] 5.q.b.w.r 4.~.E.,.| 2X4. XwXwXfX X~.iXXXXX5XXXfXwXfXfXkX#X|.OX#XJ.}.OXOX.XwXwX3XtX1XtXaXtXlX<Xj.|.5XfX~.~.wX1XI.hX_.CX1X3XNXAXrXSXNXNXKXJXBXyXdXCX3X/.5.X.r :.D./ f.C G.,.1.XXlXwX.Xd !.!._./.4X_.).tX_.>XgX4X>X1X).<Xk.1.3.3.f.a.CXi.Q.FX<XJ aXtXP.gXcXmXnXbXvXyX7XyXhXNXQ.K.I.F.p.( 2.<X.Xf.S..X4X>XI.5XwXwXtXsX6X6XdXrXhXvXvXtXhXdXrXdX4X(._.1XsXvXsXNXNXdXhXVXAXvXNXNXyX>Xh.G.F.G.|.kXxXzXpXpXiXpXoX|.XXqXqX*X@X#XqXqX&XiXiXzXqX#XpXeXzXkXqX#XeXzXkXNXDXZXaX4XwXfXkXeXfXfXfXlXCXCXCXAXbXbXAXSXAXAX",
"5 j z q 5 5 B ] ] C A ! | | ] i 6 5 c y w 3 5 F H z J { } } R i 4 5 5 w w j y c z u c y 4 y z k b . r.LXBXdX3X1X(.u.z.(.l.+.r.+.` p B o.i < ) J J G q G K 4 1 3 f 3 3 ; 3 h 3 o f h 3 3 3 ; : 3 ; 6 5 5 1 ; .   ; 0 : w q l.MXvXSXLXSXVXyX,X6X6Xk.y.X.` G z w 2 g 5 3 5 3 3 1 # . # : + . + . + + ; ; : 3 ; * ; $ @ K P.h.h.(.1X,X(.(.(.P.P.h.P.y.y.$.) p 9 i X.H 4 c z v T b w 5 5 5 k b b j w 6 6 * = 3 w w l x z J ` _ v a v J O.5.4.,.4.V.w.4.g.|.eXD.r $X2XC.}.lXlXp.p.5X|.wXfX2XlXfXfXfX^.OX2X|.$X5X2X2XwXXX/.5XwX4X4X4XtXaXwX~.}.XX5XCX X~.lXuX>X3XP.ZX4X6XvXgXrXJXVXNXLXJXBX7X3XNX>X/. .B s.A D.6.k.9.#.6.^.F.2X X2XC p.wX3X/._.>XQ.<XQ.).tX>X,X1X>X).L.[ #. .p.2..X1Xh.rXNXP.[ lX_.(.cXmXbXnXvXsXsXyXdXjXNXtXg.t.XXG.Z 1.1.3.S./.^.+X+XF.f.h.<XlXtXtXsXyXcXgXrXyXNXvXtX1X3X,X,X(.:XtXgXhXNXhXyXgXAXVXDXMXFXFX>XP..X XV.8.d.V.|.qX0XiXxXxXzXqXpXiX*XiXpX*XpXzXxXkXiXiXqXiXzXlXiX0XwXfXNXNXlXNXZXNXfXwXqXiXkXkXfXlXCXNXNXSXMXbXAXAXAXAX",
"y t u i z y B [  ...! Z ^ ,.] i 2 f x y 1 3 y H G G B P | } V z j f 5 5 j c l b v z z c j c b x 5 3 + 1XJXyXyXMXFXvX(.P.P.z.I.r.I y.l.$.) G y.O.[ O.B U I i y j l ; 6 h 0 0 : : h g 3 0 f ; 3 f 5 3 3 % ; > & > 3 h 1 q a P.NXcXBXKXSXcXsX6X,X>XQ.a.+.W x z b l 3 w 3 3 1 : 3 ; + * : # + # # 1 . ; ; : 3 6 ; ; 3 . + t y.P.(.I.(.(.1X>Xl.y.+.y.$.o.y.$.) I I I G X.$.I K K k l g g f : 3 0 2 : $ 2 2 w w w w y T W X.+.a 9 p J  .p.6.,.g.1.,.! g.|.}.}.|.,.g.0X0XXX2XkX X2XfX~.5XwXXXlXhXfXkX2X~.zXwX5XiX<XOXwXwXXXXXwX.X,X<X4XCXjXA.^.2X$XlX2X XDXwX4X_.h.AX4XsXSXgX6XKXAXvXKXKXJXcX6XNX/.XXs.< h.r 5.p.s #.g.<  XF.f._.<X5.Z 5X5XG.t.1XS././.>X,XP.>X)././.).i.O.J 2.t.2.NXk.P.hXhX( h.fXy.aXbXvXmXdXvXNXgXtXtX3XsXNX<XL.S.Q.t.( { g..X XXX~.f.s.t.L.>X,X3XsXsXgXvXdXdXNXvXrX>X3X8XyX3X>X8XyXtXhXsXyXtXhXgXgXBXMXFXAXhX>X2XfXXX+Xp.} :.8.w.8.Z.n.w.<.w.E.E.'.R.@X@X@X@X#XiXqX#XwXzXzXfXfXkXNXjXCXCXNXNXZXkXwXfXfXkXjXjXNXCXVXSXBXMXBXAXAXAX",
"G t B I c 4 p L ]  .:.! ~ 6.L t w g i y 1 f c H G L i s }  .G y x k j w j w y v v z c y z b H j 3 3 @ r.FXvXcXyXcXgXtXtX3X(.(.1X>X>XP.y.l.h.k.h.t.h.t.y.[ F x l y j 5 Y b w l l 3 w 3 h 0 3 k b j : # . ; 8 8 8 g k q v $.).MXBXJXJXSXdXdXvX1Xz.(.h.+.G u c x Y ; 3 3 : ; : 3 : ; . . + ; ; # ; . . # ; ; : : ; 3 : = $ c F u.4X4X1XtX3Xh.+.X.y.P.$.y.h.k.I.P.l.t.h.y.` K H y j 6 h f # # * * # w l k b x c b b c F H K a a (  .Z } q.C.q.,.d.C.W.E.|.XXD.C.C.,.pXiXOX X XwXlXXX<X0X!.uXhXaXlXfX2XwX2XwXfX>X^. X2X2X_.^./.).<XtXlXkXA.W. XOXDX5X~.HX4XyXh.P.ZX3XdXFXrX1XKXSXgXFXLXLXBXrXVX>X.X3Xu H R  .k.s t.lXr p.^.V.wXh.s.Z F.wX/.i.>Xk.Q..X_._.I.)._._./._.>X$.s O.y.L ,X).Q.4XtXwX{ /.k.(.MXbXbXvXyXdXgXsX6X3X>XtXZXfX).(.3X.XO.<  .!.#X X+X5X2X_.^.L./.tXhXsXdXhXvXvXvXcX6XrXdXBXbX7X3X3X3XtXtXrX4XtXaXdXdXMXMXgXAXNX4XQ.wXGXDXuX0X2X XZ.V.V.Z.b.^ ^ w.0.0.n.b.Z.E.Z.D.Z.E.}.XX<X5XfXZXDXAXNXNXNXhXfXkXlXkXkXkXjXhXvXNXFXAXAXMXMXAXAXAX",
"i i U ) G t i L C ,.,.! ;.,.L t j w i y 3 5 y H R [ J B :.} i y z k j 5 y 4 4 u v i u w j z j 1 6 3 x < 3XKXcX8X1X(.1XgX6XP.P.tX2XI.h.h.S.h.K.a.p.t.t.t.W F F j y Y c w j w l 0 0 3 : w 0 6 0 w 3 ; ; 5 j k j w b u u y.Q.<XvXAXSXPXbXMXdXsXyXP.h.+.z F z y 5 5 : ; # ; : 3 3 f ; . . . # 6 ; * * # # ; * ; ; # 0 : ; * x < < I >X,X_.P.I.P.l.P.(.h.y.i.y.h.a.U $.y.X.i y q w 2 ; h f 6 : 3 w g Y b l b b c k j 4 < 7 i C C @.1.q.<.q.g.,. .p.D.C.C.w.}.:.w.#X< D.0X}.q.p.<XkXXXXX0X2XwXuXuXhXfXkXfXwXuXkXfXuX2X/.XX XS.XX2XfXlXwX<XF.^.XX2XGXfXQ.CXwXtX>.(.AX>XgXMX>X1XJXAXdXFXLXKXVXyXVX3XQ.DXv q t.O.P ) B hXg.D 2X5.XX5.t.( t..XL.!..Xs.k.2Xs.L..X_./.^.P.h.>X$.U X.O.o.P 2XP.k.1XlXuX3.2.L.vXMXNXgXrXsXgXgXbXdX8X,X3XtX1XP.1XsXwX.Xt.1...6.f.^..X~.!.G.S./.<XwXjXhXtXrXhXyXyXdXcXMXMXyXrX7X>X3X4XaXtXtXtXsXgXNXAXVXMXNXVXNX1XtXuXhXlXaXkXDXlXlXfXiXpXOX|.zXiXpXpXiXzXiXeXiXiXfXiX5X4X3X1X>XhXNXAXZXlXkXkXlXlXfXfXjXNXNXVXAXMXBXAXAXAXAXAX",
"J G U X.B p i p C | :.^ / ] L c w e u y 3 6 4 G [ ] P ] :.R i y w y y w c u e i a i i y 5 j j 1 & 3 K t +.AXMXcXcXrX1X1X6X>Xk.l.2.y.u.h.S.t.y.y.2.O.2.+.I z z j x H z 5 l j = 3 0 3 : 0 w 6 : ; : 2 j b H v v J a p B Q.3X4XvXSXBXBXVXbX7X7XtXI.y.X.J H v l w w 3 : : w g f ; # * * ; # + ; ; # 6 3 ; # : ; # ; 6 3 ; @ k Y H p u.S.i.l.(.(.o.i y.y.y.y.X.+.O.a p G J t < q y 2 3 3 ; * = w m Y b k 3 w k w 2 2 y y G P ( / | | C.4.! | 6.q.q.q.| q.Z.0XE.}.eX,.d.0XuXXX^.$X)./.}.0XfXlXuXtXwX4X4XwXfXwXwXwXfXfX2XXXwX/..XwXjXkX2XF.J.2X2X$XNXZXOXfXCXyX$./.jX4XMXAX>X3XVXNXgXJXLXKXPXbXVX4Xk.lXv @ h.>.B J < 3X~.D 0X5.p.G.1.P { f.t.L.G.2.t.5X5.5.f.s. XQ.a.h.I.u.B a.O.O.[ G.Q.y.3X3XhX(.B y.>XdXgXrXgXcXsXyXyXdXrXtXsX;X(.rXP.I.>XNX4XL.p.p. .5.f.f.Q. X/.L.i.[ t.3XhXNXNXgXVXcXgXNXcXNXNXrX3XtX6XsXtXtXrXtXyXhXhXgXvXdXvXVXFXhX1X4XsXyXaXhXCXCXDXlXDXzXD.|.iXpXpXeXeXiXiXfXpXfXlXDXZXjXtX3XtX3X4XhXNXjXkXlXzXfXhXlXNXNXAXAXMXAXAXAXAXAXAX",
"F i i I U L J t C | <.;.^ ! a y w u v c 5 1 4 I E V C ] } C z y w y c y c z k v a a k w w k k 5 8 % i +.- >XPXcXyXgXrXP._.3XP.h.S.h.u.h.+Xh.2.u.a.y.2.o.W v j 5 z y H ' r.b : j w 0 3 w w 3 3 2 3 y v I P ( ..@.( ( p.2XaXhXnXSXSXBXJXBXyX7X1X>Xh.y.X.H z k k f : : 3 3 g f 1 ; 3 : : * . # + # 3 6 ; + : : * : * 5 3 : ; l H ` t.t.O.$.y.l.X.J y.y.y.y.X.U G p G H x t c Y b w w 2 4 w u u v k k l 3 6 w w g x u ) $.1.@.....! | ] | g.:.4.W.d.8.W.}.#X5XD.d.~.V.J.$X2X0X5X<X$XW.XXuXlXjXaXsXaX4X4X4XtXtX.X>XuXwX2XuX<X>XwXfXwXwXf.~.kX XQ.NXZXt.S.FXhX3.>X4X4XgXNX>XrXMXvXgXKXKXLXPXSXAXhXF.4XK . t.2.B p 9 _.2Xr f.^.5.^. .P P h.t.3.3.2.t.^.G.6.1. .F.G.t.S.S.S.B g.#.] 5. .G.L.l.4X;X6XQ.r X.;XyXrXyXsXyX7XrXyXrX6XyXhX6X>X8XI.h.I.>XwX2XS.9.4.p.p.G..X,X/.tX>Xh.t.+.P.aXsX1X3X3X3XyXNXDXgXdXgXrXrXtXtXtXtX4XsXhXtXNXgXgXMXNXDXVXgXsXsXtX4XhXhXMXGXAXGXDX).5XeXqXpXiXiXfXiXfXfXkXlXZXZXZXNXAXCXgXtXaXlXlXfXkXhXlXCXNXMXAXAXBXAXAXAXBXBXMX",
"z i t P C L I r C | ,.,.;.! G y j v K v y 4 t W L B P ] C C J w 5 w e q c z z z v v k 4 2 j k 5 h 3 < I < X.KXPXsXrX8X1X(.I.P.h.l.y.>.a.P.K.2.+.l.$.` i ' K z 5 F U K +.T 4 w b k g w k w q l b z G I o.1.6.4.1.j.s.).4XtXgXcXSXJXPXbXSXcX1X1X6Xh.u.+.K c j j j 3 f f ; + ; : w k * # ; ; # # f ; # . + * ; 3 6 * 3 ; ; 6 g = y a s $.h.t.+.$.y.u.y.y.k.P.l.y.$.y.X.K H ' ' k w Y x K +.' b k w l m k 3 : 3 6 w X.P ( ,.4.@...C C ,.| d.q.8.^.V.q.D.E.E.E.W.D.8.^.w.D.|.d.~.jXwXD.#XwXuXhXsXjXsX4XaX<X2XfX3X2X<XuXwX2X2XwXwXwXwX5X^.2XfX~.G.jXKXF.a.ZX>X>.hXtX1X4XaX>XNXNXrXrXFXJXLXLXSXAXhX.X2X` < J #.r { s O. XC Z  XZ p.5. .P u.2.1.5.( R F.!.A.q.5.1.G.t.t.g.G. .] 6.(  .G.p.3.i.1X_.4XhXP.9 t.>X6X3XrXdXsX7XtXyX6X3X(.(.(.,X>X).(.:X>X3X<X<Xf.p.5.p.k./.>X>X.XtXCX,Xa.S.S.1XjXsX4X3X1X3XtXdXvXdXgXyXrXtXtXtXtXNXhXgXgXgXgXgXNXNXvXgXCXNXsXaXyXdXMXMXAXGXjXwXxXiXiXfXiXkXfXkXkXkXjXCXVXNXvXNXMXAXAXjXaXiXkXkXjXlXZXAXAXAXBXMXAXSXMXMXMXMX",
"F 7 y G >.] r [ ..C ] 6.| Z i 4 b v y t u i G U G i B / } N z w y j w y u c x c H k y 5 f l l 5 3 3 < i t l.JXSXBXBXgX>X;XtXyX3XP.I.:XI.I.I.y.y.r.r.X.v t I +.u.k.h.2.I x 2 5 : g l w l 4 z W H i J ( 3.p.6.f.^._.3X6X8XcXBXcXSXPXSXFXgX6XtX3X4Xh.y.W K z j m f g l 8 + % 3 3 ; # 6 w 6 3 6 ; ; o # ; 6 ; : ; 3 3 # * : ; : ; 3 y W W L h.h.G X.y.i i y.h.z.z.y.h.y.) X.v 4 - w Y j w l 4 b l w w g 2 w 5 q w t U C s ] 5...D 1.q.5. .| q.d.V.E.D.C.V.W.w.J.2XE. XV.W.pX~.j.~.2X!.fXfXuXtXtXtXyXjXtX4X3X<X3XsX4XwX0X0XwXwX2X XOX~.OXfXwXfXfXaXGX2X:.CX>XP aXwX1XtX1X>XNXZX8XrXMXSXKXLXPXKXdXtXtXi.9 p B B 2.N ] D.! | q.C O.k.I i I U [ p.C d.F.~.9.5.@.] C t.2.{ s.1.N 1. .C 3.F.B O.P.h.>X1XwXj.( O.).1X6XrX7X8X8X8X3X>X(.>X1X,X>X8XhXtXI.I.hXlXwX_.t.2.h.Q. X5X>XS.I.3XFXtXh.i.P.4XNXlXhXtX4XtX3X1X,X>X3XtXtXyXhXhXjXhXgXvXhXaXNXNXhXNXCXAXZXhXsXrXhXVXdXhXFXuXfXlXfXfXiXeXkXiXfXfXhXNXMXMXvXNXNXNXvXlXkXeX5XfXjXlXvXAXAXMXMXBXAXAXSXAXAXMX",
"F y c F  ...D ..X.r B O.} V 4 2 z G z z i U [ E F i a C } B k w j z j c u c x z y w w 1 6 l x l : 1 y G < z.FXBXSXBXSXgX,X>XtXtX3X).(.h.h.I.I.h.y.$.J W $.y.l.t.3.O.u.W y 5 6 j f g 5 y I X.N p [ #.{ f.f.p.!./.4XsXyXrXcXBXbXBXBXMXSXNXdXrX,X>X(.+.i x k f l g 6 3 3 ; ; 3 3 ; + : 3 6 # ; 6 3 ; * ; 0 6 3 ; : 0 ; : : ; 3 : 3 2 T G I u.+.X.I U O.a.y.[ +.+.G $.) p i J ` K b $ @ @ - $ w g f w k k b K T X.+.( ..O.1.1.p.,.! 6.q.4.4.4.8.4.d.^.D.^.eXOX| 8.lXuX6.C.qX^.2XfX<X!.fXtXwXtXyXhXjXjXaXtXwX1XtXNXtX5XwX2XwXwX$X0X2XF.XXqXuXlXlXNXNXuX>.lX>XP 2XwXtXtX,X>XNXvX8XyXKXSXSXKXKXSXrXyXwX$.r J +.a p V ] p.9.! 4.( X.S.N 4 +.G [ 3.C p.j.5. .4.G.1. .) )  . ...] P [ O.s t.L.2.B G.L.L./.wXj.( p P.jX1X1XyX1X3X6X,X1XuXaXtX1X1XrXhXtX1X3X,XhXtX).).,XS.#.G.uXfX>XL..X3XlXtX(.k.h._.aXCXlXgXgXsXtX>X>X).I._.>X3XtXNXgXdXaXaXZXCXNXNXNXjXhXVXNXgXsXvXgXcXNXlXuXCXlXwXpXzXfXiXfXkXjXNXAXAXAXZXZXZXNXjXkXiXeXkXlXZXAXZXAXAXBXMXBXBXAXMXMXMX",
"T F z i  .:.A C U 7 p U  .E y 5 y c z G L R :.} L i i B ] P i g w c y z y c x z k k k 5 ; 8 j f 6 4 c G < P.KXAXPXPXFXbXgX4X>X,XP.h.h.h.u.u.a.>.y.a.s.u.u.u.W < 7 7 G H y y x z - 4 H I L O.O.[ O.i.t._.L.L./..XtXgXyXrXcXBXBXbXSXMXcXNXgXrX>XP.I.u.U y w w f 5 : : > 6 ; : 3 3 ; ; ; 6 : 3 6 ; * * ; w : : * ; 0 3 0 3 : 0 0 3 @ w K X.U I I ` $.` 2.2.O.2.u.y.a.a.$.[ K I K +.' K u q u ' Y l k j k c K K K U  .1.p.q.q.d.q.4.| <.:.| ,.,.4.d.8.d.J.OXzXZ.Z OXzXA.:.^.Z.~.lX2XQ.fXwXwXtXtXtXtXtXwXtXwX3X4XhXlX0X<XL.2X0X X2X2X^.2XwXfXjXsXhXjXNXI.ZX>X>.wX>X4XuXP.(.hXVX3XrXJXFXSXKXLXSXsXhXjX#.< 9 v v < I L B t.C  .C J l.I t ' i I [ r [ [ 3.9.4.d.1.[ a J 3.] L P i L 3.P C /.k.s i._.a.Q.5X_.#.#.{ S.wX).3X6X3X3XtXsXtXyXhX6X3X3X3X4X4XyX>X>XtXtX,X,X3XwXa.N S.uXwXL.f.s.4XfXaX_.Q.s.h.>XlXNXDXFXAXVXhX3X3X3X>X(.).).>X<XwXwXwXaXlXlXNXNXNXVXNXvXNXvXdXsXCXwXfXDXeXeXkXkXiXfXhXjXNXVXMXbXZXZXZXCXhXfXfXfXfXhXNXZXMXAXAXAXAXMXMXAXMXMXMX",
"i i q p ( @. .C G c i B [ ..i q 4 y i G P A :.;.P i p p ..] u j 2 w 5 y j c x z b j w 3 3 f f 3 3 c y v q X.FXPXPXPXAXcX8X1X4X3X,XtX>X/./.I.I.f.K.a.p.[ B [ N t i y 4 G K W ` i q I y.u.2.s.^.f.k.Q.).,XL._.k./.yXgXgXdXcXBXPXbXSXvXrXdXrXrX3X>Xh.h.y.z w x l 8 f 3 : > % ; 3 8 3 ; # 3 w f 3 # * : f l 3 0 3 w 3 3 0 : : g f w = 2 x J p i I I I i J 3.h.s.h.a.t.G.G.a.$.J 9 v X.+.+.+.K T b Y b k b z q y u i ] | 6.5.4.| | 4.,.q.q.8.8.q.4.q.J.J.w.<.XXD.,.2XiXzXd.g.D.D.fXXX^.lXfXhXhXfXaXuXhXhXhXtXwX<XXX<X2X!.^.0X0X X^.OX0XuXfXfXaXfXjXCXvX:XFX>XK.kX,XwXtXP.4XvXFX1XrXVXFXJXKXLXPXcXgXFXy.J i q b < ` $.i $.2.O.U a G ' F T q U H i $.O.i.1.6. .2.P i J { { i G U N ..i.r 3._.h.P L.Q.S.>X4XQ.i.@.#.k.,X1X>X1X4XtXyXtXtXaX4X3X3X4X4X3X3X6X3X1X>X3XtXwXuX>XA.F.p. .G.2X/.Q.).wXtXtX).Q.Q.Q.k.P.>X3XNXGXGXFXFXCXuX3X3X3X<X.X/.4XaXtX1X4XgXgXVXVXAXNXvXhXhXhXtX2XfXkXfXeXfXiXfXfXjXNXMXMXMXnXMXZXZXhXaXfXkXaXfXjXZXMXZXAXAXFXAXMXAXAXAXAX",
"z K H U C ..1.] i v a s ..| ] t 4 y 4 z P Z ! <.] B q i ] [ p q w w j y z x F H v w 2 5 5 8 f 1 ; w q y I - 6XKXSXSXSXMXyXrXyXgXsXyX,X>X3X.XI.a.F.>...t.>.O.y.P.y.+.+.U X.$.J X.P y.t.t.A.>X2X!.s.Q.>X>XP.>XQ._.3XcXbXcXcXbXSXBXBXbXdXMXyX3XtX>Xh.l.+.H b b m m x 3 ; ; # ; ; = f : # 3 3 ; : 3 : g g h 3 w g g 3 f w 3 0 5 5 2 w u < v v i o.J J $.P B s.k.3.s.s.S.h.h.h.h.t.y.G G X.$.K q k b n v v u I ` G [ ..] 1.1.!  .p.q.d.Z.w.w.C.g.q.q.4.C.E.E.|.V.V.qX^.zX0Xg.D.|.5X~.!.kXaXwXfXlXjXtXaXgXtX.XiXqXOX XXX XOX2XOX0X#X XfXkXfXwXtXlXNXNXNX(.FXsXG.2X4X<X4X).tXhXhX4XsXAXAXAXJXJXLXyX6XAXi._ J < q q i ` u +.2.o.H x - y x c y K x i v _ $.[ ....5.L i [ B [ I G y.W s 1.#.( G.G.O. ..X).Q.(.2X/.5.{ B G.>X>X1X>X>X4X3X,X3X6XrX6XrXtX4X1X3XrXtX(.P.>X,X>X2XjXfX Xg.#.C i.3.o.#.2.k.>XtXaXf.p.p.i.#.t.L.)._..X4XjXNXCXZXlXCXtXwXaXsXtX6XdXVXMXNXMXNXVXNXNXhXNX3X3XhXlXfXwXkXkXhXNXNXNXMXZXMXZXZXZXfXfXfXfXjXjXNXMXSXAXZXAXMXNXNXMXAXBXMX",
"c z c G B Z ] C < u u J | ^ | C y j 4 i I N A <.| C t y P ..i q u j z z y c z x b j w f 8 8 5 3 3 1 y z ' + P.LXAXSXSXBXFXAXyX1XyXdXyXhXhXtX,XI.P._.I.+XS.$.u.z.l.l.y.I [ o.B #.p.O.a. .a.XX.X^.Q._.>X,X_.3X4X(.>XsXVXBXcXmXBXSXVXMXsXNXgX8X1XI.h.u.+.T b b b x 3 : % ; 3 3 3 % g 5 3 5 3 : 6 f : w 0 w : w w ; 3 f w g g 3 1 = b b 4 e n a X.I I U p < a O.t.$.S.L.k.2.a.P.^.S.X.2.y.$.I K ' b k K e q +.+.a I 1. . .A C 1.q.g.C.C.<.,.q.w.Z.E.w.q.d.E.E.Z.E.eX}.2X0XC.D.XXeX X^.eX2X3XtXuXtXwXtXaX4X~.2XXX~.}.J.OXOX XXXuXfX2XqXkXfXkXfXlXAXNXCX(.hXNX/._.wX>XP.I.4X1XtX6XVXAXDXVXJXKXLXcXyXGXi.C ) J q v W t J y.o.X.X.T H H H q G K K i u a X.o.P P O.5.[ i L ) T G $.$.C Z f./ Z s.F.( { Q.Q.).^./.Q.1.[ G.t..X4X<X,X,X1X1X1X6XrX6X1X,X6XyXrX,X1X>XI.Q._.K.XX5X<X<X<X Xs.s.k.a.o.r r o.o.P C i.^./.Q.S.s.i.O.B J $.h.G..XfXZXFXDXNXNXvX7XsXcXcXvXvXNXAXAXNXVXCXaXtXfXNXCXfXfXfXjXNXZXCXMXZXAXZXNXNXhXfXfXhXlXNXNXMXAXAXZXZXMXMXBXBXAXAXAX",
"j c j v U B ] ] t c k J C ^ ;.] F y 4 y J B Z ,.| / u y B [ G q c c z z c c z x z z k f j j j 5 3 2 u G K < ' LXKXSXFXSXvXJXKXsX8XcXcXrX6XyXyXrX:X,XI.z.y.l.k.P.X.y.X.O.3.#.@.3.k.[ !.h.5.L.L./.<X(._.Q.P.>X>XQ.>XdXVXbXbXBXbXbXnXNX6X7XvXtX6X:Xh.S.2.W K j x l 3 > ; : 8 3 3 > f w 3 3 k g 3 3 ; 3 3 w ; 0 3 # 3 j j j j 5 2 1 b u b g e n v ) J p ) t.P I +.W $.h.G.s.2.p.a.O.[ u.h.y.I b Y k j K v i ) J G ) O.2.1.C 1.5.| 1.d.g.,.4.g.g.C.J.|.d.,.D.E.V.d.qX0X|.W.F.!.g.$Xf.A.wXaXaXwX4XwXaX3XtXtXXXXXD.V.E.|.2X0XuXqXeXeXfX2X0XwXwX2XtXNXMXNX4XsXhXwX^.>X<Xy.h.aX4XtX).AXNXNXCXJXKXLXSXcXKXS.] L i.7 J r.4 c r._ G J K K v i 4 H q u n m _ u I G B ..p.O.t u i v u v X.J r 1.3.Z 1.~.Q.Z 3.^.P.i.S..XL.O.] 1.p.).aXwX>X3X6XrX4X3X3X6X,X3X6X6X1X,X>X,X.XL.L.!.L.F.S.S./.4X<X<X>X1X1X).>X_.y.$.3.{ B [ { [ [ ] ( { Z Z ] 5.F.s._.wXaXNXCXtX1XrXdXvXNXNXNXVXVXAXNXgXhXNXNXZXCXlXhXhXjXNXMXZXAXAXAXNXjXjXhXhXlXhXNXMXnXMXAXAXZXMXAXSXMXBXAXAX",
"k c t G G i L P z y v G Z | <.} U y 1 4 z J R | | ] z z B ] P t u y c y z x F H y z k w 6 j g = = y c H i q q vXLXFXBXNXgXNXSXJXJXSXMXgX1X:X>XcXgX:XP.P.).,Xl.y.$.y.h.f.s.G.2.s.a.$.S.S.h.a.k.2XwX/.P.P.>X>XI.;X>XrXyXrXcXVXMXbXgXSXyXrXVXtX3X:XP.P.+.U T w l k g h h h 3 ; > g 5 3 ; # 3 g 5 # 6 3 3 h : 3 3 ; 3 l f f g 5 w w c n w g e 2 v v _ i _ l.u.L G X.[ a.Q.F.h.s.j.3.[ O.[ +.K - ; f T q < a G [ 2.B s  .,.] 1.p.,.! | ,.,.p.D.g.8.4.^.E.g.D.J.d.S !.0XwXOX|.J.A C.6.G.fXkXwX2XtXwX2X3XtXfX2XXXZ.D.|.kX2XXX0X#X}.!.#XwX5XuXXX.XlXCXGXtXwXlX4X5X/.Q.>Xk.P.2X4X).P.NXVXjXZXKXPXJXSXdXAXwX5.9 a.t ` y.- 4 b t a J K t q q u ' q u K K e e v ` U O. .O.P q u i z v I P B Z ^.3.r k.^.!.C ( y.P./.P..X>X3.( 3.3.G.4X3XtXsX4X3X3XtX3X,X3X1X).P.>X<X/. X X!.F.s.t.k.>XQ.3XfXwX1X_.>X3XwX>X<X1X>XQ.L. X/.f.5.{ 5.p.C d  .1.Z C  .!.^.L.<XhXCXhXhXhXNXFXNXvXNXVXVXNXsXVXVXNXZXDXNXlXNXZXCXNXvXMXZXNXjXjXlXkXlXjXNXZXMXnXZXZXZXbXSXSXNXMXBXBX",
"4 T [ P p t i v G X.i < B } ;.} B q 1 j v G } :.! P t t V A  .C a z y c z z J a i v z 5 5 l g 5 g w y H y i 9 >XLXJXMXyXyXsXNXAXJXJXBXcXcXrX1X8X1X>X(.:X_.' +.P.>X4X_._.Q.3.Q.s.y.Q.,X(.(.k.h.<X,XF.I.3X3X:X(.1X1X(.9XyXrXBXMXcXBXVXBXrX7XyX(.(.(.y.X.K T b b l l l h : 3 h g h 3 : : 6 * ; 5 ; : 8 3 3 3 ; ; h : * 3 w 2 2 w m e n w 2 Y b 9 v ) [ O.y.2.3.O.P t.G.h.t.t.i.s.s.f.!.2.9 z w + 3 w v K K J B [ #.f.] ..d.6.@.4.| / 4.| 4.8.:.d.^.J.E.#X}.~.C.| C.|.}.XX|.OXg.D.XX2XfXwX2XfXwXfXwX4XwX2XXXq.w.}.0XeX0X}.}.2X|.OX~.0X<XwXfXaXCXZXKX/.F.GXjX X^..X!.f. X2XaXP.>XgXvXVXNXJXKXKXSXbXgXjX/.< h.r.c l.< q v K < i _ ` 9 e m k 2 b c x T u k H J a J _ _ K 0 u b I ` I +.J o._.i.N p.L.>X3.{ ^.3X(.>X3X2X!.1.5.p.t.3XgX6X>X3X1X>XtXtX>XP.P._.Q./.^.Q./.^.L.+X/././././.G.s.!.F.L.G.G.L.K. X~.s.s.<XwXwXuXkXlXkXXXp.t.t.[ C @.@. .p. XwX2XuXFXVX>X1XMXSXBXMXAXNXNXhXVXNXVXVXAXAXAXCXVXNXjXZXMXlXjXhXjXlXlXjXNXMXZXAXMXAXZXSXAXAXAXAXAXAX",
"1 F [ P t i v v i [ G i P :.4.,.( u < w z i R :. .V 7 F } :.:.D a i y z v z H G J K v y k b g 2 j y z H y 4 7 k.KXSXBXMXvXgXvXNXbXnXdXrXrX1X,X8X,X:X_.P.z.,X7X(.,X>X.XQ.l.S./.(.).>X,X).,X/.t.u.L.>X.X>X>X;X(.>X>X:X3X9X8XbXSXbXvXBXcXyXcXrX8X1XI.P.y.G ' b w 5 f h 8 % 8 g > # ; 3 ; # * * 3 # ; 3 3 3 3 3 ; ; ; 3 k 0 ; 3 2 w 1 e w w b T u e I I I P ( #.a.k.2.[ 2.y.O.2.3.9.9.F.S.X.i Y Y l c K J J o.{ { ( 1.p.4.,.,.4.9.q.g.q.V.,.| d.Z.V.,.<.D.J.XXE.4.C.}.D.D.~.uX#XOXE.XXwXwXfXwX5XwX<X X2X$X}.w.d.D.!.}.D.V.E.OX0XeX X0XwXOXfXCXjXsXKXQ.Q.fXjXwX$X.XOXf. X X<XS.).yXhXNXvXSXSXKXJXSXdXhX>X< h.+.- $.J u K e < v u _ e : g 3 2 b j z T b k z u v ` K i K v e i v v v ` i a #./.f.N a..X4Xk.2.(.tX1X:XrXfX/.] 5.S.t.l.>XwXaX1X>X2X)..XL._.G.s.G.Q.F.^.^. X.X_.L.a.$.i.Q.OXXX^.}.G.f.g.[ p.p.] s p.s.p.K.XXuXZXDXhXuXfXhXaX.Xf.p. .} C.!.L.2XNXNX8X1XrXKXFXcXgXAXvXNXAXMXSXFXAXNXNXCXAXFXZXMXNXjXhXjXjXhXCXVXVXMXAXMXAXAXSXAXAXAXAXMXMX",
"5 y G I i G v y t U I C C | <.~  .H 4 4 v B ] :.:.N t G  .,.<.Z s i y x x c v G J G z y c k w 1 i v G W t p i I FXJXMXJXMXcXvXcXrXsXgXsX1X1X8X8X7X3X_.(.3X8X1X6X6X>X>XP.P.h._.>X).,X3XL.K.a.[ s.K..X>X>X;X_.h.>XI.I.:X>X8XyXSXcXcXnXVXcXcX7XrXrXI.h.$.y.X.K k * : 8 f 6 h h & # # : # # ; + % . O % % ; 3 3 : 3 : 0 g 3 3 0 : = w g w w j b w 2 e u u p a ) 2.i.y.O.#.o.t.3.3.s.d.1.t.a.I z ' ' v X._ a ) o.1.1.] 4.,.:.q.g.q.d.q.w.q.4.q.w.q.<.q.8.w.Z.}.Z.q.q.J.D.E.|.wX0X5XJ.^.fXkXkXqXwXwXXXW.OXXX|.V.8.w.}.E.E.}.|.|.2XiX2XwX!.p.wXlXNXhXFX3X3XwXaX<XXX!.XXV.~.~./.h.).rXrXgXvXbXVXJXJXFXsXvX>Xs .XT @ y.G u b e i K v ` u @ : ; 3 j j k b u c v v K K i q ' K i v K 4 q T X.p ( 9.d.1.r 5.).4Xa.P (.gXrX1X4XtX/.{ P Q.G.o.h.~.wX<X>X/.L.XXL.G.s.s.k.k.A.k.] 2.S.!.Q._.).2X>X^.G.Q.S.h.L.S.G.s.2.$.i.a.h.L.i.t.a.S.>XuXjXkXDXNXhXfX2XL.a.[ >.[ I.hXNXrX6XyXVXKXSXMXcXBXSXFXJXFXAXMXNXVXFXGXAXAXNXjXjXjXjXjXZXVXVXMXAXBXAXAXSXAXBXAXBXMXMX",
"x 4 q H P J i 4 q U [ ] ] | ;.S s i y y v B ! ~ } B t z V } <.| s i i x z y c z G G i y u l y e i G E X.t i U r 6XKXMXFXBXNXAXAXSXFXAXyX1X6XyX8X3XrXdXcXsX3X3XvX6X4X,X(.(.l.3X_.S.2XS.t.s.X.t./.F.s.Q..X).P.O.>X(.S.S.8XyXcXVXcXMXBXBXcXyXbX8X>XI.r.X.l.X.T T $ 5 j f 3 g f > 3 # . O : ; O +   # + O ; 3 > ; 3 : : : 3 w w 6 : g g 3 w g g w k n v v i a v a U [ 2.C s { {  .(  .1.5.2.I J z u K ` J a p P  .O.! ! ,.4.g.d.V.Z.q.9.Z.E.w.q.Z.D.V.w.q.V.J.q.w.d.V.E.$X|.W.W.}.F.~.0XOX2XqXwXwX2X X#X}.^.D.q.w.|.OXOX0X2X|. X2X2X2XZ 1.uXtXNXNXAX4XhXuXhXf.C.f.!.V.^..X~.s.>XsX6XsXbXMXbXSXJXJXdXhXtX[ .XK + y.$.w 1 w e e v ' v = 0 0 b 3 y k j w e z T ' K z u i _ K z k v j 4 K B { @.] 5.1.d #.Q.>X>Xa.l.(.4X_.aX.XL.s.#.s.Q.5.6.6.C. X X X^.p.p.s.k.k.k.6.Z C ] p.f.Q.<X1X<X).).<XwX2X).<X4X3X3X6XhXjXjXhXtX3X>XS.a.p.K.I..X>XwXtXuXhXNXvX3XL.K.2.3.P.tXNXjXtXgXAXLXSXMXSXSXSXJXFXAXAXVXVXFXFXFXAXNXhXfXkXNXCXMXMXMXAXBXBXAXAXBXMXMXMXMXMX",
"v q 4 y J I v y p B R | | ~ ~ ! r i K z t p ] :.} ] G t p A | | V L z z j j x H z G i i u u z H a B R E t 9 P 9 h.LXVXcXcXbXbXbXbXMXBXvXcXgX;X:XrXsXMXcX8X6X7X6X6X6X>XaXP.;XrX).h.!.6.h.L.+.L +.h.2._.<X/.Q.t.k.S.y.h.bXcXdXcXbXcXVXcXMXMXbXdX:Xz.h.y.y.I G z 6 H j 5 j f > > & % . O % # O . O . . O % 3 3 ; % ; : : 0 3 * * 3 3 w 0 w k g = 0 Y K v i b v v i X.{ { ( P 1.s.s C s.s.O.$.$.G i J G o.+.C B ..6.5.5.q.1.,.,.9.q.V.V.#XD.w.}.V.w.V.Z.Z.Z.J.w.C.w.V.J.OXOXF.C.W.J.}.eX#X^.2X#X2X#X^.E.J.D.d.C.^.0X^.|.2XOXOX|.}.|.}.1. XkXtXjXrXFX<XsXhXlX6.q.g.g.g.F.2XS.3.>X1X>X3XgXBXMXSXKXKXdXNXyXB a.K < O.$.1 1 q 2 4 u v e : 3 0 b j l l j g w l T T b K ' u u J u e b e q q X.P 1.p.1.1./ r P y._.>Xh.O.S.4XtX4X1X).G.] 9. XF.6.]  .,.s.j.F.k.k.f.t.O.{ 1.p.9.f.L./.3XtXyXjXtX3XrXtX,X>X3X3XrX7X8XrX7X6XdXcXcXVXAXyX>X.X>XQ.Q.(.>X4XsXgXsXhXlXuXF.O.t. XwXsX6X6XMXFXKXSXmXPXJXJXPXSXVXAXFXFXFXFXAXNXjXhXvXNXVXMXVXAXFXSXAXSXAXMXAXAXBXBX",
"i v b 4 q v H F G N Z :.:.! ~ } R R U i t L  .,.] [ J i N R } ..} ..G c 4 5 y i i z i J v u z K U P [ P t s ] d P DXKXgXdXmXvXgXsXdXsX6XgX3X(.rXgXdXrXrXgXgXrXrXsX;X,XsX,X6X1X(.A.f.A.L.h.+.t K ` I L.2X.Xg.t.y.+.W (.VXyXrXdXMXbXvXVXdXcXrX8XI.h.z.P.h.X.t 4 4 x j 5 l 8 & % ; % > + . . . O #   O O O % 3 3 % ; 3 ; ; : * # # 6 0 3 : g w @ X w u u u b H v G o.( o.#.#.s.p.P P $.o.J X.I i G J J ) o.P s r Z p.g.q.A.E.d.4.,.4.W.|.8.Z.#XD.q.w.V.J.|.OXE.D.8.|.J.~.#X!.D.E.~.|.OX2X0XuX}.|.#XV.V.Z.d.~ C.|.}.J.E.OX2X|.XX^.^.~.|.wXjXtXjXtXNX,XfXjX4X5.5.5.6.>.K.<Xp.t.>X,X3X1XrXvXBXSXKXJXsXvX4X3._.t @ $.$.1 l = j b 0 u 2 = 0 3 0 k k 3 w w k j l j q k T K < u v u e e b ' i J O.p.5.]  .] B P 3.S.2X>Xh.u.S.3XsX<X<X2Xj.C ] j.f.p. ./ ] 1.{ ( C P 3.^.2XF.~.XX<X.X<X>X_.3X4X3X,X4XtX6X1X4X8X1X>X>X3XrXvXcXcXvXcXVXVXNXuX1X<X>X>X<X3X3X>X4XaXjXCXjXXXf.p.<XwX<X;XrXKXKXSXPXSXSXJXKXJXSXMXFXSXFXFXFXZXvXvXVXVXMXMXMXAXSXAXAXAXAXAXAXAXAX",
"L G K 4 = w j y P } } ;.:.} | :.} R L t i L ] ] [ U v b G R ] } :.:.P u 2 5 y i z G v I _ v v K P R  .R s [ ../ r ).LXSXbXSXSXvXdXcXcXyX8X,X3XbX6X3XrXsXrXgXgXdX6X1X3X3XtXsX,Xk.^.S.p.a.X.c z Y e p y.!.Q. .t.2.G X.yXVXgXdXrXsXMXcXVXdXcXgX>XP.y.y.I.k.U x c T 5 c l m g > & > & 6 # . . . O % # # O   O & ; # * : * * h 0 : * ; ; : ; 0 0 : : 0 u v k v z z i ) [ O.#.3.9.#.( X.X.J G I I I I ` u p U O. .Z D C.g.,.p.J.C.d.4.q.C.q.4.w.^.eXeX!.D.Z.C.E.J.^.^.OXC.g.J.C.D.|.qX!. X2X2XOX#XOXJ.Z.Z.V.<.,.D.~.E.#XXX#X2XOX#X|.!.!.OXwXfXfXCXjXaX/.fXlX~.6.6.6.O...t. Xs.k.2X3XtX3X7XvXbXVXSXAX7XAXrX#.<Xu.$ +.$.4 x $ k b = e e 3 g l 0 g h 0 3 f k w w w e e e K K b v q i v v K W G B 5.5.] 5.a.[ s P O.i.S..X.X2.s.3X1XF.p.!.p.#.Z ] i.t.p...Z B d d ] 1.A.G.A.}.2X2X>X3X3X.XP.<XtX1X.X3XwX3X>X>X3XaX1X3X3X,X).3X3X,X6XhXgXsXgXsXrX4XtXsXrX3X>X).(.<XjXZXfX>XF.A..X<X>XrXSXLXLXPXSXSXKXKXSXAXAXAXAXFXJXFXAXMXVXBXMXMXMXAXSXAXAXAXAXAXSXAXAX",
"[ p J e w h 5 2 i  .| S S } | !  .C L B G B B O.[ i y K L R ! ! ^ | V t 4 c U U G N i U I v y u B R :.R N 1.|  .7 U JXKXBXBXBXbXdXbXBXcX1X7XMXrX7X7XgXcXdXsXdXyX6XtX:X1X>X>X4X_.S.G.3.y.K t y y q J y.5.~.F.i.[ $ W VXyXrXgXtX,X3XcXgXgXdXdX1XI.y.y._.y.H T H H c T H x l & , % & # % % O O O % # .   O # O # ; : 3 ; 3 g 0 : * 3 ; 0 g 3 : 0 g 0 u v k y i G I X.[ P #.{ { $.p i G v J v i J ' I i I P [ 1.1.] 4.D.d.4.4.C.E.g.d.D.w.J.|.E.Z.E.}.J.E.!.E.C.D.}.D.C.D.}.D.F.^.|.OXeX0X|.V.}.E.E.J.|.D.q.C.E.!.0X#XOX|.}.^.OXOX|.!.XXwX5XwXjXNXjX.XlXlXi. .1.1. .B [ ~.p.G.<X3X1X8X7XbXcXMXSXFXrXJX6Xr /._.< O.X.- 1 4 b l 4 3 w * = b 0 = : k w ; m x j w w l b w b b k u v J i z z u L O.2. .( t.h.o.( s s O.s.>X2XS.3.i.k.t.O.h.O.O.P B r a ] t.k.G.F.5.C P ] ] 5.G.F.G.L. X~.G.a.S.L.G.h.t.p.Q.h.G./.(.)..X^./.>X.X>X3X3X1X4XvXdXdXgXgXrXyXgXrX4X3X3X_.k.>XfXfX!.A.^.3X1X<XvXLXKXJXSXSXSXFXFXAXAXAXMXAXKXKXFXMXMXVXAXAXFXSXAXAXMXAXSXSXAXBX",
"I y u n w h w ; 4 U } ;.~ S ~ !  .B C P L B B ] L p i P } } | C ! ] C t 7 t V ....P L I G t t G G P ..;.,.:.,...i . 1XLXPXBXSXAXnXvXbXcXdXrX7XyXbXgXdXrXsX8XrXbXyX3X3XyX4X,X>XI.k.s.s.S.u.X.+.G i h.3.2.p.h.X.v < y.VX8X8XyX2X+X,XrXdXhXyX1X(.S.h.y.h.y.+.W W i W T T z f f & % & 6 & O , & & % # # . . . O & 6 > 3 l l 6 ; = = f 3 3 3 3 3 ; 0 w w k b 4 4 z I ` a s ) ( J J ) J i a ) _ v n v v L P P ]  .] ,.4.g.4.4.g.C.C.C.g.d.J.E.E.J.J.D.q.8.E.~.C.4.E.^.E.E.$X|.V.V.J.C.E.0XOXZ.D.E.Z.V.Z.OXOXC.8.g.D.E.|.|.}.}.E.!.}.|.^.OXXXf.L.wXjXjX>XZX2XP 1. .]  .i U k.p.k.>X>X>X1X1XyXVXVXSXMXsXLXrXs wXS.B $.v e z 4 j u w ; w : : h g l 0 3 ; ; l l ; 3 b x w w 5 v K v K v e k 3 b v a L [ B I 2.a. .C Z B U E 2.g.t.] P E P G G X.[ P C { s.1.1.s.5.g.f.1. .5.5.R Z ! .. .! ] p.F.s.F.F.p.1.f.a.t.t.F.F.!. XXX>X2XtX<X1X3X4XtXtXsXsXgXsXrXrX7XyXsXhXtX3XQ.s. XqX2XA.d. X5X2XtXJXLXJXbXbXKXKXFXSXMXnXvXZXGXFXFXMXvXMXAXAXSXSXAXAXAXAXAXAXAX",
"G y c b g 0 3 : 6 u ] 6.,.S ! ,.C s C  .[ P B P [ B G E } ;.| A ! { ] N i N A :.A P P P I i t y F R  .;.8.;.} [ z   n LXBXKXSXSXbXbXbXcX7X7XdXmXdXgXrXgXgX1X7XdXyX7X3XhXtX(.(..X/.k.k.i.y.h.y.G y.t.O.2.2.y.K H H :XJXrXdXyX,X<X(.3XhXtXrX3X).h.h.h.h.u.l.X.X.U x H K z j l 6 # 6 6 & O O % > > ; % . O . O & > % : 3 ; ; 3 : ; * ; ; * ; w 3 3 w w w l y w v J I J G J J J I ) +.I _ X._ K v v B ( ..R ,.6.4.8.4.p.d.d.g.4.4.C.g.E.J.g.D.J.}.OXJ.!.}.D.V.8.^.^.~.XX}.C.d.V.Z.J.J.OX|.D.Z.E.~.d.Z.E.}.J.C.g.C.E.|.}.OX#X}.E.E.2XeXOXZ.1.S.3XNXjXtXlXh.( s. .( O.G i #.1.s. X_.Q.1XyXgXVXBXVXgXrXLXrXo.kXF.J v e v H 1 c j 2 * : 0 3 3 : 0 3 3 : w l j 6 f x w = j 2 q u z b b b g g b n z v X.) p a $.{ O.s.B U [ >.t.f.A.a.a.a.W v a J h.p.1.p.W.s.p.3.g.f.1.R 6.1. .1.5.4.@.4...} 1.P [ 1.1.1.h.F.+X2X<X X~.Q.!.Q.!.~.).2X3X>X<X6XtXtXtXtXtXtXNXcXdXgXdXfXfXuX>XXXXXW.5.! q.2X2X4XVXKXFXJXJXJXFXFXFXAXNXgXjXCXGXGXSXAXAXAXAXSXAXAXAXAXAXSXAX",
"I z y w 3 : 3 : 6 4 B >.:.A ! 4.C d C [ O.] B B ..C L I R } ;.A C  .] B P R A :.] P B i F i y y t L A / w.:.A P y * . 1XLXBXJXAXAXBXBXcX1X1XsXdXgXsXdXgX:X;XyXrXdX,X,XsX1XP.Q.,XP.t.h.a.y.u.+.+.I I O.u.>.+.z z i 3XVX6XyX6X>X<X(.tXsXhXtX4X).h.I.h.P.h.y.X.U U H F G x y f 1 & 8 6 & O O % > > > & # # # + % &   # 3 ; # * ; 3 * 6 6 # ; g w ; 0 w 3 w w 2 u z q J ` _ a I ` _ v a v K K K b K P { ] ] ! ,.w.D.D.d.d.4.A.D.d.4.D.J.C.p.D.A.D.!.}.XXOXOXE.4.g.C.D.~.D.V.W.E.~.E.}.E.b.Z.E.}.XX}.E.D.J.E.<.,.D.|.^.}.#X#X#XE.E.#X0X}.J.J.>XuXNXhXuXuXP ( p.#.) I z G C { j.Q.s.l.>XyXyXMXVXAXrX8XLX,Xh.hX1.#.+.e K y @ y j 4 * o 3 3 g w 0 0 w w w k g 3 3 k w 0 0 q 0 q j w w k k l w = j b K W 4 i G $.t.Q.3.B 1.2.....O.1.t.S.I.2.O.] P 1.k.1.p.G. X~.G.A.p.p.2.>...] >...]  .R [ 3.O.P P P 6.5.2.1.1.t.g.G.L.Q.Q.G.s.k./.3XwX,X>X,X3X4XtXrX7XgXcXdXcXdXgXgXjXVXtX4X<XF.C D q.XX^.<XFXJXBXJXbXAXFXFXFXMXsXdXvXnXAXSXAXAXAXAXAXSXSXAXAXAXSXSX",
"U G w 3 3 ; 3 3 ; ; i I E } S ~ | D N P [ ] i p ] V B B A } ;.] C ] B Z  .] A } R G i F G y y j 5 U A ! b.8.A L 2 5 @ 3 JXSXSXSXSXAXBXmX7X7XcXdXrXgXdX,X:XyXsXgX6X(.,X).h.)..X).i.3.t.( P 2.+.+.i X.y.y.[ +.I I + 3XSXyXcXyX,X>X4XtXtXsXtX3X).h.P.u.h.l.+.u.I G U z U X.U 4 1 6 8 6 & % # & & % & % # # # # % % o # 3 : O   * 3 3 3 6 * * 3 3 6 : 0 3 3 * + < u u H K z i T ' I v a a v v v K ' ) ( { 6.8.| :.4.4.4.C.q.d.D.D.q.8.8.C.J.^.G.D.D.^.D.J.|.E.4.w.J.J.J.Z.E.W.J.}.E.#X}.Z.'.#X#XE.W.}.V.D.|.J.C.^.|.OX0X0X}.}.}.#X|.J.|.2XOX X<XsXhXaX1XL O.O.[ J z y G s ] f.Q.k.k.).3X>XrXbXBXrX7XLX;X1XwXC i.h.u X.< = x j 1 *   * : g e 3 3 0 0 1 g g 3 3 g g j = n v l b j w w l x 5 ; k b y 4 K W i ` U a.L.s.5.[ ..1.[ B r B 3.i.t.t.s.5.3.( ( #.p.3. .p.h.^.I.XX2X XF.A.s.>.5.s.S./..X.X/.~.F.^.~.^.L.S.S.L.k.s.s.G.h.i.k.<X4X3X3X4XrXsXsXrX3X7X7XrXrXvXgXcXgXvXNXjXhX2Xf.] ,.^.2X5XjXFXMXMXSXJXJXFXFXNXgXsXrXdXbXFXSXSXSXBXAXAXSXAXAXAXSX",
"L G y 1 3 3 0 ; ; : u u i E ] ! <.A t 4 v U B R :.! B B V S ,.| P C s Z ,.| C A L F i G x w 5 z j I R S 8.<...B 2 5 4 . z.LXSXVXSXFXMXbXMXmXdXcXdXbXdX3XrXMX6X).k._.>Xk.h.3X3X>XL.).S.O.[ O.X.N G r.X.G F X.+.W U 6XBXdXyXrX(.I.>X>XaX2XuX).>XP.h.h.y.h.a.u.I z y.U [ +.U q = & 1 # 8 6 & > & % # # % & # # # & 3 . # > + O 3 3 6 ; * * * * 3 3 3 g 3 0 w ; 6 2 c v v u u v b i u v v v i K _ K G P B ] 1.] :.d.,.Z q.q.d.w.C.F.q.g.!.~.D.C.J.D.C.q.4.V.V.w.D.E.E.Z.d.E.J.J.E.E.J.#X0X0X#XE.}.|.}.}.D.D.|.|.E.|.}.XXqXD.Z.}.|.8.D d.}.^. XwXNXsXwXQ.[ [ i K v H H i L O.( s.!.y._.>XP.,XdXNX3XMXnX;XaX.Xy.h.y.q o.@ w l = ; * o 0 6 : 3 : w w ; g 3 3 3 w g k w j ' Y v b j 2 = f l g 5 l x k k r.H G 7 < a i. Xt.2.O.{ t.S.s.3.P s.i.3.G.i.p.k.t.S.^.^.Q. X/.^./..X/.I.h.S..X/.+X>XL./..X.X>X/.S.f.^.2X>X4XtXtX>X3X4XwX4X).k.h.h.(.tXtX>X,X3X4X6XrX6XrX6XyXsXdXgXMXFXNXlXDXCXuXK.] 5.F..XhXFXAXAXSXJXKXFXAXvXyXdXrXdXFXPXAXbXAXSXSXBXBXBXBXAX",
"[ J y 3 3 3 3 ; 0 3 w w 4 z [  .8.:.B 9 i J J  .,.} B P R } 4.,.C B N ! ,.~ ! [ G G G i v c y w 5 v A ! 8.:.] i 2 5 b w $ >XLXVXSXSXbXvXAXvXdXyXbXdXyXdX7XrXrXz.y.,X_.S._..XQ.L.).2XQ.t.O.X.+.U G +.u 4 z G [ y.>XvXBXcXyXrX:X_./.(.uX3XtX).I.P.a.u.a.h.+.+.G I U i +.O.N t 5 j & # 8 3 & > # O . O % % # # # & > % ; 6 # + #   # * ; ; * * ; # 3 : * ; f w 3 1 2 w c b w c j e b b b v v _ X.[ r [ [ C R ] 8.J.,.| V.V.g.,.q.D.D.V.d.V.C.q.C.V.Z.q.4.D.Z.w.w.<.d.w.4.q.Z.E.E.V.}.|.}.|.}.E.OX}.^.|.E.D.|.XXJ.V.^.XXeX}.}.OXZ.<.d.V.Z.E.2XwXhXtXXXp...B t H z x H i L ..] 9.k.{ i._.(.1XrXrX1XFX3X).hXP.t.a.y.t i.- y f ; : ; # 0 : ; : 3 h g 0 l : * 3 f 3 w g Y v e w w w 5 2 2 3 3 l g g w x T ' I U O.p C t.Q.XX/.y.t.S.k.S.2.i.y.h.Q._..XS.f.L.^.G.a.h.S.L.g.t.s.Q.K.a.).>X<XwX>XwXwX>X>X2X X!.F.Q.!._.>X3X).3X1X>XtXhXwX).S.I.>X3X3X1X3X4XtX4X3XrXrXrXrXdXdXhXNXNXvXNXMXZXKX<XP ] F.2XhXFXSXBXAXSXFXFXVXjXgXsXdXZXFXAXSXAXAXSXAXBXBXBXSX",
"O.B y 2 6 > > 3 ; : w k j y G B ..,...Z B G i P ,.~ P ) R ~ 4.6.] s Z ..^ / R E i G H J I v w 1 2 y C <.8.| ] i 5 5 z y @ 2 bXKXSXBXMXbXBXbXnXcXsXmXdXyX8X,X3X;XQ.L.2.>XwXh.2._.t.h.i.) [ t.y.i G K y j H i X._.).tXbXbXcXyX>X).,X.X/.<X>X>XP.l.h.h.P.y.i G W +.i p 3.p.R G 5 8 5 & 8 3 % > % # + # % # # % % % % % # 6 > # # . ; ; ; : : : ; . ; = # ; 3 f 3 6 3 1 1 w j w g k _ k q q y J X.[ [ O.O.R ] | 8.d.q.,.g.W.E.W.C.4.D.d.8.d.Z.d.V.4.d.q.4.V.Z.w.d.w.8.w.w.w.D.E.|.|.D.V.Z.E.|.|.#XOX}.E.D.D.}.#X|.V.OX#X0XE.}.}.D.D.J.J.E.OX2X2XuXwX^.A 2.) ) y $ l b t i P 1.p.p.#.o.k.;X>X4X,X_.FX4X4XNXs.$.i.2.J Q.< 5 5 5 3 : * = = ; 3 ; : 0 w k 3 ; 3 6 ; g b b w 1 2 w v v z 2 2 3 l g w = 1 u +.[ a.^.s.O.a #.k..X>X).S.t.Q.3XQ.y.i.).>XL.J O.y.s.t.t.y.s.S.h.k.L./.L.S.<XhX<X1X<X,X3X.X).3X1X2X2X.X_.G.G.).wX1X).>X3X>X).3XaX>XP.(.4XtX3X1X4X4X3XtXtXrXhXMXjXyXhXCXZXNXvXbXgXFXFXF.C 4.~.jXZXAXSXSXFXFXFXAXMXjXgXvXBXSXSXAXAXAXSXAXBXSXSX",
"P p y f 3 > : f : 6 0 l w 5 y 7 r  .4.| } B 7 t | ! C ( V S :.,. .N N | | Z C L U G G G I v y w 1 y ] w.w.D B i y l j j j + b KXJXMXSXSXnXbXbXcXcXcXbXrX3X7XyX,X.XS.3.Q.)._.L.P.O.s ) J B ) J U K j w y x 7 X.3XP.rXSXVXcX3XP.I.K.+XG..X>X(.>Xy.P.>XI.2.G i +.G +.i 3.g.>.X.y 5 H 8 l 8 & > ; > % % % O # & % # ; % . ; 8 % ; f 3 # . @ # : g 0 O # : : : 3 6 3 * : w l w 3 g m m e 2 w v K _ J ) ] t.5...,.8.q.D.g.C.E.C.D.D.q.,.C.D.C.d.D.E.q.q.d.d.d.V.:.4.q.Z.w.9.D.E.V.d.|.|.}.2X}.E.XXZ.}.2X}.D.V.Z.|.#X#X|.OXOXXXW.W.|.w.V.^.J.G. X5XaX<Xg.R s.L +.H 5 T Y 4 7 G [ #.2.) i.h.k.l.;X>XQ.FXrXhXZXk.i.$.J 2.h.@ $ 5 ; 3 w 0 w 0 0 g = = 3 g w g g w 6 3 k k w w k w 2 w c w w x k w 3 l j y t v O.3.s.<XS.t.i.s.).,X1X,X_.Q.k.u.l.(.1XP.$.X.h.t.t.O.$.o.u.k.F.~./.~.Q..X<X<X.X.X)._.<X>XQ._..X.X.X<X<X).Q.k.).>X,X3X4X)._.,XtXtX,X_.(.,X3X<X>X5XwXwX4XaXhXNXjXjXNXNXMXFXFXMXFXcXAXGXwX@.d f.3XvXFXMXAXSXJXJXFXAXvXdXcXSXSXSXSXAXAXAXSXAXAX",
"H y 2 f 6 ; 6 3 * 6 y z H i 4 < p C ;.<.4.A t r } 6.#.P Z N A :.<.:.A } } ] r [ I p p U ) J z k 4 p :.b.7.~ V i y z j 6 j 5 1 H JXFXSXBXVXBXmXbXmXBXnXdX3XrX6X:X,XQ.k.s.t.).a./.Q.O.i B G U K Y Y : 3 k v i h.,X,XvXSXgXyXtX>XI.^.0X_.P.4X).1XP.k.S.h.u.+.W W G J [ [ >.5.5.t.P i c j 8 % % % % . . O + % ; ; # . ; ; + ; : : 3 ; @ o 3 * # 3 3 # # * 3 3 @ 3 3 0 3 6 3 h 0 3 h w 6 0 l ' Y k v i J 3.6. .4.g.W.d.q.D.Z.4.| 4.g.q.C.C.q.d.^.E.q.4.8.C.q.g.q.,.:.q.J.Z.H.|.E.V.Z.}.XX#X|.|.2XOXE.OX|.D.J.Z.D.|.2X^.}.XXD.V.w.b.D.|.J.Z.q.XXwX3XQ.s.O.[ G y z b T r.- - y J X.K u B Q.S.a _.P.>XvX>XsXhXk.Q.) < $.2.a - 1 6 3 3 ; ; ; : : * : 0 0 3 ; ; ; w l x 5 6 3 f k l w 5 5 w 3 1 ; w k n i v o.O.X.h.~.>X.X>X>X>X,XP.k.k.k.L +.z.P.3XP.y.l.P.h.h.t.2.2.h.Q._./.G._.1X2X2X>X_.P..X^.>X<X2X.XG.Q.h._.<X/.^.S.h.h.).>X/.)._.).<X>XtXaXQ.y.).wX.X5XaXuX3XtXhXhXNXVXAXMXNXZXAXFXJXJXMXNXGXhXS.] p.G.wXGXjXNXJXKXKXFXZXvXcXAXJXSXVXVXAXSXBXBXSX",
"i i w 5 8 3 = = 8 1 4 G +.U t t B P A A ! 1.,.Z ! } ( P [ ..} | <.w.} R ] [ B I L s B [ P K v z y V <.b.b.<.A i c 5 k j j z 4 $ ' LXFXMXbXBXSXBXbXmXmXmXyX3X1X3XwXi.s.>XS.t.s.<X$.[ J I +.K y w m l 1 j v k.>X4XtXAXJXrX3XdXyXwX3XwX+X_.>X).P.(.h.u.y.y.y.U G X.U i [  .5.K.V.p.G c w 1 + # O O # # # # O % > > = 3 ; . + ; * ; ; ; * 3 : o ; 0 : : ; = ; : h 3 3 h w : 0 f 3 # g : 3 l m w 6 w v o.[ ] ] C | Z.d.4.w.q.| 4.C.D.g.D.q.C.W.d.q.8.8.:.q.8.8.p.p.1.4.Z.E.Z.E.OXD.J.^.OX#XE.|.|.eX|.D.|.}.}.J.E.^.OXOX}.'.E.E.Z.q.E.D.}.D.C.$XOXXX.X$.J I z w u u v X.v z k a _ b y G y.t.O.i.#.<X,XQ.hX3Xk.Q.t - X.y.y.< $ f 6 . + 3 * ; ; 3 3 0 3 ; ; 3 3 2 3 w 2 w g l x l f 3 5 3 3 3 w j e u v v v X.y.a.L._.L.Q.Q.P.+.J X.y.$.y.P.>XQ.).h.h.(.y.h.P.a.o.[ a..X>XQ.s.Q.3X<X_..X.XL. X.X>X2X2X_.L._.Q.Q.Q.L.Q.G.S.k.h.P..X/._.>X>X).<X4XwX_.Q.^..X4XwXwXtXfXyXtXjXNXNXNXMXMXZXAXJXJXSXBXVXFXhX/.C.A :.XXhXNXAXKXKXSXSXAXbXMXSXSXSXSXSXSXSXSXSX",
"N P G z m f 3 0 ; 3 y H W z t i R R V N N ,.8.<.! V p i L [ ] S <.w.~ V V U i i I J P O.B G v u i L <.b.b.7.} B x 4 z j 1 z x w @ l.KXSXBXbXmXBXmXmXcXcXsX3X1XsXI.O.^.).f.G._.h.I O.) I ' z 1 w k Y b k +._.3X3XyXFXJXyXyXdXyXhX,X2X/.k.P.a.h.P.h.y.+.+.+.W G $.I u U O...5.^.K.I z 5 $ . O . . + + # # # ; > 3 = 3 ; + ; 0 3 ; ; : ; 3 h ; : h 3 0 * @ ; 3 0 3 3 : : ; 0 0 0 0 j 3 : w k f 6 w b X.G ( o.Z ] d.q.8.d.d.q.C.D.w.g.C.V.D.J.q.<.8.4.;.8.8.4.6. .N C ,.w.V.E.|.E.|.qXqX5X}.^.2XXX|.E.}.}.OXOXOXE.}.0X}.Z.E.|.J.q.Z.Z.w.d.#X2Xa.a.h.p u K u 4 e q k q c b w q v k c z I +.3.{ #..Xk.Q.jX/.S.).p t U t.k.+   m f + 3 3 * * : 3 3 0 0 @ * g k 5 6 3 w k l k k k g 5 w w g g g w e k K v < u y.u.h.h.t.t.$.$.t ) y.h.a.S.P._.(._.a.l.y.[ a.k.3.[ O.h._.,Xh.#.y._./.L.>X.XQ./.<X.X)./.L./.^._.P.s.k.L.G.h.S.k.S.L.Q./.<X.X/..X).3X4X<Xh.S.<X<X1XtXtXtXtXgXVXNXNXMXNXbXbXBXSXBXSXAXFXFXhX~.^.C.C >XuXlXVXKXSXSXJXbXvXNXNXSXSXSXSXSXSXSX",
"8.5.[ G z 8 w k : 6 5 c F u i I ..] L i N Z ;.w.,.] i i i P ] D 7.w.} } L L F z I L C ] R L J K B C <.b.0.7.:.P t 5 x z 5 j y y y + P.LXVXBXJXSXmXmXmXsX6XrX8X3XP.a.G.3.a..Xk.7 t.l.) v K y ; f 3 w y ' (.(.>X>XtXVXAXNXBXgX6XhX3X.X>Xs.I.P.h.h.(.P.y.I +.y.I I K v i O...} f.a.' x 1 . . . . . O O % # # # ; ; ; 3 ; ; 3 0 3 * ; ; * 3 0 0 6 6 ; ; * * 3 : * : 3 3 : 6 0 3 0 h ; 3 3 : 3 l w 1 k v u ) $.C { 1.4.8.d.C.C.C.Z.w.g.w.E.q.<.w.q.4.d.V.w.4.4.,.C B C ..w.E.E.~.OXOX|.}.OX5XE.XXD.XXOX}.Z.J.'.|.}.|.}.D.<.Z.D.E.D.V.V.V.}.XXf.[ +.i q z H e < e c H y z k 4 4 w w b x H I I ( #.t.t.G.aXL._.).< < 7 h.h.+ ; f : # 0 ; . o : ; : w f . * 3 w 2 1 w k l k g w g g j j k l j 2 2 j b v K u t I y.y.2.X.p t I I y.l.a.k.).P.P.).k.y.z.+.2.k.^.k.s.s.S.^.i.#.i.S.Q.>X(.P._.L.~.2X.X_.^.Q._._.L.u.O.t.k.h.t.k.k.i.#.1.F. XQ.S.P.s.S.>X2XL.~././.<X1X<XwXjXvXFXFXAXFXFXAXBXVXSXBXSXSXNXZXZX.X<X2X^.g.^.+XXXFXAXPXKXSXNXMXVXNXMXVXSXSXSXBX",
"7.<.| r 4 5 g k Y y 2 y i p L O. .C B i G V ^ ;.4.,.P N N V ! | 8.<.:...E F 7 F [ V V R O.L i B r } w.b.7.;.! P t y j y z x j w w 4 . ;XLXbXSXAXSXAXmXyX6XyX1X(.(..X2. .!.>X2.$.$.I p q y 2 f f j w v I.1X3X3XyXtXhXFXSXcXdXyXrXtX>X/.I.L.).S.h.I.I.y.X.h.P.L t i v i L t.>.d O.K 3 .   + # + + o # ; % o . # ; 3 : : 3 h 3 : * ; 3 g 3 3 3 ; * # * * = h 6 @ * ; 0 0 : : 0 3 : . 3 g w 6 w w 2 5 w y T I a [ ( :.,.4.8.;.4.Z.E.^.E.|.V.w.w.<.4.V.Z.V.8.:... .2.1.P q.E.D.D.}.|.|.E.}.5X#XD.^.OX|.|.E.}.V.b.E.}.}.E.w.D.V.Z.V.w.D. X^.] B I T q w Y u 4 y b Y c x j k w w 3 3 k z x z i ) ) s h.s.>XP.>XP.@ q J t.+.+ f 3 + ; g w @ o 3 3 0 0 3 # * ; ; = w n l w 5 3 3 w w w 5 l g w = w l w j k z c i X.X.+.+.p i G $.y.l.+.y.P.P.P.I.u.h.).h.t.2.3.s.S.i.i.S.k.h._.(.P.Q._.k.s.L.S.~.!.L.S.S.h.S.h.t.O.i.Q.p.3.i.p.G.F.5.2.Q.G.k.S.S.S.t.g.G.A.s.L.4XhXaXsXNXNXGXFXAXFXVXFXFXAXAXAXNXdXgXAXZXtX2XuXuX^.J.8.G.4XNXKXPXSXMXNXAXcXMXSXJXSXAXBX",
"7.<.,.Z 7 t y c U W H 4 t i P ] ] P L L p } <.^ ;.4. .C C C } ;.<.<.;.V p F t U X.R R >.] P i 9 N <.w.w.<.^ C B i y z x x Y b 4 w j # . 1XLXBXcXbXBXmXsXdX6X1X3X_.<XO.O.k.s.X.y.a u i v = * 3 3 w u y.).,X6XgXcXyXcXBXBXcXdXrXrX8X2XI.h.t.h.P.k.h.h.+.X.I.k.i F q p i [ 2.O.O.$.1 X O . . . . # + o # ; ; # # : ; ; 3 h g 3 ; ; 3 l w * 0 h = * 6 3 * ; f w : * = * ; 3 : 3 0 0 k w w w w w w x j x u J ) P [ ] ! | 4.<.Z | V.C.d.C.q.C.$XV.<.w.V.w.q.q.,.,. ...o.r ,.V.Z.OX#XXX^.2X^.!.2XXXE.}.OXOX}.}.w.w.}.J.OXOXW.|.W.Z.w.Z.G.a.[ t K u = ; 3 l w 2 q e y 1 w y j w 6 : 6 w 3 k K W I U I h.y.a.$.h.$.- n b l.X.$ 5 3 # : w 0 * * 0 0 3 3 : : : : ; 6 j b j w g j j 5 w j k j 0 0 3 k l w l c k z z z H U G I U I y.y.l.+.y.h.(.P.P.)._.P.P.k.a.i.$.s.S.h.y.i.h.P._.P.k.k.S.S.L.G./.^.h.a.k.h.i.s.G.2.2.L.3.g.t.f.!.Q.s.G.).G.G.~.!.G.t.s.f.p.k.a.f.<XjXNXtXNXVXVXFXKXFXFXAXFXFXNXsXyXdXcXvXAXhXtX/.0X!.8.q.5.4XFXSXPXSXNXNXNXVXSXJXSXSXSX",
"w.4.8.,.Z p B U p W I u p P } ] p G E ..D ~ <.%.%.;.<.,.,.<.<.<.<.8.,.A N G L [ R A R } ....L s A w.b.7.<.| C i U c c i 2 c z y c j l . . yXLXbXbXmXnXcXgX3X7XyX>X>Xs.s.h.a.h.y.J i K Y 6 3 h f k a a.Q.>XtXgXyXgXMXbXNXSXdX8XsX3X>X>Xy.t.k.P.S.P.h.+.I y.+.G +.X.U B W B G y.b .   . .   . + # + O . ; f 3 ; 3 : ; : h 3 ; # # 6 g 6 @ 3 g : * 3 3 = : 3 3 3 3 k 3 6 w f 3 0 l m j w w u k v K H ) I P 1.2. .,.,.,.4.4.4.4.w.q.q.V.q.W.eX^.V.C.E.V.4.w.4.4.,.R < r 1.<.b.0X0XD.D.eX0X}.OXeX^.|.}.^.D.E.D.V.^.J.C.W.W.E.E.D.q.g.[ U t H k = @ : ; g 3 e e 2 w 2 w c K v : : 3 0 2 k H K i ` +.I u.a.E y.K < g 1 y.F 1 1 3 = 2 3 @ o # : 3 6 : 3 : ; : 6 2 g j w w l b b w w j b l w e w l l w k w y u z v I X.X.U I X.y.$.+.+.h.l.h.h.P.).(.P.>Xk._.).k.i.h.h.2.s.h.a.s.S.k.S.Q.G.G.G.F.L.3.O.5.s.3.t.G.a.O.a.t.2.2.h.F.p.f.F.G.s.9.f.h.h.S.^.G.G..X).k.L.tXlX4X1X1XtXNXFXFXFXAXFXNXdXrXbXdXdXvXKXvXsXjXtXtXQ.6.:.W.tXAXSXSXAXNXBXBXVXSXPXPXSX",
"] C 1.d.p.} R  ...V r t ] >.:.C < u R } ~ S ^ 7.<.*.<.7.;.7.7.*.%.<.,. .R N V V R ..} V ] ] P C ;.b.w.%.<. .J z c y c H K x c z k Y j l - @ 1XLXBXBXMXMXsX1X7X1X,X>X).s..X3XP.y.) K K j 3 3 h 3 v y.!.).<XdXrXrXcXcXcXBXBXgX3XtX3X3X(.P.P./.P.k.P.h.u.$.F F X.I U B L B G X.v .         . # # . ; # o ; ; ; : h 8 3 : * + ; 3 l w 3 3 = ; f 0 ; : : * 3 6 @ 3 l w : ; 3 3 0 3 2 = j H k e b b u v I O.O.O.5. . .4.6.| 9.W.C.q.d.~.W.~.E.|.|.~.d.E.D.q.w.w.w.<.] r O.Z.}.}.}.}.J.0X2XzX2X}.OXiX|.^.J.Z.|.D.d.Z.^.w.D.^.D.C.C.q.s < u 2 1 ; # : 3 ; h 0 k k e c z j w K T 0 2 e e n l y < v r.W 4 h.a.X.y.H . = l y < j 8 ; * ; * ; : 6 3 g 3 * * : : w k j j j w 0 k b b w w j k k e e 2 j n w w 2 2 e u u J X.$.) o.O.$.$.o.l.h.P.l.(.(._.).1X1X).P.P.L.t.o.y.P.^.G.t...2.s.p.5.g.k.h.a.h.f.5.[ t.i.t.t.a.a.3.t.5.s.h.t.p.A.i.{ j.9.1.p.L.t.5.G.G. XfXfX>X3XNXjXfX4X>XtXsXNXAXZXNXhXsXgXgXdXvXvXMXNXvXVXgXGXwXF.V.:.F.sXAXJXKXFXMXbXcXbXSXJXPX",
"E 9 < P A.V.! %.Z.w.A r Z 4.9.Z 4 z ..:.;.<.<.%.%.7.<.^ ,.<.<.w.7.;.~ } R R  .V B P R R } ! C ! 0.R.<.S ,.R i i y 5 k v v v i i c y z c b - @ l.JXLXMXcXdX8X3X8X).>X1X,X1Xa._.y.2.) p u w 3 l 0 q _.>X1XdXsXnXcXbXyXbXcXcXvX8X7XyX,XI.P.>X>Xh.h.K.B X.a.G t I G p t I U W v @ . . . O # . + + . + + O . ; 3 : ; ; ; % ; 0 3 3 g w * . 3 3 + 3 ; * ; 3 3 w 6 # ; h f # 3 b w = w w b 2 w j w j k i J ` ` I B O.]  .A.q.| q.g.9.,.}.|.E.|.5X~.d.J.q.q.<.q.d.q.,.C.C.V.}.|.OX0X|.}.uX~.2XeXOX^.uX}.^.}.}.J.C.J.Z.H.'.H.H.V.6.#.a q 1 ; 6 3 * ; 3 3 3 3 k 2 e b l = 2 w l b j k w w k w w 4 e b b v >.>.a.L - 1 g j f 5 3 3 + + 3 : ; ; ; 3 : ; 3 ; 3 0 * + 5 k j n e 2 k b w : g j 6 3 w l g w w w 3 2 2 i ` K v I [ { { #.h.s.2.S.l.k.>X(.k.).>X).P.2.s.S.i.O.2.t.3.1.s.G.k.p.1.s.p.1.5.h.s.i.2.( B [ B [ $.y.2.2.2.5.f.p. ...p.i.6.C.s. .2.g.P ..h.p.!.wX>X/.>XwXZXNXhXjXjXNXFXFXZXjXhXsXvXNXhXgXNXvXvXMXNXhXKX4X!.W.! !.NXAXSXBXJXBXNXcXMXFXSX",
"N F i 7 R q.,.! 8.Z.V.! D / ^ ~ 9 i ] ,.:.8.8.%.;.<.~ ^ ~ D S q.<.<.} A A A :.} R R R } } ! ! ~ w.H.<.^ :.L i c 5 5 w w c v v G u y H k u u 4 - y.FXFXNXbXgXdXdX3X,X>XaX>XO.y.y.{ J v u w 2 e n h.<X1XtXvXdXnXBXyXgXcX7XyXMXyXrX6X>XP.h.P.>XP.y.E O.y.y.W i i i y t z c 2 + . # . . O # + . + ; O o * 3 3 ; # ; ; ; # # ; : 6 g w ; ; 3 3 ; : 3 ; ; 3 ; 6 6 ; : l 3 : 0 g 0 2 1 w g w k 3 6 k j k v v v H i P C 1.,.| | ,.,.9.q.V.E.|.E.|.XXd.w.J.D.q.<.<.| ! J.OX}.}.^.}.OX|.XXOXOX0X2XF.!.0XOXJ.|.OXJ.C.OX}.H.w.E.}.g.s < - l 3 3 0 3 ; : 3 3 : f 3 . v b 5 2 1 3 k b w w 5 l l b j 2 v K k u J P t.I 4 w k f 3 3 3 : * + = + # + 3 ; * 3 * # ; 3 5 3 5 3 2 w k e v Y b w j k g 0 w k l w ; + 3 w e u K ` b i O.B [ a.3.$.t.y.y.y.Q.a.k._.h.h.h.t.o.2.a.2.[ 3.C p.G.G.A.f.p.s.t.t.3.a.G.f.{ { 3.[ t N P 2.2.1.h.3.5.p.S.k. .s.5.f.5.{ p.f.3.p.^.^.L.S.G.S./.>X<XtXNXuXwXfXaXZXlXhXaXrXNXVXvXhXgXvXrXsXZXgXFXFXXX}.~.Z /.NXbXmXJXAXVXNXcXNXFX",
"R t < 7 r B ..:.A 8.E.Z.%.^ *.<.] C / ] ] } :.<.<.<.<.;.%.! A 8.~ 8.8.! V B } 6...R R } } ~ | <.b.b.;.| ] i t w 5 5 w w u H J J i i K u y K v y + ' KXAXBXBXcXcX,X3X3X(.h.O.P.h.X.a K u e e q o.3X4X3XrXcXgXnXMXyXdXcXyX8XcXgXrX1X1XI.r.+.h.S.u.X.$.I +.2.G i H 4 j w $ @   O O . . O ; ; + + : * = : h 3 + # 3 > 3 ; ; : 3 f b w 2 w w 6 ; ; 3 3 w w 2 1 w 3 3 3 g l 3 6 w w = 5 3 5 g 3 5 l k k u w u v G ) [ 5.g.4.1.q.,.,.9.V.d.|.|.D.$X|.D.E.Z.w.8.C.d.4.E.XX|.|.E.|.OXJ.}.OXeXeX#XJ.2X0XOX}.|.OX}.E.#X|.H.R.|.W.p + = 3 0 h 0 3 f 3 ; : 3 # 5 k w k K k l 2 w g k 6 : 1 j l b w w K K u e a B y.` 1 3 w # # ; : = o . # ; + ; 3 : ; : ; ; ; : g k f 5 w j e n b n b j k g g 0 2 w g w 2 = w b b v v ' K z P t.h.s.h.k.S.2.2.2.P.h.h.y.o.k.S.t.y.h.y.$.a.h.#.{ i.h.s.s.s.h.h.3.O.t.k.s.i.5.t.y.2.2.$.[ B S.s.O.3.h.S.g.[ 2.p.1.5.p.5.k.s.p.f.~./.h.i./.aXlXL..X5X5X<X).<XwX3XtXaXsXsXgXMXZXgXvX4X6XFXNXgXFXKX>XXX5.] 4XnXZXSXFXAXvXsXdXVX",
"..B i y p i L i N } V.H.8.<.<.%.8.4.] r B B } d.<.V.Z.7.<.:.Z A <.V.w.Z C C C A ] } ] A ~ ~ :.<.w.<.%.| B t 4 5 5 f k g y v G J v I z y H c w b c - t.GXMXbXcXyX;X3XyX>XP.h.S.y.+.t b e u v t y.>X1X3X6XyXcXcXgXcXgXNXNXrX6XyXyX3XrX8X(.+.W y.+.2.p < G i q t y g 3 * . + O O   . . + ; 3 % # # 3 = ; : * o + o : 3 : 3 3 3 6 w 2 w w w w h 3 3 3 5 j 2 4 j k w ; 6 f 3 w w w w f k j g 5 5 3 j j w w l H K _ ( ] C.5.,.V.V.4.C.d.E.E.E.XXXXJ.8.E.V.8.V.E.E.D.W.J.#X^.E.#X}.E.}.qX2XOX2XXX2XXXXXOX}.^.}.|.E.V.Z.#X9.B @ * 3 ; : l 3 : f 3 ; ; 3 6 ; f g e b b 1 w w w w 3 w w j b j = j K b u u i u +.v - 2 3 # O ; ; # # + # 3 + ; ; ; ; ; : 3 3 : : 3 3 6 w w e k u w w k j 2 w g w w 3 2 2 w 2 b b j y z u v o.a.2.$.k.k.k.G.O.s.S.a.#.$.P._.P.k.h.S.P.i.a.L.h.$.( #.h.s.h.^.k.i.s.S.t.t.s.2.1.O.t.h.t.P B O.o.[ O.3.2.2.3. .g.1.p.f.5.g.p. .5.p.f.F.k.s.f.a.<X_.Q.4XfXwXwX).).wXjXvXdXrXgXNXvXvXtXrXMXAXdXdXKXKX^.~.] j.NXAXgXFXFXcXyXyXsX",
"X.W H j c F u < p 7 V | <.w.w.8.w.V.4.d p N V ,.C | J.V.7.:.A A 4.w.8.D S ;.| Z S :.;.S ;.<.:.8.b.<.%.} i 4 5 4 w y 5 w 5 4 i J G K J z y q 5 y H I < ).KXdXMXMX7X1X1X,XI..Xk.h.+.4 1 3 u i ) _.:X3XcXgXdXnXcXdXnXbXcXbXcXyX7XyXrX,X7XtXu.$.(.k.X.< $ u < - v 4 l 8 . O # o *     + 1 6 1 ; * : ; ; : ; * ; ; . 3 : 3 3 w 6 = + w n j w l g l k 2 4 u k u v c w 3 @ ; l l 2 = b w g g 1 6 = * k 3 0 h 0 b K ) #.] | ,.,.4.d.d.W.E.XX|.|.|.}.E.8.J.D.V.D.d.d.q.V.OXqXJ.E.|.E.OX}.eX2XeXOX}.2X2X}.|.|.XXXX^.E.}.2X3.- + * h * : g 0 3 3 3 f g 6 . : 3 g 3 q u 1 = w l 2 j j l b w x w 2 2 2 b K e K +.K - 2 ; . * : # # + ; ; ; * . . : # ; 3 # g 0 w 6 = 6 w j b ' e 2 w w g g 6 6 k k w ; * ; w j n n j q z K ' +.+.o.) { 3.#.( C { t.3.t.i.L.i.$.$.t.t.y.t.$.h.S.s.2.{ o.2.h.h.Q.Q.S.s.g.h.h.t.3.2.O.O.y.2.O.P X.t.1.O.2.p.s.p.1.g.g.f.f.f.1.O.6.6.] 5. X Xs.#.F.G.G.2X4X5XtX1X2XtXfXNXhX4XrXaXhXhXjXgXdXZXbXcXBXJXjX X5. .<XjXAXJXFXAXBXcXdX",
"U i y g j 5 2 4 1 < < r ,.w.V.J.R.Z.9.! N p 7 p V V Z.E.7.4.,...} ! :.:.7.<.;.| ~ <.<.^ <.<.<.8.b.<.;.] i y w 5 c w 3 w w q i G ` G z v c y y y G [ 5.< 6XLXcXgXgX8X1X_.P..XS.>.I K q e q q _.tX>X6XcXdXdXbXnXcXgXgXdXgXbXbXcXrXyX>X3XgX:XS.).P.y.t < u < 2 b w * > # # # : 3 o ; ; 1 3 3 3 5 f ; 3 3 ; ; 3 0 : f : 3 f w w w ; l K k u j w g k y y v b b v e 4 5 ; w b k e u v j 1 w 5 5 w w 2 g h h 3 w u v { { | ,.| ,.g.q.W.D.V.#XqXD.D.E.Z.Z.E.J.V.4.4.q.E.|.E.0X}.V.|.^.OXxXOX$X|.XX}.OXXX|.#X0XOXE.}.~.s.- . : 0 3 w g 0 h f 3 3 5 w 3 ; ; 5 k 3 e v j j w k 2 l k w k j b w w l q u v e v K u + 3 ; # 3 ; # : ; # ; ; ; + . * ; : : + 3 0 w w : w g b ' m e 1 j g k 3 ; ; 3 w 6 3 2 w k w w k w - y ` J I ` y.o.) $.[ d [ s { ) #.2.[ ) a P y.2.[ 2.O.2.P [ a.i.C 2.F.s.G.^.h.#.#.3.s.s.t.a.$.[ 2.2.a.h.I I a.t. .5.1.C ] 5.f.s.f.f.q.1.6.5.@.Z  .G.F.G.^. X/.<X2XL./.<X/. X2XhXfX3X,X4XtXaXhXhXgXgXMXSXmXbXCXwX2X! 9.2XFXvXvXSXVXcXcX",
"< 1 3 : 6 f 3 5 ; w < q J ,.w.Z.'.H.w.7...N 7 t U E C.'.H.w.} B ( N ! :.Z.n.7.%.~ <.w.<.;.8.8.b.w.<.%.! i j c w 4 w w j y y J K J y q u K v u i L R ] r q JXMXgXbXsX7X:XP.k.a.X.J T e q - v ,XtX8XyXdXyXnXSXBXbXgXyXgXcXyXMXSXyX8X1X:X:X:XP.l.y.a.I 4 t q = - 1 6 % % 3 3 : : f g : ; 3 3 w j g 6 3 : # = 3 3 3 0 ; : 0 w g l u n b m l w 2 3 j x v I K ` I v z e e k k a v K v b w j l l b w 1 : : g g l u i ) C ..4.| g.D.d.J.}.D.W.E.E.J.J.~.Z.E.Z.q.8.V.E.|.Z.D.zX|.V.OX}.OXuX#X2X^.XX XXX^.OXOXOXOXwX/.[ @ < : 1 w w 5 g f h f 3 3 3 : : 3 3 : w w q ' T x w g 6 b k 1 2 j g w w l j w e v b e v e ; + # * ; ; 3 : # * ; : ; 3 # 6 : + : : w 0 0 0 3 6 e b j j 3 w w l 3 ; w 3 : = 3 w j k w w l w 2 y K v v K I $.t.$.2.i.o.` o.q q ) J I _ o.#.2.s.s.P O.{ 5.5.2.g.g.1.p.F. XF.f.#.3.s.s.#.P O.$.O.[ 2.O.I U h.S.5.5.#.( ] { 5.p.#.p.f.9.,. .5.5.C Z 6.Q./.).S.>XuX>XL.Q.Q.F.F.XXwXfX1X.XtXaXtXtXsX6XhXAXcXdXjXtXuX}.D d.NXMXvXSXJXbXbX",
"1 $ w w 3 j 1 f 3 : : e 4 L q.9.w.J.Z.%.! V 7 q 7 p :.Z.oXH.S Z r ] ,.D 7.H.n.*.^ <.V.8.%.<.w.Z.0.0.%.C z z z w 2 j f 5 5 y I ) u y y x i y u i B ..:.d @ ' KXKXmXsX6X7XQ.y.u.u.+.K b q i z.1X>X8XdXdXdXcXBXbXcXgXdXvXMXyXyXbXgXcXcX1X:X>X(.h.u.X.G y q q = = 2 l f 3 ; 3 f 3 w j : 1 f = 3 g w g 3 = # ; ; ; 0 0 : 3 g w j b n e u ' K w w w b H G K J U [ G v ) I a a G a a a v K v v v i u v = @ 0 g n w q v 5.,.q.4.q.D.D.W.}.}.C.D.~.!.J.C.V.Z.V.V.d.E.E.Z.E.#X#X^.Z.}.OXJ.E.0XuXOX#XOXOX|.XXXX|.wXtX2.@ < 1 2 = k 5 1 w w 3 3 3 3 3 # # 6 3 6 f e < K b w w w 1 b b < 2 b = j j 2 w g e ' : 2 b b w # + @ ; ; 3 * + # ; : : ; # . + % ; 3 w ; 3 w 3 : e b w g 3 g f w ; 3 ; * * : 3 w g 2 ; j j ; g 2 q n q u u ` y.i.a.[ ) J _ J J K ` ` X.J ) { [ ( O.3.s.O.s C G.F. .5.F.L.t.5.G.G.s. . . .O.I [ L C [ X.2.2.g.f.5.1.#.5.1.p.s.5.f.G.f.,.]  .p.f.p.6.g.Q.Q..XQ.).>XG. XwX$XA.9.~.kXwX>X<XaXyX3XrX3XjXMXZX6XhXsX1XwX8.D .XDXNXNXKXFXNX",
"5 y i y 4 5 3 % 3 w 0 2 e a P ] } <.Z.Z.;.} E < 4 < 7 R 8.V.V./ d A D.V.^ <.w.V.0.%.8.8.:.<.b.Z.b.7.,.R < 6 x 5 5 8 j l 5 z +.I i z z i i i i i V ,...Z u $ r.LXBXMX1X3X>X(.P.h.a i v v i.).,X6XyXdXdXcXVXBXnXvXcXdXcXBXdXdXcXcXcXcXsX7X1X;XP.y.+.G 4 4 w 2 w k k k j j 3 + 3 x 5 3 + w x g 3 k b w 3 ; 3 g 3 k f 3 w : w Y w e w u b l w w u K G H y +.>.C P B P ] [ [ R ..] {  .O.( O.C B I v q b 2 = j u v I O...,.g.D.d.E.J.V.W.E.!.OXE.q.q.E.}.V.Z.8.w.D.V.D.OXXXE.}.}.OX XOX0X0X~.2XOX2XeX2X2X0XlXl.. : 3 : ; # # ; 3 6 3 w f 3 : 3 3 : : g ; l j 4 K b u K i 1 w e q u b 1 l l 4 g = k K 2 3 b b 3 . * ; * * h : = # ; 0 : # : ; + 6 3 ; 0 0 : 3 w w j k m 3 6 w 3 5 5 f ; ; : : 6 2 3 w f ; ; 3 3 6 2 w w q v K o.O.$.[ $.y.) v ' T u k K i ) $.J ) [ [ X.z G +.s.g.d.@.3.p.3.h. X^.h.S.i.a.p.3.s.G.p.] C 1.p.2.5.5.5. .1.5.p.p.p.5.| p.d.f.6. .K.!.5.5.Q._.1XQ..X!.f.F.2X2XOX~.2X.X2XtXtXaXaXaXtXjXaX3XsXtXdXjXtX2X3XP 2.wXjXyXFXVXCX",
"t i U E i 4 2 g 2 w g g w v J L N V 8.D.Z.<.R 7 4 w y t V ;.q.w.w.V.E.w.S / <.w.~ | } D S <.V.E.n.<.4.V 4 l j 3 8 5 5 5 f z H i x H E U a v F p ] 6...p c $ w _.LXdX6X6X).>XQ.$.) +.9 v (.4XsXsXsXcXcXMXbXcXcXcXcXcXbXVXnXcXcXdXyXyXgXdX8X1X_.v r.u < 4 < 4 = b l Y Y k 1 $ 3 l f l 6 6 w b j w m j w 3 g b j w 0 w w g b Y = 1 u k 2 $ 4 K ) v a U - i 5.,.A 6.,.1.2.1...O.] C | ! @.6. . .[ I H b w j k y x I E C 5.1.q.Z.D.D.V.D.J.!.~.}.C.4.D.E.}.Z.,.w.V.E.Z.|.XX~. X|.0XeX2XfXOX X2X|.wX2XeXwXfX;XX   ; 3 5 3 3 3 f f 3 3 3 f f 3 3 3 f j g 6 j w 4 ' K i v u 4 u ` v e l 2 g n k w @ k b j 6 ; 3 # # # g ; ; k : # o * h ; @ : ; ; 3 6 ; 3 3 : 3 w w n n g = 3 k f f 3 : : 3 : : w 3 w w w 6 3 g w w j l l j b K J J U a ) $.K u v b c z u v K ` +.I p a H F G W O.O.1.|  .g.L.!.~.L.h.a.t.p.t.5.5.p.j.f.t.2.g.5.5.d.5.j.p.#.] B  .1.C 6.p.5.p.5.Z g.~.L.^.).Q.Q.XX2X X!.~.XX2X2X>X/..X<XtXhXaXyX,X4XtX<X1XsXNXNXyX>XtXL.N s.lXtXsXFXAX",
"L R ,.1. .] B i w w j l y c v i i p C q.E.Z.8. .i z y 4 y t B 1.E.'.|.Z.^ D ^ ,.C O...C D ^ Z.H.n.S :.P y j ; 5 f 5 5 3 j z c t i z L ..P G L R A  .P i H 5 . @ 7XKXsXrXrX(.r.` y.X.9 p _.hXgXyXcXnXnXBXBXcXcX7XdXcXbXBXnXcXcXdXsXgXcX7X3XcXdX_.z.y.y - 2 b w y ' r.l = 2 1 6 5 f l k 5 w b j w 3 1 1 w 2 1 w k 0 w 3 w b b u v q q - - u K ) Z #.{ r C  .,.4.5.p.5.>...Z  .4.,.4.| 4.1.C ..C ) I k 0 w w w y c i P  . .,.q.D.D.Z.d.C.~.D.^.C.8.4.V.E.J.w.Z.Z.|.}.}.|.XXOX X0XwX0XeX2XXXOX<XqX0XuXfX).q . : : 3 3 3 3 w b k w g g l k w 3 w w w 3 3 k k < k k u n k 2 w ' v = w w 2 n _ b 1 n v g 3 * g * 3 . ; : o 6 * ; = = m w @ ; + # 6 3 0 6 0 3 0 3 0 j j l w f g w 5 6 # 0 0 0 w l g g k 5 3 3 g h w w k k j b H u i z t q k k e j l n b 4 q < p i J ) X.U G G J [ [ 2.t.3.h.S.i.3.h.s.#.t.3.1.i.] ] 3.s.p.5.6.f.d.1. .5.3.#.1. .{ ] ] 1.O.[ 2.a.P >.F.!.G.Q.f.G.G.~.2X2X X!.!.L. X>XwX4XyXsX4XtX_._.3X4X4X>XtXtXuX<X.XwX6.Z 0XhX3XVXFX",
"..] } ! :.d.1.r i w y k w y z z 4 y p A b.H.Z.8.V t 5 2 5 w < L ,.D.@X|.w.S S C s B .. .C / b.H.;.S V U y 5 f 5 y y w f k j y z y t V ,.R N N ..} :.P i c x 3 @ = 6XLXbX6X,Xk.i._ a s _ (.vXgXcXbXbXnXbXnXbXbX7X7XdXnXcXdXcXbXcXcXgXcX8X_.l.(.gXrXrXz.' r.' T y b m g ; b b 2 w z c Y Y b l w e w w 0 j 3 = g n b g 0 0 q u ' T w 4 y K K a ( 3.@...,.q.| ,.4... .] R R ] ,.d.w.Z.d.Z.9.| 5.]  .) J i 0 3 3 3 2 9 ( B ..,.4.D.W.D.8.q.|.!.E.C.Z.Z.C.,.V.E.E.Z.Z.E.~.OXXXXX+X<X2X2X2X2X2X X2X2XuXkXhX+.+ k 3 h : f g h w h 3 ; w f k k g w w 3 6 3 w l b 2 u n v n n 2 1 b u @ j b = i ' b g K k 2 w 6 3 * f # g # @ w 3 # o = r.w @ * + : 3 6 3 3 h w e u w j w l k g 3 : : 6 : 0 g k b k w w g 3 3 3 3 3 : ; : 6 3 l b c z H y w 0 w w w w k u v e u b i K +.J K v J o.y.O.O.t.L t.y.O.a.k.S./.L.G.k._.f.9. . .{ 1. .C.g.q. ./  .5.5.f.6.Z  ...B +.O.O.1.5.5.k.p.F..Xs.t.f.~.~.}.!.!.A.L.XXuXhXtXtX<XaX3X,X3X4XaX).3XI.<XtXP.>X2Xr 5.hXyXhXVX",
"R ..:.D D 8.5.N t w v c u H F y y z L C 8.Z.D.D.} p c 4 1 f 5 t r | Z.].H.w.,.d 9 p Z  .q.q.w.R.^ S R W c c 5 = y y g g k y 5 F i t A :.] N V :.| ] L t 5 w k w = 4 1XLX7X1X;Xi.o.) s y.>XdXMXbXnXBXVXBXcXcXBXcXcXcXcXcXcXbXVXnXcXnXcXdX7Xl.y.cX7X8X6X1X,Xr.y.K 4 w b b b b v ' e 2 z H K b v b u < 2 q w n j 0 g e e 0 w u K b T y v I a < r 1...1.6. .]  .] A V ] ] ..1.,.| ;.w.Z.w.w.C.j.1. .B ( J e w j l k G [  .Z ] 6.,.4.d.8.w.D.}.D.C.Z.Z.J.8.D.E.E.|.~.!. XXX}.~.+X<X X2XwXwXwX>X.X2XfXlX).< w h 0 0 : w l l w : = 3 3 6 5 l k g 3 5 w 3 k k w 2 b _ _ e 2 = = u v u b j 0 a n 2 w T k * 3 g @ # 3 6 k 5 6 w w * 0 < ' b * 3 6 : 3 g 6 6 k k v K b b l = w g 3 6 3 3 3 3 ; g b h 3 3 : h : ; ; : : ; * 3 w k x x l x Y l : : 3 3 0 b ' Y ' b T v K v q ' K ` t.i.$.I o.O.B $.k.t.i.L.L.h.t.t.k.G.F.{ ] { #.5.5.q.W.6./ { ] ( 1.i.3.1.C P O.) [ a.2.s t.!.9.F.F.!.p.p.C.V.~.OX!.S.h.Q.3XaXhX4X1X2X<X<X2XtXtX4X,X3XtX,XS.wXs.r  XsXvXNX",
"P  .8.:.S :.6.V z y z i i I J y j z P ..} <.w.E.C.} N F y 5 6 q t r ! w.D.'.E.9.C s N / 4.V.Z.E.<.D D t y m 8 j c y w 5 w 5 4 z G R :.} L L P ..~ C B z y w j w w y 2 P.FXAX1Xk.i.y._ a P.dXbXbXbXBXAXAXcXcXAXBXcXcXcXcXcXcXbXMXdXcXrXyXAXyX>XdX1X(.7X7X6XP.l.+.H q b Y 2 q k v y k K c l b b w < 2 K K k K Y e 0 e 0 e T v u b K z H I I ) [ 1.( 6.p.1.] >.,.,.} >.1.] 1.q.9.4.<.V.w.w.Z.D.4.1.] O.#.K k k v K J ) [ ] ] ..,.q.Z.J.Z.g.C.g.V.Z.V.J.}.OXD.C.!.!.OX}.^.OXwX2XwXwXwX2XwX5X5XwXuXlX,X9 = g h l h 0 : w k w 2 2 e 0 2 g m b 5 1 w x 5 x m 2 = b K v q 2 6 3 e k j l j n v u 4 j b q 6 w g @ * 6 # ; g ; 4 Y g 3 < r.n @ 1 * # : k w * w k v b v l k 2 k l w 3 3 6 3 w 3 w k 0 3 : * 3 ; ; 3 w 0 : ; 3 3 3 5 5 5 j b j 3 w g w 6 0 k n b u u u J v v ` ` ` $.O.o.U J X.y.o.) +.X.I [ $.[ J C 3.f.O.t.h.t.p.K.G.G.k.3.p.6.5.5.5.p.#.#.{ B B [ a.k.( { p.1.#.f.f.p.p.p.A.J.~./.2X.X/.>XtXhXuX3X4X,XL.^.1X2X<XuXwXuXNXQ. XwX] 5.2XNXNX",
"] ] <.w.;.;.8.R z w i i B [ B i 4 y L ..} Z Z w.^.4.Z R E N t c = < N | w.Z.H.].q.| C Z Z :.Z.E.R.7.S t 4 5 3 k w w w w 5 5 y F R 6.8.C p F B A <.! s i y y l y y H z @ ' vXAXrXQ.i.y.u y.vXBXMXBXBXAXSXBXcXmXnXmXmXcXcXcXdXcXnXBXcX6XrXcXrX8XsXgX1X8X:X:XP.u.U ' b k v q = 4 q K ` K u u b Y k 2 u ' T q 9 n e k n n q ' K y K u z H H H +.O.P {  .4.1.C 1.q.A.g.p.q.] ] p.q.g.:.8.w.d.w.V.4.4. .1.5.[ i x K ) J ) B P  .Z 4.4.E.XX^.D.g.g.Z.Z.d.V.E.|.W.J. X^.OX<XXXwXuX,X5XuX4X<XtX2XwXhXlXhX#.+ w 3 g 0 w g 2 j n n 0 e k w 1 w x x w 5 k Y j b T l e v e u k u g k q e j w q K _ i k b k 2 w g 3 3 3 0 * ; : & 4 r.v @ @ y.e + 6 # ; 6 g 2 * j i i v k j g j l l w w w : 3 g g h w 3 6 * ; : ; ; : 0 0 3 3 0 0 6 : 6 1 3 y 5 g k b l 0 * = 3 w g b c b b v u k k ` I I ) P p +.+.i K +.X.+.u.y.$.) O.s.a.S.y.I B 2.p...p.5.3.k.f.9.9.1.3.s.1.{ { Z ( ^.F.#.( #.3.s.q.5.5.f.p.C.G.!.wX3X<X,X3X4XuXuXtX1X^.)..X.X<X1X>XtXNX).s.fXf.] /.wXhX",
"P d D 8.%.^ 8.R i 4 z G [  .i i i G P R ] C Z ,.|.E.;.A R R p i 3 2 i C ,.<.^ w.|.W.8.~ S D ;.n.|.|.<.d 7 7 l 4 2 4 f j 5 j i L N ,.,.d t F N ] <.} r t u k w 1 y F i t - t /.FXjX_.P.y.+.4XSXbXBXMXSXPXSXcXdXcXbXmXmXcXvXcXcXdXbXnXcXdX8X3XdX7X7XVXyX3X,X(.y.X.` y.o.K y @ + z ` K i q v l b 4 K v u K e 4 m k e u K < i J a X.a K H i 7 i [ B 1.] @.| ..1.5.d.C.q.p.,.,.p.,.6.6.:.8.V.Z.Z.5.4.:.,.q. .p v I ) J C L r (  .4.:.J.}.^.|.8.g.C.V.J.J.w.Z.E.W.<X2X^.wX2X2X5X2XwXwX<XuXuXtXuXuXCXL.< q * 3 0 * g 0 2 e j k e k b w 3 3 k x j w l m l 3 w j u v 4 v v k j j v k b w < v _ a e k 0 2 ; ; . 3 3 0 * : # 3 1 T j - - v ` 2 g * ; 6 g 3 6 b n u v n c u * 3 f 3 h w 6 6 ; w 0 = 3 ; * w 3 : ; + ; ; : w g h 0 3 3 5 3 6 g l g w b l 0 e g g j w 1 c e v i e < b J J o.$.X.$.` v X.X.X.+.+.+.X.) O.t.t.O.O.i L N [ P 2.O.] s.( { 5.{ 5.] i.3.1.#.( #.F.!.{ p.^.#.d.W.G.p.4.F.F.G./.>X1X1X,X<XtXwX4X3X,X.X_..X>X3X,X>XtX4XS..Xg.R /.+XlX",
"i N D %.<.Z V W H y y F X.[ z i 4 z P ..A R N R C.Z.8.S D  .,.V 4 5 i X...C d d ! Z.].w.%.%.^ V.E.|.|.q.] p 4 x y z j 3 5 y F R ..6.C t z j N [ ..P i i j w 3 w c x q u U r d p.GXNXP.k.y.z.VXVXSXSXVXVXSXbXbXnXcXVXBXBXdXBXcXcXvXsXgXcX8X6XsX7XdXyX7X3XsX3X(.y.l.h.$.O.U < i X.$.) v K v u q I ' p K v q 0 j j b K a ) I p [ G i U K J J J ) s (  .(  .6. .] 6.p.] ] d.p. .@.d.g.:.q.d.4.4.4.q.q.w.5.C p K v _ 1. ...Z Z } C.D.g.J.A.J.g.d.Z.V.J.Z.D.}.C.W.XXXX^.wXwX5XuXwXwXwX4XtXtXfXtXlX5XB v - 3 g 0 w w 2 j e e 0 w l k b e g j 2 2 w k g g w w w u b 2 w j k v e u b n k i v K v k l = b 6   3 g : 6 = 3 h 6 . H ' T J s b : w g @ w 6 j w w v K a v b v 2 @ X 6 3 3 3 6 ; 3 w 6 # 6 3 = ; 3 3 ; = 6 = 0 g w k h : 0 w = w k g 6 l g 3 = w g k e e u 9 - q n v K ' ) J v I ' K u H I I J v K I ) #.$.#.2.B G I B O.y.( [ a.t.2.3.5.p.O.9 L 3. .C #.5.3.F.i.3.F.p.9.A.G.f.p.F.!.~.L..X>X>X1X3X1XtX4XhX3X)./.!.2XwX3X(.6XyXP.u.a.V t.XXfX",
"L [ :.0.<.D N G T c j F [ E y c c z L R A A N V 8.V.8.S D A <.6.u 1 y F p p t q s ! V.'.<.%.Z.V.D.E.oX|.d.} p t t t y j 5 4 N R [ P L p y j G [ R L i t k k 5 f v u z H U P V D B aXZX).(._.8XLXSXSXbXbXBXBXMXbXdXcXbXBXdXdXrXdXbXsXcXcXgXsXsXsX7X7XgX3X3X7XI._.h.a.2.k.X.2.[ k.O.) _ u u K 4 H I i ` K v 0 2 e k a t [ P B O.L p i J +.o.{ 2.( ] C d @.d.9.{ Z 1. .1.d.1.] s.p.4.4.,.q.q.:.,.q.6...Z [ I a u ) O.] :.8.C.C.E.J.8.A.J.|.J.d.V.J.J.d.q.J.J.}.2X0XI.+X3XfXwX2X2XwXtXtXuXwXuXlX2.p v ; w w w j l k b l l e w k j b n e w w 6 5 w w j f 3 = q T 5 = e u k e k K k < v K K H q w ; g >   3 f w g 3 g 0 ; ; l k y P t.n @ 3 3 6 w k n w e v J a v v j w 2 @ * 6 0 k l j k g 3 3 3 3 : 6 3 6 * * = 6 3 = 2 g 0 ; 3 g k w 3 ; * w 3 2 0 0 3 e e e 2 2 v k ' T z K ' K e q K K y i v K I X.X.+.$.$.i.a.p.$.$.) $.y.o.) ( 2.s #.#. .k.O.O.L O.2.O.3.5.3.i.k.#.Q.W.q.q.g.d.C.p.k.<X>X~.L./.3XwX3X4XtXtX,X,XwX<X.X).>X(.).>XP.S.O.R >.^..X",
"N L | <.<.~ P i z y y i [ R i z b x G C } ] B Z } 8.w.4.N 7 ] g. .7 y y 4 t w 5 y r C V.Z.w.J.V.Z.Z.E.|.E.V.4.R V p y x 5 y L O.L p P L t F L E L L i y j x j j q u I G i N R :.< < 6XLX6X1X:XbXJXSXnXbXVXVXMXvXvXnXMXBXcXgX;Xl.sXgXnXmXdXyX7XsXdX7XdX3X1X6X_.;XP.P.S.Q.3.a.u.t.$.v H H v i 4 X.X.v i q k e w K b z q [ [ C #.2.U J J [ [ ] #.{ ] C C 1.q.9.1.! .. .6.5.,.6.A.@.,.,.p.C.s.1.( B [ ) B J I v a ( ] :.6.8.J.|.|.D.g.D.D.~.^.Z.Z.D.Z.C.g.D.J.~.OX2X2X.XwXwX3XwXwX3XtXaXfXtXNX_.- 4 l w j w : w k k n j l j w k j k e q 2 2 3 5 3 3 f 5 3 w v ` w 3 w u l w k b u < i v z v 2 w w 3 # # f h 3 3 ; 0 * # h m w < B l.v * l w 3 ; j j e k v i v J k e 1 w 3 ; e g g g l k 3 * w 6 ; ; : 6 : : * = w 3 3 w g 0 0 w 0 g h 3 : 3 h 0 0 g 2 = 0 w 0 g g b k ' m e l K b k K K K H x v U ) ) G I [ O.5.3.{ #.J ( B ) [ s {  .r r C ] 1. ...t.O.{ 2.2.1.p.k.p.1.W.Q.6.5.5.6.^.f.g./.2X).L._.<X4X4XtX3X4X<X).<X.XQ.L.>X,X_._.(.P.3.p. .K._.",
"N L | ;.<.4.>.N 4 c z y I  .L i H z B R .. .C Z ! :.<.<.R N L ..5.R i 5 y 5 f l f c r Z D.'.8.w.Z.b.b.Z.'.E.E.V.8.R t w y z L L a t [ W N P I P L G G y w k j j z i G G U N P >.G @ @ ,XKXyX6XrXKXSXnXbXBXbXcXcXdXnXSXBXyXvX8Xl.P.1XcXcXsXdX7X3X7X;X:X,X:X;X:X:Xz.P.P.I.k.[ L.#.l._ 7 K v 4 u X.X.K i q K K k l Y b i X.X.L  . .B [  . .O.( C ! @.1.,.@.,.,.q.9.4.,.] C ] 1. .O.6.6.!.G.) t 9 u e K a v v I ) Z ] 4.<.:.g.|.XXC.D.E.8.V.E.E.'.V.d.~.E.E.^.~.~. X<X2XuX2X<XuXaXfXtXtXaXZXvXv @ 2 w w w 6 3 w g g w 3 w w j k w j 0 q 2 w j w w w 3 5 5 j i u ; 1 w k b j w k w 4 c b c b 1 3 k =   f k l 1 * : : ; ; w x j 4 t _ v : l g 3 ; w w q n J i v K j 3 : 0 0 0 g w 0 3 w 3 3 3 w * @ @ ; ; 3 3 : 3 h 3 w e e g g g 3 ; w 0 0 w g 0 3 3 0 : 0 w 0 k w 3 w j w 2 2 6 w b b z z v G J X.2.[ a P P [ 1.2.O.t.i.#.{ C ( p.k.d.5.| 6.] ] G.f.f.3.] #.G.s.{ Z 9.1.@.p.6.5.p.g.d.f.f.F..X<X)._.Q.).,X4X3XtX4X.XL.)./.<X<X2X_._.<X/.h.5.G.p.S.",
"E V } :.;.;...B y x l 4 J { P L G i L V } } .. .C } %.<.:.P s N ;.V...7 y 5 w 3 f j z p ,.V.~ ^ w.n.Z.n.'.|.|.|.'.w.B < i H G t i a I X.P L P B L G G c j w j z K p B E U W L G u q < . ;XLX7X1XbXSXdXvXMXvXBXbXnXcXBXbXdXMXmX7XQ.Q.8XbXmXsX7X3X8X3X;X8X:X(.1X>X>Xz.i.h.>X2.Q.{ 2.o.i J _ o.{ a ` ` ` I +.K K v u K K a a P ..Z ]  .{  . ...]  .p.C.d.6.q.q.d.p.,.} ] ] [ C a y.G.k.[ t - . . ; w g u v v i a C ,.4.<.4.C.|.~.~.~.E.4.w.C.Z.E.w.Z.D.W.!.G.~.XX<XXX3XwX4X4X4XuXfXaXtXtXAXh.- 2 3 3 3 ; 2 w w w w w 6 5 5 g j 5 w e k l j k k w w 3 w 1 6 e v 3 # g b b l w w 2 w w j w l 1 2 l # # l 3 l j 1 l : Y h * w Y q u 9 ` q w b 6 h 0 e q v _ a J K w = w : : 0 0 : 0 w 6 ; 6 w * @ * 3 : * 6 0 : 0 3 * 3 ; 0 g 0 w 3 3 w 0 0 g 0 3 3 0 : * 6 h f 0 : 3 l g w h 3 3 g k w b T b G +.s.k.t.a.s.s.p.s.p.j.1.s.1.{ Z { p.f.5.p.XX!.6. .1.q.W.).1.C p.s.{ ( #.s.( p.F.F.C.d. .f.Q.G.F..X.X_..X>X.X1X4X3X>X.X_.,X3XaX<X^././.>XI.!.K.L. .t.",
"X.N A :.:.| P i y j f 2 i J J [ P L P V ] } :.6.Z } *.7.,.} s r ~ Z.:.B G 4 4 4 g j z r Z } D Z <.7.w.b.Z.E.|.#X@XE.8.C p z x c z G F L V L P L B G G z c j x x 4 I E L L U U H q 4 x y + 1XLX1XyXBXcXcXmXbXSXbXBXbXcXcXVXSXbXBXcX3XrXmXsX8X1X1XyXsX3X1X3X>X:X:X3XQ.l.h./.S.s.o.#.J P $.$.2.#.[ a _ o.+.X.i b ' v K J J B C  .#.1.]  .1. .6. ...@.p.p.1.1. . .,. . .] O.y.$.o.I ` z - X @ * : : 3 w u _ v p p { ! ,.<.8.D.}.W.D.C.C.Z.C.q.Z.Z.Z.E.Z.E.|.f.J.2XwX>XXX2XtXtXaXfXfXhXtXjX>X@ - w 0 w 0 6 w g w 3 2 g 3 5 3 f g 3 w e n l w g w w 6 3 w 3 w v _ l 3 w k j j k 5 2 w 2 5 w j 6 w g * f l @ w b k K < b w 6 w K q v v v q w b : w 2 k i _ ( B v v j ; 3 6 0 h 3 3 w w w ; ; 3 * ; 6 3 ; # 0 0 3 g 3 ; = = 0 0 : 0 w k w = ; w 3 3 w g ; * ; : 3 w 3 6 3 f 3 1 1 k b 2 y v T b z J I J s { 3.2.t.a.i.p.p.3.6.#.{ 5.6.p.@.D K.!.L.f.] ..F.!.W.s.#.1.s.i.5.G.C ( A.F.F.f.p.G.Q.F.k.k.^..X>X2X>X2X2X.X)._..X<X3XwX/.k././.>X_.+X.XA.f.h.",
"[ B ! } :.:.R i y w 3 2 y a a [ ] ] } C ! ~ :.<.:.:.^ ~ :.| / d <.8.R P U i i y j w i i Z ] B B  .! ~ ;.<.w.E.OX].E.Z.8.V t u v U N i i a C L G i G v k y z H i 4 W ..B E U G z Y k 5 k = 4 cXKXyXcXnXcXcXBXSXbXbXBXbXgXcXbXBXVXVXcXcXdX7X8X3X6X8XsX6X:X1X1X>X:X_.(.P.h.P.).2.k.i.B i $.) a ( t.i I I I ) i v ` v J { #.#.(  .9.j... .| | 1.,.@.] @.#.1.{ C ..#.p.#.) U I ' T 2 . . b 0   o ; 3 3 j v _ J G a O.! ,.<.4.d.E.D.D.C.w.}.E.4.Z.Z.D.J.Z.D.!.C.G. X0X2X<XwXwXtXhXhXfXjXhXaX_ . = 0 g w w 6 w g f 3 3 k j k g 5 5 3 g w e w w w w 3 = 1 3 3 j v v w 3 w w 3 j l 3 6 w 3 3 w 3 ; h ; # k w $ j v q u q c < y k ` q v K a q n m = * 3 b v ) J J v e g : # 3 l g 0 h 0 3 g w 3 3 3 6 * @ ; * 3 3 6 0 0 3 3 0 g 3 3 3 3 g 3 = : 0 ; 0 0 6 0 3 0 * ; w : # k m m c w Y Y 5 z u b K v y q < 9 B a p ) o.$.o.s.j.] 5.1.O.1. .f.Z r P p.h.f.d.s.| f.F.3.5.s.2.p.1.C ] f.5.5.j.d.F.^.F.Q.G.Q./.Q.)./..X.X.X<X.X/.).)..X).^. X).2XXX^.~.A.XXK.",
"B ..6.A Z  .L t y k l k y v i B ( ..,.~ ~ / ^ %.8.<.A Z ! | | / <.A r 7 B [ X.i y 4 i B  .1.B B L ] A C Z :.V.}.E.Z.E.E.6.N q i X.N L i i B i i v v k y w x H t L B P R N i i v z y z j c $ u FXbXdXBXBXcXBXVXBXcXdXBXSXcXbXSXbXBXBXmXsXrX8X3X8X;XrXsX:X:X1X1X1X(.(.z.h.>X<Xo.k.G.i.a o._ B { P o.$.J i _ v J v J o.t.#.{ { { @.3.( ] | 1. .] @.9.[ C o.[ ( 1.a.$.G I z < $ . ; = 3 # X # # ; 3 w m _ X.G i p ( ,.q.<.;.q.E.!.|.#XC.D.E.<.w.E.}.V.E.C.d.J.!.F.OX5X>X3X3XfXjXaXtXaXZXl.+ 0 3 0 0 0 3 ; 2 w w w w 6 5 k g 5 3 1 j n g w k w w 3 * * 3 ; 1 e b j 3 l g 3 k x 3 ; 5 1 ; w 3 6 l = * 3 = w b j @ q K H - w u $.q i v a 9 b b w @ 0 k J ) ( J i 2 g 3 @ g l * = g g 0 6 w w 3 3 6 : 6 : 3 : : * * h 3 = 0 l w 0 3 = 0 3 k b k 3 n g # : w k 3 3 : ; g w j z b w c b y u v H Y b v K I $.+.p 9 t i K J i.1.Z B r B B [ 6.1. .r s 2.F.k.6.@.9.p.s.s.2. .5.6.f.s.f.,...4.d.W.F.s.^./.Q.k.Q./.L.L.)._._.>X_._.L.L./.).^.G./.L.^.~.5.XXS.",
"R d O.O.B U H 7 6 b Y j 4 z T t p 6.4.%.^ 8.7.^ 7.! R N B B 4.w.} E N p s [ 3.U t y i ] w.4.R B t U U p C A :.V.b.H.H.V.Z.C.A d B U P O.P i q w y y k K v v G V } ~  .V i y u v G i K e z j $ ' KXSXrXgXbXBXAXBXbXcXbXBXBXVXBXbXBXcXsXrX6X3X1X1X,X8XrX3XP.(.(.I.;X_.(._.P.).a.i.S.3.i.h.2.( h.3.{ i.#.p a $.$.J a _ { { ( Z ( ( C (  .5.p.#.X.v v ) _ J ( #.#.o.+.H 2 5 ; # ; . b w = . = 3 e e u K J J J a a #.4.,.| d.V.C.XX2Xg.w.E.Z.w.Z.E.E.E.g.C.J.!.<X!.~.fXXX<X3XhXNXhXfXlX>X+ . f * l 0 0 3 3 3 3 3 3 3 0 w j w 3 h k k g g n k w 0 : : * : : ; 5 k f 3 g 3 w l f 3 f 5 * ; 0 = : k 2 2 w : ; k w $ i ` T 4 2 Y K q v i q z T u - j l b _ _ u v c 2 w j l = w 2 6 g 3 w 0 0 0 h 3 3 3 0 3 w 3 3 6 * 6 ; 0 g 3 : f : * * w g h # 6 g 6 k g ; : 0 3 : h k = y b 5 w k e K w v w y b c u J X.G $.y.O.J J P G [ B a. .d {  .q.!.!.1.P O.2.5. ...p.s.k.p.(  .s.5.j.1.,.d.A.q.j.D.W.1.k.XXL.p./..X.XS.s.S.h./..X^.Q./..X X^.f./.^.^.~.>.1.F.",
"] B N N t i H j 2 k z w 4 l b u 7 P :.;.S :.V.J.0.%.P p i s :.,.N i H G B G L i z z G P :.:.R B i I [ P R R R :.}.w.%.7.b.E.Z.} r J V ] >.L 4 x c y u k v i G R <.<.:.L q 4 c K X.C I u 4 b t < P.LXMXdXrXSXSXSXSXbXbXAXSXBXBXBXbXsXsXsXrX3X3XdXyXsX1X(.(.:X:X_.I._.z.z.k._.Q.S.a 3.Q.y.#.o.s.3.( #.{ ) a ) ( a J J ) { @.] @.#.( s V 6.3.a p v v _ J a J _ J K t Y 1 + 3 % # * y b j * X = q q J ) I I K G I B  .! ,.C.V.E.#XOXV.V.D.V.V.Z.D.C.W.}.W.g.!.!. X/.0X4XwXfXhXhXjXjXtXJ + 5 3 3 e 0 6 0 0 : : 3 ; @ 6 w g 0 ; 0 g h g w w 3 3 0 = = 0 6 ; 3 f 5 5 f k 3 3 3 6 3 k f 6 3 0 o ; w ; 2 : = # 3 1 + v o.c 5 5 y J a ` H k v ` G < 4 e b s 9 p v b 5 5 j 4 e g w k k 3 6 : 3 3 3 0 3 ; : 3 3 ; 3 ; . * 3 ; 0 w 0 ; : ; ; w 3 3 * 3 g 3 k g : : 0 3 3 h h w 2 w w c z y c b l j H H z u q I B O.S./.S.o.o.L N U k.t.{ P { ,.g.F.s.t. .s ] 5.P  .p.Q.k.1.p. .@.p.9. .6.p.F.^.s.s.^.G.G..X).k.P.L.G.i.s.P.k.h.^./.!././.F.p.F./. X.X5.p.!.",
":.] p i i y c w y z z w 4 5 5 y t Z :.<.S S 8.}.'.;.B G i N } } t y H H z i 4 y y z z G A ;.] L B C ] ] } C C A w.E.7.^ 0.E.'.D.A Z N :.:.R q c z y w j v i F R 0.w.,.L p q u U ] V G v y z B s < >XLXrXcXdXBXSXBXbXBXPXSXMXVXBXMXcXmXdX7X3X6XMX6XyX>XP._.;X6X8X(.z.h.l.l.Q.h._.#.s./.3.) { $.O.s.3.( J J _ J J v J J ) ] ( [ ( ) P ) O.O._ P J K ` H i K v e u c k 1 ; 6 % ; 3 - y j 3 ; = 4 y ` ) J ) G i X.N ! | w.Z.D.E.}.~.^.Z.<.;.V.J.E.W.W.D.C.q.}.~..XwX2X2X3XNXjXlXfXjX+.+ + * + : = = 6 f h 3 h g 0 ; 6 w g 6 = 3 g w w w 0 : 0 0 ; = 3 : : 3 3 ; 3 l f 3 3 w 3 w k : 3 0 3 * 3 3 # 6 0 e 3 3 : . ` $.< 4 k w v v K i u v X.I p H ` v ( Z { J H y y y w j 0 w k 3 w w k l 0 : 3 ; ; 3 3 * * 0 0 * ; : = = 3 3 : 3 3 : 3 3 6 3 g 3 6 w w 6 3 0 : 3 h h l = 2 w 2 w c k b j u H ' K H v t t 7 9 B o. .t.P P U +.[ X.L .. .A P [ y.t. . .f.#.1.s.G.f... .1.1.5.p.1.,.Z 6.^.p.s.G.^.L.Q.2XG.i.k./.S.s.L.S.i.a.s.f.F.~./.^.p.G.L.<XG.p.!.",
"4.:.L F z 4 y y u u G u 4 4 5 z W ] ,.4.! D A w.#X;.r i L C :.] i y c y c y 1 y z z y i R :...P ] ] } | ! C B C :.OX#XE.^ w.'.E.V.A r R <.:.L y y y w c b y p V 8.7.! a G z G P :. .B H i t V ,.p 9 NXKXNXvX8XbXBXBXnXSXSXBXJXMXAXSXSXdXrXyXcXbX;XrXrX;X(.(.1X:XI.z.P.k.y.P.k.3X^.t.Q.P.2.y.k.P.k.2.J v K ' ` X.a J J J J P J p i G I I ) G J I H ' K b b w * ; w = 6 l 5 : 6 # c 1 ; 5 3 ; e ` ) ( J ) i 7 [ .. .| d.W.D.W.OXOX^.Z.<.w.Z.V.W.D.g.D.C.g.~.OX~.5XuX3X2XaXjXtXjXk.. $ ; + O > ; * # * : 3 6 : : 6 3 0 0 ; ; 0 h 0 3 g g w g g 3 * o ; 3 3 1 ; 3 g k g w w 3 g l * 6 3 3 3 k w @ ; e n h 0 5 @ $.$.u 2 j 4 i a J J < i O.( B J P s 1.1.9.( G z j 5 w 2 3 e w 3 k w 0 f 3 6 3 : ; 3 3 * * 0 0 f 0 * : 3 3 : 3 3 : # * 6 6 6 ; # * 6 3 3 0 3 ; 6 0 g w 1 z b w y z k b b c v K v v K K u U 2.y.[ B ..B X.+.G i O.X.] >. .p 9 p o.f.p.5.p.5.3.p.s.{ / s.p. .,.5.q.! 5.~.^.f.1.^.XXh.!._.i.S._.L.Q.Q./.i. .5.~.~.~.). Xp.A.G.wX+Xp.~.",
":.!  .L y 5 5 k u u U z 4 y j j G P :.<.! D Z S E.<.B p r ] 4.D t z c c y 5 w 5 j z j y V V P V  .| :.;.,.! s B 8.}.eXeX7.^ <.b.E.V.S D *.7.} V t c w c H x i V 8.<.P i c q i V 8.8.U p p N ! :.,.< X.KXKXdXcXgXnXVXSXAXSXBXbXVXBXFXBXcXgXvXKXSX8XrXdX1X;X(._.z._.>X_.l.l.(.).>XtXQ.L.).S.y.k.k.J X.K T ' ' n K K v I J I $.I q G H H H H z J H T b w w $ . . . 1 z x 5 j g = + Y 1 6 8 3 0 u ) [ r P [ G p ] 5.q.4.E.|.D.}.2XOX!.Z.V.Z.w.V.E.q.4.~.D.}. X~.+X<X2X>X4XlXNXFX1X. . # % # # # * # 3 : 3 f 0 ; 6 g 3 : ; ; 3 0 h h : g n w w g 3 = . % ; 3 3 6 w w l l g 2 6 g w 3 0 ; ; 3 w 3 3 w = : : ; : @ +.o.K 2 j z v K ` ` u i ] ]  .P C ] d.d.@.C G 5 z 5 w w k e w b j = 3 ; 3 w 3 : 3 > : * ; : 3 0 0 : ; ; h h : : 6 * 3 w 6 3 3 : w 3 0 0 3 ; * : w k k l j 2 1 l b k w b z v I G I $.I $.t.t.t.h.a.f.a.t.[ B U I [ [ O.3.) t t P O.O.{ 3.#.C ] 5.5.Z 1.5.#.C 5.s.f.f.F.Q.s.k. X<XQ.s.Q.f.S.5.3.s.f.k.f.s.G.^.F.Q..X^.f.^.Q. XG.5.~.",
"/ D ,.E 4 4 1 5 z z H H c c c y p p } <.| ! ;.%.b.<.[ I s ] w.:.t b y y y w c y 5 j f c L V L P C ! :.<.4. .P B | Z.OXeXb.S D ;.w.H.Z.8.*.*.8.} i u 5 w z z i V <.~ B u j y G R 8.:.B z i ] <.<.! [ < h.LXcXAXmX7XnXbXcXVXBXdXSXSXSXbXMXMXvXBXbXbXrX1X(.(.P.z.;X>X(.P.h.I.,X).>XwX<XQ.Q._.h.l.$.J K k b Y l 2 u Y H T v i J v G c b x k y q i t y = . . . . * 1 y U z 5 x b u e q : h 3 3 e a [ #.s [ X.I [ P ] 6.q.q.w.C.E.^.D.J.V.Z.D.w.w.|.Z.g.^.OX|. XJ.OXwXwXwXfXjXZXsX0 . # % # # # . . 6 ; ; : 3 0 3 0 0 3 ; # : 0 0 f h h k k 0 3 g g h % ; ; f 2 $ w Y k k g 5 g k : * 3 * ; 0 w 3 3 w 2 : * ; % @ _ ) v 2 j k v K _ J a I @.Z 5.9.p.s.j.d.@.{ K w w w l b b w k b 3 2 k 0 0 0 ; ; 8 h # * 3 0 3 : : g 6 # 6 g 3 0 g ; 3 w 3 w g k b w h 3 3 3 3 w w 0 3 k j 1 w j e < z K T +.I G ) ) ) i 7 < O.$.2.G.L.2.B J [ s C { C a i.#.J 2. .Z 2.p.t.3.@.6.p.@...1.#./ 6.p.p.1.p.G.F.k.L._.F.k.G.f.s.3.( [ p.2.G.G.k.s.s.f.F.Q.A.f.p.f.p.5.^.",
"~ ! ,.C t 4 1 6 j z c x U G z z q p ] :.| ^ 7.7.;.C N U ( ,.Z.d.a J i u c z c c y j w c L V B L B Z ;.<.:. .( s ~ w.E.&Xw.^ ^ S V :.C.H.w.8.H.8.B u 5 w y y i C <./ s y k z B } 8.C i k u L ;.<.~ ] [ < >XKXdXAXsX7X8X7XdXbXbXbXFXAXFXFXSXBXBXMXBXrX,X;X(.(.>XdX1X).)._.Q._.S.Q.P.>XP.k.h.h.l.y.I v e w w w e k z j b z t u i H H 5 : j e - Z a.q .     . . 3 j U I z z z i q v i e k w 3 v { 9.1.B { $.X. .P C q.d.,.,.J.E.!.W.C.d.E.|.V.<.Z.D.C.}.wXW.G.~.2XwXwXwXfXlXZXT . : # 3 ; # ; . @ ; # * ; 3 0 0 3 6 3 : ; : 3 : 3 3 k 3 0 0 3 w g k 8 ; % g 3 @ j ' k w w 5 l k ; 3 ; * ; 0 g 6 3 w j 6 ; 3 ; 2 v J K w 5 5 c K J p t O.p.! ,.d.D.W.^.!.s.$.a j 0 w n v k z z w 4 k f 3 3 3 * # ; : # 3 g w 0 3 : k l 3 : 0 0 0 3 ; : 0 0 w w k k 6 0 0 w g k g w 3 3 k w : w e e e k H H I I B J a ( s.g.B p p t X.[ a C #.p.]  .9.Z 9 $.t.s #.9.1.6.1.3.i.{ [ 5.1.1.#. .]  .5.p.5.1.G..XG.s.Q.k.s.h.i.s.s.O.[ k.!._.S.5.j.j.3.5.j.A. .] @.p.6.k.",
"| :.<.| G z 5 1 y H u i I i i J i s ] | ;./ w.Z.,.V t p P 1.Z.q.] a G v K K u w z x y y E P G F G B } ,.} :...Z ,.b.w.E.7.%.! } R V Z d.E.H.H.<.] i j l y 4 r ] q.| B i w i P 6.q.D t 5 u P S %.<.A ] p 4 cXLXcXAXdXyXdX8X7XbXrX8XyXbXgXgXMXMXcXdXsX6X1XP.I.:X:X:XtX4X_.P.L.Q.P.h.l.y.y.I ) J q v b z g 1 3 w w j j H b H K y < + < u K B s 6.^.0     . + @ 4 u B +.+.z q q a $.v q k l e i ( 9. .d  .2.[ P ....p.p.4.D.}.|.OX~.}.W.D.Z.w.<.Z.D.q.J.W.!.A.~.OXwX2XuXfXFXz.. * 3 > 3 # 6 6 * w .   o ; 3 0 3 : ; 3 0 3 ; ; # # ; w @ = 0 0 0 0 h h % . 3 w = b T l w 2 2 Y b ; w ; * : 0 g 6 6 g w * ; h 3 l v J K y 5 1 v o.o.J 9 J @.! d.E.~.F.<XXXG.o.q n w g e k u b y 2 b k 3 3 0 0 3 ; : 3 ; 0 0 # 3 g 0 0 g b 3 ; l 3 @ 0 w k l w 1 0 g j 0 g k k g w w l 6 3 : 2 k k e e y v y t I I ) [ ( i.h.2.t.t.I v v J #.#.j.9.d.j.a.o.r ( ( r @.j.6.C ( #.C C 5.#.2.{  .6.A 6.f.G.5.Q.XXQ.p.F.).G.f.p.k.3.P { L.2X<XG.5.F.j.{ p.~.W.,.6.p.j.5.p.",
"C A | ,.P G j y z I L N [ J < J B ] ..} S ;.w.b.] L u 4 U >.V.<.C L L G z x K y c U p p U i i x i i A ~ | :.| :.8.<.7.<.7.<.;.V U t t V Z.|.H.w.C t k m 5 y L ,.8.A p 5 k i A <.4.A i z i R ~ ^ :.S  ...7 J LXPXmXSXdXMXdX8X8XdXrX;X8XrX3X7XyXdXrX6X>X>XP.z.(.z.P.:X>XG.k.k.G.t.2.X.K ` o.J v T w g l l f % h : 3 5 3 ' Y 6 w 1 r s  .4.| / C.S..     X q z i P 2.f.G - b b n +.) i H H I J B 1.9.| / @.[ B  . .,.q.w.q.|.OX~.|.Z.q.w.w.w.8.q.C.d.D.G.f.f.W.XXOX0XfXZX>X@ . h 6 6 # @ * ; ; ; ; * = ; 3 ; : : = h ; # : : ; : : 3 3 : : 0 w 0 0 0 h ; 3 3 3 v H H c e j k b * 3 . # 3 f 3 3 g 6 w = # ; h w q J K i < < _ ) #.) t P ..1.A.~.^.~.1XwXQ.( J 2 = Y Y T w w g w w 3 # g g ; 6 w 3 h ; * w g 6 ; 6 k w e w 0 6 : 0 l l j k l j w g l 0 0 0 k k 0 w 0 w w 0 g k 3 = w K ` K v i J $.) J i L p.s.S.o.G a v ` o.( @. .P ) 2.) < _ o.s i.p. .B ) #. .( ] 3.p.] ,.1.1.G.p.p.^./.G.k.G. XG.s.G.G.9.p.5.s.p.}.C.:.C.V.p.G.A.F.A.f.C.F.p.p.",
"P V ! :.B F x c u I P B [ L r J ] C  .} A :.0.9.Z L G i G ..V.w.A B E L i z i t N U B B U z y c j G  .<.| ! ^ :.S S w.0.<.<.;.R i y y p :.E.'.E.8.B 4 l m c L ,.8.R c j j i ! 8.:.V u i i R } %.~ | :.Z r < S.KXAXSXcXcXJX8X:X>X>X1X6X8XcX>X(.>X>X>XI.I.h.I.,XP.l.h.S.a. .O.2.[ y.I v T ` K T z f g 5 1 1 . # 8 5 3 ; . % . + T a.g.w.<.^ 9.^.l.. . # w u G U u.p.B 9 K b 2 y _ +.W U +.2.O.V C q.d.9./ ] 6.1...5.6.8.C.!.~.OX|.w.w.V.d.w.d.w.9.q.D.D.p.G.}. XfX0XlXjXv . 0 = : ; * * ; ; ; ; ; # # # # = ; : 3 ; : : : ; ; 3 3 3 3 3 3 w g w w 3 3 ; 3 ; 2 J K v c y u b b : 3 o . . ; g 3 w 6 l w 3 ; 3 h c K J ` v < B C Z a J y. .1.!._.Q._.1XtXW.{ K 2 2 j z H w 2 w w g : 3 : 3 0 w h 0 3 3 ; 3 g g g w w 3 3 0 w 3 3 w l j w 5 j b l w w k 3 : w 0 w l j w k n w 3 3 w j ` X.J t u ` y.) U B [ ] 3.3.2.` J a J J o.i.O.< 9 J +.i p _ K $.s.1.a p o.p.@.Z Z f.f.1.:.f.W.p.j.A.L.G.Q.s.G.A.p.j.9.s.W.t.2.p.C.J.,.g.D.6.| p.A.p.A.~.!.5.5.",
"[ C A } i w y w y K I N P P B J :.C ..] C ,.<.<.s i z x i V 8.b.] V O.[ L U N N N R P P G c j j y G ] } A } | ;.D S Z.b.;.%.;. .i 4 c i N ,.Z.H.'.:.p t i i A :.,.L c j c i ~ w.:.N u i L :.<.7.:...A Z ..Z 9 4XLXSXbXbXKXcX8XI.r.y.x.(.1X,X1X>X(.,XI.y.>.+.u.S.h.$.3.s.[ L I W r.G y b b w f 1 5 f $ $ 6 ; o 3 @ + $ . O . . ' <X}.G.p.D q.P.< . @ = 5 H U +.u.X.u u K b v I I [ I i G [ [ ( Z | 9.d./ Z 6. .q.q.q.~.Z.d.E.E.C.V.8.w.C.q.<.,.,.q.C.D.G. X~.!.fXwXhXk.. 3 0 ; * * : 6 6 ; ; ; ; * + o o : * = : * 6 : : ; ; 3 3 : 3 3 0 w g w 0 3 3 ; 3 : 0 K I z c u k Y k 3 0 ; # @ 3 k : w e k w 3 : 3 ; e _ k u v u s J { J i $.Z ] S.A.k.L.>X3XQ.#.v 1 5 5 j z w 2 w j l w 3 * : h 0 0 3 ; 3 6 3 w w g 2 : 0 0 3 3 0 0 6 ; 2 2 5 j j 5 2 2 g : 0 b n b m u w g g 0 ; : w g v q 4 v I J v ) B ( ] r Z V O.y.i.B a ( C #.3.O.t a r.` u v b _ $.[ i a #.3. ./ C  .5.q.C.~.F.p.@.f..XL.h.3.1.j.j.G.s.p.p.{ #.g.p.D.<.g.~.6.! 1.6.4.C.!.!.f.5.",
"B B ] ..t 1 w w w z v p U [ P Z | | A A V ,.7.:.B u z Y I C <.w.V B [ [ J L L P p ] ] L i c j c x L R Z R  .} <.S Z 8.w.%.%.;.,.B t z F p A 0.H.w.<...L r N } w.:.N y j u B ~ w.:.N i z P ,.7.0.4.! D C } ,.D D FXLXJXSXSXBXcX:Xr.H Y r.5 r.I.l.I.P.h.u.r.U G h.u.+.O.t.X.G U W U y 5 w m l f 3 3 1 + 1 y T 3 # . $ $ + . . O : wX X1.] ,.5.< . 5 x y z H U I i i ` K e v J U B B [ [ L L O.#.] Z / q. .C  .| Z.g.C.|.w.Z.XXE.w.g.4.d.J.4.;.,.| ,.q.j.W.XX~.XX0XfX>X< 2 w : 3 6 = 3 3 6 ; ; ; ; * # # * 3 3 3 3 3 : * : : ; : : : 3 0 0 0 w 0 0 0 0 : 3 0 j ` X.u c u k Y w 3 3 : 6 6 b w = w Y l w 3 f h # e +.0 b c y J J s _ J 2. .5.g.p.k._..X<X~.i.u 4 l j l z w j k g j 3 = : 0 0 h h 3 6 3 w 3 3 3 w 2 1 w k e 3 3 g g 2 l w w j l j w w 0 = ; 0 w w j 2 3 3 3 0 3 0 g j k - = k T v p o.f./.G.f.5.O.B O.{ ( { o.( ] #.#.I v ` I K z q K X.G p J J ( ..q. .] 5.d.q.F.Q.G.1.5..X Xs.1.1.Q.9.9.s.A.5.{ t.O.p.C.q.C.D.,.q.1.| p.f.f.!.!.f.",
"s B } O.z w w w w w 4 t B [ ] C A ,.} Z A ,.8.! J k j l G ..<.<.N B B P C V C V V  . .C u 5 j y y t V } >.} } J.8.S ^ 8.;.^ ~ ,.V t c z i P 4.w.<.%.} 6.} C <.V.R t y k i s <.w.:.N u i V | 7.7.| Z ] ! ~ <.<.r $.LXKXBXPXgX9X9Xz.r.y.l 5 - z.1Xu.W y.x.x.h.+.r.+.+.+.U i G T x < c f 3 l 8 # . w < @ y y r.b   & 6 . 4 z -   . l.tXj.#.) -   . y H x z H G G q i i K ` J I 1.O.P [ O.( Z [ O.1.,.9.d.1.{  .q.d.q.D.q.4.~.}.|.J.4.g.w.V.q.w.C.9.C.W.E.D.^.XX<XXXtX+.@ e 6 g 3 ; 3 w 3 6 # 6 3 = 3 + # : : 0 k l l w ; 3 3 ; : : : : 0 w 0 0 0 0 3 3 : : w n ' +.z z y z ' 2 3 w 3 # 1 l w 1 k K Y = ; 3 ; @ b ` 0 Y y a ) a i G i O.@.5.p.2.p.Q./..X<Xs.i 5 j b u e 2 j l g g w w e 3 0 0 0 : * 3 w w w w w w 0 : g k 0 3 0 g b b k g k k w w j k k w 3 2 0 q w w g 0 : g k w w b b v < p J a J 3.k.p.f.p. .r B { { C P 3.#.s t K H u y ` I u J J _ v p a ( #.6.6.1.f.W.G.p.G.<X^.{ k.2X^.5.5.Q.~.p.9.F.F.2.5.1.5.C.C.d.,.] C.1.| d.q.s.~.Q.G.",
"C ]  .] H z k w 5 5 1 e a P } ! } | ..Z R 6...C t w w 3 q ..<.^ } R B B C P :.:.A | ] P i y j y i B A }  .Z D V.D.w.;.;.%.<.<.:.A V z 4 t B C ! 8.%.S ;.8.V.V.8.N t c b u N <.8.;.N p i Z ;.7.7.^ C | | <.%.<.:.@ P.LXSXBXnX1XrX:Xz.r.c.r.1 l.LXy.@ $ x r.T 4 i +.W +.+.F T T 5 2 3 f > % . 2 r.` _ ) { i ' k . O . q >X_.[ < @ = (.s.a . . : w j c y y y y z i J ) ` ` J { 5.>.) v a J s s J [ 1.5.9.1.] ] 4.w.q.C.q.8.D.W.}.E.q.q.4.q.V.q.d.D.D.q.C.C.E.XX2XaXP.- = ; 3 g 6 = = 1 6 6 3 w 3 ; : = : 0 : h b k b b h 3 3 : 3 6 6 6 0 w w w w w : : : 0 2 w K +.z v u v T w 3 3 3 * 3 l 2 q v K K = ; 3 * : T i u K u v J ) [ G < O.5.,.f.k.i.L._..XXXo.< 1 4 b k c w j g g g e n e 0 g 3 * ; ; 6 3 3 3 g g e 3 0 w w w 6 ; 3 k w w w j w 6 2 j w w w : 1 : = = k g 3 3 k w 6 w e b K u v _ a G B < r  .p.] [ O.k.{ s J #.#._ p u b v 4 v $.o.a v $.o.a a J { ( { ..1.D.|.C.f.<X.X#.j..XG.f.3.p.!.f./  .G.6.( p.p.f.p.5. .C 1.1.@.G.f.s.F.F.F.",
"/  . .V L F G v w 5 3 u a L } } A } ;.S ~ ,.C p q 0 f 5 7 ..8.<.:.] s p B R <.7.:.,.} L i 5 y y i B A A } A S <.E.|.8.%.^ :.4.} } ..L y q v J C ;.7.;.<.w.J.H.:.N p y z u B :.7.} N B L Z ;.7.<.^ ^ ;.^ 8.;.^ :.L < rXLXBXSXyXyX9Xx.c.x.y.T x l.` < . . + r._.+.w $ w ' v z f + :     O + . i /.f.9.q.9.C J w +   + y.aXA.C.6.s . . . . 3 x O l w e u y c v H I C p.2.i J O.6.] G v v _ ) ) P s C { @.1...] 4.w.w.4.D.C.D.^.E.Z.4.w.d.C.q.| ,.E.d.,.Z.^.5XqXeXwXU + @ * : : 5 1 = = ; 6 w w 3 3 * ; 3 3 ; 0 g 0 g n g w 0 : 3 0 0 0 e g w w w w 3 ; 3 0 : w v ' z v u K Y n 3 f 5 1 j l 4 v v v ' w w f 3 w +.u u ' v a ( #.J ) i 2.f.] p.F.3.G.Q.<X~.B - j w b z l l l j g w w n u e g 3 * 3 0 ; 6 ; 6 g g e 3 g w 0 0 h w w g j 5 w j l j 5 2 3 0 w = = 2 q e w : = w k 3 6 l 5 q p v o.o.o.$.K 9 s ..t.{ o.[ 2.{ o.P p ) r.v e b K i p $.i.C a I _ _ v s J { Z ]  .4.G.A.5.F._.p.G.G.6.f.O.] 6.p.#.#.Q.s.C O.5.1. .1.1.] ....4.f.C.d.G.L.W.",
"] ,.:.N F i t y y j 5 j z L } ! Z } ;.;.~ A P t q 6 3 w < V ;.8.4. .P L L ! <.7.w.8.| V c 4 5 y I V A .. . .S ^ V.'.8.%.! S } } A } E G H v u p ] <.;.<.8.H.J.w.C p < c v B ;.%.| Z C  .Z ;.<.%.^ ^ <.~ *.7.;.| E $ Y JXKXbXyXyXrXP.r.Y T c.r.q >X>X' : @ 2 z.P.2 . . . + . . . O o X ; Y < @ { G.d.9.9. .J - # o X +.>X! @.1.k.n . . f 1 ; h ; 3 e b k c U U I 1.q.] B C  .5.6.B K v a J o.X.< s  .@.| 1.@.4.q.8.q.J.}.D.d.D.E.4.d.w.q.,.q.W.C.1.E.^.}.5X5XwX3.- w = * @ 6 = g 2 = = : 6 6 3 w + ; 6 * # ; w g 6 3 3 w w : 3 g h h k n w 0 0 3 0 ; : 3 3 2 k T z v i K T Y f g 1 * y w q I a v T q w 0 0 1 ' i b q J o.( 3.J J J X.f.Z ] f.O.s.f.>XL.9 < Y b y l w l b j 3 = = k K w : 0 : ; ; 3 f 3 3 w w w w g g w 3 : g g 0 g w w j j w 2 3 3 3 w 3 3 b Y Y g w 0 g w w 3 = l x u e a ` ` J v y.) p i l.$.r s ) $.O.J s J ' l k u u p ) 9.] a a J o._ < q ) 1.@.1.4.9.9.1.F..X3.p.p.5.f.( #.5.5.p.s.^.k.1.[ 1.{ ..5. .,.5.,.4. .q.5.f.!.G.",
"<.:. .V c j c x x z l 5 z +.[ Z } ;.<.<.;.} B y 4 3 2 y R ~ 8.V.4.:.B L P Z ~ 8.<.<.:.P q 5 j y [ O.P N R } D w.|.Z.%.^ ;.! R V B B ] ..v y k z V :.<.;.%.<.H.|.:.N p v G U A ! ~ ^ %.<./ ;.b.7.7.%.%.%.<.7.<.:.V U + l.LXKXbXyXbXUXx.x.Y c.c.z.FXhXi.s s u X * g * = . + * . # ; X - >XsX_ X   s Q.Q.i.+.- . . ; . u <X>.s t e Y : 3 w 2 w = 6 k k c c z z P p.J.V. .! 1.6.1.O.J K G p a J o.B r .. ...5.p.,.| 4.d.q.4.q.C.E.Z.q.V.| W.C.4.w.d.q.j.D.}.E.kX0X7 t 4 2 : * ; 3 h 3 6 ; ; = : 6 : * ; = * # * 6 h 3 6 3 h g : 0 3 g l k l k e g 0 3 g : 3 5 5 q u I v a ' b ' m g 6 ; 2 q 4 T u v v w w 3 6 w v v ` 9 J C ..6.s P O.B O.O.O.t.{ a.g.).i.i 4 w y k w l Y l 5 2 ; w b 0 = * ; 3 ; 3 0 0 k 0 * ; 0 g n 0 w w 3 3 : 3 : b l 6 3 w g k g 0 n g 0 g 3 g l 0 3 * : 6 w 0 g 3 @ q i @ @ - i v u 9 7 I [ i r r X.[ ) J a K z 2 e e J o.( O.( J v K K q y I 3.q.! ,.j.3.#.S.).k.F.S.Q.#.L [ t.t.3.1.p.F.3.(  .] O.p.6.} q.,.1. .5.1.,.F.F.",
";.<.,.N i j j z b z l 5 y G L P :.^ <.<.^ ] L u y w 3 q A :.V.Z.<...B s C ! ;.:.<.:.} V c j k c L E L B P A D q.0XZ.^ :.<.} R N t i ] ..G q y c N R ;.4.<.<.Z.H.E.! s L t B ..! ;.%.%.<.;.%.w.w.;.%.%.;.7.<.%.^ :.L 4 1 7XLXSXcXrX8Xz.x.r.x c Y SXGXi.9 a b e b 3 # @ # # # & . . 3 $.hXa.) X   @ q q = .   O O o # @ l.+.u 2 + ; 3 g w T b 2 j y u z F u +.p.A.A.d.:.C @.,.C a I i v X.o.i a ) B 1. .] 5.1.] p.C.C.q.8.w.C.D.Z.D.d.9.q.@.,.q.4.g.g.!.q.}.uXO.B I i e w 3 ; > ; : 3 : * * 6 6 : * : : : * * : 3 3 ; 0 0 g 3 6 0 3 g f l g 0 g k 3 3 ; : 5 2 q v ' I ` X.q k j w k 2 b e < +.u t z l k h 6 g K v ` q a s  .g.P P 2.L O.O.2.1.L t.p.Q.$.i w w y y Y b b l w w 2 w j * = 2 3 h 3 3 : + 3 w 3 3 0 h h 3 h g w g 0 3 3 k k g 3 = = w w : 0 0 w 0 : 3 g 3 3 3 w w j l 1 w u n K X.K v @ 9 +.y.z i i [ O.U s B $.J p n b k K _ J O.{ #.2.o.a u v v i B { 1.9. .6.#.Z a.Q.P.Q.p.F.t.{ { [ P 3.f.s.G.p.s r ] O.6.5.} ,.5.6.G.5.] p.J.q.",
"^ 8.q.C i y y c H j j 5 q i B P ,.~ ;.<.! ] G y y j 5 q V 8.J.V.| ] B s / | <.<.<.,...L z j k u i G F G E R D w.#Xw.! :.,.:.} N t p A  .L y w y N L A <.:.;.8.0.H.Z.| D N R V A R ..C } 8.<.7.b.7.<.;.<.8.;.%.! E G c - ' FXLXMX9XyX8XP.z.c.T 8 c.I.+.u 9 q h : * 0 o + 3 # . : l Y r.>XX.v @ X . . . . + & , > % f $ x x 4 3 6 ; 1 w w b T n w c b W X.J >.6.8.q.8. ...9.q.C p v H T K _ ` K p $.C ] 1.6.6.1.4.C.d.q.q.C.C.Z.D.C.D.~.d.! 4.w.g.C.D.|.W.wXa.@ < +.' ' n g 0 ; = * 6 3 6 * ; : ; * : : = # * : 3 3 * 0 0 h 3 : 0 6 3 3 g k 0 k n 3 3 3 : 3 1 q H H v +.o.< y b b y 4 ` t 9 $.J u k k 0 6 3 k K k K i v s :.f. .( t.[ X.[ $.$.a #.G.L.) y u z H Y Y j w u b b w w w = ; w 0 f 3 ; 3 # * 3 0 f w w 0 : 0 0 e k w 3 3 3 3 0 w : ; g l g w g 0 3 w k 0 0 g g n n K K v G I #.S..X3XtXP.C i y.y.` a $.h.2.C ( o.a a e b v ' ' i K I [ o.$.o.J a i q i ] ( p.1.C O.( 2.k.~.t.t.h..Xh.[ a ( #.s.A.p.5.3.r ] ] ] 1...1.d.d.D.5.p.A.p.1.",
"^ w.Z.>.p p t i H y 5 6 4 u i L  .! ~ ~ ! ..G 4 4 j w t Z 8.J.4.A ] L B ] ,.8.8.<.:.] N y 5 w w y z i F L P A J.&Xb.~ S S } :.A G L } :.L i u t F L A ~ S S <.<.%.w.Z.8.~ Z A } L L p V 4.w.w.0.7.<.^ <.8.%.;.| L G z Y - (.LXJX8XI.rXbX9Xr.c.x.m 6 j Y e 0 ; # 3 o . . . 6 T Y 3 1 - v ' < : X ; 3 # . 6 & , > > j c 6 j l 6 > 3 ; j l q b ' b k H X.$. . .! |  . . .,.1.4. .[ u z K v K K J J o.C ] 1.g.5.] 6.C.C.q.8.C.C.d.D.q.A.A.1.Z  .6.<.V.}.E.kX<X$ @ . 2 v ' m w 0 : # # ; 3 w * # # # o ; : = ; : 6 : 3 * 3 3 h : : 3 3 3 : f k w n k 3 3 g w 3 1 q T v y $.y.q z K t i i o.a L o.U v u w 3 0 0 k b q 4 u v p  .g.O.{ i.[ I I +.[ C 2.S.h.a y z v H H w = 1 2 l b w w k w g 3 3 3 ; o # # 3 3 3 w h w w 3 w 0 0 e 0 0 g 0 : 3 w 0 0 k : 0 3 w 0 = 3 w : 0 g 0 e v K i z i 9 B ] ( h./.2XO.< < G +.i B t.2.3.{ s t _ b a p K K u u u G J G o.o.J a B p P ( #.3.( P ] C S.!.P a.^.3X!.2.#.O.5.p.s.9.F.F.1.#.O.1.,...,...5.1...5.5.6.4.",
"^ w.Z.4.Z B z u G i 5 6 c v v G G p A } | | ( p < f 5 4 D 8.w.| C C B B ..<.8.8.<.} L F 5 f l c y y y I I Z ! E.oXb.<.;.A C ! ] B L } :.] U J t G E } } ;.;.7.<.^ S 8.D.w.^ S | B r r ] 8.w.Z.b.<.%.^ ^ %.%.<.~ I q z U p p dXLXFX:X;XMXrX:Xz.P.z.x.r.T l m g b x : : 3 ; w w @ + $ - q k e b 0 T Y l f 8 > h 3 l x T j j j 3 3 l f g l K Y b l k z a ( ] ,.,.q.,./  .@.| |  .[ H H v q v v i o.G (  . .,.6.5.C.C.Z.V.8.q.w.d.Z.Z.~. .r C  .8.<.Z.|.#XfXa . # # + @ e Y n w 3 3 3 ; 6 w 3 ; ; * # : : ; : : ; 6 3 : 6 : 0 ; 0 0 3 g k k w w e n 0 k m g 6 2 0 v u i y.$.a K I i $.a 2.P [ O.J K e w k h 3 3 l u < H K p ] 5.] P 3.P I I G I P O.k.s.a < q y u u e j b j j k l n l b g w g 3 : & o * 0 w 6 3 : : 3 w l l 0 : : w w w 0 3 w 3 0 k g w 3 g k 0 g k 3 0 g 0 0 u i 4 4 l q e q @ 9 a O.h.3.L < i J G a r 2.o.a p v v J a i ' K v p ) J t p 2.y.{ { s r 2.#.i.F.1.B ] S.k.{ s.XXk.~.G.G.G.p.! ,.p.D.d.A.d.q.C.q.6.q.1.@.p... .s.G.C.",
"%.7.4.4.} P G i G c j 5 w k v z i p R  .} ..] a 2 5 3 4 N <.8.| B B B B | <.7.0.<.C i x j k z w k w q J [ ] <.R.E.7.<.<.S A ! ] i G E :. .I L z i P | :.;.;.<.;.;.~ D ;.V.w.~ ^ } N D 6.w.w.Z.n.<.<.%.%.%.%.;.| P p i B O.7 y.LXKXbX:XP.,XyXIXP.x.z.P.x.r.T l b g j 5 = y c 2 c v c K H H b x m H W l j j g x l H +.T 5 3 ; g m g 1 3 l ' Y l k z J J ] ] 4.q.g.#.C { @.| ,. .P J ' K < J K a a [ C  . ...5.f.d.q.q.C.d.,.q.C.d.V.|.6.B C ..C.E.'.OX0Xt.+ 6 % % # @ # : g k g g g 3 6 3 w w 3 6 6 3 : * 6 : : 3 3 3 : : 0 ; 0 0 3 5 w w g j g k = g l f 5 y k K < a y.) K I ) O.t.r y.s J X.v T q 2 g k ; 3 n w w T ` a ] 6.P X.2.J ) I G J B { S.s.a 7 4 v H v T b K u = q e e b l w w l : = ; f 3 3 h 0 3 = ; 0 3 0 0 w : = 3 0 : : w g 3 3 w g k 0 3 3 3 g n w w g j j 0 4 4 w z ' ' _ v q q p O.$.+.t < G O.P r J ) o.v 4 v { B 9 a v v J y.+.P p +.$. .9.#.s o.#.5. XA.1.p.f.p.( 1.^.k./.!.f.F.5.D ] ,.q.G.d.1.@.p.1. .5.1.,.,.Z 1.f.s.4.",
"<.:.%.4.,.] U i I v j 5 w u k u y t [  .} ] P B y f w z R <.<.| B a L C ;.<.7.w.:.Z t 5 3 3 w 2 k k w a Z ..0.R.R.0.8.<.~ ~ ] R B N A :.>.P N G i B ..:.;.:.<.<.! } :.;.! w.V.<.<.<.;.8.V.w.w.0.0.<.<.%.%.%.%.;.V r L L } ] 9 <XLXLXrXu.I.tXKXIX9X:Xz.z.u.r.T r.H 5 H U T T I +.X.U +.H r.T x H T W H 4 c x Y ' H i v w w 0 g 0 5 3 z ' w w l b H ` ) ( ] 6.,.] C s { ] | | / Z p T I a _ K K ) #.#.{ / ,.5.,.1.<.4.C.C.8.g.d.,.q.Z.] N P 6.d.V.}.#XL.- $ & 8 O % # + + # w l k g w 3 6 3 w w 3 : 3 : 3 h 3 * 6 3 3 : ; 3 ; 0 f 3 3 3 3 g g g k 3 k l j w c b K a K +.a v a [ 3.O.G t.t v v e b q = w 3 # w m e 4 k a p  .5.L X.o.a I I J J a [ f.#.p a v K v v v u v u u v b v w 1 = 2 f ; : g h : : 6 0 0 0 g 0 : ; = 0 0 ; 3 g 0 3 0 w 3 : : 3 g g h 3 3 w h 3 3 0 w w = = q z i K ) +._ e 0 v q < I K u G $.i.1.( r ( K y K { | s u q 9 a ) p.p.B p P { 1.9.{ ( ( 1.A.j.9.p.j.j.C 1.f.F.j.G.~.d.p.d.|  .q.C.1.! ] f.9.,.9.9.5.C D f.f.....",
"7.7.S 8.:.] P B ) J y 2 2 e e y y t [ ] ] P B i w 5 5 G A } ^ ! B G P R :.<.7.w.| P i 5 5 3 w j = l H K s C ;.b.q.:.<.;.;.:.} V L G V } :.V N L i B A ~ ;.<.7.8.;.:.:.:.<.<.w.b.^ b.0.7.b.w.b.Z.0.<.<.%.%.%.^ :...N C R Z | V p JXLXbX1Xl.,X,X:XyXPXPXI.r.l.r.r.r.U T y.h.u.+.+.X.r.l.x.W H W +.T T +.H 1 H ' ' T q r.Y 1 w 3 3 w j b H c j b u ` $.{ C [  .Z ] ( ( { C ..9.| ( ) _ a p _ J ) _ B B  .1.|  .6.p.<.w.C.d.C.J.d.<.V.q.}  .6.^.Z.w.~. X< 2 8 % 6 # . # ; 3 ; : k l : w k w = 2 2 ; 3 3 6 3 g 3 ; 0 0 : 3 * 3 6 3 g 5 3 6 3 w 2 w k w l g j j b ' K J v v e u i 3.3.p $.y.9 ` v n b q 4 l w @ k ' k u e u i 3.a.G G I t J K K H i [ G.{ s _ ` v q J - < K ` v k u u u w = ; ; ; 3 g : : : * ; 3 3 0 0 0 w 0 0 0 0 w 0 0 3 = = 2 w g w g k 0 0 0 3 3 : 3 w 6 w ; w K K ` p 7 u n ' b e _ K I U [ B J { s.i.s J ) H p #.s.i.#.a t p s ( p.O.p B C Z @.Z C C @.d.9.4.9.3.1.#.5.G.j.5.~. Xp.1.G.E.W.q.,.d.,.,.W.s.1.9.9.q.,.] 9.p.5.@.",
"<.,.S ,.<.^ } L i c z z c w w e < U ] C  .X.i w 1 w 4 U } } 1.C P R P C | 8.7.8.C B c j 3 w j j H K G G i V ~ :.V r Z 8.7.8.:.R [ G p R ....L i z B A } :.8.w.0.8.<.:.S :.;.~ 8.0.;.w.b.w.Z.Z.Z.w.*.<.7.%.&.%.:.R N C :.S ~ R r l.LXKXdX_.' 8XP.x.UXIX7XP.x.r.r.T r.r.W h.x.W u.l.W r.u.y.W u.r.T Y x 5 z b z T r.x T Y j 3 f j T H x z w y u v y.$.J J i B P [ [  .Z  .d.d.,.6.( ) B i J v _ v B [ O.#.C 1.1.q.q.w.}.q.q.D.q.q.C.! ! D.w.H.w.w.G.i - ; 3 % 1 3 3 * # # ; + ; g b b j j w 2 w e w : ; 6 0 3 3 0 3 : 3 ; ; : : 3 3 f f 3 6 0 g 3 w g b w w T ` o.s _ K m w H J $.i y.+.9 K v y Y l e w 3 w g j w $ w i ) J I G G I J _ K b b 4 o.9.Z P X.K ` ` 7 i I I y 4 2 q u w z b w 6 ; # ; : 3 0 3 ; = = : l h 0 3 3 6 3 3 0 0 w w j w w k n : 0 k 0 h g 0 0 6 6 w 6 g b 2 e u u w 2 q _ l.X.P 1.2.1.f.p.s p H G y.2.) ` q J _ #.a.a.r C J 9 [ p.L a O.] O. .,.} q.q.4. .] ( p.G.f.p.G.j.G.F.~.!.~.5X}.q.C.W.f.| 4.g.g.g.@.! @. .5.p.p.f.",
":.| Z } ,.~ | R F c c z c z v i G G B B [ J 4 5 1 w t G  .] ..N V R } | <.8.8.<.L z j f w w 5 4 H H z G O.>.} A p i R :.%.7.:.} ..P N V ,.>.L t y i C } } ;.<.7.8.<.:.;.~ ;.%.%.<.8.Z.Z.7.w.w.V.w.w.w.%.%.%.;.;.R L R } A } } V - 7XLXmXyXI.(.cX:XUXz.z.z.x.x.W T W r.r.z.x.r.+.I.y.l.z.u.U H W T H y 1 j j y k Y f 1 3 $ 1 x H K +.Y w 4 y K o._ a a K K I ) [ 3.5. .5.5.1.] ] 1...C G _ _ v a X.O.[ [ ] #.] ..q.q.D.C.d.4.q.^.6.r 4.b.V.w.w.G.s < 2 1 8 3 w 2 6 : ; * # + # * w j w e 2 2 0 0 0 3 : 6 6 6 6 3 3 3 3 : : 3 3 : h 0 3 w g w 0 = 2 j g 3 - H X.$.s $.v b e i ) 2.t y.y.p v K z c b b 2 6 w 3 w 1 5 H z u v I I i J a J ` Y Y 4 o.i.] [ t i ` K 7 G G i z H b H b y c b l 2 1 : w : 3 3 3 w e w 3 3 : : ; * 3 w 3 3 w w 6 = ; 4 u w 0 h g 0 h k g : 0 w w 3 0 j q q e g g w q e u v J  .1.Z  .p.y.G 4 4 J _ ( I i < q s o.i.C J G 7 B 5.1.[ [ B ..6.| C 1.d.4.@.] { #.j.!.A.^.j.s.^.F.E.!.}.^.s.d.s.d.@.,.| 1.q...] ]  .q.6.5.s.",
"| ] V R | | ;.} L i y z i i s i ) i t L H y 2 ; 3 w w x [ [ J s V } :.<.<.7.7.:.B t 5 5 j c c y G G i N [ :.:.8.N i p P } 1.C V >.[ N r ..[ G y 4 p V | ;.%.<.w.7.<.<.<.%.<.<.%.^ 8.b.n.Z.b.<.<.*.0.7.%.;.S ;.} R [  .} } S } P + l SXKXSXdXI.:X:X:X:X:XI.z.x.u.+.+.u.l.h.u.W H l.x.r.H y.W H Y 5 j l l f 1 5 w x 3 w 5 5 j k w T K z K I v ) $.J i v ) ) ) ) [ #.2.#.3.5.1.,. .1...] P [ _ ) { L L I P { #.1.6.q.,.D.g.q.,.4.#X4.D D.E.V.,.5.#.7 t j 5 f 3 w 2 2 6 ; * 3 : ; ; # 2 w k e w w : 3 6 6 : : 6 6 : 3 3 : : 3 3 : ; 3 : * 3 g 6 : * # j j k 2 K I J #.y.K v u i o.t.i X.u.i u ' b 2 H T 2 5 w 6 b 1 # b u y I ' W - +.J i v Y x q o.p.C C ] G 4 G +.J G U +.K K K K k z b b 2 w w 3 3 3 3 3 0 g g g 0 6 3 : * 3 f 3 : g k w 2 0 w k k l g h 3 3 w 6 * 0 g w 0 0 w w 1 1 6 3 ; 0 k e e u i P L s o.i.v 4 z v ) o.I v 4 q q G _ v e u J Z 1.1.( P B { 5.] C O.2.#.#.4.{ { 9.p.1.j.f.f.~.V.J.!.D.F.G.G.W.G.1.4.@.1.q.@.1...1.p. .6.d.",
"] P G L ] | %.} P i y z F N ] O.E 7 t L G y 3 ; 3 f f k G U B B V ;.<.8.<.<.7.;.B i j 5 4 y z F G G i i P C :.J...N 7 p P  .s p ..O.P p N L z v y i L ..} ~ ;.7.7.7.w.<.^ %.7.%.^ ;.%.7.Z.Z.8.^ <.<.<.8.%.D :.6.A  .,.;.~ A V i T + y.LXJXcX;X9XP.x.:X>Xh.r.u.K.y.I r.l.r.r.x.T r.l.c c l.Y w b $ & 2 f 3 2 5 3 l f Y j j T 3 2 w v v +.$.o.#.) K a J J P J B B {  .@.#.,.1.1.]  . . .P ( O.{ ) N L +.I ) (  .4.,.q.g.4.q.q.w.Z.^ 4.<.<.4. .s p U G c w j 6 2 w j 6 # # ; # + # * w g g 3 2 3 = : ; ; : : 3 3 : 3 3 : : : : : + ; : : 3 0 ; 6 w * x b x 2 K J a i._ v i q v #.t.I I y.9 q X.k 2 y b w 3 : 6 ' < = b 4 < H T +.< I ) J K k y 4 O.5.] #.] 9 t G X.I v i z u b H l b Y Y n w l k @ 3 3 3 : : 0 g w g 3 3 0 : : 3 0 0 w g w j j k b n b w 0 0 3 k w * 6 w 0 w w w w e w 3 w * = w e k e 7 J +.p t _ _ i K _ o.{ I i X.+.a t a k 3 k $.( 6.1.( C Z ( { C a G ) O.#.9.{ { 1.#.@.9.4.q.D.q.D.F.C.W.~.XXwX X5.C.q.1.,.1.q.6.1...] 6.f.",
"i i i N Z ! :.:.P p q c F i C ,...r s L i y g g : 3 g g z G i B A ;.;.<.<.<.7.! R z j 5 4 i I I H z y y i N P p.6.] B p i G z t N ] [ V i u i i H F L R } ;.%.%.<.<.8.7.<.<.%.<.| ^ ^ ^ b.b.w.w.b.<.*.8.;.D ;.;.S ~ ;.;.! A N y 5 H @ I.LXJX7XyX9X>X:X,Xh.+.I.I.P.y.r.r.y.y.l.r.r.+.y Y T $ 4 y 2 @ 2 w 1 w w l x j b k k x x b 1 j v I J J O.P J J J J ) { J B C  .@.@.....O.C C  .1. ...#.{ B U N I J G p .. .} d.q.,.j.Z.q.| ! ,.~ :.] ..J I I I b 2 5 3 w j g 2 ; * * + # 3 ; 6 3 k k w f g 0 ; * ; : ; : 3 ; : : 3 : ; 3 # # 3 3 3 f ; ; 6 1 k Y b 2 z p X.o.q q b e q o.2.p z X.9 J r.y w 2 j l * 1 2 ' q y Y 4 1 b c ' q X.o.a v k 5 y $.2.N O.r d #.B J v v u e y v u < w b k 2 2 w 0 @ w 0 3 : 3 w 3 = 3 3 : : 0 3 : h g 0 w : 2 w q u w h : 3 3 : g k 3 3 h g w g w 2 b n n b b w : 3 l g v I $.) t _ $.J a J ( B [ J { i.o.a p u = m ) C | ,.( ] 1.#.#.C p t ( 5.9.@.#.{ { ( 6.j.1.| V.w.q.C.G.F.~.XX2X2XC.C.q.1.! @.5.6.1. .1.1.,.",
"y i c F R } :.:.] N i H F p V :. .N V [ P t 5 k f 3 3 w j z G L } :.%.<.7.w.0.! P t 4 5 c I I U z y y y 4 y i B R ]  .O.p u c c p B R E G i u u I L G L } :.<.%.%.;.<.<.w.0.<.<.;.~ ~ %.<.7.8.V.b.w.<.V.b.7.%.S ^ <.8.;.A V G c z H $ $ 6XLXBXdX7X6X8X3XI.h.I.S.I.z.y.+.u.+.W $.l.h.U x k q ' r.x q H z w z v ' Y b j b H z Y x w c v _ v p J ) z H J P $.$.) P ( { ( ] 1.1.2.O.] ..1.1.C J ( K P L I J i p ..1.6.9.q.q.Z.9.! 1...d  .5.] ..O.B +.I v e k k j w 3 w w ; ; # ; 3 * ; : f g w f w 0 ; * : : : 6 3 ; ; 3 : ; ; 3 ; * : ; ; : ; ; # 2 2 b b z H t o.i y 4 v n < ) o.q z +.t I r.k c 1 k m ; 5 4 _ u 4 Y 4 1 b y ' u +.o.9 p k j z $.2.B a C 3.#.{ $.K K u 4 2 j u e w b k w w w 0 0 w 0 0 3 3 3 3 : : 0 3 ; 0 0 3 0 3 0 w = = w 1 q w w : h 0 ; 3 g 3 3 w g w j j j g 0 0 e m b w w 3 w v v O.$.v J $.$.o.J ( ] 3.( 9 ( #.{ a a < e ) ( | ,.( Z #.9.k.{ L O.5.5.1.!  .P C ( C q.j.q.C.d.4.5.f.f.s.j.f. XW.d.q.1.! ,.5. . .5.f...Z ",
"w j z U R ] } ..E t 4 z b q p  .:.~ ~ :.] s q g j w 3 5 5 j H E ;.<.:.%.7.w.8.} R i y c z G G i y w w k 3 5 y z t V } q.R r t c i a V [ J a i G I L i L | <.8.8.;.:.<.8.w.w.<.<.:.^ <.<.<.<.<.<.w.n.n.H.Z.Z.8.%.<.b.b.<.A N i z y z H 4 4 SXLXBXyX9X8X1X,X>XI.S.y.r.$.+.$.G +.y.l.l.X.v X.X.+.h.+.i i u v K v T H z k b b z z 2 z Y T K K ` ' H v K v G o.{ J J 3.#./ / 3. .{ 2.3.{ { o.( a v a ] ..P P U U  .1.,.q.w.C.q.! p.O.9 y.C P  .1. .P P J G p v v l j w j f ; ; * # # # * * 3 3 f k k 0 3 6 3 : : : 3 ; ; 3 : # ; : ; : : ; : 6 3 : . l e l 0 T ` a o.y y 3 g k q o.J i U y.K K T c z 1 : m 3 6 + ` v $ b 2 @ Y c K u i +.v K k 1 t +.[ 2.] ] { r J J v t q k b T b e e v l j w 6 3 g 3 3 3 0 3 : 0 g : 0 3 6 0 h 0 0 * ; g w w c q k b w 3 h g w h k h 6 : 3 w k j k q < q - 0 j w w 3 w v J P { ( s { o.$.J ( #.d.{ 9 < J P ] t.` 9 ( { 6.p.{ s ( [ 1.N C p.9.<.9.| P a { i./ 9.W.D.C.C.q.1.d.d.4.6...F. XG.d.4.| q.6...] 1.1.! ] ",
"1 5 j H P V V A  .p 4 c b 4 t ..| <.;.^ ] B i y w w f w 5 y U R R 4.6.;.} :.:...U z c j z G G p q w j x j 5 w H x p D d.5.V u i J U P R [ J B L P B i N ! ~ 7.b.;.} ;.<.7.<.;.:.:.~ <.<.*.<.;.^ <.w.Z.H.b.b.b.%.7.Z.Z.8.A s u x z t i H < Y LXLXPXyX,X9X8X1X1XP.u.h.$.I y.I +.h.u.y.t.I o.h.y.s.G G G ) $.+.v v z 4 T z q H w w H H z v K z k Y H I u i ) ( J ( 3.{ / ..3.Z s [ [ B ( #.( a K a ] @.C ) o.[ ] ..4.4.Z.4./ D. Xr y.VXy.P Z 1.5.2.L [ o.K v v k w b w 6 1 5 1 # . + # + ; 3 3 w : 0 h h 3 ; ; ; : : * : ; o ; ; ; ; * # : : : ; . j b b 2 K +.X.X.x $ 6 : 0 K y.a H I u.+.` z c b w @ l m ; . r.K $ W w . Y x K q i o.i H l 5 x +.B s 6.! d C B B a q u T k u u i e b n l k g h h = = : 0 w 0 0 w ; * # : 3 3 3 0 ; = w g l l w b Y w * : 3 g g 3 h 3 # @ w k w e v b ` i < e u w j y K X.B C $.#.p s J i ( | j.k.v 9 a C Z 3.2.9 t L 1.f.2.Z { C p.C B 5.| ~ d.q.O.a P t.( 4.W.C.A.G.W.d.9.C.9. .1.F.2X XD.,.! q.1.1.1.1.Z ] 5.",
"6 4 y c G B P  . .p 4 y y t p ] :.~ %.} R L G y j j 5 2 w k v L O.R E N 7 G G G v e z H z i L q 4 c x i 4 4 z 4 j i N ,.5.R p i C P P L L [ ] ] P N P R A } ~ 8.;.} } ~ <.0.<.S :.;.;.<.<.<.;.^ ! ;.8.7.0.w.w.w.0.7.H.q.A V y x c c z H F @ (.LXKXPXcX7X8X>X>X>XP.h.+.$._.l.U I.P.y.$.i.l.s.h.y.) J 7 [ ) X.v q H K K v u T k w k x 1 1 q 4 w v T b H G G G G P ..] | @.{ Z B [ O.I P @.#.Z P P  .O.[ L p P 1.,.;.7.Z.d q.lXC - KX;XaXP.B P 1.O.t.O.) v v u K c l k w 3 w ; * # @ @ 3 ; * f f w : 3 3 3 3 : 3 : f : # ; # # ; : + # ; ; 5 : . w m ; m w z y.v k +.1 1 = 2 v y.I i t y.+.p ` e H * 5 g m ; @ ' Y @ m j + Y y H v q X.' x l . Y U i B ( /  .C C { a u i t < v H k w u l e w 0 k f * : 0 e w g 0 = * : 0 g 0 3 w w 3 w 3 w 3 w 5 * w w g = ; g w * w : # 6 b w w v K I J ` i 4 K v c x b l v a G 2. .Z i q r j.1.| d.Z 9 G < 9 O.J G 4 G 2.J Z #.1.2.O.r r ]  . .1.O.U i i  .D.W.d.j.j.A.W.W.C.5.] 1.!.XXF.A.9.j.4.C  .f. .Z 6.O.",
"1 y x c i G P P [ I z q i J B Z Z } 4.5.E W U t 4 y y 2 w q y i P  .r t 4 $ 4 z w 2 j F H F U J K G N L B i i t c G R } } B i P  .] B G G [ ] ..P N V R } } ~ :.} V V } ,.<.<.;.;.~ ;.7.<.%.^ :.~ ;.^ %.8.8.<.<.7.<.E.J.S N G c y F F y x 4 4 bXLXVXPXcXsX8X;X>XI.P.(.h.l.>X)._.I.y.y.i.o.y.i.2.2.i.[ P { $._ _ ` ` v t i T c 5 c z 5 5 y j z b y y v K U G i I { { { { #.O.O.#.B p s ( #...O.[ s [ O.[ P d ^ w.<.0.Z ,.wXG.N ).aX3XP.)..XB B C P y.+.o.i v i z k x l 3 ; 6 2 ; = * 3 ; # * : 5 3 3 : 3 3 3 3 3 : ; * ; ; 3 : o . # % + # ; = ' g 3 j w z ' 4 u +.4 2 : w K $.9 z z l.X.t I q k w 1 3 l g @ b k 6 Y w + b c ' q < K T f f . x I i o.o.] ] ( 3.s a i z u J ` I v H j w = * = g j w 6 ; 3 0 0 0 0 ; : 0 w 3 : 3 w 2 w w w 3 3 3 3 h 0 0 3 3 w 3 : # ; 3 j b j k v u G J U U z O.+.z 5 w 0 j v u B 6.[ v u a p.s.@.,.6.o.G a 9 p p i t < a U s ] #.3.t.a t ) o.P B J X.$.O.1.C.C.4.A.q.j.E.q.d.C.p./ 1.~.W.W.W.j.9./  .5.@.Z O.] ",
"t H H q t U [ B H G t p ..1.] D r C 6.1.L L P B 7 t y 5 l j y y [ ..s < < 4 g 5 5 5 j j G i G U O.C } d.D.:.N N B N A :.~ D C 2.8.} N N G L B B P B B A ;.;.%.;.} p p G ] ..;.8.} S ! <.w.8.<.;.S ;.S S <.,.~ ~ 7.%.Z.E.8.A V B p G G t G u @ l.LXPXPXSXcX7X;X>X>X;X,XP.P.>X(.P.P._._.a.i.L.Q.S. X^.L.f.2.y._ u a ) J a K ` u u w l z b b b b v v u v H v v v I ) { ) P J { { ) ) I ) {  .]  .B B s P 1. .! | ;.8.| N fX/.C P.3X<X<X_ ZXy.).3Xh.a [ { P ) a J K u b Y b w w 3 ; . + ; 6 ; * 6 w : 3 : 3 3 3 0 3 ; 3 3 ; # ; ; . ; ; = # ; X w r.. 3 * j ' K - b r.c 2 1 2 ' u.i 4 z l.I q ` y b j 1 ; 3 w . b Y w b 2 . b 2 b 4 q m Y 5 l * J 2.X.J a r ( #.J 9 a i J v ) _ i z Y 0 w l 3 : 3 w g 0 : ; = : 0 0 3 3 : : 3 3 3 w 3 g w w g w w w g 3 3 0 w 0 3 w = : 0 w j e w 2 c K H z q y X.$.I v z q u i a a { { v v v i.W. .r 2.#.a o.) ) B 1.p.J i U G [ C [ 2.I i ` X.U B p a ' I s  .q.q.q.A.G.d.6.p.C.A.@. .W.W.j.G.d.p.@.9.q.@.] O.C ",
"v K F q i [ I i 1 4 < i 1.q.<.Z C [ { a G G O.5.A N u y j j j y U ( { Z 9 r 4 w j j j q u u y p  .,.w.J.|.E.V.4.,.C S <.<.S Z ,.8.:.V G z z t t E L V R } ;.%.:...p 4 y i P | <.} Z D ;.<.w.0.S S ;.} Z } } S ! <.%.<.b.E.V.| V L G G G v u b + >XLXSXKXSXcXyX8X1X1X>X,X3X).k.>XP.>X,XQ.Q.<X.X_.F.t.f.s.O.) _ u a $.o.o.K v - u k x b v b K v e v z v v H ` I I G ) I a a _ ) P U ) o.O.] Z [ ( o.p d ..| 4.q.~ q.d /.4X2.2.>X).tX{ ,XCXX.P.KX4Xa.( C #.Z ( [ i u k c j j w 6 6 ; # * 3 3 ; 6 ; * ; ; : : : 3 3 : 3 3 : + . + : : + . # w @ ' b . l + z +.n . Y T z w j - +.l.i 7 ' l.K - K e b w 2 6 % 3 . Y r.3 k = . Y 4 j w : n b = h = L S.O.9 - a ) s r i G v K J ) J t i u 1 w j w : ; # ; 3 3 * * 3 w w 0 0 : = 0 e w g w k k g k k g w w 0 3 0 0 : ; 0 g 0 w w b b Y b y 4 < y q t a r I J v u a ` O.O.( ) u e u _ i.[ < P [ p s o.$.9  .j.s.#.U F [  .p U v z T I I 2.) u v i p / 4.4.j.f.5.d.G.C.,.6.G.A.W.!.6.5.G.D.9.q.1...{ ..s ",
"G p 4 c X.o.G < 2 w w q i 1.0.%.] J y 4 w y U t.g.} i c 5 w j z t P d 4.|.g.L 7 4 y u z z z u < C | w.E.oX|.C.,.8.<.^ <.8.^ ~ 8.8.:.N N y c q i U P V R :.;.:.;.R B t y c G A } ....} ~ ^ <.b.8.} S | C S | S } ;.<.^ &.Z.J.b.| >.p G i x j j = b JXLXSXSXmXmXyX7X>X_.>X;XP.;X3X).P.>X<X).).<X/.h.a.O.P o.J a ` J o.X.o.J v v K b c u j e y u i i v z H ' ' K u i J K a a K ) I I X.#.O.C s ( [ P  .( / ,.,.,.q.B 2.yX(.X.P.).4Xi.).DX>X+.s.FX4X3X,X#.Z 1.#.B [ a H z v b w ; # ; * # * 3 : 3 3 o ; ; ; ; = : 3 g : # * : ; ; ; o # ; # = x ' . j l . b T e @ g Y 4 w T 4 +.X.< v y.+._ - K k w c 6 6 # 3 . e ' w b w . l w b 6 : k ' 4 w @ P /.[ - { i.B < J I o.i z K J I J z e n l w 3 l l w 3 0 0 : ; 3 0 0 = w g 3 3 0 w k w k g w l b b w : 0 0 w w 0 3 2 w w g e k n ` ' K z u J K i J K p B J a v _ o.O.J u 2 w u 9 a X.L X.O.P s B ) < < [ d.s.I 4 L S.) i u e k b v a o.v c H o.3.@.@.j.6.5.A.j.C.G.d.p.j.1.j.p.j.!.W.C.,./ ,.5.( N ",
"P t 1 j K J e = j w 2 2 < s <.w.! p 4 3 ; 6 y U >.[ i 4 k w y H y t C W.iX#Xp.p p J i u c v v p 9 ;.E.].|.J.8.D ~ <.! :.8.4.4.8.8.:.V G i z e z U P B P R } :.:.} E B z i z V P R [  .~ ^ ;.8.w.8.S ! S ~ ;.S :.4.%.%.%.%.w.b.q.4.R r i t H y c + I.LXSXPXSXBXcXvX8X;X1X:X).4X3X1X;X>X1X<X).>X>XQ._.a.] O.t._ a $.[ G ) v a k k z z k k u u v ` K _ K K H v u 4 v v v i a v J K I [ O.[ ( [ 1.] ( @.,.,.,.~ |  .9 6XgXh.G I.<X/.a.ZX3X,Xa k.hX3X3X_.k.{ p.{  .B [ X.H q w 0 3 : * # * ; : 6 5 f # ; ; ; # # : 3 3 3 1 3 f 3 ; O > # ; w . r.y + l # + ' k 2 6 w w w c b < r.X.- K ' v K < K k 2 H 2 1 ; 3 . e r.b k w + j 2 x ; k b T w g : #.~.1.1.W.9.s P o.P X.v y u a J G u u e w w w g l b h 0 3 0 w 0 3 0 3 0 w 0 0 w 3 : 3 w 2 6 j b b j 4 k j w l k g e : 2 0 : < < q u K K z a J p q ` ( #.y.o.v u p p X.) z 4 q i a o.P {  .Z C s p q - p { #.I i i $.$._ v w w b i t G v l y o.2.@.4.5.p.G.A.1.A.^.W.q.p.9.A.W.~.~.W.j.,.,.p.1.]  .",
") u 1 1 q e 2 # : ; ; 2 1 7 C q.,.( p 3 = 3 j y y i y 2 g w y c - 7 G.J.8.8.O.L 6.p.v 4 w j v L D w.#X'.H.R.E.;.^ ~ S A } :.:.A A } V L J v y v U H F L P A } } R :.} R i i i G N P ] C ;.%.%.;.w.<.%.^ :.;.! :.8.! ;.<.^ ^ <.w.7.<.S A p N F c y b BXKXPXJXSXmXdXdXrX7X1X>X1X4XrXrX1X;X,X>X;X(.(.Q.h.s.3.j.p.C 2.I i W H k w y z v v k K _ K _ ) I v v v z z z a a G G v J J I L P [ J P [ #.C @.@.,.q.^ | ..r z.FX7X4 t.<X2XS.tX1X>X_.( $.aXrXQ.(.S._..Xg.1.C J G K v e 0 3 : 3 ; 3 3 ; : ; ; ; ; ; ; * # : 3 ; f g 3 3 : ; # % o ; : 3 ' # = 3 . k r.q = 3 w 3 b k q 4 r.+.v H q q v e b u 4 T 2 1 > % . e y.T 2 1 $ k 2 l $ u v z 4 g q a.^.D.OXd.| ,.,.5.C t G G i I I u u v - 2 m k 3 w g 0 3 : 0 e 3 0 k 0 3 : w g g w = 5 5 1 2 e c v c k K k w l k j j 0 0 0 - u n n v t t y G o.X.i 7 ) v J _ _ ) ( s s #.$.) B #.d d  .,.<.} ,.] s a v u q e b Y u < a v b u q K J J _ K y = i ) @.q.|  .5.A.C.C.C.D.D.D.D.G.G.Q.G.p.9.p.9.1. . .@.",
"a z 5 % - 2 0 ; * : 3 6 6 < 9 Z g.4.s + o 8 l w 2 5 5 2 5 b x 5 4 v 2.1.r < p p w.D.J 4 3 1 y [ C.;.n.b.7.;.V.D.q.:.R N P [ ..N R [ J i v z q i J G B P P V B N V :.,.| V p t z G L R ] ,.8.%.%.%.w.<.<.<.%.<.7.;.<.;.~ <.~ / %.*.0.w.<.:.N t G i . z.LXPXJXSXbXdXcXyX1X1X3X1XsXcXyX>X;X1X1X1X(.(.P.P.Q.1.p.s.{ U I I +.z q c ' v H v i K ` v v J v v ' T v v K K J J J I I i 7 B P O.[ [ C ] ..@.,.4.! D ! ,.s dXLXl.- _.>X<X4XaX>X).3XP.< <XjXk.P.h.P.fXg.p.p.5.U I +.v 0 : 3 5 ; 3 : ; 6 ; 3 * ; # ; ; ; : ; # g l 3 : ; ; > % : : . ' w $ 1 6 X b r.0 = = w ; l l z J X.I +.v + e u n n e 2 b 1 6 > # . q r.b w w = m w k + q v c < : q P. X^.E.:.^ 4.!  .C B t.+.i I G p ` K : e Y k 6 w ; 3 0 0 w 3 = : w w = = 0 g k k g f 5 2 w w e k e e w = 2 e e n Y n b b q m ' n q y 4 v K J o.$.K I - < i u X.i.{ r ( { { C 1.] ..4.q.w.8.4.O.[ s #._ e w w e n q < u K n u b v J o.i 1 @ v ) { 4.@.@.4.j.j.D.j.d.C.D.j.p.j.G.F.9.p.F.9...1.9.@.",
"w 6 3 w w = * 0 ; ; w : 6 0 1 < C 8.q.d - k 3 3 f ; 5 2 < T K 4 w q i G p 4 y 7 4.Z.C < w f w G 8.b.<.^ D !  .P C [ L t F z z i i J I v q u k y B  .....[ B i t 7 } V.} r N G < H U L ] <.<.7.<.&.<.7.:.<.<.7.w.;.%.<.:.} } A } ;.<.7.V.Z.<.A N J 4 - dXLXAXFXAXSXsXdXgXdXgXgXbXcXcXyX6X1X1X8X1X(.(.Q.).u.t.O.B G I J X.+.I G U v K ` K v ` _ i q v K v K ) v J _ I a i K ) U P ....O.P P .. .1.| ,.| C Z 5.B h.NXMXu y.).<XwX4X).).>XNX3X9 t.tXk.k.s.(..XS.0X~.F.2.[ [ $.b k 0 1 1 w 3 0 g j w w 3 ; # ; : ; # : = : 3 3 3 3 ; # : : g b + 1 b 0 3 r.l b @ 0 3 ; 3 h j U y.B ) q w l 1 2 Y h ; Y v * # # . G y.e w w 3 w 3 l @ q 4 j y 1 0 ).5X#X<.~ ,.d.Z ..d.1.A V [ J J K K q k b j l k w 6 k w 3 w 3 3 3 w g : : w g b n 0 w l w 3 k 0 j j e e < q b n b l e b b b w w k u y y y v J a _ l.y.u q s a a v { 4.| d r d ..,.! } ,. ...s p i B #.#.{ _ 9 : n b q v v q +.+.a q v K q < u v { 9.9.q.9.j.W.j.q.D. Xd.p.G.F.p.p.5.9.D.9.1.d. .| ",
"g 6 3 3 g w 6 ; * : ; : ; * ; = t } d.,.a < * : 6 ; 4 < u K z 2 ; = w H j 4 5 y S Z.{ 9 2 3 1 y R ,.<.| C Z B p F I F y y y y 5 w l H k q e j c U B R  .P G H y 4 V g.8.N N G y c z L R ;.%.;.%.^ ~ ! %.<.7.7.8.7.;.:.;.} } R R ;.~ S ;.Z.H.b.:.s a - v LXKXMXSXAXVXvXNXgXNXBXMXdXgXcXdXrXrX>X:X3Xh.P.;XP.+.$.[ G I P P [ P U I J _ _ J v K _ K q v v K J v v a a J v i K o.O.[ [ P P P ] ,.,.:.8.w.! ..] ] E 4XKXu.v )._.jX>XP.Q._.1XNXaX< ) 4Xs.s.a.,X~.1.5X2X^.g.p.t.X.I H 2 K j w f w k k w g j 3 * ; ; ; # ; ; : 3 3 : : h ; # . w l @ 2 Y . b Y l k = w 3 ; o h l G t.[ P v c g 2 3 b h # H w @ * : $ i +.v 2 3 # 3 w h . Y 2 5 j 1 v 3XaXD.d.Z.C.q.4.q.q.:.} | 6.( B a _ v v l 0 j w 6 = : w w 6 3 3 3 3 n w 3 3 3 w 0 : 6 k g 3 w 3 g w 4 i b k k e u q 0 j e e 3 w b b w v H z y q q K o.) o.o.K v i s  . .#.3.( ..@.A D Z B P I v u i s { #.J e w g 3 w k w < k K v v v o.b j w v ) #.#.3.@.9.p.g.q.A.W.f.C.G.C.9.a.s.f.p.A.p.p.4. .",
"; : 6 6 f k w * * : * 3 6 * : 6 = < ..5.] s u w 1 1 1 4 v z 5 3 3 : 1 5 2 ; ; q Z g.#.i 2 3 : 4 N P  .1.P p q y c H F x x z j j w j x c w 5 y z i i i r U z 4 y 4 p  .g.R N G v j y N [ } ~ ;.;.~ ] N D ;.7.8.;.0.<.;.;.;.} A A } A D A <.V.E.J.6.Z p @ r.LXFXvXAXAXvXbXBXBXMXNXbXdXgXyXrXyX3X1X;Xh.P.(.h.y.a.$.O.O.O.[ C L J B ) ) J a v K v v K v z K v i b v i i v v t G X.) G G L ] ] | q.9.~ <.:.5.9 a.y.GXtX@ t.^.jX2Xh.>X_.>X3XaXjXr p tX$.i.L.wX_.L _.wXf.g.!.A.p.[ W I I H z j w 0 w l 2 w w ; ; ; : : * 3 3 ; : : ; ; 8 ; . k l . 2 j ; r.3 n k = g ; ; X 0 w i y.X.P v e = 2 w k h + b w . ; 6 1 < W X.y 5 ; 3 w f . Y 2 j j @ ' 6X1Xj.d.D.D.1.j.q.! 4.| |  .] C s a v u n n l 2 ; w w b l 2 w w 3 2 0 0 0 3 ; 3 3 3 0 g w 3 g 0 k e 2 u T b e w j 0 j l w w w w n b w T ' v 4 q q i i K o._ K K v a G P { 2.9.1.p.A.] Z r G #.) K J [ s s K l k w 1 2 w g k j k k k q v b w w i J ( ( { C ( @.q.9.d.C.d.j.j.j.5.s.k.G.G.G.j.f.5.d.",
". # # ; : g g ; : ; : 3 w : 0 : 3 = t B L O.+.y w j 1 y z 5 ; 5 3 3 3 ; : 3 : w B 1.J u w h 3 3 y t p K v 4 2 f 4 y y y c j y 5 f j z z y < 4 H c 4 p t p z y 4 y t r 5. .N p i j y i R ] <.8.:.] R N N ~ 8.8.%.<.<.<.,.;.} A A :.R N V A <.Z.H.Z.~ Z ] @ r.KXLXvXgXBXBXvXFXMXbXVXdXdX7X8X8X1X1X;X;X(._.P.P.h.$.2.{ { [ ( [ ( a ( o.` J K K v i K K H ' H v v v v u v J a U X.I i U X.1.} ~ w.w./ ! :.C L wXh.FXU p .X2X>XG._.(.>X3X>X3XtX_ < ).k.{ h.fXL.B h.wXh.2.G.g.C.V.t.3.O.I u q w w w 0 w w w 3 6 ; # # . ; ; # = : : : 3 6 . x 3 # g # Y r.. k n 2 j @ : * : * t t.[ ` H y = j b w h = b j . : ; = $ K $.u w 2 3 l h @ b = k b @ u.jX<X^.W.^.W.C.W.C.C.4.q.4./ ( @.#.{ +.n u w l l n b l Y b 3 w w 0 2 3 g k h w h g k b w 3 w l 0 g g l e c w e b l j b n w w b j k k 4 b K w e v b K u v s 9 y v K J v J 9 p { ] { p.q.] s B s a a J y.P 9 u l k j l w w j b l k l n q y k w w k v J J X.J ( { q.q.p.p.9.j.G.A.5.g.A.~.W.p.A.G.9.A.",
"# # # * * ; ; 3 ; ; : : = : : ; 3 5 1 4 e a O.L i y t K x 1 3 3 3 * ; 3 h : ; h y i 4 2 6 3 : 3 3 5 1 = 3 3 0 ; f 5 1 2 y y y y 5 e z i i i i p x y i p i U x 4 w w 7 1.1.R r G i i i V A :.8.;.L L G N A ,.6.;.! S | ;.:.:.~ } 6.B u i B ] <.8.n.w.w.D L - W MXKXvXgXVXMXAXAXAXBXMXMXgX8X1X,X;X,X(.;XQ.,XP.i.O.i.2.#.O.[ ( P P s ( ) K b v v K K U K H z v e u b u u J +.O.[ J v I G [ A ~ n.w.;.S Z r (.,Xa..X7 L.Q.2XL.A.L._.4X<X>X>X4Xa.P _ ;Xa h.lXL.r F.2Xa.P A.5.,.f.F.s.p.O.t q k k b u l w 3 w 3 : ; ; = O + : ; * ; : ; : 1 m # 2 b . ' l = n k w l # = : 0 X i u.G i K v 1 l b e g ; l w . ; * # + k X.p w 3 2 n 3 = ' = u b - u.gX3X_.XX2X!.D.d.j.~.,.j.q.@.| @.1.{ K b w 2 e l k e k g g w 3 w l k g k k w w 0 w h k 0 0 w g 3 0 w b j w @ 1 b l l e e w e k n n e j l 2 2 k l b z b i s e y u J J v u w l u p ( ! ....{ P t < y z X.y.a < 0 w c x j j w l j w 2 3 w c l w 0 e v i u v i a ( 9.9.1.@.] f.^.C.p.~.^.~.s.p.k.F.p.1.",
"; # @ # * 6 6 w 6 ; 6 * # : ; 6 2 2 ; 3 : < L 6.p 4 t W H 2 > ; w y 5 : ; : ; : $ 1 1 6 : : ; h 3 3 3 ; ; : 3 > : 6 ; 3 j j j y j u a i U 2.[ i G I N t I +.v 5 3 y p  .4.:.Z L N G V R A | <.:.V G F L V } } V A V R ] R } R } R i x x u s C ;.7.7.b.8.} V < p rXKXvXvXNXvXbXbXbXbXbXgX1X;X1X1X8X1X>X(.).P.i.2.) U U I U [ O.2.@.( J K k u n K ` ` K z u v e n k v v G L L G B X.J r Z ! <.w.<.! S 9 h.>XP.h.p t.1XS.2.XXP.h.tX4X).3X,X3Xi.).t $.k._.1X.Xr f..X3.B f.p.} } p.!.S.p.P i y q v b Y j 0 w w 3 3 : 3 = ; : : ; ; ; # 3 g l   k k @ b * ; g k l x . 3 : : . i y.e q _ k = w k e w * j k @ * 3 3 ; w _ v k w w l : : v = k v - l.vX4X2X.XwXXXF.F.W.q.4.d.q.,.| ] / ( u k w w 4 j u < w 6 g l w g l k 2 3 w w 3 3 3 : w g g w w 3 w w j b l * = w 2 w 2 3 3 w j l b k l 3 = 1 y y q = < y J X.v q t p e v m b u t ( 1.d Z  .O.u y c y y K $.$.J < y w j j w j j w 3 3 5 5 w ; : w w < e u 4 q J o.] C O. .#.p.j.4.G.!.F.f.f.F.F.p.5.",
"; * # ; * 3 : : 6 : ; * * ; ; 3 : 3 = 1 1 $ u $.L r p I v 2 : ; U X.y * ; : ; : # 6 : 3 ; ; = h 0 3 : : ; # ; : ; 3 6 5 j y y y w c v v L [ E R ..N V R N z G q 1 e ] } 8.8.S R R R R } | ^ ;.| L N F L V V V N L N V L V R A } R B x y z i B E :.8.7.Z.Z.4.A < < 3XFXMXdXgXMXMXnXmXnXdX7X8XyXcX7X8X>X>XP.).s.o.L B i i U [ O.2.p.#.o._ i k K K ) U G J a v u n e v K U B i G ) { P ] ..| <.} Z ! D a.4Xl.;Xu.r jXi.$.h..Xk.>XNX1X).,X,XtX2.hXP.+ z.4X_.<XZ 1.G.5.C 5. .6.N L G.F.h._ i i a J a Y l w w w 3 3 ; ; : : ; ; 3 3 : + ; f j . T 3 3 g . : e j m w + w : M X b y.- e K v q w v v k : w b * * 0 3 3 = _ $.b w w l ; 3 b 4 b v - z.SXrXhX<X3X5X^.~.G.Z p.d.d.9.| / Z ( u k w w w b b k w 2 w k w w w w 0 : w j w 0 e 0 0 g g 0 k w h g w g g 3 * 0 1 w j w e l j e b l 3 6 ; w l j u e u K o.$.` a a ( [ o._ J ( / | 9.Z V U G y c y j g < { Q.3.7 4 3 l l 3 2 6 5 f f 3 1 3 * 0 g 3 2 j j 0 i J _ B P ( #.@.6.C.p.F.F.G.~.G.F.!.G.f.",
"* 6 3 6 = 6 * @ * : # : 3 # : : = 3 2 2 6 6 4 i #.C C L t < h 3 v K 4 * : : ; 3 > 3 % # ; : = ; : 3 : * ; : 3 # 3 h 5 5 5 5 5 5 = 5 b I p < 7 I  . .R  .L < 4 z 4 q O.} 8.8.:.:.} R A } ,.! ! ] E F F F L L B F G i i i G L B P [ G v v k y i L :.S ;.b.Z.b.4.} < @ ).FXgXMXAXBXbXmXbXvXsX6X;X>X(.h.(.>Xh.a.s.[ y.$.G G W I I U ) { $._ < y ' K +.G a _ a u v v q u K +.X.B s J N Z 1. .C A R :.S d NXvXK ;XB S.GXJ y.k.>X_.cXsX).3X_.).hX) rXhX+ < 3X1X/.r q.d.{ Z 3... .B p P a.f.) i J 2.t.U t e w w 3 w 0 ; ; : ; ; ; ; ; 3 3 : j l # T   g l ; = n e m = 6 0 : 0 = +.r.@ n v K v k k b g ; 3 m 6 * : ; : * v o.u 4 u v * f K : k k @ h.SX8X6XtX3XwX XW.6.q.6. ...@.6.5.6.O.y w w b w w n b w e j k u w w 3 k w w l w 0 e e w 0 3 3 n g 0 w g = ; k w w 0 g k 2 w Y k w k k @ w k l j w v b u b s 9 i p J { [ J B ( @.,.,.Z ] L N 7 t q 4 l g u { s.i.p @ 3 w j w 5 6 5 f f : ; 3 : 0 f ; g w w 0 b v i e J J P ) 2.#.3.W.d.!.~.G.k.~.Q.5.",
": ; : 3 : : 3 : ; ; : 3 3 : ; ; ; # ; 3 6 : ; =  .,.] ] p - 6 : k 1 6 : ; # ; o ; > 3 : : # # : 3 3 3 3 6 ; 6 f j g w 5 k j w 3 k w u E 1.] 9 t t I 6.A ] C N p q q p ] d.Z.<.;.:.! C C ] P L G F c c F H F i z 4 y t i J G w j c I H G U W t p A ! ~ :.8.Z.n.<.Z 9 - h.FXSXcXbXVXbXdXgXcX1XQ._.h._.(.;X>Xh.p.f.t.B B 2.2.+.I J a a X.K i I X.X.K i u v u u K ` J i k b b J s d C  .N i i I  .R 9 L.LX;XK l.X.FXy.9 ).P.h.1XNX>X1X3X).>XtXU hX3Xu . [ hX/.s 5.!.3.s { t.B J G i ] f.t.r N 1.2.2.L I i u j 3 f 3 3 3 3 : ; ; : 3 3 ; b k 2 x . m : ; = 0 j j 3 w w - : * y.e v u v y < k b K = 3 n g # 3 ; : * j e I K v b w 5 b ' < v v < z.BXrXrXsXjX<XG.p.f.C.s.9.s.k.f. . .O.i k k w w l v u v v a i u k j w l j b l j b b w w 3 3 w j e n 0 g 0 ; 3 3 : g k k j l k k k j l 3 f k j l u e y 1 - < p a K o.{ P J B L  ...] ....C ] ,.{ < z k l b q _ +.u 1 3 3 f f 3 ; w g 3 3 3 ; # 0 3 ; 6 h w g w * = w b k ' X.I B { 9.A.~.F. X!.^.9...",
"+ : f 0 ; ; 3 f ; ; : : : : ; ; # ; : 3 : : ; - B ] P B L t 4 = 3 : 6 ; ; * : : 3 : * * ; ; ; 3 3 3 3 3 : ; 3 j l f 3 3 3 w w w 5 z G ..D.C.L 4 4 i R :.Z | 6.g.P p t a  .q.<.~ 8.} C B L F z F F c c c z c y y 4 u G L i t 2 c q z z H U G P B } ;.A D S 8.b.7.8.] t @ y.SXJXbXMXBXcXgXsX>X(.P.l.(.P.h.I.h.5.p.5. .] O.t.2.X.I o.` z c c G 2.o.J v u e k u i G ) J u e v a C  .:.E N i H F N V V ZXFXP.r.+.>XhXp +.<XP._.<X3X).3X3X_.3XtXX.NX>X< l.< y.4Xa V !.a.( ( { $.[ U L N ] S.a.r [ f.1.p.t.O.I y w 0 3 3 3 3 3 : ; * = 3 * n u w l = l o ; * 3 b m k 6 ; X ; 0 ' 4 z u u u q u b ' w X b l ; f : : : b c r.K K ' w w 3 H - v J < Q.FXgXcXdX6X<X).G.p.A. XG.Q.G.p.p.6.B J J v e k Y b z i u a v n u w k 3 j l w 1 w j w : w w 3 1 3 u u g w g w 3 3 g b w e v b v j 2 1 l w 1 1 1 2 e b l c z K J a J P [ [ ) P L B B >.p.1.,.| 6.P z y j g < e v u w 3 3 3 : * # 3 0 ; : 0 : * 6 : ; 3 w 0 g h * ; 0 w w b H H i P #.d.G.j.F.!.f.9.d.",
"* 6 3 3 : = * : ; : : : : : : ; ; : : : : : : : i I L p L [ ) J < 4 = 1 w 2 ; 3 # + # ; : ; ; : 3 3 3 3 6 : 6 3 3 3 3 6 3 g k g x x z B 8.Z.O.t 7 t 1.D.| | 1.p.o.i q t p A ! r 8.} V B F c c c F G G F y c c y t r ] :.] D 9 t t t y z y y X...A ,.R p N } 8.8.0.<.] L $ z hXKXhXvXvXsXyX6X>X;Xy.h.o.[ a.3...1.] ,.8.6.5.t.2.X.y.H c y c H z H v H e < ' _ v U Z Z s B [ [ [ ] } R R N U G i p P.KXMX_.` P.fXt.O.(.<Xs.>X4X(./.tX3X_.sXtX+.sXz.u sXX.- P.$.C A.p.( ( O.y.[ X.[ r Z [ 2. .]  .g.p.6.O.P K b c j w 3 3 w 6 3 3 3 > # n n j 6 g g   : # w b l b ; : ; : b ' q b q u v k v e K j @ H H 1 f 3 3 0 l 4 r.` ` T = w w z - K _ < ;XKXNXgXaX<X<XwX.X X5XQ.s.G.A.p.p.6. .{ ) ) a v I v i u v v y q u e 0 = w w = 1 2 w w 3 w j w w e e b w 3 g k g e 3 2 j k v k w w 2 2 0 : : 6 = 2 l b b z v K J t p B L B i t L O.P 9 1.5.6.Z 6.O.p q l w = 4 0 1 f 3 3 : * # @ ; ; @ = 0 3 * 6 6 3 h 3 3 h f 3 h g 0 j c w u K o.#.p.5.5.s.C.,.f.G.",
"3 : * 3 f ; + : : 3 3 : : 3 3 : 3 3 : ; 3 3 3 3 y U I s s .. .o.u q = 2 H j & ; # ; : : : ; = + 3 3 3 : 3 3 : # 3 3 3 5 w g g j j 4 p V ! 8.6.s B s q.V.8.D N G G 4 4 < 7 ] 4.8.~ ! N G z c j j F G G z 4 c x z N 6.}.}.V.4.~ A B t y 2 6 c U ..~  .P N P R } ,.;.<.q.[ B - 9 aXFXaXjXsX3X6X>X;Xy.o.$.+.I B L 2.5.q.C.J.!.F.s.$.o.a i v H v t v [ [ i 9 ) ) B V ~ ,.q.5.] V P R A :.] B p G i < KXFX1X;XK 4XS.O.i.Q._.Q.4XtX,X>X1X).;XsXaX+.,XX.X.tX).[ < $.B 3.3.( #.[ { P o.O.t.1.Z ..2. .R  .1.6.p.1.[ J i k x w 2 w 3 w f 3 : * b K j . l g . 3 @ b k ; h : 3 3 * Y m w x $ v K u u 2 b b 1 Y T = 3 : 0 g j 4 ' J ` T 1 k n v < _ K q >XKXNXrXsXtX4X<XQ.!./._.Q.^.~.~.f.1.6. . .O.( P X.J J u z z y q k j 0 j j w 2 e 2 1 = w 6 w j n k w n = : g g 0 w g j b b b j w w w j l b b g = 2 k 4 w e e u K J _ ` a $.$.I G ) K a P 1.6.A g.p.p @ 1 1 e v 4 - 6 : : ; * # ; ; ; = * : : ; 3 3 3 g 6 6 h h h k 0 : k j w v K X.) ( 3.p.F.W.p.s.5.",
"3 : 3 f l 3 * 3 ; : : ; ; 3 w 3 3 3 3 3 g 3 6 3 1 G 1. .^ ~ ] C X.v q j ' l $ ; 6 6 : : : : 3 3 : : : 6 3 5 3 : l w 3 3 3 6 3 j 5 j t B ] } ] C ,.~ <.<.:.p 4 6 j j 5 3 q J 1.q.<.<.C i y y y 4 i I U x q e j y i 5.OX|.'.].'.}.,.] L - f l p R 4.4.R B B G U R | :.4.4.1.p t 4 ,XGXNX4XtX1XP.P.l.G G X.G H H X.2.] ..q.!.|.L.2.$.O.L X.I i I P ] | | ! | ! ;.;.w.w.b.V.! r p E } :.} V t I t r.gXFXP.(.l._.B _.i.l._.>X3X1X).<X1X<XrXtXhXy.h.o.$.wXF.2XI - y.k.J ( t.( $.o.o.t.A.p.] R ] O.1...6.p.5.5.5.{ G v z z y w w g f 3 3 6 n ' b . b 0 o > # b j @ k w : f o l w j l @ b v i k q c b q c T w l w w 0 u v K X.) ' 2 z H K < v v p 3XKXMXgXyXtX4X,X(.<X>X<X<X~.~.<X$X!.f.,.,.@.( [ ) J K v y v T _ b l e j w 0 w w w 3 = 1 = j n l b g g 3 0 w k w 0 k j q e w j l l l k w g g w = 3 g = = 2 e < e K i J G O.+.O.G r a o.p I 5.4.w.d.K ; 6 6 j Y q . 6 : * @ o ; 3 : 6 g 3 3 * * 3 w 0 3 w h f w g w : 3 k 2 g K b J P J ( #.j.5.j.A.p.",
"3 : : 3 h g 3 = # ; : ; ; ; : 6 6 3 3 3 3 0 0 0 5 t L ,.4.4...< ' b e g Y w # 1 ; # # : ; ; 3 h * : 3 : : 3 3 5 w 3 3 3 3 3 3 5 k l k 9 r B { Z ;.0.w.w.| R 4 1 5 5 5 w w y a Z 4.4.Z t t y x z t H T K 4 w w e i E p.w.H.oX|.|.E.C.>.< j y L } ;.<.A V B B B 9 V C ,.5...[ i 4 < S.hXhX1X,X.Xh.2.+.+.X.u i c H U C ] 1.g.E.~.F.p.1.#.{ [ P 2.t.:.V.E.Z.w.<.0.w.0.*.7.0.<.Z 7 E } S ;.} L v i 3Xy.>X1XP.+.y.k.a.y.k.>X,X>X>X(.>X3XtXvXtXhXt.+.$.O..XF.F.k.< 9 Q.[ B #.O.i.[ P 3.t.f.1.1.1. ...[ 5.p.6.6.p.O.[ G i z y 2 w 5 3 3 f 3 u +.Y 3 b # ; 3 * b w 1 m k # 3 # g ; l g 3 w b b n c b b w z K y l k l q k H a $.` T 1 y Y b < v i a 6XKXvXdXtXrXtX4X3XtX<XtX4X X^.W.^.~.C.q.5.@./ ] J a v i y v ' b k n j w 3 3 6 2 w g w 2 j m n w g k g k g 0 g h 0 w ; w 4 = 1 j j j w 6 * * w 0 w w + = 2 b n v K u b I i < r B B s r a L ..:.4.q.+.c w g e k @ X 6 * # # @ * 6 : 6 g w 6 # # 0 h 0 0 0 h g f h 0 3 0 b 0 0 g k q v J a C #.| f.j.G.",
"# # # + : h g : * 3 3 3 : * * ; ; ; ; ; = 3 0 3 w 1 - p J _ K = w w ; ; w ; . # 3 ; : f 3 : = ; ; 3 5 3 : : 3 3 3 6 6 3 w w 3 3 5 5 w w < G o.d ,.V.Z.V.<.1.u ; 3 3 6 w 5 1 y i  .,.B 7 y y z z 1 5 y j w w u w g y i Z ,.D.E.eXqXE.d.R i q E } S ! ] ..! ! ,.R i t G p B L N U p < [ P.1XaX4X/.1.O...] L i q z t a ] ,.| p.F.!.A.d.p.| ! ,.4.q.V.J.J.q.w.;.%.%.w.<.w.7.<.A < L } ^ } } B < r.3XP.X.dXP.- y.,X$.y.Q.<X).<X3X<X4X>X3XyX8X1Xs.$.J [  X~.O.u.p 9 B a.( { $.( B B O.3.1.5.!.f.5.[ [ >.3.p.5.] C J G J J v y 2 5 3 : f w e ' w l l o > 3 : b w 1 b j + % ; h * l 2 5 6 w w w b +.K y W G y 2 w b q ` $.q ) ) +.q z v H u ` i e 4XFXgXgXyXdX4X1X4XsXsXtX4XXX XC.f.C.q.C.q.4.@.{ J u v G G K v i w w 6 0 0 3 : 3 3 3 0 e n b k 6 : 3 3 k 0 0 0 3 3 0 w b e 2 3 5 1 3 2 w 1 = g j l m q = 1 j b b e e v J G 9 r B { 5.@. .[ p L q.p.#.i : w 3 : = = : @ * * # # * 6 3 0 : : * ; 0 h 3 3 : = 3 0 w 0 0 0 0 : 0 2 2 < J X.) C 9.j.9.@.a.",
"* : 3 ; + ; 3 3 : w l k w : ; 2 * * * * = 0 0 = * : - - = = w ; # : 3 3 3 w 3 ; # ; : 3 : 3 ; O ; : 3 5 3 6 : : 3 3 6 : w g w 2 2 j w w c z G B ..q.w.;.Z.q.a : ; ; 1 g 5 1 5 4 L P t y j 5 w w j 5 w w j j l l f f y 9 Z q.~.DXiXD.E.,.i q L P A C ^ ,.| ,.J.!.p < p i p N G G N L 9 9 W h.2X<X!.f.1.5.O.B p ' G L L ] ,.,.,.1.C.A.C.g.9.q.d.] } E r - A } ^ <.w.7.b.%.^ } 7 7 } ;.S } ..< 1XP.Q.B 4Xl.+ (.P.y.h.>X4X_.<X3X1X4X1X1XtXvX.Xh.y.@ t. XF.5.a 9 i.< P y.$.P J { o.O.R >.6.F.g.f.a.O.[ N O.O.( O.X.G G G K v y z x 5 6 w k K + k k : : 3 w Y w $ 3 3 # O 3 l * j # ; ; h w 2 k K v I H y z y q H q ` y.p o.o.+.< v v i i X.i q 6XJXcXNXhX4X(.3XhXgXsX3X2X_.!.L.F.q.,.4.1.,.1.#.J i K I G G H u 4 = o g g w 0 g 0 3 w b n e k l 0 0 k k 3 0 w g l 0 0 : w k Y l 3 w j 3 w 3 j j l Y k w e = v v = 9 i J [ ]  . .@.6.5.9.9.i i [ ( ..U e e = * * @ * o # * o . * h h 3 = 3 3 f h h : = 0 X 3 g 3 w w 0 3 e g : b b v p a p 3.2.( p.i.",
"; ; 3 ; 6 5 * 3 : 3 * * w j v v 5 3 6 ; : 6 6 : ; 6 3 : ; * ; # # : 3 f g w 5 5 3 6 > : # 3 h : ; ; ; ; 3 3 3 : w w 3 3 f w w j k j w 2 y y F W R ,.q.w.b.C.1.7 5 3 3 5 f 1 3 3 2 2 2 3 ; 3 f f f w w w w w j w g 3 5 z t R OXHXiXZ.].d.p w c t N ,.n.R.~ S <.J.} r B s p B L U N G G F q t N R u.5.>.1.] ( H ` {  .:.Z C 1.1.1.,.5.3.>.y.O.+ t p N u $ p >.^ b.V.Z.b.7.%.A G < R ~ ! A D  .4Xz.$.P.+.u v _.l.i.).<X4XQ.tX3X3X4X3X<XwXtXL.Q.>X@ ) .Xt.p.p 9 t.2.@ h.h.E I +.G U O.p.p.,.6.g.K.t.5.2.....3.2.t.u.O.[ L G H b k 2 w 3 b K < b j : g * 4 K : = ; l : . f ; ; j . + # h : $ x ' U G z t v z u K K t y.r $.$.J q y H v v J i I hXFXMXNXgX3X4XjXjXtXtX1X,X3X/.5.A.!.d.4.g.d.,.] ] [ o.J G K z u u j 0 6 g j w 6 6 * 3 g w 2 g k 3 2 w 3 3 n n 3 0 e k ; e n m b g 0 3 3 3 w 2 ; ; j w 4 ` o.K v u a { #.( {  .6. .C d ..f.B q J 9 3.$.4 l 3 # # . . # . . o + : # ; : # # 3 g w w w w w g g w w k w @ 3 n w j k e v u u a _ J o.i.3.",
"5 ; 1 3 f 3 % : ; : # # * w K ' 5 w w w f f 0 3 3 ; * * # ; 6 : = : : 6 3 5 6 = * % ; ; # : 0 : : : : : 3 3 3 3 : w g k k w w y j 5 w w w 5 5 u 7 D 4.E.R.w.] p 1 3 3 3 5 5 5 3 3 3 3 3 ; 3 w w w w w w w w w w f 8 l j y L Z.xXxX|.'.<.i w 3 2 i } E.|.~ r / Z.:.C B B ..2.R V N L L F U U L N p V N N C L t < N } 8.8.C P d N B L - + p W - 1 y y j 2 y R ;.b.J.J.n.7.%.;.W < D ;.~ D ] DXi.y.$.vXT + l.(.X.i.1X1X;XP.rX>X>XaX,X).,X,XP.3X).< t L.5.f.p a i.$.$ +.P.X.L +.W U O.[ >.5.1.6.p.5.g.p.E E 2.>.>.1...O.[ X.I I z = 4 5 b K 4 b b k ; # e +.6 * * l ; . 3 # 6 k . o . : # + y Y H z u K z z K I K i t.C ) o.I a v K v v K i G sXFXNXNXtXtXgXVXvXaXhXjX3XXXL.p.p.A.g.8.C.F.g.5.6.] P i p i v v n b g 1 6 0 w 0 k w : 6 w l b m k w 3 : w g 0 : 0 0 3 0 w g g k g 0 w 6 w k : 6 2 w 4 v T _ J v v ( 3.{ Z { C d ( (  ./ ( J p v i _ J e g : = ; + . o # ; ; o # o + + : h h 3 j b j w m k w w w g w w : w 0 0 w 0 l k u u v i _ $.{ ",
"z c c 5 = ; ; ; ; = * * ; 3 v b 6 3 5 f f f f 3 w 6 ; ; * * = 2 < = ; ; ; 1 2 = = * ; : ; ; : 3 : 3 3 : : : 3 3 3 w 3 6 3 2 w k 4 4 g k w 5 2 4 t N <.E.E.4.B t 2 j k 3 ; 1 1 3 3 3 3 3 3 3 w g w w w w g 2 w j 1 5 f 5 5 t :.0XxX0XH.Z t 5 3 j t [ }.XX] 9 ~ E.|.| r i N ..:.Z ,.] L G G L G N E E R L U U j 1 q C <.w.R N t q @ H 1 + 4 K 5 1 4 w k j $ B b.b.V.Z.b.7.%.;.O.t 7 ,.^ D ^.LXa.$.y.u.T < o.Q.y._.,XtX_.k.6X;X1XtX(.>X,X).).hXh.i - o.a.3.t G o.B i t h.$.X.y.+.G G t p  . .O.2.1.1.f.>.V ....} ] ]  .>.O.[ X.I G v j b ` q y y k 3 3 n +.2 # # g : . 3 . 5 f . o # : + . 2 x z i K K u I I ` I J #.O.p ) ) a z v H H K i B yXKXBXdX7XsXvXsXtXtXhXaX_..X Xg.K.!.J.5.5.d.5.5.1.L i I W X.K w 0 j n j = w Y n w n Y ; w w w 3 3 2 1 : w 3 * = 0 g w g g 0 3 w w w w 3 w k w k b w w q < 4 q i v a s ) s t v s B p.j.5.1.{ q K u q 0 w 3 ; ; ; # # # + # 3 ; : ; * o * h 6 * j w 4 j b j 0 2 w w j g 3 w w 6 6 6 0 0 g w w u J I +.",
"G U T z = ; 3 ; * # ; : 1 3 w 2 ; : : : ; : > ; ; : ; ; 6 1 2 H q - 1 6 + 1 5 3 w 5 5 2 ; = ; 8 : : : : : 3 3 3 : 6 6 3 5 w w w 4 j g : ; w c p p :.b.b.w.:.B y 2 x x 3 1 1 ; 5 w w 0 0 f 3 w g w w w w w 1 w k 2 g 3 j y < R g.0XOXg.Z y j 5 x y G p.f.O.r D V.qX8.r < 7 N A ,.,.Z r V L V V L E E V R L U z y 4 B 4.8.} N u 4 1 r.x $ + x y = - 2 k x $ 7 Z.b.7.b.b.w.:.~ R E < L S D jXMXP.2.l.@ K q +.P.z.).1XgX;X(.rX).4X1X_.Q.4X<X).aXP.) < t i.P < i I J o.t J $.) l.+.G I i B [ P [ O.[ 2.F.A.O. . .1.1.C ] O...P ....X.K y z ' v 4 4 x g f u v 3 @ X g 3 # f . 3 3   . : 3 * # 6 j y u ' K a ` v [ I P [ i.B o.o.i i v K K I a i tXKXBXyXrXrXhXjXrX3X3X,X3XtX<X^.G.L.XX~.q.,./ 1. .P I X.X.T k e l K n m w l m k k l w 6 2 6 3 2 2 2 6 : 0 3 w k l g 0 g g w 0 3 3 0 0 l 3 g b m b : 0 e q e l u v I X.J p 9 o.#.( j.W.D.5.r q ' K n q # : ; # + # ; ; # . ; 3 3 : : : * 3 6 ; 2 $ @ 2 3 w w 2 w w 0 3 g k k 3 ; 2 w k g w w j 4 u r.",
"G i K H w # ; ; ; ; : : + # * ; ; # # 3 3 > > 3 3 3 : # 1 < t O.3.t 2 ; * 1 5 5 6 Y T 4 $ = ; : > ; : : : : 3 : : 3 w w k k f 5 5 5 5 5 j y 4 r 6.w.8.%.R N 4 5 5 5 f ; 3 5 ; ; w g w 3 0 3 3 w l w 3 0 w w w 2 j j f l 5 4 B V .. .] B u q t y H 4 t B W 7 D C.eXV.i u N N V :.:.S D Z 6.4.} Z :.A R ] L U I t y p :.<.:.p G g = b b . . k j @ 2 w w T y < 8.Z.<.w.Z.8.! S R R - p D V.LX;X1XP.u - y.v y.).z.(.>XvX;X).>XP.rX).Q.P.<X<X1X3XQ.p ` J [ X.q q I ` $.J 7 X.K _ X.X.I I X.[ { O.X.[ 1.O.1.1.2.5.1.@. . .5.5.6.>. .2.I J i I J 4 5 5 j 2 u ` l ; o 0 g ; f . g 3 . . 3 3 o @ = 1 w q v r.u a J X.[ o.1.F.C [ 2.i G X.I H i p t 3XFXMXsXsXsXvXgXyX>X).1X3XwX<X!./. XF.W.q.4.@.5.3.o.I 4 z u e u v k u n u u n l k e = 3 = 6 w g 3 3 w 0 = : g l g 0 3 g h 0 0 3 0 0 h w # 3 b l w : w j b k 3 q v ` { O.{ p.5.4.5.,.E.~.p.( J s s r.v ; 3 : . . # + + # o ; : ; # 3 3 * 3 f w 1 2 k 2 6 6 * : w k : X 0 w g 2 3 w w 3 3 h f 2 = 4 Y ",
"4 y H z 2 # # ; 3 ; ; % # + . @ ; + # > 6 > 3 h 8 ; ; # 4 i P 6.~.[ < * 6 3 ; ; @ Y ' i t 1 ; : 3 : : 3 : : ; ; f w 3 6 6 5 f w w 5 8 j c 4 9 ,.#XZ.~ r N q & 1 3 3 3 ; f 5 : 3 6 3 3 : 3 3 w 3 6 w w w g w w 2 j 5 l j 2 j F G t p a G p L V r 7 < r B G q V g.|.>.a a i p V V S w.4.D ,.Z.<.! :.R R P B P P 7 j 4 A ^ } r i b - 4 K 4 . k k = y q e K z < V g.8.7.<.~ ~ A S R y 4 R eXZX_.tXu.. + +.i._ Q.Q.(.8XrXP.(.(.Q.aX(.z.(.>X).tX,XP.P i ' 7 +.e e z u _ J u ` +.q ` o.H G [ { O.O.{ P 3.[ [ [ 3.p.6.,. .1.1. .1. .]  .X.o.J ` K y y 5 l 1 K r.x * = 3 h ; 3 . f 3 . . 0 3 . . # # 6 1 w ' < J K i +.{ 2.G.C ( 2.a a o.J G G i t 3XKXBXdXcXNXgXtX6X4X<X.X>X/./.<X+XA.W.W.G.D.q.#.#.I p - c b v v u u v 4 4 5 w w w w l 6 # ; 3 6 : w l 0 * * 0 w 3 : 3 g 0 : : 3 h g 0 ; # w g : 6 3 n n b n g n K _ J 3.9.9.] ,.q.4.d.C.A.s.( 9 C 3.a w 5 ; . + * . . + + ; # ; # ; ; 3 : ; 3 6 w b w w 3 = 1 3 3 = : 2 3 w 3 3 0 : . : g 3 ; 1 2 b ",
"$ w m j 1 1 # ; ; # % % > ; + # 3 ; ; > ; & > 3 % O ; * q O.q.V.}.6.< $ 3 > ; ; # w H G H 4 * : 3 ; : 3 : : ; : 3 3 3 3 6 5 w 3 5 f 8 5 4 r :.}.#Xb.Z t 4 6 1 l 6 5 3 5 5 8 g k : 3 3 6 : w h 0 6 w k k w 2 5 1 w 5 f 3 3 z i z i i a a V g.V.<.:.| C D 7 y G U E L 9 t { U t u Z Z.G.A ! 8.%.:.B i L N E E R t e 0 R :.^ Z 9 p i 4 v < @ 3 3 3 2 < i G z < < P Z.4.:.} R R S } i + P.DX.XtXh.- 4 k 7 h.l.l.;X(.yX1Xl.>X<XQ.3X).;X1X3X).>X_._.k.< T z H w w q < v v u n K 4 K K [ L ..1.1.#. .[ L [ +.[ L ..1.d.5.p. .} 1.{ C ( [ o.B ) X.z H x l ; v K w @ = 3 h : : . 3 3 o . h 3 . X @ @ ; : 3 l w H J i o.[ 5.s.( J a.P a X.I K I G i 3XKXVXdXgXvXgXaXhXjXaX3X,X2XwX XF.A.G.G.Z.D.j.{ #.) t c z Y T ' ' ' H w k w = * g w # w 3 w w 6 6 w g 0 : 0 w g g = 3 w 6 ; : 3 g h 3 3 3 w w 3 w w k n k l k u K _ v J ( C ( @.| ,.4.! ,.4.C / 9.@.( q : # # ; * . # o + ; # : * ; ; 0 3 * : 2 ; w q w w 6 3 2 2 6 g b l 3 3 6 6 w : ; g 0 ; w 3 k ",
"; + ; # ; ; + : : ; > % % % . % # % ; 3 3 6 6 3 > o 3 : < 1.V.Z.Z.6.7 < 1 $ ; 5 & 6 y y T u ; = ; ; 3 3 3 : 6 3 ; 6 3 3 5 j g 3 3 5 5 4 z ..8.'.].<.r 4 6 3 5 5 j j 3 3 3 3 5 ; 3 w h w : w f 3 w w w w k k k 5 y H 5 5 l j y y y z i 9 B g.w.<.J.E.w.:.B i F i 4 4 q a U G j 4 L >.5.D D ;.<.<.V F z u G L E X.1 w i A ^ w.N p z c G y = * # 3 2 @ a 2.+.t $ i V.8.} R R } ;.,.G + ;XZXS.i.- j +.r.K $.k.y.1X(.1X7X(.;X).Q.<Xk.3X6X;XP./.3X_.).7 T l.< b k b K I K v n 2 b v X.+.B P O.O.#.O.{ [ I X.W X.B a #.1.p. .] 5.1.( [ [ [ p X.X.y F T l g v v k = = b f 3 3 . : : .   0 : . # * @ = : # m T 4 z X.L P p.p.( B a.) B X.+.X.) G 7 >XFXvXNXvXgXNXNXaX<X<X3X2X2X X~.XX XW.C.9.4.9.Z O.X.t v H T b u v z - j b b b w 3 6 # b l g : ; 3 w 3 w g n 3 3 w * : : ; : 3 0 h w 3 6 3 * w k l w e k 0 w j a _ _ a a p { s.3.d d 5.,.| q.q.@./ ,.s.< + + * # # + : : * ; o ; # ; g # h 6 6 w w j k 1 j w 3 w w w l x k 6 3 ; # w g : w h w w : w ",
"; # + . . # ; : = = ; > ; # # # + # ; ; : 3 : # * : 3 3 4 B ,.w.V.8. .< p +.G i y 1 y j 4 k w 6 : : : : : 3 3 3 6 0 0 w w 3 5 3 ; 3 3 w q R }.OXJ.! 9 2 3 3 3 8 f 3 6 : : ; : 3 5 5 5 5 w w w w w w w w c w w w c y z z 5 x H 7 N U U s B E >.A S <.'.}.g.V q y c y e w c c k z i B 1.;.D S 4.,.L u z y u U U U n 2 i V / <.:.r q 6 q H < 2 # * b u i 3.g.p.7 u r 5.} A ..A A ..P @ (.>X+.v _ r.' T - ' 3Xy.).P.(.1X;X3XP.6X1XP.6X6X4X_._.2X/..XS.t z.j l 6 l K v v w 2 : w w l z X.X.L [ 1.O.E X.I U H i t I L [ 6.p.5. . .3.3.2.U G G I T T 3 k w K K k 5 $ w l * ; @ 3 : . . 3 : + # ; # ; 6 . b z q H X.G U s.s.#.P #.) #.y.J +.G L < _.FXjXMXdXdXvXtX>X<X4X>X<X_.G.XX>XF.g.C.w.,.,.1.O.E W I J u c w $ < q +.b l l j w w w k 3 k : 3 f w k l 3 3 g 3 g w * : 3 ; 3 3 6 3 6 ; w 3 w x k l K e 0 j e n K u < i P 5.s.9./ Z 5.g.| 5.1.P C ( J @ . . @ # * 6 * : ; ; ; 3 : ; ; 3 3 3 * : f 3 0 0 g w 3 @ : w h 3 w 3 3 g 0 3 b : w h 3 : 0 0 ",
"* + + + + # + + ; ; ; ; ; % ; ; ; % O . + ; 3 : * = : : 4 u C ..,.<.,.Z } 5.1.>.N 7 5 j 3 : ; 3 ; : : = # 3 3 3 ; 3 0 h w 6 5 5 3 3 w 2 9 1.}.&Xg.B 4 3 w 5 6 & 3 6 6 3 3 3 3 3 3 3 3 3 w w w w j w w 5 5 4 w z x q 5 j j y u N B V B i i L U N D | Z.D...p < c k g w j g w w z v B 1.w.4.;.%.S ..p i t 4 y i U c u H U ~ <.:.Z 4 # $ b - 1 3 : 6 b t [ :.5.i - t < :.A A A R A L o.K y.q 9 _ v l.r.- T tXl.i.Q.;X,XP.1X;XtX>X1X8X6X6XQ.S.>X_.S..X9 J r.3 w = b u z w w ; w 3 2 H K I ) [ +.X.O.I G G z y w K T ) .. .6.1. . .[ [ U I G I v l w j w H T w w 4 c w * ; # 3 ;   + : : # # + + ; 3 . x b 4 u G N a 1.5.2.P $.#.t.i.B X.a L 7 (.KXNXdXdXgXvXhXtXaXtXwX3X.X.X<XXXL.q.8.<.,.,. .2.O.V P J a b z w z K K e w w k k g w 3 : 3 w l l 0 : 3 3 g k w f 3 # 3 ; * h g 3 3 ; * ; ; g x w 0 v j j b u v v v G a P Z / A.A.6.F.D.! ] [ L L q @ * # @ @ = * 6 ; ; ; ; : 3 3 : 3 ; # ; ; * : : * 3 3 : = X * : 0 : ; : f n g ; = 3 w 0 = : g k ",
"# + * ; ; # + # 3 : ; ; % % ; ; ; ; % = ; ; ; ; * ; : 3 1 = < 9 Z | | 4.V.w.b.Z.,.a 4 3 f 3 6 + ; > > ; ; 3 h f * 3 3 w 3 6 5 f 8 8 w < r <.Z.E. .t 1 5 3 3 6 & 3 3 3 f f f w 3 3 3 3 3 w w w w k j y w c y w k y 5 5 l z y G 2.:.A p p y F i t O.P P V N i c m w w w k w 3 w z z G } <.8.<.7.4.<.S Z p p p i W K q y [ | ~ ~ ] u + + +.z = f 3 * l < G P O.K + I t D 6.S ! } R [ _ < K n K o.).dXl.1 K (.k.o._._.>XP.).>X4X>XrX8X1X,XP.Q.2X/.h.L.2.- b @ w w y z v u b k w f 3 y J ) X.O.O.[ X.I G G z b y b T I E .. .] ] ] B J I [ G X.v j k w w K T 5 5 4 l g ; * # 0 3   o 0 : # # + + # ; + k Y 4 c G I B [ 3.t.P O.$.O.$.i I G X.t ).KXgXgXvXgXhXaXaXaXtX4X3X2X2X.X^.F.C.C.8.| ,.] [ O.[ [ P a G x t i v H v b j w w w 6 g k w 6 0 w 0 ; * 6 g w 3 w 3 * ; ; : 0 : = 6 3 3 3 w k b w 1 q w 6 0 k _ #.p.9. . .D Z p.p. .G.g.! A ] E O.u . 3 3 3 6 # @ * * # = ; : : : 3 : : * 3 0 : : ; * : 3 0 0 : * * : 3 # ; f h 0 w 3 # : 0 w g n h ",
". + ; : # + + : 3 > ; ; # % ; # ; ; ; ; ; = # # * # ; : : # @ - i C ] V.Z.0.n.E.g.] t 1 6 ; ; . 6 6 6 6 6 3 3 3 ; 3 3 3 3 6 w f h f 4 t ..w.w.8.s < 6 5 : ; 1 3 3 6 3 5 f w 3 : w w w 5 w w w w w w j k z j w f 6 5 5 f w w G t.g. .B y y x c y z t 7 4 4 5 5 3 2 w j w 5 w k x 4 i Z <.w.0.b.w.b.<.<.] B N N L ) 4 < U | S S  .K = . Y k ; 3 ; : w = v U [ ` < i X.- A ,.:.:.R L q e b ' Q.;X).>Xr.T r.r.I.+.h.P.I.P.;X3X6X1X6XrX1X(.P..X<XG.F.S.t.- T b . 4 k K v w l g 6 g k u v J J X.O.X.X.) J K v b w y v i L [ ..]  .O.) J I I G X.v w g 6 j b v 2 5 1 w w ; . . : 3 . . h = . . # # : ; + 3 l 1 z G X.G B #.#.B o.t.[ o.P o.J +.< Q.KXsXvXMXgXsXrX6X4X4X1X.XQ.G.Q.L.A.C.D.D.,.] ..C [ >.5.O.B i G z J G k K T j 2 w g w k k j ; 6 0 g 0 1 3 3 * * : 6 ; : # o o # 0 h ; 6 w g w w w < 1 2 6 2 k J { p.9.9.1.1.O.B C C 1.4.w.6.R r X.v + : w g g * @ * ; + ; ; ; : 3 ; o * : : 3 0 : # ; 3 3 3 3 h ; ; 3 3 ; : 3 # = w g * * 6 w g 0 : ",
". + * + # ; ; ; = % ; ; ; ; ; = + ; ; + o ; ; * ; ; ; ; + # # + 1 t s 1.8.:.w.D.A.{ q 5 3 = * 2 ; ; ; : 3 2 1 ; f 3 3 3 3 6 3 f 3 6 < B 5.8.| ] p 1 & ; 3 f 6 ; 3 : : 5 5 3 6 3 w w 0 3 3 w w w w 5 5 w w w y j j 5 5 5 6 4 u i >.R G 4 5 j 5 5 4 5 j j 5 5 f 3 w j j j y y y y w q P D.E.8.,.;.8.8.8.<...] L B [ i 4 t } | | } U t @ 2 3 : 3 * : : 0 H U L B ) t E V - 6.,.R t G y.@ T >XQ.Q.l.P.(.l.T z I.) $._.z.(.3XtXrX6X6X6X1X;XQ./.Q.a. Xp.p.v - l.n X - k u j j g = g k ' J K J I J J o.O.J G z H x v c K G P O.[ E J ) K I I J I z e 1 1 c v k 2 2 2 e 3 : o # # : . . : # . ; ; ; ; o ; ; l 1 4 i W G P O.O.B $.k.X.O.G I u K - z.FXyXdXgXgXNXNXtXtXtXtX4X/.S.^.G.p.6.d.V.5.] ..P O.O. .] P U I I I H v k u y w j k j g 3 w w g w 3 : 6 6 # . ; 3 ; ; * @ * * : h 3 # ; 3 w 0 2 e n k k u e v a ( { ! ,.,.p.p.>.f.g.,.4.V.1.Z < i c ; * * 3 3 w 3 3 6 ; : ; # : 3 = . . * # # : ; * ; 3 w 3 0 h : # 3 3 ; 3 3 # = w 3 = ; : : * * * ",
"; # # . # : ; # ; % % % % ; % # o * ; # # : 3 : : ; # # # % % % . - - t a B  .3.O.a 1 ; f w 2 < = 1 6 ; 3 w 3 1 f 3 w 3 : 6 3 g ; 1 7 [ 5.} N a 4 1 6 ; 6 w 3 1 6 6 3 3 5 3 3 g 3 6 6 6 6 3 w g w w w y w w j j j 3 8 k 5 5 y i B L U b j j j j k 8 6 1 6 5 f 5 l 5 5 j c c c c w c P g.q.:.] V E :.7.8.,.} C N O.a - y ..} } } L i q 1 3 : # * : : 3 k L ] r [ V N U 7 E R p < $.k.- K vX>X$.).6XgXl.k v l.) y.(.(.;X3X6X6X6X1X1X>X(.Q.Q.L.k.~.5.5.+.- e Y +.- < e b w g 3 g g v K _ J J ) X.O. .] [ G X.W U G I U U L I [ I T H K K K K v k q 2 j v b 1 5 w q ; 6 # * @ 0 o . : ; # ; ; + o . # # l f 2 4 H I [ #.O.B 2.S.O.O.G I a I - P.JXgXdXgXhXgXgXsXhXgXaXaX3X/.h.h.d.q.f.5. .] B B  .( Z Z P O.I G i i v u k b l w 5 j g # 3 w g 3 * g g g : * 0 3 @ . * = 3 w 0 : * 3 3 3 w w 2 w K T e n u k v { ] / | q.9.5.K. XC.,.q.w.4.q.O.i 2 3 ; * 6 1 3 3 6 6 ; : : ; ; 3 ; + @ * * * * : 3 * ; 3 6 : 0 3 : g 3 ; 3 0 3 w w 6 ; 3 0 6 ; ; : ",
"; # # . + ; # + ; % # # # ; ; # # * ; # ; : 0 w : : ; ; # # # o o ; ; * = 1 4 4 4 f m g j Y K I y y q < 2 2 2 : f 3 3 3 : 6 : w = q P ,. .V t q : 3 3 ; : w 3 1 ; 3 3 3 : 6 3 w : 6 6 6 6 3 w g y w y c w y j k y 5 g l 3 ; 4 y t z v z j y y y y 5 w j j f j 5 k 5 2 w j j c c w c i E [ P F i N V ;.| ] }  . .,.Z - t [ A A ..[ t - * 3 # O : 3 = * q  .>.< A :.N 1 l y y 4 c (.J y.u.6X(.l.tX>XdXz.l.r.` $.i.(.(.(.>XrXsX6X(.7X1X_.k.Q.G.p.Q.q.1.o.' = X +.y.< q b * j w f k b _ K u u I o.o.@.1.1.P X.I G i I ) I B G U H b k v K J ` b b l w n v v 1 w e q @ * . o . g ; o : : + + . . ; 3 # . g l 1 < y ) #.3.2.[ [ s.O.L U U u z @ z.SXdXcXbXhXsXsXyXsXaXtX3X.XG.k.Q.!.F.p.] ] ] C ( { ( ( ( J P J i v v v u b H j w w l j = 3 0 g 3 3 n 6 w 6 6 0 3 ; ; h : : 3 f 3 * 3 w w g w 2 w n u 9 k n v i a ( 9.j.d.| | 6.d.| 4.C.Z.d.W.k.< . ; w 3 3 6 # * * * : ; ; ; ; 3 3 * # ; = * * : 6 * ; 3 ; # * ; ; 3 h 3 3 0 h k w : : 0 f : 3 3 3 ",
"1 ; ; ; # ; ; : ; # # # + ; > ; # # # # ; ; 3 h * # ; % % * # # o o > > & ; # # * % 8 > 5 z z T K v l u w 2 3 f 5 1 6 1 3 2 ; 6 4 t 2.[ B p = 6 ; 3 3 : ; w 3 3 ; f j 3 ; 3 w 3 3 3 3 3 3 w w w j y j k w w j j w 5 w w 3 5 j c x z y j c y c y y 2 2 j y y k j f f w 3 f f y y z x t N U u 4 y i E :.C p V | 4.%.C < t [ A A ..[ B < 3 m 3 3 * 6 * @ < 2.,.r } 8.N 5 f g g 3 H ` P.aXy.z.l.rX,X1XMXz.l.+.i h.$.P.P.P.>XsXrXrX,XyX4XQ.k.F.3.] ~.] { 2.+.q + e i v w Y 0 Y g : g b K K q v I J C 1.q.5.C X.X.I I J ` o.W I G t 2 w j v v ' v u k l Y K u w w 2 q : 3 ; * . 3 6 + > ; + + * # ; : 3 o l m 3 2 u X.O.3.5.O.P k.2.L I I v J - P.SXgXcXNXvXgXsXyXtX3X<X.X_.L.~.XX~.A. .] ]  . .5.O.C J a a _ I J K v b b b u 2 w 3 6 g g 0 : k w g = w g 3 3 3 3 0 l 3 0 3 : 3 0 = 3 g k b j w b b 4 k n u u v ) #.f.G.6.] 5. .../ g.g.j.q.j.3.- . 5 f 3 3 = * ; ; 6 : ; + + : 3 3 # o 0 ; * 0 3 ; : # 3 3 ; * ; ; ; # : 3 0 3 0 3 ; * 3 h w 3 3 3 ",
"# # # + + # 1 3 ; # : ; % ; ; ; ; # ; # o * ; * + . + ; # . + ; o # & ; % % % * : # o + # # 6 = 3 w j w : 3 3 3 5 $ 2 5 4 5 ; 5 q I ) G 4 1 1 3 5 ; : f : 3 0 ; 3 6 6 3 3 3 3 3 h * 6 3 f 5 3 g y w w k k 5 w w w 5 1 3 3 5 f y k y 5 5 y y y j w j j 3 5 5 5 j 5 j l l j 5 4 w y i 7 p X.H c y N  .C B p p A <.7.b.B $ R :.Z } } ..t . m m * # ; 3 : < L h.< 5.8.] 4 3 3 h 0 @ 7XKXr.v P.:XgX_.dX1X8Xl.z.u y.X.k.k.Q.6X7X7XrX,X7X>Xi.j.p.@.5.5. ...C +.y y w w w 2 j j w k = e l k K ' y i [ o.5.5.O.( ) I J K K J ) [ I I G k l j i u H z k b b k c v @ 2 w w # 3 # + . 3 3 . 3 ; # : ; ; # # # ; h l 1 l w u s 2.t.2.#.k.L P I y.G J < I.KXbXcXcXcXgXgXgXtX1X4X<X_.<X.X!.f.6.,. .] 1.5.O.B P s ) [ P K T l 2 j y u e b b 3 3 3 0 g g w h 0 * ; : : : 3 h h w = 6 3 6 * # ; l n ; @ 3 g k b 2 w v a a i i s ( { Z 5.j.....! ! ..d.Z.p.+.. @ # : : * o 3 f 0 : ; ; 3 ; # + + # ; 3 : ; 3 : ; o # ; * : 3 3 3 # # 3 0 0 g 3 = w 0 * 3 : * ; * ",
". . + . # * : : ; # ; = # ; = ; ; ; : ; + # # # + + # # # + # # O + # % % % % % * # # ; # # ; ; * ; 6 ; ; 6 w 3 5 j y 4 4 y 5 j i B i q 2 2 5 5 : 3 3 : w 3 * 3 w 3 6 : ; ; 3 g 0 3 3 3 5 5 3 g c k y k k w w 5 5 5 w j 5 w f w w 5 w j 5 5 5 2 w f j 5 5 5 5 j j 5 5 8 5 w w q G L B V G z j i E ..[ a y t N :.7.8.B < ..8.:.S ! ] i @ l g # 3 # 3 3 < p h.p V 6.R v ; l l @ P.LXl.r.z.P.gX,X1XcX1X3Xr.l.v i.s a.s.z.;X3XyXsX1XrX>Xa.k.5.] 1.9. ...2.+.y 4 x 5 w g : j n 3 3 w j l K ' I J I ) #.{ #.2.J G v K T K X.X.[ X.I K 0 w z v K z j k Y c u b 1 q u w ; 5 ; : ; 3 3 . 3 : # ; # ; # ; = # 3 b 3 g 1 y U 2.k.p.] h.X.I [ +.i H 2 :XJXgXgXgXgXgXNXvXsX4X3X2XwX<XG.F.q. .,.6.1.]  .O.I L ) { P L J z g w c b n e k j 3 0 ; w k h 0 g w 0 h 3 : = ; : 3 0 w 6 ; 6 w w w l g 3 ; w w j b k k v J ) _ a u )  .,.d.^.!.1.d  .5.C.d.f.K . : . * # o # 6 : : : : 3 3 ; * 3 3 * ; 3 : ; ; ; ; * # 3 ; + * : 3 * * 3 3 3 h 3 ; 0 3 3 h ; # 3 3 ",
"* # ; # # * ; # % + ; ; ; ; % ; ; ; : ; # + + + # * # # # # # + % ; ; ; # # # # * # = : * + ; ; * * * ; : 3 3 6 4 X.t.R < 4 y z I B 4 1 1 1 1 1 * f 3 ; h 3 + 3 w w w 3 3 3 3 w : 3 w 6 5 w 5 w w g w g k g f 5 2 5 j j 5 5 5 5 5 5 w f j j j j w w j w w w 3 w 5 5 8 j w k z i N ,.,.Z p c j y i i J i c c B 6.| ! i 7 L g.V.^ ! } B $ x m : 3 ; # # y N t.L N O.P H ; * 3 1 :X_._.1Xl.;XrX:X8X7X1X7Xy.l.u r.$.k.Q._.>X4XgXrX>X1X(.3.s.p.] 1.p.1.P X.$.z 1 j g * g 1 w b 6 w 3 j b b K U H I o.O...#.2.) K K v v c G J ) O.) K b b K K K k 4 2 ' z y w 5 j b w 5 f ; * # ; 3 + 3 6 # ; + # * : ; o * b x k 2 v O.h.3.{ ] i.O.G O.I a v y 1XAXsXbXcXgXcXNXvXsXtX3X4X/.S.p.f.d.d.} >.1.] ..O.o.) J ) ) X.K q 1 * b T b u e w 3 h 3 w w 0 6 0 g l m k 3 3 ; * : w j 3 ; ; : 6 6 w g j w g w e k b n a a P ( { #.y.3. .G.2X~.p.f. X~.C.j.{ @ * ; * 3 : 3 0 ; ; ; : 3 3 3 : # ; 3 3 ; ; # ; ; = * o 3 : # ; ; : 3 : * ; * ; 3 0 3 ; 0 3 h 6 * : 6 ",
"* ; ; # . # # + # # > 3 ; % O # = # ; * = o . + * ; ; # + ; ; . % # # # # # # # ; ; = ; ; o ; ; 3 ; ; : 3 3 ; # - i I.A.p < 4 z I u 2 ; : : ; = ; : 3 : : 3 ; 3 ; 3 w w w 3 : 6 : 3 3 ; w f 5 3 3 g g f 5 3 5 5 5 j j k w 5 5 5 5 5 5 5 3 5 w j w 5 j j j w 3 5 5 j j j f j c i V V.V.A p z k y z i u w x b u P N N G t < 1.D.<.%.:.V < w ' g : ; . + c B >.[ L P L z l @ # j l.7XJXy.y.gX,XrXyX1X1XdXh.u.- a i.a.P.P._.6XgX4X>XQ.Q.p.j.i.( o.2.o.P i o.u y 4 j # * 0 3 w w g 0 l K v v H G H +.t.t.[ B i J K K c y z G J X._ K l c z u T v y y z u H z y k H w ; w w 3 ; 3 3 o : > # ; + # # ; ; + * l b j 2 K J 2.g.5.C t.t.I ) I ` H 4 1XBXvXbXcXcXNXNXNXNXjX3X<X).^.5.p.C.6.} ]  .] P ( ) ) K o.[ I i 4 w 3 l z e q e w 3 3 h 0 3 0 w w w w g 3 : 3 3 ; 3 l g 3 * # 6 3 3 g k m b k k e u v K J G P @.1.{ ( #. .5.!.~.~.XXwX!.d.~.J . : X . * : 3 3 * 6 3 : : ; : 3 # o # 3 : * . # . o * # 0 3 ; 3 : = : : * * X o : h 3 = 0 ; 0 3 : : ; ",
"# # # # # ; : ; O + ; = ; ; + # : # o o # ; # * * * # # # # # # # + + + # % ; ; # ; # ; + = = + > ; # # ; ; ; ; 5 - >.p.G < 5 j v q 2 3 3 3 w 2 3 ; 3 : ; f 3 ; 6 w 3 6 3 3 6 w 0 3 * ; 3 5 5 g 6 g f f 3 5 f 3 f w w w j w 5 5 5 5 5 5 6 3 5 f j 5 w w w j 5 j 5 j j 5 j w y B ,.H.V.8.X.t 5 c z v 4 w Y Y v t a J T q - V b.b.<.<.8.B - l n : # l 5 4 L O.O.< [ K - e 2 . 2 1XJX3X+.3X>X1XsX7X8X1X6Xy.l.J 9 ) $.Q.h.z.6X6X>X>XQ.i.p.G.O.J o.a ) X.a _ z z q 2 b + 2 3 1 w l x l k z v U I I G 3.t.o.a i i H b x y H H G G v K j w w y v y w 4 x y H z b v T q - 2 w 3 + + : # 3 3 # ; * ; # ; ; ; ; g j j 4 z P ] G.p.Z 2.O.X.p [ +.i 4 8XMXAXcXsXhXvXjXhXsXtX,X<X2X/.Q.G.6. . .1.6.{ ( P ( B J I I B t v ' Y y e q e k j h 0 0 w g k g w : = w ; ; 3 0 f g b j 0 1 : 0 g g w k k n u v n n K K t i  .4.! C { 5.1.5.F.~.!.Q.W.j.G.Q.9   o * . . @ * : * 3 3 : + + = # # ; ; o ; # ; ; # . ; 3 * : : : : : 3 # @ @ @ @ ; w w ; 6 3 3 ; * 3 3 ",
": ; * + * : : ; O # ; # ; : ; ; ; # + o ; ; * ; + # # # # * ; ; # # # # # # % ; # ; # ; ; ; # + # % ; % ; ; ; ; 3 1 - E y.u w w K c w 3 3 3 3 ; h 3 : 3 3 : : ; 3 g w 3 w w 3 g : : : w 5 3 5 g 5 5 3 3 5 f j f 5 5 2 2 w w w w w 5 5 5 5 w w 5 j 5 w w w j 5 f 4 w j j z y u i 4.Z.b.w.E y j w w x y y x c b v z H K y - 9 ,.b.7.8.D.2.< l g * ; l y x O.L J q T u e u v @ + BXbXr.(.;X;X8X6X7X1X1XyXh.y.` q X.a._.k.Q.rX6X>X;XQ.i.1.d.O.P _ v ` J I ` v u v = b w = j 2 5 Y g j j v K ` W U G [ O.) +.` H z w 5 z T K u i J H w b K v ' b c y U G H v i i K u b w w 6 * # 3 : w 3 # * * : ; : 3 : ; w j x j u [ 1. . . .1.y.L U X.I 4 u dXAXAXgXsXhXvXhXyX4X1X2X<X!.F.~.G.1.C.C.p.5.#.[ J B P a a I I K ` T j u y k v b j : : 3 k k 0 w g w 3 h 3 ; 3 0 f h k w w k w w w w w w e k u v v n v a s C  .@.@.3.s.j.p.p.f.G.j.s.d.C.F.l..   O : : : = ; 3 ; ; * * ; * ; : : ; # # . # ; 3 : # * ; 3 : # : : : 3 ; ; ; ; ; ; ; ; = 3 ; ; = * 3 0 ",
": ; ; # + # + . = > 3 o # ; # # * * # o ; ; * ; + # # # * * * * % # # # . . o + # ; # ; : ; % % # ; ; = % ; ; % = 3 @ U L.1.4 5 b y w 3 ; ; 3 ; 3 3 : 3 3 ; 3 : 6 w 3 6 w 3 : 3 ; ; 3 g 3 1 w f g f 3 3 3 5 f 3 5 5 5 5 j j j j w w 5 5 5 5 5 1 j 5 w w 5 j j 5 y y k x x y y s ~ w.8.~ N c z 4 y v x x c y y x z v v c 2 < ! b.b.<.J.5.4 b g * 6 5 = z u.r i b e q v q i u @ 8X(.z.6Xu.1X7X7X8X8X1XrXP.+.$.q y.o.s.h.Q.6X4X;X(._.s.@.9.3.J v _ ` a v ` v q n w w Y $ w w g Y w j j v K W X.+.+.I O.J I I v u w 1 x H v i J T k 4 b Y z H v k k i I O.o.v i G v K e e w 3 ; : + 5 : @ * : 0 ; ; 3 3 : w x b z u a O.#.p. .[ S.L O.+.G < v cXSXvXdXdXgXNXjXhXsXtXtX.XQ.^.k.p.!.W.9.1.] ) [ J B ) _ i I [ I K e = w 4 k n j w # * 0 g g 0 0 g g g : ; ; = 3 f g g 0 k b k 0 w l b u q v K v v v v a  .4.|  .1.p.5.j.p.5.p. X~.G.$XD.F.o.  % > X = ; * * * ; * * * 3 3 : : 3 # + 3 + # o * ; ; ; ; h : # : 3 ; ; 3 : : : : ; # # ; w * * : ; : 3 ",
"# # ; ; + # # +   # % . o ; # . # * # o # ; # * * # # # ; * + . + + + + # # # ; # ; # ; > ; = > : : ; # # ; ; # # # . < f.a.4 k 3 3 0 0 ; : 0 3 : ; : h ; ; f 3 : 3 3 6 3 3 : ; 3 : * 3 * 1 j g 3 f 3 3 3 3 5 5 5 5 5 5 f w 5 5 5 w 5 5 5 j f 5 j 5 w w 5 j j 5 j y y j 4 4 c I ~ q.<.D t y 5 y y y y y H K y c z u v k w 4 ..V.H.<.Z.4.7 K b : 2 w 1 q y.9 a b = Y p B J ) - k 1X6Xh.;X,X6X6X1X8X(.,Xl.` h.i $.$.i.k.P.>X3X;XQ.^.9.] p.O.p u ` v K u v e n k k = K . j w w j T l k v v +.$.$.O.I h.+.i v y w y b b y K I z v q y H G t G H b H [ [  .2.O.#.2.o.J v K j 1 ; 3 % 3 ; @ 6 0 h : ; 3 3 6 f k g w q a [ s.{ C O.O.[ J J i 7 q yXAXvXgXgXNXNXdXsXhXaX4X_. X_.f./. X6.@.#.) a P ) ( ) ) t J X.J v e n w 2 k k g n 0 f g 0 3 w g 3 : 0 * : 3 : 3 g g w g k g 2 = 2 w e v t K ' v v v v _ @.4.@.@.1.1.] 3.1.!.<X2X X~.OX^. X<   >   # * @ ; ; # # ; : ; 3 : + . ; : * ; + ; # ; : : : : ; = + ; : : 3 3 ; ; ; ; 6 ; ; 6 3 : 3 : * * : ",
"# # * # . # * # # # # # * * # + # * + # 6 % * # @ # + o # % ; ; ; % # % % # # % + # * ; 1 * # ; 8 # f f : : ; = = # = = y H w w w ; 3 ; ; 3 * ; 6 0 3 3 ; : ; # ; 3 0 3 : ; : 3 6 3 3 6 6 5 w 5 6 6 3 f 3 3 j 6 2 2 5 w 2 5 j j k w 4 2 w w w 5 w w w w y y y y y c y 4 y z x L 4.<.~ B i 5 5 5 u z u u c y c y u u i G G B 9 O.} } V.8.[ J v = 5 j y < G +.< q n u N } !  .I + P.gXh.h.1XyX>X1XrX8X_.z.v P.` v h.) S.L.).6X(._.s.5.p.5.B G K ` K v v K q u K u 0 - w e 3 2 f g b b I +.+.o.[ [ #.O.I J K b w : k c H I J G z z H G v v a ) o.o.O.1.2.p.] R 1. .X.W J K w 1 % ; 3 w 6 6 ; 3 6 w w 6 w g l c w y U [ [ O.3.P +.2.a p a - v dXAXNXdXvXvXtXyXtX4X3X.X<X3X.X^.~.Q.#.( ( J B B $.2.p I I K K y e k l u n k e 2 e k k g k k g l j : o : 0 w 3 w k j 3 g e e e k n k q v J J G y c v v s Z ,.q.1.q.3.C  .@.^.2X~.G.^.W.OXs.X o . O @ * ; # # * : : ; # 3 : : ; ; 3 # + * * * ; ; : ; # * : ; * 6 3 0 h @ * 3 h 3 * * h : = 0 : * : : ",
". # * # + # * # # # # * * ; * + @ # # ; 6 : ; @ # * ; ; # # % ; > ; # O O # # # ; # # ; 3 ; # : 1 1 w y < : ; * 6 1 2 3 4 j 5 2 3 : ; = 6 3 * * * ; 3 3 3 3 3 : 3 : : : 3 3 3 3 6 3 3 3 2 5 w w 5 3 3 5 6 3 k f 5 3 5 f 5 5 w 5 j j j w 5 5 w y w w w w j j j j y c c y c x z G  ...] G j 8 j k y u y u w y x z t t i L W G < i P V :.:.] J H 2 = 1 x 4 y +.c 1 b J P } <.| J K r.3Xz.l.dX6X;X;X1X>X_.:X` u.l.- y.( k.L.(._.(.Q.s.5.5.$.a J v K K u v b = u ' u b = 1 2 2 1 5 w Y e < t [ #.3.2. .3.$.` k 3 k m T v K J K I I I H K I I J ) [ ( 1.5.5.p... .p.5.2.E i H H k 1 : 3 3 ; 6 3 w 3 3 k w g k b T Y y ) O.[ O.I B $.o.P ) ) < ` MXFXVXgXgXsX4XtXtXtX4X2X.X^.Q.^.j.p.3.J _ s a [ P [ X.G H K T u k Y Y k e e n u 2 < e w l k : 3 g h ; 3 3 3 3 5 w w 5 g e j j j j j u e J v c 1 1 K K < #.p.G.C.A.p.2.F.~.Q.~. X XW.!.0Xh.. o ; + . # ; ; : 3 : 3 : ; f 3 ; # ; 3 ; # # * * * 1 3 ; . # 3 0 6 * * : ; 0 ; ; 3 3 ; = 3 * * 3 0 ; : ; ",
"# # # + + * ; # + # # * # ; ; + o # # ; 1 5 e < * * ; ; # # % % ; ; ; % ; ; % # ; ; # * ; # + ; $ y i p p q 2 ; 3 ; 3 0 4 j g 5 3 3 : : : * * : 6 6 3 f h 3 ; ; 3 : : : : : : 3 6 6 3 3 5 5 w j f 3 3 3 6 5 f j 5 5 5 w f 5 5 3 w w y w w w j k y y w w w y y 5 5 w y y c x i z L L G G 5 j z k y u y z c c z y t F L L U G = e J L C P I c K j k w b q 4 z 5 ; y v P R ,.D r <Xy.K z.i.rX3XP.>X:X;X_.;X' ` ,X- +.t.a.L.P.P.Q.(.k.5.o.I W I v H T z v T q u T v m = * 1 w ; 3 w z e y J $.t.g.g.3.3.[ v q w b b v v +.X.I ) ) J K I ` I G G v a ..6.p.A.p.5.5.,.5.>.P I W T j 3 f f 3 w w f 3 w g 0 e k k K T t i I G X.+.a ) [ O.O.) < ` AXAXbXbXdX6XrXlXhXyX1X3X<X).^.G.G.p.1.{ J J $.2.[ [ [ i v v b q w b b e e k m n e 0 k w l g = : g k g 3 3 3 k g 5 2 w e e e e n k e e u b K v y y k q J #.5.d.D.~.Q.k./.).F.~.G.XX X X0Xt.. ; : # . # # o . o + ; : : 3 ; # . ; 3 ; + # # * # ; ; * + # ; 3 : # # ; * ; 0 3 * : : ; : : ; 3 3 ; 6 ; ",
"# # + . + * ; ; + # * # # ; ; + # # # # * y H H w * # # . + % ; # % % # ; ; # . # 3 3 * # # # $ 1 W P C ,.B 4 1 ; ; : 0 2 w j 5 ; 3 ; ; 3 * ; 3 3 : : 3 3 ; : : ; 3 0 3 ; ; : f ; ; : 3 w 5 w j 5 : 3 3 3 f 3 5 w 5 5 w w 5 5 5 y w w w w y j y w w w w 5 y y w 5 5 w y c x i z t c z z 5 j k y y c c x c c z 4 t I W G t u = w H I B B H 4 T ' b k u 2 5 5 3 5 y H [ R ] r B aXP.+ 6Xr.z.rXz.>XQ.>X(.(.y.i tXK 7 s.i.S.P.Q.P..XQ.a.[ G I U i z K v y T T k u T k * @ 6 k 6 3 g z H ` ` X.O.3.i.k.1.C a v v u 4 q G +.I J ) X.) I ) ) J v a a a O.>.1.f.5.g.A.K.p.a.2.[ I H j 2 3 f 3 3 3 g w k w e n K k y v J K X.I +.+.I I X.) [ J 9 X.FXSXvXgXdXrXsXaX3X1X>X).3XwX.XG.Q.Q.3.{ P { $.X.U L i v H v z w 2 w l w k n k e k n w b b w 3 3 3 0 g f 3 3 w 2 ; 2 w g e e e n b u 2 k k K b m b = @ o.2.C ..C.F.G.^.G.p.G.G.p.^.iX~.2X3.. = ; * # * 3 # . + ; : : ; ; ; ; # ; 3 * . + # # * * * ; 1 @ # * * ; * : * X 3 6 # o = : 6 : : 3 : : 3 3 ",
"# # + # # # # + + # # # + # ; . = o # # @ 4 H ' w * ; ; % ; + # % # + o % % # % 3 w 3 ; ; : 3 1 5 W  .,.d.1.t @ = 5 3 3 u I U y ; 3 # = f 3 3 3 : : ; ; ; ; ; : : : : : 3 3 3 3 6 : 6 w w 5 w j 3 ; 5 3 3 3 3 5 3 5 5 w w f f j k w 5 5 w y w 5 2 y j 5 w z b k j j y 4 y y t t j y y c j y c k c y y c y z b i i H F u t c 2 ; w I L L z = Y r.q w w 1 5 j f = 5 z P } N V s.I.1Xi vX+.` tX(.,X;X_.(.P.h.- _.z.@ $.k.h.P.k.h._.k.t.o.J H v v v v v < u K k u Y k e = 2 g * : w k b z H I o.t.p.#.2.{ ) ) J v K K I U J G X.O.X.) [ ) P J G U [ B ] 6.K.p.f.F.^.g.p.5. .) i w 2 g k 6 ; w w 3 w l m b T b i K K K i i i < a +.i I I J u y.JXvXgXgXgXgXNXgX3X3X).L..X).L.F.k.p.p.1.t.O.[ I G i K K v c v l 2 w n w l n w : g j = l c 3 w g ; ; 6 3 3 w 3 6 5 w w w l n u u k j w u 0 n n e e - u a { ( ..1.s.j.Q.f.^.$XG.k.Q.5X XuXO..   . # ; ; ; * ; : : : ; ; 3 3 3 ; ; 3 * # * 6 ; * # # # : . @ * : : = # ; : * @ ; 6 * * 0 3 6 6 0 l 3 * ",
"; * + + # # # + + # # # + # * . # # # # @ 1 y H l * + # # ; # = # # # # ; % # : g 3 * # : ; : 3 5 t Z <.b.g.X.4 4 5 ; ; k +.O.G 6 3 * = 3 : ; : 3 3 3 : : : ; ; 3 3 3 3 3 3 3 : 6 6 3 w 3 3 5 5 3 3 f 5 : ; 3 l w w w 5 5 5 5 5 w w w w w w w w w y w 5 w c c w 4 y c y y y u u G G J G c y w e c y c c y c c c y x z z y z w * 2 J P U v 2 v T y ; ; f 3 6 w 1 = T P V N N 2.h.vX+.z.1Xr.>XQ.;X>XP._.P.P.< y.>Xq _ k.S.s.k.P._.s.#.[ I v v z w v v q v b b v k b j = = g 3 3 3 x b v ` $.$.t.3.#.3.2.3.2.P J +.X.I W W I P ( [ O.O.O.{ [ [ I [ R t.F.^.A.g.p.f.V.5.1. .O.a w 5 j k w 3 b k 3 2 l Y n k K v H v K i a v t K I u G G J q u.KXMXvXFXcXdXhXvXjXjX4X>X/.L.L.Q.f.5.5.@.( ( J J G J v v c e j l 2 w l j 2 w w w w e 2 = 2 * 2 w 6 3 3 : : w k k l l g l n k u k b k q w k u K v q v J ( ( { 6. .f.~.G.p.<X2XQ.G.2XwX2XwXI . + + + ; 3 . o ; : * o + ; # ; 3 3 : 6 # * 3 3 ; ; 3 ; + # * ; = * * @ # : 3 * * : 3 3 ; : 0 6 * h l * o ",
"; * + . + # # # # # # * + # # + # # ; + . # ; f b @ + # # ; # ; O % + # ; # . # 3 ; # # ; # # ; 3 - d ;.8.q. .J L i ; ; 7 P :.N q 3 : ; ; * ; : 3 3 3 3 3 3 ; ; 3 3 3 3 3 : : : ; 6 3 3 2 3 5 5 3 w f f 3 ; 5 l w f w 5 5 5 5 5 j c k j 5 2 4 w y y w w w w 5 4 5 w y y c y c z L [ [ B i y w y c y c c z c q y j j y x t i u - = z [ P G y u H j ; # f 3 * w y - T [ s E p E .XyXh.b sXP.P.Q.).)._.(.h._.J J ;Xe y i._.i.S.k.G.i.[ I J H K v w b b v ' n b b e b l = + 3 w w * l z y K +.O.u.a.p.p.3.t.i.#.o.[ P U X.+.X.[ [  .1.5.6.1.O...( [ 1.p.g.p.,.5.f.A.A.5.,.1.2.I x j 2 3 3 : w w g j w k w w j u b i K v K K H z t J i i z < u.KXFXAXsX7XsXvXvXjXjX4X<X!.L.F.A.p.3.#. .N ] O.) K I u v v j j k 6 w k j ; 3 n l g w w = w ; 3 w 3 h h 3 ; : 3 5 k l w l u e j k n k y z K a ) o.J _ J o.2.(  .5.G.^.F.F./.Q.k.!.wX2X X<Xi . ; . . ; ; o + ; : # o * 3 # # : 3 6 ; # ; # ; # * 3 ; # ; * ; ; # o o = * : : : = * 3 w : 0 3 : 0 0 * * ",
"# # . . * # . . # # # ; # + # + * = ; . . ; # ; g . # * # ; O ; % > % o # # % : . # ; * ; + + ; + 2 P 4.q...p v $.I w 3 t [ 8.A 4 : ; = ; ; : 3 : : : : : : ; ; * ; ; : 3 3 3 3 * : 6 6 3 5 w 5 5 f 6 5 f 3 3 f 3 5 5 5 j j 5 5 w j j y w 4 4 y y w w j j w w j z w 4 w l k c z B  . .i i y j z y 4 y y y y 4 x x j 5 c y u u < $ y [ ] L N i K y 5 + ; 0 ; u v 4 c I p E E R >XI.7X+.T l.l.;X(.Q.)._.k.>X2.9 l.b z h.k.h.y.k.h.g.O.o.J v v k v b z k K n k v k v v 1 . ; w w . b k w G I ) u.h.k.s.2.3.3.{ [ C O.O.O.[ X.3.p.5.5.5.5.6.1. . .O.>.p.V.f.p.I.!.A.V.g.5.6.O.I H y w w j w : : j l 5 w w b j w H K K k v v q u v ' z z J < l.JXAXvXsXrXgXvXhXdXtX.XG.L.!.F.F.5. .3.] ] O.[ i i v K c K b j k 6 w k n w w j w w 2 = b Y g w 3 ; w w w ; ; 6 3 j l w w 2 w k e e e k v v a G P J J _ ( ( ] 5.@.q.W.G.$X^.~.G. X<X<X>X.Xt . . . . # + 3 ; ; : ; ; # o 5 6 6 : * * # # ; 3 ; * ; # + # # * ; * o : ; . ; ; : * @ 3 h ; # 0 g w ; 0 g ",
"; # + . ; * # + + # + . # + . ; ; ; # # * + # 6 * ; + # : ; # . ; # ; % ; ; # . : : = # ; # % 3 = p ..4.] < * : u v l f z E :.| i < : ; ; 3 f 3 3 : : : : ; ; 3 3 3 : ; ; 3 3 : 3 ; 3 : 3 5 3 ; f w w w f f 3 ; f 5 3 3 w w j y w j j w 5 g j w 2 c k y y j y w x j j j y c y w t G I I z G G t c y j j x c c H z y x b b y u - 2 4 a { C R t K 4 T w . 3 * - I < y H q N :.:.K.P.8X(.- +.u.(.Q.P.Q.P.P.).$.t l.' q h.h.!.3.s.5.{ i.$.v K v z k q v u y v K _ K z Y 1 @ 6 : 3 k j Y Y K G $.h.s.t.k.i.#.a.{ O.2.t.[ L [ >.3. .5.5.5...d.f. ...5.p.6.g.!.f.A.C.f.V.f.g.R 2.I U z w b b = 2 g w 6 k w g m b l b e K k q e u b u 4 K ' H - y.FXAXbXvXsXgXsXrXvXtX,X1X.XS.A.~.G.[ P O.[ X.v 4 y i z v b c w l x g f w c w y b b y w j l u w 4 ; j w 1 g l 3 2 k n l j 3 w j v b _ v v k k i a I o.B B 3.Z 6.d.q.G.!.G.XX<X/.wX5X2XaX.X4 . . @ . ; ; 3 ; + ; 0 ; ; ; ; + ; 3 ; . * : # ; ; ; . . 6 # + + # * ; ; ; ; + * ; 3 3 # o f 3 6 w 3 ; w k ",
"# # # # # + + # + ; * . # # # ; + ; ; # ; # ; 6 ; 3 = + # # # . 3 # % ; ; ; ; ; > : ; # % # % 6 u s :.4.B - * : * 2 l x i r A 8.t.u * : : ; 6 ; 6 3 3 3 : ; ; 3 ; 3 3 : : 3 : ; w 3 3 3 3 f 5 3 3 3 3 3 5 f 5 3 f 5 3 5 j f k j 5 j j w 3 w g j j k c w j j w 2 j w w w 4 w w w y z H U G i F G G H x j y H H j 5 y x z H c v 4 - z t L  .R t c t +.j @ : w 7 I K $ 2 I R } } K.P.8X3Xi q l.z.P.Q.P.Q.P./.s.J r.u u l.S.Q.t.p.3.C #.o.J z u c z q H c w ' T u q v Y l w # ; g m 5 c k v I y.a.i.3.#.a.s.s.i.i.t.O.] P ] 5.p.1.1.p.V.1.6.1.O.O.1.p.p.g.A.p.F.~.J.q.V.f...y.O.I y k l Y w : w g : 3 3 w l w 0 e q k w 2 c k z k b v K z - u.FXMXbXvXdXsXrX6XsXsXtX>X).F.F.!.g.O.2.O.I U H c v J I i k v l j 3 3 g e b H z v b v b e u e e w w j w e k v w n b l w 3 1 5 e l n v q k v H K K ) o.{ { ( ( f.p.C.W.s.S./.2X2XwX<XwXfX_.+ . # * @ # 1 ; * # ; : # ; 3 3 # o : 3 + o + ; # . ; # . : ; + # + + ; ; # # ; ; : ; # ; 3 3 w 6 w 3 * 6 g ",
"+ + + * * # * ; # : ; + # * # * * # # # * # # ; h l 3 ; # ; 3 ; : # ; ; % % # % : ; % % % % % ; P p.w.,.,.L = # * $ q K ] C <.H.q.s - ; 3 > ; 6 ; : : 3 3 3 3 3 ; : : : 3 3 3 : 3 3 3 3 3 5 f 3 3 3 3 3 3 5 3 3 3 3 3 f j w j k w j w 2 w 5 w j j j y j k j w 5 w 5 w w w j k j j c c z i G ` I p z x y y F F 4 4 y x c H u v z $ y U B } 6.< z U [ c * ; z B i +.@ 4 $...A Z s.(.8XsXl.- r.l.3X(.k._.h.s.P.+.T = v y.k.G.p.3.3.( { ( v v v v K w c v z u K ' v y b Y w ; + 6 b 3 f j H J I y.h.O.#.s.#.3.a.i.3.2.6.>.6.p.g.p.5.5.V.5.5.O. .1.2.p.f.g.h.5.A.!.C.f.G.A.5.2.W G z w w b j w k l 3 ; : 1 3 e w e e 2 k j e w b b b k z y @ l.FXBXNXcXsX6X3X3X6XrX4X,X<X/.f.p. .O.o.X.G b K v b J X.` K v v e w j n q n m j 0 q u k n j j l j j e w b b v e q w u u j w k k q u v u i k v v I $.O.P r { p.p.5.A.!.^.).wX1X>XfXtXaXjXy.+ : O . 6 ; * # + ; ; ; = ; 3 f ; o ; : # # ; # . . ; ; # ; ; # 6 ; # 6 : # # ; 3 f : # ; 3 : w 6 6 6 ; 6 w ",
"# + # ; * # # # # ; * ; ; # + # ; + . ; ; + + ; g g 3 = + ; : ; O # ; # # ; # # ; # # % ; ; # $ r  .d.w.4.>.i @ + . + q ]  .8.w.8.} 9 - ; 3 : 3 3 3 : : 3 : ; * ; ; : ; : 3 3 3 ; 3 3 w 5 5 w : 3 3 3 3 3 3 3 : 3 3 3 j j 5 w j w w 2 2 w w w w j w 5 w k j y j w 5 w j c k k y k j w 4 y G I i i z c y z t 7 c y z v y z u v z + < O...! 6.- G >.p w : # b y.L x @ q X.A S D p.>X,X3X;Xv ' i.Q.P.k.>Xh.y.h.I w w K +.O.h.t.2.i.O.{ a i v K K v w b b u u n v K u u l g 6 ; # f 3 3 g b z t ) i.2.i.i.3.s.2.#.h.1.5.1.>.2.2.5.g.5.p.5.5.O.B C 2.1.t.t.h.5.p.A.g.g.f.g.3.[ G G K c j b l j w w w w g 3 ; w l k 0 n k j b j q q K v z w + h.JXAXMXbXsX6X7XyXhXaX1X,X<X/.f.@.] #.U H H z b c n i ) +.K v i e v b e l n b u < = 2 u l 2 w j l l w e k n v i k u e u v n b v e k b v K v i u J $.O.( ( p.F.9.p.~.Q.!.4XaX4X4XfXhXCXtX+.. ; O . # ; 3 ; + # # ; : ; ; 3 : ; ; * # # ; . . . # + + ; : # 3 : # 3 3 ; ; o 3 3 ; 3 3 : : ; 6 ; : 3 3 3 ",
"; # # # + + + # # # # ; ; # + # ; + ; 5 3 + # 3 0 : ; o O % # # # % ; + # ; > 3 O O # ; ; ; = ; < 7 } w.d.| t - @ 1 ; @ t [ 4.0.w.8.] q $ * ; * 3 : : ; : 3 : ; : 3 : : 3 : ; : 3 5 3 f f f g 3 : 3 3 3 3 5 3 : 6 f f f w w w w 5 2 3 w w 3 2 j b c 4 5 w w w k c y y j w w w 5 f 5 w z z v v t u i c y I G N z y z c u v i v v $ < [ 5.|  .7 J h.r - : # y >.X.$ $ < J ] } r h.rX1X(.;X' p y.y.).k.Q.i.h.l.v T Y b y.P h.p.2.#.( o.o.H u b z k u b K K K v i i H - b x : 3 3 3 f 3 3 y v K ` [ i.t.i.s.i.#.t.3. .O. .5.p.1.p.f.g.5.1.5. .C B 2.3.5.2.f.5.6.p.d.5.f.5. .[ +.I z y l b b w = 6 g g g w w k b n e e Y k 2 2 n n b v l 2 + Q.KXMXvXgXrXrXtXsXNXsX3X>X/.^.A.q.C P G U b l j 0 u q i ` K b v e n b l Y l g 0 3 2 w j l 1 1 w j e w u e u v n K T v n v i v v v b v k J i a B a P { s.s.s.^.~.!.2X_.L.<X4X3X3X3XwXjXjX' + # . # + # & % . + + + : # . ; : 3 ; # + o + + # # # . . ; 6 + * : # # ; 6 3 * : . . 3 3 : : * 3 3 3 0 3 f ",
"+ # # # + + # ; # # # + # ; * # # 3 l x 3 # # ; 3 ; * # # : ; % # # % # % # # : # % : > ; # % ; ; $ 7 1.C. .< = 1 1 6 ; 4 u ] q.<.<.q.{ q 1 j w * ; ; ; 6 3 0 3 : : : 3 3 : : : 3 5 3 3 3 3 f 5 3 3 3 3 3 3 3 6 3 g f j w 5 w w w 2 3 w w w w w j y 5 w k j w w j w w j w j k j l l k c c v v q y c z c U >.X.r z x u u v i v v q < B 1.8.5.< i h.B - 6 * $ t G 4 4 < L >.;.r p.tX3X3XrXP.7 p y.;XP.P.a.k.h.X.z q = +.P L.k.i.o.J _ ` H y z k v K k K ' _ +.+.v K 4 k k ; : : 3 3 x b w y K I J 2.3.2.2.o.#.p.B t.5.1.5.f.g.d.f.5.g.q.1.>.O.] 1.p.t.6.p.5.5.p.p.p.p.5.#.[ ) J u y w w b : 1 w l 3 : 3 w l k k b j l w n n k w b w j 2 . :XKXvXgXdXsXgXdXhXjXtX4X>X/.!.d.f.O.P a K k k 0 j b v a K a v K l k b b k k w : 0 j l w b w w j w w 2 e k k n u k v v v b v v v v v u u J J ) [ ( {  .p.f.p.W.XX^.<X.X)./.3X4X1XtXaXtXgXr.$ +   % ; % . ; ; ; * # ; ; 3 ; * ; o . + + o : # * : ; # # # * : 3 * . # ; ; ; : ; + . ; : + # w f w 6 6 w ",
"+ ; ; * # # # # # + + + ; : ; * : 3 g f : # # # * # # + + : : # # # # # ; # . O ; # ; > % # # ;   . 5 U U v 0 ; @ @ + + # * q P ~ 4.d.9.J y u 2 6 3 3 3 ; 6 3 6 : ; 3 h 3 3 3 3 3 3 : * : 3 3 f 3 5 3 3 3 3 3 3 3 f 5 f 5 5 w y w 3 5 g w j k w 4 w w j k j w 5 y w w w y k l k l k w 5 4 y c 4 j w y t s O.1.B v v u z v u a v v - s ..q.d.< i $.p @ f b = $ H x x < i >.,.D p.tX;X:X6X1XK - ` ).(.P.$.i.h.t.a : X K _ i.s.i.$.J J v e y j u v v T k q ` +.K _ v z y 2 5 3 ; k 1 b Y z i J P [ O.o.O.#.{ #.$.1.1.q.5.5.5.p.5.6.4.C.C.p.2.5.P [ O.O.1.p.p.5.6.5.@.1.#.( _ a J H l w ; j 2 3 3 w f 6 w g w w w e w Y b k j K e 1 6 w 3 + ;XJXcXdXsXsXdXhXsXtX3X<X.X/.!.p.A.p.{ I K v b q n b K i q q z b b j g f w g w 3 g l g w j q w l l w j l u k b k e w w e v T K K K a q v o.o.2.O.1.6. .,.q.d.G.~.~.~.).<X4X3X3X4X3XjXhXgXh.. . % > # O # : 3 ; # : : : f : . # # + ; : * : * ; 3 3 ; + . 6 6 : ; # + # ; ; 3 3 ; o + # # @ ; : 3 * ; w ",
"# ; ; # : : ; + ; . . ; 3 ; ; ; 3 # + * # + # # o # ; + . ; % o # # ; + # ; % ; + . O ; ; ; ; # o : ; $ 5 $   ; . 6 3 . O 3 6 < C 1.,.( ..[ i q w 3 3 ; 6 3 6 ; 3 ; : 0 : : 3 3 3 3 3 ; 1 5 3 f 5 f 5 3 3 3 3 3 3 3 1 3 3 1 3 w 5 3 w l w w k w w y 5 5 y j y w w w w w w w w 2 w w w b w 1 w b l j c v P ] C N i z i J G p i v v t < ( 6.5.p t r.y $ k Y w 6 x y U 4 i B ,.D 5.hX8X_.>X3Xy.- p l.>Xk.o.i.3.#.K e = v _ J $.2.o.K J b c j j e k u v v p _ y.X.a X.J y w k l w k * 4 x K X.O.[ O.[ [ t.O.{ 2.3.2.( f.F.5.5.d.q.5.q.5.g.g.p.p...1...]  .2.5. .]  .]  .O.B K J I v u j 6 w 0 = ; w g 3 w 2 w b k 4 q b j e l K l l ; g w = ;XPXcXmXsXsX6XhXvXaXtX4X/./.~.C.!.p.B J +.K ' j l e l e q k H b j g l l w g w w k w 1 2 w 2 2 l u w w j w l b k e k q 4 v H v k ' v v X.i B [ ( ] {  .d.f.G.W.wX$XF.).4XaX1X4X4X4XhX4XAXz.. : > O # % % 3 3 + # f 3 ; : ; . : 3 : : : * ; ; # . # 6 ; + # # . . ; ; # ; ; ; + * 3 ; + ; . . . ; * * 3 ",
"+ # * + # * * ; . + # : 3 3 : ; + + ; ; # # ; ; # # # # # ; ; * # # # O # % = : o ; + % 3 ; > ; o o ; 3 ; + = ; ; # . * + ; ; = u t i s [ y.L < y 5 1 3 6 3 w 3 3 3 3 3 3 3 3 3 3 ; 3 h 3 3 3 3 3 : : 3 f 3 3 3 6 3 3 6 3 6 3 g 3 w j w w w g k k y w w 2 w j j 5 w w w k j w w k w w j y 5 5 x g l b v J  . .V i t i t z F i z K u : s 1.6. .B y k z $ v z x - F N L 7 L V C 5.tX(.8X>X(.P.v u v _.l.$.$.#.O.) u 3 n v H _ ) ) ` T b z l w k b v k H K J o.$.` +.I T K G K H z 2 4 4 B $.t.$.2.O.O.6.5.2.#.i.3.1.s.5.3.5.6.g.G.8.:.6.p.5.6.5.p.1.C B { 3.O.[ [ I K J G G T v z j w w k 3 3 6 6 f g w e k v z z e q b j j b w g ; 2 = = 1XJXMXnXdXcX4X4XaXsXtX<X,X~.g.6.f.g.[ a K H Y q j l w u b b n w k w 3 b k w w j j w w w w ; 5 l c w c k m b K b c k u u e b b k v i v _ J O.P P O. .p.W.G.D. X$XwX<X.X.X<X<X3XhXaXaXsXZXz.. # O ; ; # ; ; 3 : 3 5 ; : # = ; ; : 3 ; # o # : 6 # # : 6 # ; # + o = ; ; : : ; + ; 3 ; ; + + # : ; o 3 g ",
"# # ; # + # + * # # ; * : 3 3 # # # ; ; ; ; ; # # + # # # # # + : > ; # % = ; ; % : # % # O # + 3 ; # ; ; % > ; ; . . ; ; : * ; ; 2 z H [ O.[ i H j = * : ; 3 g : : 3 3 3 3 : ; 3 : 3 3 3 3 0 f 3 3 3 3 3 3 3 3 : 3 3 6 3 3 3 f 5 w k l w w w w j w w y 5 w 5 4 j k y w c j j c k j j w w j y j 3 w c i U O.O.[ i G G G G G z i U y 2 k  .5.5.[ $ x z @ v u 1 < X.O.3.t L ] r 6.rX>X3X>X;X;X' i J s.a.i.3.{ #.$.e 3 k H v v I $.v H l l l w k k y K H v ` ` ) o.+.` ` ` a G o.y.w y +.i P A.a.p.>.t.5.1.p.3.3.i.#.3.p.p.p.5.5.q.g.g.p.6.1.6.t.5.g. .B B ) U J K G H H H K ' H b w 3 6 3 3 3 3 6 f 3 4 e z v k w w u v w l b 0 3 3 w = = 8XSXnXcXcXbX6X1X4XsXtX>X_.F.f.p.5.1.P K T H H q c l k b k j n j w 0 6 g l j j l w w j l w 0 w k c y v T u e k n c c u v z b k u 9 a _ a [ O.] ..6.5.s.s.5.1.G. X2XaX2XQ..X3XtXjXhXjXvXAXl.. ; # # # @ @ ; 5 3 3 ; # : * = ; * ; ; # ; # ; ; * * ; : ; + ; ; ; ; ; ; = ; f 6 . # ; # ; : ; * # + . : h ",
"# # ; ; # + . * ; # # # 6 3 3 * * # ; * # # # + # # # ; ; # # # % ; ; + # % # + # ; O # # # : : ; # + # + # ; # # + . ; ; * # ; ; 2 b K t L +.i H x 5 6 : * 6 g : : 3 3 3 : ; ; 3 3 3 : 3 3 3 h : 3 3 3 3 3 3 3 5 5 3 1 f j g 5 w w g l w w w w w w w j w w w 5 w j w w w w w w j y j w w c w w c k c y i G G G H W G L E W B t G t q u ] 6.5.{ @ k e < k z $ y +.>.g.O.r { d Z 1X3Xz.l._.;Xz.K K K $.i.i.{ ) $.n w w w z v K _ z b c l w w e e y z u H K v X._ +.K ) X.) I X.y.T w ` i.] ( f.A.2.5.p.a.a.s.t.3.p.p.p.C.C.g.g.g.g.g.g.g.5.5.6.>.[ U L G G G v v K H x z y Y x c w w 3 3 6 6 3 3 f f z b K v e 1 4 c u w b j : ; l j = w dXVXcXbXgX7X1X3XhXgXfXtXI.A.p.f.5...U K U c x c k z w l e 0 n b g w 0 w j w w j w j l l g j l j u y k H e u v k u z v v u K v i J ) { ( P L (  ...1.6.]  .p.p.j.~.wX.X/.2XtXtXhXhXjXjXvX'   = o # # : ; : 5 3 3 # # 6 ; ; ; ; ; ; = ; # # * ; 6 6 * # # o # : 3 : = # o 3 3 + # * # + + : = + # : : : ",
"# + # # # # + ; ; + + * ; # # ; # # # # . . # + ; # # # # + + # O % ; # ; ; # o + ; # % ; % : ; % % ; ; # # ; # # # # ; # + + 6 ; 6 k x 7 t O.i 4 z g 3 : = 6 3 3 3 3 3 3 : ; ; 3 f 3 : : 3 3 3 : 3 3 3 3 3 : ; 6 5 5 6 3 5 5 w w 6 2 g w w g k j w w w w y c j 5 j y y k j w w w 5 w y j w 2 5 y j c y u y y y y H N ..[ [ U B L G G J C  . ...2 2 w e - b 1 < I V p.L.- ( C r >X_.l.>X(.,X(.= h.X.v #.2.o.J $.v w 2 2 c v J K H H z b w w n l q w q v K J +.+.X.J K X.X.K G J y.q q $.h.O.Z p.2.O.t.2.2.t.a.3.t.5. .6.d.p.g.q.8.5.,.>.O.O.O.X.i G H G H v z z c j y y 1 x z k 2 3 w w 6 6 3 3 f g k v z v b c k b w w l w 3 l l 1 . l cXcXdXbXrX3X1XtXgXhX4X4X<X^.A.C.p.O.I i G t x H c k e u m e k n j k l l l e 4 w w k l w w w w w c k u u v k v v z v v a K r.o.s ( { C { P P [ { ] 1.f.p.p.XXG.p. X2X^.5X<X4X4XaXhXhXhXgX'   + .   # w 3 ; 6 ; * ; # 3 : # ; = : 3 ; ; + # ; 3 3 ; + # : # # ; : # * ; ; # ; # ; 3 * . . : = # 3 3 : ; ",
"; + # # ; * + * ; + # * # # . * # # # # . . # + ; # + # # + + # # ; % O # ; ; o ; ; ; ; # # % # ; # ; = # = ; O # : ; * + # + ; ; % 5 x y < L U 1 j w 6 ; + # ; : : : : : : : : ; 3 : : 3 : 3 : 3 3 3 3 0 : ; ; 1 5 5 5 5 5 5 5 w 2 5 5 2 3 w w 5 5 y j w w y 5 w c j j k y w y 5 w k k w w 4 5 y j z z x j 5 y y F V 6.} Z B I V C P P ]  .,.1.y 5 w 2 . l 3 $ t N 3.^.9 <  .r l.3X3X;X_.yX,X. Q.l.p $._ ) a ` +.e 1 z Y z i ` k l k l w g n n H x K J i v J p J K X.K J K J K l.t q J y.i.{ s U [ X.L [ O.#.t.2. . .1.p.5.p.8.5.1... .>.X.+.W K z u u u j w w 3 w j k 2 c 5 2 ; 6 3 3 3 w w f f 5 w u v K H k k v e w w w k l f 6 . Y VXgXdXcX1X7XaXrXgXlX4X_.).F.d.p.1.C G v G G H v z K v u b e e e w k l k b w w w w k x w g k j w l i e e b q k b K v u v J J P ( C ( @.@.] [ ] #.]  .p.k.A.W.9.p.|.~.<X4X<X<X<X4XaXhXgXgXr.. . . . + : ; # # ; 3 * # ; f # # + ; * * ; + # 3 3 3 # . ; 6 * * ; : # ; 3 3 + + # # ; * * : 3 ; # : = ; : ",
"* # # + # # # # # . + + # : # # # + # ; * # # + + # # * * # * ; ; ; o . # ; ; ; ; % # # % ; > : % # = # + # % # * ; # ; * ; # + ; > 3 g w $ G I y 5 ; 6 : * 6 3 ; : 3 3 3 3 : ; ; 3 ; : 3 : 0 3 h : : 3 3 3 3 3 5 1 1 5 j l k w j w g w w w w w j w y y 5 w j w j k w 5 w 5 5 w w c b k j k y w w y j k l j f j x u V q.:.Z r B 8.:.R C  .6.4.( - w g w 0 l = @ 4 i [ 6.[ - L r k.sX;X;X(.1X6Xe l.z.i l._ J J K +.i 4 b Y k a v b b l l w 3 0 0 H Y ' v ' y.X.K i v K v v _ ) ' _ ` u u v ` $.P 7 i ` X.$.[ [ [ ) ( [ O.....1.1.C >.O.[ W G G i z y e w w w 2 3 w g g j w k 2 2 w 3 6 3 g g f g f g k v J v c y q z j w j l g ; k 5 + r.VXcXnXgX3X4X7XrXaXaX2X/./.L.V.p.1.] ) ` K U J J k v u q u k b n k j w 3 g w w w 5 5 w w k k k j v v v v u e v v v K K I s s C o.#. .] { C ] ..3.1.1.9.f.p.p.s.j.^.G.<X5X4X3X3X,XtXsXgXgX'   o ; % # * * # ; : 1 ; # * ; # ; ; : : : : ; + 3 3 3 ; # ; + * ; : ; ; ; ; ; ; # ; ; # * ; 3 : ; : ; # ; 3 ",
"# # # + + * # # . . * + # 3 ; ; # + # * * * ; # . + # # + # # # 3 ; + % : % % > > % # % ; ; > ; ; # ; # # ; > : ; # # ; ; 6 ; + # & 3 3 1 1 I I H y ; 3 6 ; 6 3 ; : 3 3 3 3 3 : : 3 ; 3 3 : h 3 0 : : 3 3 3 3 3 2 2 5 y w 5 w w w k f 3 j g w w z j j j w y k k k k w 5 w w y c c c k w w k k k 2 2 5 w j j j j z t :.J.w.! i B <.<.~ ! ] 6.C.] < 3 w 6 0 3 1 @ 5 z L N O.< p p r.SXP.z.3X1X,X4 ' ,Xi y.X.p X.X.J v k b k u v n m b j j k 0 w g w ' y q $.X.i K ) v a e i J v K ' 4 k k = v o.$.T c v G G U 2.O.G J I X.J J [ [ B O.[ [ L z x i c e 0 0 = : 3 3 3 w 3 w k l w k g 3 3 w k w w g f k z v i u k b y H k e j j w w j 5 . z.BXdXcXdXgX6X6XgXhX3X.X.X>XL.C.p. .P I v I I v K v v q q v n b j w k k w 5 f w 3 w 3 3 k g e w u z b T T e n K u q K ` _ ( ( { { 2.O.[ { ....] O.1. .1.p.s.~..X X).W./.<X<X1XwX3XsXhXvXbXY . # ; : ; ; ; : 6 ; ; 3 : # . # ; : 3 0 : : ; # 6 ; 6 3 : ;   : 3 ; # # # = ; ; # 6 ; + + # # ; : ; : : 3 3 ",
"+ # ; # # ; * * * # 6 ; * * . # # + # + . + * ; + ; ; # . + ; ; 3 # O ; > O   + = # # ; % ; ; O : O + # % 3 ; # ; # + ; * ; ; ; % & 8 3 5 = c y z j 1 6 * * : * : : : : : 3 3 3 3 3 : h 3 : f 3 : 3 3 3 ; : 3 ; g w w k c w w g w l f 2 w w w w y w y j w y k j 5 w 5 5 w w j k x w 4 5 w j w l w 5 w g w y k z i L D.#XV.} p B S 7.7.<.D ,.E.4.J : w 6 * ; m 1 1 4 L L i i q y v cX6XQ.1X1X(.K v sXv +.y.< _ K I z 4 c k j b e b l 0 w 0 2 0 k l < z r.q 9 X.' y._ v a i i q n j k w 3 = 2 ' T ' z 4 q X.X.X.I v K K I ) I ) I ) P p G I G c w w w 0 0 = w g 3 ; 3 w k l g ; w 3 ; * ; 3 : 6 g 3 j k y i u e u c m k u n 4 = k 6 3 $ >XJXyXgXvXrX3X4XhXsX<X).)._.p.p.g. .[ X.I K v u K T K u u b k n e 2 l l 6 f g 5 5 k f 5 l b e 0 e u v v u v n b n q p a _ ..Z @.{ B C P P ....]  .1. .,.9.p.~./.~.^./.W. X.X.X4X4XhXdXvXSX' . o . o ; # * # ; 3 ; ; 3 3 * * : ; ; ; + # # ; 3 # # ; ; : + 3 3 ; # # # ; : + . 1 ; . . + + ; ; = * 3 3 ; ",
"; # # # + # # # # + + + # o o # # . . + # * # # o o # ; 3 # o # + # % + ; # # # ; # + # # % = % . % 3 3 # O : % 3 + % # + ; * ; > ; ; : 3 * = : 3 1 ; ; ; : 6 1 3 3 3 3 h 3 : 3 ; ; ; : 3 : : 3 w 3 ; 6 6 ; ; ; w 6 f f j b c 4 w w w w w j l 2 w w y y j 5 w z k 3 y b k j 1 w w j k k f 5 5 j w k l 5 w y j u u P OXeX].w.} N S ! w.q.C d q.q.X.@ 2 = 3 ; w g . - i L 7 4 w k = (.vX1XrX(.(.l.< ,X+.q l.a i X.I K w 2 w y u ` w 0 e n b k g g 2 u H T v ` H q v v v K n u w j j 3 f g $ 1 2 k T K v u i K +.v u v v v I K K H z z J T z w q w g 3 ; 3 3 w 3 w b w 6 1 w w w 2 g g 1 ; 3 w 2 3 w 5 b j 4 v K v e 4 e e k k g h : $ q 6XBXdXrXrXsX3X4XrXsXtX3X).L.s.h.1.[ o.X.+.I I u i v z b b b k e e e w 3 ; 6 3 k k w g w j w l v k u u a v K b K k q q a { { C ] ..{ P B O.3.{ C  . .5.d.5.D.W.C.f.F.!.^.^.).<X4X6XsXgXvXMXr.  . + + : 6 w : : : 6 : ; # * 3 ; + . # # # # + ; # ; : ; = ; # . : : ; : *   # # # 3 * . ; # ; ; ; : : * ; ",
"# # # # # # # + # + + # # + + # # + # ; * ; # # + + + * ; # + * # ; ; # ; ; # # # % ; ; # # = > ; # ; : # # > : # # # % # # & # ; ; # * = < = : 3 3 3 3 6 1 6 6 3 3 : : f 3 3 3 : : : 3 3 3 3 0 3 w 3 w w 3 3 ; 3 6 w w y c y y w w w w w k l w w w j j k w w j j f j c c 5 1 y b j 5 w w j j j j k k 2 y y u y i P |.kX#XZ.6.C C Z <.8.] r ] ] X.< 2 * 6 ; 3 k + + t X.H i w w : l.NX_.>X;X;X_ < (.l.q P.K J ` J T c 1 g Y Y v k w b b 0 g g = w ' k < v T u H v v K ` K n k k w 1 3 5 3 5 5 w l k z b y c K x v z z v v y y k z z z v w w w w 3 3 : 3 3 w 3 w w w w w j j w 3 g w 2 3 j j g k g g x k k v v K q e k b j 0 3 3 : * K gXNXcXsXrXdXaXsXsXgXsX6X,X/.k.h.t.[ $.X.I I G y z z 4 w k l k n l w 2 0 g j 5 g w 3 3 5 w w u j u u q i ` K k v v v i a ) 1.q.6.5.2.O.i.{  .f.p.5.f.j.d.G.q.g.C.A.A.^.).L._.>X6X6XsXgXvXSXr.. + # + ; ; 3 # ; 3 5 1 ; ; : 3 ; = ; : ; ; ; : 3 ; : 3 3 : ; ; . * ; # ; ; # # : # # * # : * + 3 3 = # ; ; ",
"+ # # # # + . . = # # # # + + # # + # # + # + + * # # ; ; ; ; ; # % % # % ; ; # ; ; ; ; = # # # 3 + # % % = ; > o ; % % # # > % 6 ; ; @ _ 2.G 1 1 ; : 3 6 6 6 1 h 3 : ; ; : : ; 3 3 3 : : 3 3 3 3 w f h w w w 6 ; 6 w w y y w j w w w w 2 w j j w w w w c y w y w l w w y 5 5 k b y 4 5 j j j w c j c 5 y c c u p p g.OX}.q.~ Z C Z } | V 7 B L I 4 2 3 : ; ; k w @ < [ I i 4 w e v 4XrX;Xz.,Xv u _.h.q y.X.q v T K j g w j b v b q j n : ; 3 * j Y j w w H H u ' K v v z u w w k 5 2 w 6 6 6 = w w j b k 2 w b u q w k u z k q j j j w w w w w w j w w 3 w w w w k l j w e w 2 6 w l w 1 2 j k f f g w l e q v q u l b j w w l f . y.FXgXgXrXrXsXhXtX4X1X4X3X>X!.s.s.3.#.y.o.a z y u u q q v b w k n n l l j w b w w w 1 1 2 2 w w w u u q e K J a v K K v v K 3.1. .C { p.2.s C k.G.F.F.j.q.F.J.G.!.XXXX<X5X>X/.>X4X4X6XsXgXbXY . ; ; ; ; * 6 # ; ; : * # * ; : ; ; : 3 : ; : : : + o = ; ; # ; # ; * + * ; ; . ; . + ; ; ; # ; : : ; * ; ; ",
". # # + # # # # ; # # # # + + # ; # # . . # + . # + + # # * # + # % % # # % % # # # + # > > ; # ; . + # ; ; % ; * ; % ; + # ; % 3 5 3 <  .^.5.7 1 ; 3 3 6 6 6 6 3 3 : ; ; 3 3 : 3 3 3 3 : 3 3 : 3 w w w 3 6 0 3 * 3 w w k y w l w w w w w 5 w j w w 5 5 w w j j w x 5 5 w w c z j w w y j j j f y y c w w j v v G N V 8.Z.8.} ,.,.S ! :.R 9 F H G 4 w g 3 6 = 2 w @ < G ) i y v u < z.BX;Xu.;Xo.i h.l.7 ' y.a J H z 0 w w 3 z H K l w w 0 : : f g 1 l b q b H 2 q q u v K b b b k f 1 w 3 2 w ; w 2 3 w w 2 1 5 z y w e k b k 1 w w w w l l j w w k w 6 w w w g w b l w w w 2 ; w g l w 1 w j 6 5 g 5 3 k 5 = j n m n j w 0 0 h w . z.AXgXgXrXyXgXhX4X>X(.<X>XL.S.s.k.5.P { ) J v b T H u K ' v e k n g w j k k w 1 w l 2 2 3 w w e u u n u u v a s v b v i i K J  . .C { 3.{ [ Z ] { 1.5.p.p.D.~.A.C. XXX.X2XtX2X3X6X3X7XgXcXgXk . ; ; ; # @ * # ; ; : ; * ; 6 ; ; * ; ; # ; 3 ; : + o ; 3 3 ; = ; : ; # # # + + # + ; 3 * * ; : # # ; 3 * * ",
"; ; ; # ; # # # # # + + + . o * ; ; * # # ; + . * # : : # * ; # ; = ; ; # ; ; % . # ; % # # ; > # O % # # ; # # # * ; # 2 e + + 3 j g < @.|.E.N 2 ; ; 6 ; ; : : : 3 h h 3 3 3 ; : 3 3 3 3 3 3 ; 3 3 3 3 3 * 6 w 6 3 3 g k y w j w w j x x j w w w w 5 w w w j c 5 j 5 5 j k b c y y w w 5 w j x 5 w w w 5 y z z X.B N B ,.>.R 5.D.;.<.D.A.s 4 K i < w g ; 6 2 = w = < i J B i i w y l.6X(._.(.r.K u.P.q l.i.$.X.k K g 2 ; 3 l e w l g : 6 3 0 l 3 2 j w w j 1 w b w k T ' z u v w w w w 2 = w w 2 5 3 1 5 l g 1 k w 2 w l w w w 3 w k j l k k l 2 w w w w j j l j u u u k K Y b l w w c w 2 w j k l g j j g g j k m k j j w 6 * * = 3XvXdXdXgXsXgXhXtX,X).<X>X^.G.f.p.#.[ { o.$.v z K b u K K u e k g 2 0 w j j j 2 j l w 2 2 w w u u u k n b ' K J v a a i i q t O.#.9.9.( ( { 5.O.{ ..C 5.p.d.G.G.G.^.^.F./.3X3XwXtX6X7XcXNXyX6 . : ; # . + ; 5 : ; ; ; + # 5 ; = * # o O + ; # ; : : : : 3 ; O : 3 : ; : : # ; # ; 6 1 ; ; ; . # ; : : : ; ",
"; ; # # + + + + o o o o o . + ; # * # # # # + # o # ; ; + o + + ; ; = = # ; ; % # ; ; ; o + # % # # ; # # ; ; ; o ; % + K +.< $ = 3 3 4 ] E.E. .4 ; # ; ; ; ; ; 3 3 3 h ; : : : ; : 3 : 3 3 3 : 3 3 3 w w ; 3 3 6 3 2 5 c y w w w j g k k w w w w w w y w w y w w w 5 w y z b w y w w w w w j k j w 5 w 5 w y y K i F i N V p A 4.;.Z.#XJ.s < H z 4 q 3 # : 3 @ 3 ; = 4 J G p 4 4 w l.1X_._.>X$.q r.z.p +.$.+.J u j 3 0 0 0 j j 2 w g w : ; ; h g k k * k j = b Y b k v v u z K w j b b w 6 j j 2 ; 6 w w j w 3 ; 2 0 2 e 0 w g w w g g w w w j w l b l l k k j e e e e v b v k j w w l w 2 w j w l e e w g j j 0 b v b k j k 3 . k vXjXdXyXdXyXgXjXaX4X>X3X2X^.h.2.] ] #.3.$.) z z c y y J v 4 k g w 0 j b k 3 b j j w w j w w b w q e v v v K v K _ _ J J K v a J #.s.9.@.{ B {  .1.6.@.1.1.s.f.F.!.Q.G.^.>X).>X3XtX6X3XdXMXgX1 . ; ; ; * ; : 5 ; * ; + . # 6 # = ; * + + # # # ; ; : ; = ; * + : : ; ; ; : ; ; ; * # . # ; # * ; ; ; 3 3 : ",
". . + # + # # # o o + + o O o # + # # + + # # ; # * * ; ; # + ; # # # # # % % # = % # # % ; ; % % ; % % # # ; : # ; ; $ U g.[ 7 + : 3 q r } b.g.u 6 ; ; 3 : 6 6 ; ; ; ; ; ; : 0 : : 3 3 3 3 3 3 3 3 3 w w 3 w 6 w 3 6 3 w w y 2 j w 2 6 w w w w w w y y 5 w y w 5 5 w w j z c w c j j y j w w f j w w y 4 w e w y u z j y z i C D %.n.'.q.s q b H w w ; : ; 3 @ : : = = c z G U 4 = r.1Xz.Q.Q.y.y l.P.v K $.o.X.K k 3 g g ; = n j 5 0 l h 3 : 3 g k l g g w j j 1 0 e u v z J W e u l b l 2 j k g = 2 g 0 ; # 3 = 0 h w 0 3 3 3 g w w w 2 3 w w j y v z z u z y k k k k k u e j b w u j e k k 2 q k e e e w e u e n k v k w l g + ' AXvXyXrXyXrXvXrX3X<X3XwX2X!.p.p. .{ 2.X.J G v ' v q v H x e w k n l e w e g w j j w w b l j v k e e b v i i t J _ ) ) _ X.X.v u $.i.#.9.1.#.1.{ / 1.d.f.q.G.f.A.G.Q./.<X4X2X.X1XtXyX7XcXAXbXw . ; ; + # ; # . . * : ; ; # # # ; 3 ; # ; = # 3 : ; ; # + = = * : ; : ; # ; ; ; * # . . * ; # : # + ; 3 3 : ",
"# # # ; + # # # # # # # o . . . # + + # ; ; # ; ; + . # ; # o # + # = ; % ; ; ; ; # # # ; ; ; # ; ; o % # + % ; = O ; $ 7 p.F.N @ % ; v R S 7.V.i 3 ; # 3 > : ; ; : 3 3 f 3 : 3 3 3 3 3 3 3 3 3 3 3 3 3 w w g 3 g f 3 5 2 w k 3 w w 2 2 j j w w w w w w 2 w k c 3 w j 5 c z 2 w z z z c j w 5 5 f j k l 2 w c c w x 5 5 j y i L :.%.;.8. .B k w T k j : h ; 3 * ; * = = j t i W 4 1 r.(.h.3Xy.i.- l.;Xi +.+.y.y.K T w : : = = g k w 3 3 l g : # 3 f j j 3 3 x 2 * w l b z u u u H b v k b 3 w k b 3 w j 0 w f k 0 : 0 w w g g k f 3 ; : 6 5 5 2 b w k b b z Y b v v v v u q q k b k b b v k l k e v n k b j j b j e 2 j w 2 k w @ y.AXvXrXNXcX7X>X,X>X(.<X2XXX!.h.h.O.{ 2.I B a K T u u K i y y l n j q 1 0 j b 0 l b e u b u e 4 n b u u u u u v K J I J a J J p J { #.] Z @.#. .{ Z ..9.C.p.A.A.j.5.k.>X.X).4X.X>X3XrXsXcXMXcXl . # + + ; ; # * 3 3 ; # * # . = 3 0 ; + = # . 3 ; # ; # + ; : = ; ; 3 ; o # ; 3 * # # : ; # # * O . # : : ; ",
"+ ; # # . . + . . + # + ; + + : # ; # # * # + # # : # % % % ; # # > 3 # % % ; ; ; # * 3 : ; # # . + ; : % o # : : # % 3 4 2.V.s $ + < L O.:.<.w.G 3 3 % # ; ; ; 6 ; 3 3 : ; ; 3 5 * 5 3 3 g 3 g l 3 3 w f w w 6 3 3 w 3 3 5 3 w f 5 j j f 1 w j f j 5 5 j j 5 w w 1 6 j j k w 4 i U K H G w w j 5 2 3 5 5 4 5 y j y j j j y j G 5.,.Z B P G u + z b + # 3 ; 6 ; @ 6 j 2 z x 4 H t q 5 z.:X6XP.p v r.z.q y.y.$.o.K b Y k : 0 0 k w : 0 w g l h : . : b g 3 w w j T w b k w b v v e w j k l 2 w w g g g 3 3 f 5 g 6 ; g 3 3 w 6 w g 3 : 3 3 3 3 3 k w w n j k v b K b e w j b m k w l k b b w w n K v v u q e k z K u j k l j 2 w = (.MXgXrX7XyXtX1X>X>X<XL.^.~.A.s.t.1. .O.[ O.U U u 4 v b 4 q u k b y u z b k v v v n q v K u u < b u k K i a _ K i K K v J a a a ) J s Z Z d ] 5.A.p.1.5.G. Xf.p.G.Q.^.G.S./.).(.3X3X6XgXbXNXgXl . # ; ; 1 3 * ; ; * + + # # . 6 . ; 3 ; ; 6 ; : * ; ; # ; * + ; + ; : ; = o # g 3 ; # ; ; # # ; : * : ; + : ",
". # + * # + # # # # # . # + + # # # . . * ; * # # > # # # # ; # # ; ; # # # % % + + * ; * * # # # # ; : ; # # ; ; = % % - i 1.C . $ z +.N N ^ 6.U 4 1 ; % # # * ; * : : : 3 : : w : f 3 3 w 3 f w 3 3 6 ; 6 6 6 3 6 g w 5 w 3 g 5 6 5 5 w 5 5 2 j 5 1 3 j f 6 w w 2 3 g j g w 4 y z G H H c c y 4 4 5 8 l j 5 1 j j j j 5 j j i R ..L F N i u e w H 4 1 3 * ; : : + z k 1 H $ z H < @ l.:XrXQ.9 X.y.+.i J +.J o.K b K 0 = 3 : w e 3 0 w w g w 3 : 3 f 3 3 3 w g Y 3 w j w y w k q j k j l 3 w 3 w 3 3 ; 3 w 3 3 5 6 3 3 3 w 3 w 3 3 3 0 : : ; ; 6 e e e e n u k w k n v j e k l j e k b k w b b z b b k c b b b k e k k k g 5 4 j 7XMXyXyX1X1X6XhXtXtX>XL.G.p.5.#.O.1.2. .[ 1.E y z T v v v v k w c y z v b i i n e v v i v H K z y u K T v a p K i H I _ _ J ( $.o.#.a.G.p. . .j.d.5.p.j.d.q.d.f.!.~.^.^.L.P.L.>X4X3X8XcXcXbXbXl . + # # # # + + + # ; * # # * : . # ; # ; 3 3 6 + + * ; ; ; : ; o : 3 : : # ; ; ; ; + # ; # . ; : ; : : ; : ",
". # # ; ; # # # * # + . + # # # # * + + # # # . # ; + % # # ; # # # # # # # % % + # * ; # # # # # % ; ; ; % % ; ; ; : ; # - i a 4 4 G W y p Z V G 1 1 w > ; * # : * : : 3 3 : : 3 3 f 3 : 3 3 3 3 w 3 3 3 3 w w 6 : w w 3 3 : w 5 5 w 3 w w 5 5 j 5 1 3 w 3 3 f w w w w g w w w j z k z G F F u u y y 5 j k w w x z j j j j j y p L H F i i z v < H x 3 6 * # : 6 = 1 b $ x 4 4 T 4 @ +.z.3X(.K +.k.X.K u _ K J ` b b 2 : 6 ; 0 0 0 0 g h 0 3 : 0 3 6 0 w 0 w k k w w k j e j j 0 u k j k 6 w w g w 3 ; 3 f 3 5 f 3 6 w g g 3 : : 0 0 3 3 6 : : 3 k w 3 2 k u y b n k k v v l b b k k b w q u e u v z u k v b H u u k w u w e - Y NXBXdX7X1XrXsXtXtXtX.XF.S.p.5.] #. .2.#. . .[ K T r.b e k z k u u k b b K v i u u b K v k b T k k v K ' v z K ` J v v v J J { #.p.F.!.F.p.5.9.C  .q.q.d.d.5.F.~.F.G.L.G.S.L.S.1XwX3X6XnXbXvXcXl . * ; + . . # . + ; 1 ; # # ; ; . . . * ; * 6 6 # * 1 * + + + ; + ; : : : * : * # * * # # # . # ; : : ; : ; ",
"+ ; ; ; # # # . ; ; # + + # # + . # # ; ; # # # . # O % ; % : % ; # # ; # % ; ; * * * ; * # * # % # ; # ; ; ; ; # = ; 3 * # : 2 z K G x 5 < < B X.< $ 1 3 3 6 ; 3 : 3 3 3 3 : 3 6 3 3 : ; : 3 3 : 6 ; 3 g 3 6 6 6 : w 3 3 w 3 w 2 j f 1 2 2 5 w k j 5 3 3 f g w 5 j k w w w w w g g w w c z G N X.L i y j j 5 j f 5 j y j l c c q i F F I U i u < y H w = ; * ; ; w @ j - v K 4 u x 4 = l.3X_.J ) s.$.X.` i ` a ` K T w 6 2 : 0 w g 3 w f : 3 3 0 : * 3 g 3 w w w l g w w w j 2 e e j k g * 3 k l w w 6 3 f 3 f g 3 ; g g g w ; 0 w 3 ; : : 6 3 3 : 3 w 2 k K k j j v n v k q b w j w k n u e w c b b Y H k y c b K Y j n j v - r.BXdXsX8X1XgXtX>X1X>XL.S.A.A. .5.p.1.3.3.#.J { ` v K K z u u v k y y k u k i q k K v n v v u H u b u k K v i T i v u y v v a P C V / C ! ,.q.@.C 4.C.5.q.G.d.C.~.C.s.G.G._.).L.3XtX3XrXyXMXMXdXw . ; ; # . + * + : 3 : ; ; * * ; * # # ; * . # # ; 3 6 + . . . 3 + ; : : : * 3 * . + ; # + * # o ; : ; # : + ",
". + * + # * ; # # # * * * + + # # # # ; * . # ; ; + + ; ; # # ; ; # % : ; % % # * * * ; : ; # # # ; ; % ; = # # + # % & # # ; = u U c 5 : = < [ O.N 4 - * ; 3 ; 3 3 ; 3 3 : 3 3 ; : 3 : 3 6 3 3 6 w 3 3 w w 6 * w w w 3 w k g 5 1 w w w w j w y j j f w 5 g g w w j w 5 w w 5 5 ; 3 3 5 x U H I ....R N F j 8 3 6 5 j j 5 y y j z y c c v J i t G y v j = = 3 3 w # 2 j y y H y y v w @ z.6Xl.$.o.y.o.$.l.p ` v H K Y l w 3 : 6 3 3 ; 3 3 3 0 3 0 3 * * : : 3 3 g b g 3 w g g 6 0 - e e g = 6 g w w w 3 ; ; 3 3 : w 3 w f : w w 3 6 * # ; 6 : 3 6 * 3 k j w z j b l l l b b w k l b j l Y b b n u b b Y b y c b b v l q y u k - I.MX4XrX7X3X6X1X4X5X Xh.A.A.G.1.5.p.1.2.O.J t J ` a k ` b u i v k q q w k k v i v K j q z H v v ' I ` v e v K i K K v t v K J { 2. .6.f.d.9.9.1.j.C.d.6.6.p.q. .j.~.F.f.Q..X.X/..X1X3XrXrXcXAXbX3 . + + + + + # . 3 ; # # * # . + # ; + ; # . ; ; # # # # # * ; + o # ; 3 : 3 3 ; . # 3 ; * 3 3 + + # ; ; # + ",
"+ + + # * * # # + . # ; ; # # * 1 # + # + . # # ; # # ; ; # % : ; # % ; # # # # * * * * : ; # # # % ; ; ; # + . : > > > # o # @ v G 4 2 : 1 J 5.[ O.U e * + : : 3 : # ; 3 : 3 * ; 3 3 3 w 3 3 3 3 w g 6 6 g w 3 w w 3 6 w k k 5 y k c j k k y j j 5 w g 5 5 w w w w w w w w 5 w 3 f g j x c 4 p p ..:.] B y 8 j j j j j j z j 5 z z k w t i i z x 4 c x 2 = 3 6 3 @ # z H + T T t z w @ l.1X+.l.$.y._ r.l.a $.) J v b w w 2 6 3 : : ; 3 0 f h : ; : : : 3 0 g 0 3 w 6 3 k g h 3 k 0 e e g w k g 6 w g g 6 ; 3 f w w ; ; 3 3 w 3 3 ; = ; : : : 0 f 6 3 g j 2 4 y ' n w w b b k l Y b l b l k b j z K b z y e b b v k n e k v v v 8XsX3XrX1X1X6X3X>X~.L.p.p.p.5.5.g.1.( o.) J u i v _ v v k v J v v y y j v v v b j b v k k b H u v I ' v k T K v i K K v K ) J ) ( ] p.G.s.5.q.d.D.A.C.f.5.q.A.d.F.~.!.A.S.Q.>X4XP.>X,X4XrXdXvXbXw . . . . # # + . # + . # # + + + + # + # # + : 3 ; # ; ; ; ; # . o ; 3 3 3 : ; 3 # ; 3 3 * ; ; # ; ; ; * + # ",
"# . + # # * + + * # # ; + + # # # + . + # # ; # % # # % # # ; ; # # # # % % % ; * * * * ; * # # O # ; ; % # # O # ; > ; ; ; : 5 Y T j x ; q ] :.S 6.O.K w ; 3 3 : : + # : : 3 ; ; 3 5 1 3 3 3 3 3 ; w : ; w 3 3 w 3 3 3 w w w 3 k j w w 5 w 4 w j w 5 g 3 5 w 3 w w j j 3 3 5 5 6 5 f j x j 4 y p R } 6...r 5 f c 5 j j x H l z z x j y i a i v G t 4 H y $ 6 ; * g . w H . +.T t H b . m ;X+.$.o.y.v K u.i o.) v v b w 3 3 6 3 3 : : 3 : f g 3 ; : 3 3 w n k 0 0 h 0 h k 0 : ; n e k w g k l g k l l l 6 # : 6 f g ; @ g f 6 6 f w 0 w : ; : : f : 3 3 w 3 j l e w k b u q e w b k j k w u l e w c c v z u H k w e u i u v u ' gX3X8XsX>X1XrX4X/.h.6.6.G.!.f.k.A.O.[ P J K K e a ) v u i b _ _ K z k c v u u u w k k K H z z u z K v y v b e 4 u u i i J J B [ ( P O.2.5.p.9.( 1.q.d.d. .,.A.A.A.G.!..X^.L.(.).(.>X>X1X6X7XgXvXw . . . # * ; # . . . + ; # + # : # # # + + + . ; # # * * : ; +   o ; : 3 3 : ; ; # # ; ; + + + # 3 : : # o # ",
"# # * + * : + . * # + + . ; ; +   + * * . # ; o # % % # . + # % o # # + % & ; ; * * * * # # * ; O # ; ; # # % ; # ; ; # ; * ; j 4 z j x j v C ] R >.L i z w 4 1 : ; # ; : ; 3 0 # 3 3 ; * : : 3 g @ 3 w w g : w w 5 w g j 5 3 f w w w x 5 w w c f j g w 3 g g 3 w y x x 5 6 3 w j 5 5 5 5 5 5 k z i r 4.V.] i 5 j y j j j y 5 j c c y i ) [ v y K i < v z = 2 = + Y = . z 2 H y t v K : 2 z.y._.o.+.v J l.p _ ` u v K l 2 3 6 w 3 : f 3 ; 0 3 ; 3 3 0 : 0 k 3 ; w l g 0 3 3 6 k w 0 k k g 3 w g w w w 3 # + 3 3 6 k w ; g f ; 3 : 3 h 3 ; 3 g w 5 ; w w 2 g m j w l l b j w l u w l w w k j w w j u y b H c K v u u v K u v q y.sX1X4X4X1XtX>X(.<X X5.5.A.G.5.p.O.] O.J a v b k ) _ K v v v p J K v k u H k i z j b e b Y u y T a u I ` z i z J v i v I I ) P #.[ P ) ( [ #.5.1. . .1.5.1.5.d.p.F.L.h.S.Q./.)._.).4XtXrX7XsXNXcX3 . + + # # + # . # # ; 6 + . ; ; . + + + # + . . ; ; + . # ; .   o * ; ; 3 0 : ; 3 * # ; ; 1 ; o 3 : ; + . ; ",
". ; * . . # ; # + . + # @ # # # # * ; . . * # = + * # + * # * . = # # : % % ; ; ; = % ; + # ; 3 % # # % : % ; 3 ; # % # ; 3 : 3 6 3 2 5 K J p p G i i < F W V P w + # 8 ; + * 0 3 ; ; 3 3 3 3 3 : 3 3 h 3 : : w w w w w 5 5 w g 5 w g j j 5 3 5 j f k 3 f w w 5 w 4 y z j 4 5 5 w g f 3 3 5 k k 5 4 i R 8.5.i w 5 j w 5 1 2 c y c x t r 8.<.i 4 c T j $ j f @ ; * g = @ x m 1 1 G W U q q e k.<Xi.) q k y.< ` v v v v b k 3 3 @ ; f 6 : 3 f g 6 * 0 h 0 * : w h w 3 3 g h 6 : e g 3 : w ; * ; 3 : : 0 3 * ; 3 3 * 3 0 : * ; 3 0 : h h 3 3 0 0 3 ; 0 f 0 0 w 3 w 2 3 3 : w w 3 g w 2 k x b b j j k j c z x z z u J t i z v v 4 l.rX3X3X;X3XtX).I.S.A.s.p.F.F.1. . .O.[ J v y k ' _ v J +.U t y v z v b k u v b b u q u v v v z i K a i I i a ) ) K K T X.+.X.O.O.( 2.P 1.F.s.d.G.F.G.6.p.F.A.p.p.K.p.F.Q.L._.).>X>X3XrXsX3XsXbXbX1 . ; + # * ; + . ;     # = #   . + + . * ; # . * 3 # . ; ; . . . # . + ; # : ; 6 ; : ; o : : + 3 : ; = . + : ",
"; ; + . + + # * . # ; o o : : # ; ; ; o . ; * o # * + + ; # * . # o = 1 % o # + ; # # % ; ; ; > = ; ; % # ; ; % ; % ; % ; : ; ; 3 ; % 4 J P i 4 6 $ Y X.[ ..} ] L v 5 1 3 ; ; : 3 : : 3 3 3 3 3 : 3 3 3 3 ; 3 g w w w w 5 4 5 w 5 5 3 3 5 3 5 f 3 w g : 3 h k f y x H z y 5 5 w q v w 1 5 3 2 l j j i N :.>.t 4 2 w 5 5 j j k w w q p V <.^ G c 1 z z j l j 1 2 3 b 3 @ f j # @ U W U i 2 = k.3Xo.) a 4 r.u +.a k u w j j 2 f 6 h 6 6 3 3 0 0 ; 3 3 3 3 : 0 h 3 g 3 3 f w 6 : 0 ; * : g : 3 0 h h 0 3 3 h w ; o ; ; : 3 3 3 3 0 : h h : : 3 0 0 * : 3 3 0 3 ; ; 3 3 0 6 3 0 3 h w 3 j k j k w w x b x k c b H v J U U v K v q _.rX1X3X>X3X3X)._.I.2. .p.f.9.9.f.k.p.o.G u z J J v v v G I T H j H v v b k k k k b c z z v K G v i K G I [ G L ) K J v J J i a a P O.#.O.3.5.6.6.f.f.p.A.F.F.F.G.F.f.F./.h.h.(.).).>X1X3X3XdXnX6X5 . ; * # # ; # # # + * o # ; . # ; ; # ; ; # # ; ; . . ; ; + + # + + ; ; ; : * ; * ; o o ; ; + ; + * ; + # ; ",
": * + + # + + # * * ; o o ; 3 0 : ; ; = + + o @ # # + # ; # ; * # = w 3 = % = # ; # # % : ; % ; ; ; ; ; # ; : % ; % ; ; ; ; % ; o . O ; q O.[ < $ 1 ' X.B  .q.| | 1.[ i 4 : : ; 3 3 3 3 3 3 3 3 ; : 3 3 3 : 3 f w w w w 3 2 3 3 5 5 3 3 5 5 f j w w w ; 6 f k g w b b y 5 5 5 w y i r 7 y 5 6 w c t t t L P y w w f 5 w j g g g k q i  .w.<.L c 4 y z b w 3 1 * ; f 6 . 3 k : 1 u L p B 2 @ P.hX) _ ' < r.p K ' K u 4 w 3 = 3 3 h * 3 0 0 w 0 0 3 3 3 3 3 0 f 3 w 3 3 0 w 3 : 3 3 6 3 h 3 3 : * g h 3 : 3 3 ; * 3 : : 3 3 3 3 3 : 3 3 ; ; 3 0 0 : 6 3 3 f 3 ; : 3 3 0 3 3 3 3 f 3 w g w w w 3 f g k j w y z v c u H v y b e H 4X,X>X1X1X_.G.P.+XS.1.O.5.1.@.s.G.6.{ O.X.i i K a v v v B X.X.H j T v u z v u e k K b H v v K J v v J I X.I I I J v k v H G J ) [ ) ( { s s  .6.q.5.p.G.!.!.~.!.A.F.F.F.F.S.S.)._.(.>X1X4X3X6XgX7Xg . # + # * ; + ; # ; : = . * ; ; # + # ; # # ; ; ; # # # . . + # . # 3 : * # . # ; : : ; ; ; # # + # ; ; * # ",
"+ # # # + * # . + . o + o + ; 3 : ; 3 3 # . o @ * # . # # + ; 3 @ q K w # o ; ; : ; % ; % # % ; > : ; % ; # ; 3 # + % ; ; ; % ; ; = % . $ I 5.V 4 1 w < < B  .] ;.:.>.] t 0 0 w : : : : : : : 3 : : : 0 3 3 3 3 w w 5 5 3 1 1 3 3 3 3 3 3 3 3 3 w 3 f 6 6 w w 3 j x k 5 5 j f w q 7 C [ i 5 g 1 v I I i N U c c w k g 3 w 3 3 f j y i O.Z.b.L y z y 5 j 5 1 3 # ; 6 6 ; ; 3 : 5 i L s G 2 + z.vXy.+.' 9 l.s u ' v e q w w ; w 3 ; * 0 h 0 0 0 g : 3 0 3 3 3 3 3 3 3 0 w w 3 : : 0 3 3 0 3 3 : * * 0 3 3 : ; * : 3 3 : # ; : : ; ; 3 0 : : 3 3 3 3 3 : ; 0 3 : 3 3 3 w 0 3 3 3 w 6 g f 3 3 w 3 f w w w j b x z z x H z z k < r.hX1X3X3X>XQ.L.P.S.t.g.p.1.p.j.j.9.1.{ #.O.K u K J v v J I +.v q b K v u u v e q u k v v z i K J v K v [ I G G [ J u e c z z v ) o.B J #.) [ 5.3.q.G.f.A.p.f.f.p.5.p.A.S.G.G.L._._.P.>X3XrX6X8XgXdX; . ; + * 1 ; . * ; # ; 3 + o * ; + . # * + + ; # ; 3 : + . . + # . . ; ; * ; . . ; 3 3 3 ; # + ; ; * ; 3 ; = ",
". # * + + # * # + + = # + ; ; 3 = = 3 3 > ; * # # # # ; + . ; ; 2 v +.y # # o ; = ; # ; ; % # > ; 3 ; ; > ; O ; # ; # % ; % ; ; * # # o $ i 6.p.c $ & 5 & 2 y p 6.~ } O.I n e 3 3 3 3 3 : 3 3 : h : ; 3 3 0 f 3 5 5 5 5 5 5 3 1 3 3 3 3 3 3 3 6 w w w w w f : 2 k j w 5 5 f f 6 y B p.f.F 1 3 ; 4 U +.G z W x 2 w w w 2 3 3 3 w w y p P w.w.P 4 z j 5 j l 5 3 6 = = 6 ; * : w w t >.] P y . r.ZXl.+.v q k.v K +.k q y c b w 5 w 3 0 3 0 3 3 w g ; 3 3 3 3 6 3 0 3 0 0 3 3 3 3 w : : : 0 3 # 3 3 ; ; : 3 = = ; * # ; ; # ; : 3 : 3 8 3 3 3 ; % : 3 : ; : 0 6 ; : 3 : 3 ; * : 6 3 6 3 3 3 5 5 5 w 3 3 3 5 b k j j x c w k w = z.vX>XtX3XP.k.G.G.a.p.p.5.O.s.f.@.6.s.1.) P I i u J i u G ` ` v z Y x v v v v k q q z K K v v J I ) J o.I J U ( P [ ` v v z v v K J J { ) _ ) [ #.9.5.p.s.s.f.9.{ 1.p.1.f.!.L.L.Q.P.).,X3X3X7XsXbX1X. . # + . # ; + # ; ; + ; ; o # ; : * * ; # + ; ; # * 3 ; + . + 3 * # # * ; * ; ; 3 3 ; # + = : : : : 3 h : * ",
"# # # + + + # # ; # ; ; ; # ; j c < * g g ; @ # # # # ; * + ; @ y ' +.y ; % # 6 ; > % % : ; + ; . = ; % ; ; # # # = # % % # ; # o ; 3 3 = < N P K ; 3 l ; % 3 1 [ [ L P o.K q 2 3 : ; : : 3 3 : 3 3 : : 3 3 3 3 3 5 5 5 3 3 3 1 6 3 3 3 3 5 5 3 w 3 3 3 3 w 6 3 5 1 1 5 1 3 3 3 4 i o.o.4 1 : 3 = 4 z i y x i t 4 t z w 3 6 3 f 6 q i R <.8.E 4 y j 5 w l f 3 w = = 3 ; ; 3 w w < O.1.P w . k vXQ.$._ b z.a _ ` K u k y l w 3 w 3 w = = : : e w : 3 3 3 w 3 3 h 0 w w w 3 : : 0 0 0 6 0 0 # ; : 0 : : : # # = ; o # ; : : : : : 3 3 ; ; ; ; % > : : * * ; ; ; 3 ; ; 0 3 ; 6 : ; ; 3 ; : 5 3 3 3 3 3 3 : f w w 3 g w = 3 5 4 (.gX_.>X).k.p.1.2.s.5.2.t.5.1.5.{ 6./ ] ( J ` K v v v v J J J K H b v K b v v z u e H ' I J v J ) X.U I I J P L [ [ v K K v z v J ) a _ ) X.[ P [ 3.1.6.9.f.j.s.5.f.1.6.A.F.L.Q.Q._.>X,X1X1XrXyXbX:X.   o # # + # # # # * + . ; : + ; ; # ; 6 : ; 6 # # ; ; # + # : 3 ; # + ; : ; # 3 3 3 ; # # 3 h 3 3 ; ; : ; # ",
"# + + # + + # # . . o # # + + 5 X.p $ 3 l ; o # + + # # # # ; . 4 W G < ; & # : # > = # ; % o ; + % ; % % ; ; # # ; # % % # ; # # ; = 5 4 4 i p w 3 6 3 * 6 3 ; 1 u u u K K v k 0 : ; : : : : : ; 3 3 3 : : : 3 3 3 3 3 3 3 3 3 ; ; ; : : 3 3 : w 3 3 3 6 w 6 1 2 2 5 5 5 5 8 f 5 w 4 = = = ; 3 f 1 6 j 5 y B ] N G U z 2 4 5 w 2 w i [ <.8.U y 5 k w 5 g 5 = 5 3 * 6 6 ; ; ; ; < U 6.( 4 @ = 6X;XX.T v l.u ) $.` k b w j 5 3 f 6 : : 3 : : 0 0 3 6 : : 0 3 3 g w w e g 0 3 3 3 0 h 6 3 w * ; ; : : 6 6 * @ # * # ; : : ; ; ; ; % ; # # ; ; ; ; # = * # # # # * * ; 3 : : 3 ; # ; ; * ; : ; > ; f 3 3 3 w f f 3 f 5 3 w = y 1X6X>Xz.l.S.^.f.O.#.[ O.s.g.5.f.q.q.@.@.{ ( a I _ J K ` J i J G u w K K b y u z b b v K G i i B G U P U a U J P  .P a _ ' v a v J X.a _ _ ) [ ) O.5.s.q.9.p.f.p.9.q.! C.~.F.G.S.!.<X).>X1X3X8X3XMX,X. . o ; * # * # # + # + . : : # # # + * 3 3 ; 3 * ; ; ; # + + ; # # ; # # ; + . * ; ; ; + # 3 3 3 3 ; # + # # ",
"+ + + # # ; ; # . ; ; O . = : y >.[ 1 X ; ; ; + + + # # . + : @ 4 X.y $ % % # ;   % % # # # o ; h ; ; > o # > : # ; # % ; % ; ; = * = H W G P a 2 w + 6 m g * 3 ; : w 0 0 u v l g 3 : 3 3 ; ; 3 ; 3 3 3 ; ; : 3 3 3 3 3 6 1 3 3 ; : : : : 3 3 ; : 3 3 5 3 f : ; 3 g 5 3 3 3 : ; w 3 ; * : 3 5 : ; 3 5 1 ; c  .1.R V P i 4 y z j y y < R q.q.i 5 w x k 5 g g = 3 g @ # 3 6 # @ = 1 a 6./ 4 = + (.;X_ v 4 r.K #.#.J u H q w 2 3 h * @ w g 6 3 ; : 3 ; * * : ; 3 g 0 0 w g g 0 0 0 ; 0 3 6 0 * 3 0 : : * @ # o * : ; : ; # # ; ; # # ; # + ; ; # . . ; : ; * # o o * # * o . * * @ ; ; * : # o ; % 3 ; ; 3 f 3 3 w ; + : 2 . z yX1X>XP.h.h.f.f.t.O.#.2.t.2.p.A.p...W.9.1.P p J X.a u a G J ` z u Y v z c c w z b H u G a v J G G G X.$.B J ( B C B a K K i a K J J J ` J a G ) #.2.9.,. .1.5.p.d.9.5.p.j.F.S.L./.).>X1X3X3X1X3XFX;X  o : 6 * ; ; + # o o + h f # + : ; # ; 3 6 ; : ; * # # ; ; # # # . # + . ; * . = ; ; : # + 3 ; : 3 ; # . # ; ",
". ; ; . . # # # ; * # * # + : x X.+.c @ * ; ; ; # + + + ; ; : 2 y v y : ; & ; # # ; ; O o : : o # ; + . # ; ; . ; ; % ; # # # # # # $ G p.8.R N 4 ; ; : : : ; ; ; ; w 6 * ; 2 k 3 0 3 3 3 3 ; ; 3 : : 3 : : 3 3 0 3 : : 3 3 3 : 3 : 3 : ; 3 3 5 ; 6 3 3 : # 6 f 3 3 3 3 ; 3 5 3 ; # ; : : > 3 3 ; 6 3 1 : w i i P  . .] L G y 4 5 y t C D.,.7 y j x w l x 2 = w 6 6 * ; 3 5 ; @ - i 6.g.t J + z.>Xi.K 2 l._ i.o._ i b w w 2 : ; g . ; 3 3 ; ; 0 0 : * : : : 0 3 w w w k w 2 w w 3 3 3 3 0 : * * * * # @ # 6 ; # # ; ; * ; # # ; ; # ; 3 ; # # * # # 3 3 # # # # : : : # ; : # ; ; # # # * 6 : # o 3 f 3 3 3 : # 3 : : # + r.yX,X>XL.f.p.6.{ ) J ) o.O.P 1.1.5.1. ...[ [ ) U I J u K G J J J K v H k c u b H b b v y u J X.J G W J I o.O.( ) J K K K ' K J K G ) J a ) X.I X.[ [ 1.] q.d. .] p.F.f.C.k.F.^.L.Q.>XQ.,X1X1X4XsXZXP.  ; ; o # + + # 6 + o o ; 3 # * f ; ; 3 : ; ; ; # : ; # ; 3 ; . o o o * ; # ; # ; ; : + : 3 : ; 3 ; + + # ; 6 ",
"; ; # + + # # . # + + # ; # # 5 4 < 4 ; : ; *   + + # # ; # 3 b v i w 3 % # # # % # # % # # # o . # # @ # * ; # % ; # % # # % # * ; = i 6.4.} G 1 * ; : # # ; ; ; : 3 3 3 3 ; ; : 3 : ; 3 : : 3 3 ; ; : : 3 3 3 = = ; ; : ; ; * 3 3 5 3 5 5 3 3 ; 6 : 3 3 : 3 3 : 1 : ; 1 3 3 3 3 ; : : > ; : > 1 3 3 3 : 6 2 4 p B ]  . .R L F y 5 i R p.] 7 5 y 5 k w y w 1 b w g : # ; f w w = <  .p.p ) - K P.P.Y j >Xa 3.i._ K a v l k w 6 3 . + ; : 3 3 ; 3 0 : : 0 h w 3 w w 0 g w 2 3 w 0 3 3 3 0 3 : 3 * ; 6 : 6 3 ; * * : : ; + . + ; ; ; ; ; + # * * # * ; ; # ; ; # ; ; ; ; ; ; * 3 ; ; ; # # * : 3 # : 6 ; # : 6 ; 3 : : # + z.cX1X<XL.p.p.g.1.B ) ) { 2.#.2.#.1.1.{ ] L P P U I J K v i i t z K z b b b k c b z v v v K K v i i G K _ ( P ( ) J J ` ` J u p B I I X.o.+.[ [ X.I 2. .6...5.p.5.j.G.f.A.A.F.Q.^._._.P.,X4X6XrXhXAXz.  + o o * # # * ; ; ; # o : ; : * ; : : ; 3 3 ; o : 3 : ; ; + o + # * ; # # ; # * * ; o ; : ; ; 3 3 ; ; ; # # ",
"# . + # + + # * # + . + ; ; # = 4 i w : 3 * . o + # # # + . ; z X.U q # % # O # 3 # o ; ; o O % # * * * # # # * ; ; % # # % ; # # # # y >.8.O.G 1 ; # ; : : : 3 ; # ; ; ; 3 1 3 0 3 3 : 3 3 3 3 : ; = : 3 3 : : # ; : 3 ; ; * # 1 : 3 3 3 3 : ; 5 w 3 3 w w w 6 3 3 3 : f 3 : ; 3 : 3 : ; ; : : : ; ; 1 5 2 6 6 3 4 u C ( @.4.p.J 4 y G P N x y y y b g y w * w w k 3 + : f g l # @ Z p...2.p + ).k.+ y _.v o.i.( _ v v l l k 3 : # = 3 * 3 f ; # 0 3 : 3 : 6 0 w w 3 w w 3 3 w 3 3 6 3 0 3 ; : w g w ; # # ; 6 # # * * # + + + # # * # O + * # ; ; # # ; ; ; ; * + * ; * # + : : : ; # : * * : 3 : ; # # ; : : : ; * + @ ;XdX,X>X.XG.1.p.p.P J { o.3.3.5. . .] ..[  .#.P J I v ` T z q i z v v u u v k u c u b i i a J G J K J J J P J ) [ J v I J G I G G o.O.o.O.X.J [ [ P { 1.1.C d 6.A.p.p.f.F.A.h.L._.).).;X3X4X6X6XsXZXl.. ; # * : ; ; : + ; 3 : # : 3 ; + ; : : ; : ; # # : : : : # . . . o # # o * 3 3 * ; : ; : : ; : 3 6 ; 3 : # # ",
"+ . + # . . # * # + + + # # # 1 G +.b 2 j 0 . o * # # # # . # w [ >.t + ; # o : % . . # # + # > # * # ; # # * * ; ; # + # ; ; # ; ; * w E >.[ i w : ; ; ; ; ; = # # * ; # ; ; : h f 3 3 3 3 3 : * ; : 3 : 3 3 ; ; : 3 3 : ; ; : 3 6 3 : 3 f 3 3 5 3 : : 3 3 3 ; 5 g j f j g 3 ; : ; : : ; ; 3 3 w 6 ; 1 4 < ; > ; : 2 q a | 4.6.L 5 y c i t x 5 1 k w g k w 2 w w w w * : ; : l . - L p.5.k.K + $.l.b @ h.K y.$.$.) +.K 2 w e 2 : 3 * 0 = ; 3 : : 6 3 w 3 # * : 3 w 3 3 w 6 3 w : : : 3 3 6 ; 3 # 3 f w ; # # # # + @ ; # ; ; + ; ; ; * # ; : ; ; : ; ; : : : : 3 # ; 3 : : ; * : ; # # : * # # : ; : 5 0 3 ; 3 * + # . 1 7X7X>XP.^.A.5.5.3.( J { [ [ ] ] ]  .] ( ( ) o._ I J p v T z y U H u K v u z v c y w H J J K K a I X.X.G J B L P ( P ) o.` ) o.J a U J G a a U P { #.] 1.9.f.6.s.G.p.s.p.F.F.S.Q./.>X1X1X3X1X3X1XrXAXl.  ; * * ; # # ; * # ; ; . + * ; : ; ; 3 : ; # # : 3 ; ; ; ; . . # ; ; ; + ; : ; + # 3 3 3 ; # ; + # # ; # + + ",
"+ + . . # # # + # ; ; # # + * w U X.v 1 6 : * @ . + # + # ; ; $ r 2.I = > > + ; . + % # ; ; # o * * = # * * * # % # # o # ; : : ; % ; 0 G G v 2 ; : : ; # # # # # ; # # * # ; ; 3 3 3 3 3 0 3 3 ; = : 3 ; ; 3 ; : : : ; ; ; ; 3 3 3 3 ; ; 3 3 f 6 6 ; 3 3 3 w w 1 3 f f w 5 3 3 % ; : : ; ; ; w e q w j i t 1 3 ; 3 5 3 y G P C G F x j y 4 2 w w w 3 w k w j j y 4 w ; : * . k w $ L 1.1.i.o.- t (.T = l.v _ o.s.{ o.T 4 j e = f 3   : 0 3 : 3 w * * 0 6 = : # 3 w 3 3 3 ; : 3 0 w 6 ; 6 3 3 h ; 3 w 3 6 ; * # 1 * ; ; + # ; ; ; ; ; ; ; : : : ; ; ; ; 3 : ; ; ; # : : : f 3 ; 3 * ; ; # + * 6 : ; : 3 3 : : : : 3 ; . b 7X1X>X(.g.g.G.f.( B $.#.[ #.] ] O.O.o.[ O.[ P o.) v u u y x z z b b b H z b v v v v J K a J K v G J G a B J ) X.J P X.U I X.U a O.2.[ [ [ P P ( ] 2. .p.G.W.j.3.3.j.s.f.^.^.~..X_._.).>X,X,X6X3XsXAXr.. * + ; # + # . 6 . + ; o + ; + : : : : 3 : : 3 3 3 ; + ; 3 ; + . o # ; * ; ; . ; ; 3 3 3 3 * # # # ; ; + . + ",
"+ # # + * # + # . * ; ; # # ; 5 G W c . @ : * * . + + . # * ; - p I K 2 + % ; + # ; ; ; % ; % + ; * = # * ; # . ; # % # # % # % # # * ; w w w # # ; : ; : : : : 3 : # * : ; : ; : : : 3 3 3 : ; 3 ; : ; ; : 3 ; : ; ; ; ; ; 3 3 6 3 3 ; * 6 : : 3 3 3 3 5 3 f f 3 3 3 3 ; 3 3 3 # = : : ; = 1 y p 9 q v O.[ z w 4 1 6 6 j z P E G U H 5 5 6 w b k w w 2 k x 2 y z 1 5 1 ; ;   k Y $ < [ P O.( - G rX1 Y y.< a $.2.#.J J v b K 0 0 f . ; h : : f 0 ; ; 3 ; : 0 * : 3 3 3 3 ; 3 3 0 h 3 ; : : ; ; w 3 w w g w ; @ ; ; ; # # ; : ; # = ; # : ; ; ; = ; ; : ; ; ; ; # ; 3 : ; 3 ; * 5 ; ; 3 ; ; : : 6 ; * ; ; ; ; : ; : * . r.7X,X1X.Xh.p.f.5.{ ) #.2.5.A.t.2.2.{ [ o.$.o.) _ K v v v z b c c z y H K u v H v H K H X.v v ` ` I ) I B P ` +.o.J P P B B [ P o.a.h.y.t.t.[ (  . .#.1.p.1.6.6./  .9.1.G.!.F.L..X_._.>X>X1X1XtX6XsXvXY . # + ; ; ; ; ; ; . o : 3 ; ; o ; 3 3 ; ; : 3 0 : : * + ; : : : o . . o ; ; ; # : o # # = ; + . ; 3 f 6 # # ; ",
"# ; # * # + . + . # * # * # * 1 t X.l . # # . = # ; ; # # # * 1 K v k 6 % O # + # o O + + + % > * @ # # # ; * * ; # % % ; # o # ; ; & ; # # = o ; ; ; # ; = = ; 6 6 ; 3 3 ; ; + ; ; : : : : 3 : 3 3 : ; ; : 3 : : ; ; ; : 3 3 3 : 3 w 6 ; 3 3 3 6 3 3 w 3 3 3 : f j f f 3 5 5 3 ; ; : ; ; 1 q J ..B < y >.>.U z 4 2 ; 1 y F } :.s H H y w w w j 2 6 5 2 j z 1 y x 5 y ; * : . 2 K q < ) P [ ( 9 < :Xb H y.@ ' X.( #.o._ u q u j ; 0 = = 3 ; 3 h 0 : 3 w ; 6 h w : 3 6 3 3 3 3 : ; 3 3 : 3 3 : * w 3 3 6 6 3 3 f ; ; # # ; ; ; * ; : : ; 3 3 ; = ; = ; : = ; ; ; ; 3 3 : : : ; ; 3 ; ; 6 3 3 6 ; ; * ; 6 3 ; # # # % # . l.3X(.).L.S.6.]  .#.[ ) 1.5.f.#.O.O.) _ ) I a v K K v k Y b b y z y q H K u v K v z v J J v K K z i K X.( ) _ _ v v { [ [ [ O.[ [ { [ L [ [ J ] 5.3.9.p.( ( 1.5.6.3.1.p.F.Q.G.h.L._..X<X,X3X3XrXrXdXdX0 . + + * ; ; : ; : * + ; ; + # # = : : ; * ; ; ; ; ; ; # ; ; ; : 3 : ; # : : # 3 h ; : 3 : : : 3 ; : 5 3 ; # ; ",
"# . . # + # # + # # + . # # # * < c g ; . O # ; # ; ; # # # * 1 T k 5 3 3 + . # : # # ; > O . : ; # # # # * + ; + . # ; ; % + ; ; ; > & O + > ; # ; ; ; # # # # # ; ; ; ; ; : : # + = : ; : 3 f : 3 3 3 ; ; 6 ; : : : ; 3 3 : ; # ; 3 ; ; 3 3 3 ; 3 3 3 w f w ; 3 5 3 3 f 3 : ; ; : ; % 1 1 u [ O.L = = N V V L H x w 1 t P ,.8.P G w ; : f w 2 w w 2 2 y 5 w y z F y & * ; #   J v + H L P ) J + y.r.b l.< u ` #.( o._ z b k l ; 0 3 o : : 3 ; h : ; 6 6 = 3 w 5 3 6 w 3 3 : + ; 0 3 : 3 w 3 * ; 3 w w 6 * * : ; : * # # + + ; ; : 3 ; : 3 ; o 3 ; * ; ; 3 3 3 : : : * ; ; * : : : ; ; 3 3 6 5 3 : ; : : ; ; ; # # + . I.4X).P.S.k.1.Z O.{ a P ]  .5...[ o._ J v K v K z y c l z w c z u z v z H z b v i K K v i p u y i u I $.) o.` v 9 i O.O.P 2.[ B r a [ [ ) P [ 3.2.#.#.@.#.9./ @.p.3.p.f.G./..X^.Q.>X2X,X>X1X,XtXsXgXgX<   o + * # # ; ; + ; # # ; + # # ; ; ; ; 3 ; + # ; ; ; ; 3 ; + ; ; ; : ; 3 * . ; : # : h ; + # f 6 ; 3 3 : ; ; ",
"+ . # . . ; # ; + 6 # # . # + # * = 3 g . + : # + + + + + # # * j 1 c j $ $ % O # # ; : 3 % O   # ; ; : ; o % % ; # ; + % 3 : O + ; > > % # . . : 3 : # ; 6 : # * # * : ; # * ; > ; ; : 3 ; ; : ; g 3 w x w w 3 : 3 ; # ; ; # ; 3 : # ; 3 : 3 : 3 : 3 3 l l 3 f : : 0 0 0 w : ; ; > > ; ; 2 z +.y = * 6 q i R V G x F u r } <.Z.[ y 3 > 3 5 3 5 w w w w x k w w l 2 Y j . 3 f . U ' . 1 L I.t.9 i u r.j _ _ v J 2.P o.J i v ' k 2 w # . w g ; 3 3 3 3 : * * ; 3 n 3 ; : w w 3 : 6 * * 0 0 : : : ; 1 w 3 ; ; : : * : 3 : = ; ; ; + ; ; # ; # * 1 + w w ; : # # # : o * 3 # o # : ; ; ; ; ; ; 3 h 3 3 3 ; ; ; * ; 6 # . w 1X.X/.).h.G.h.P U i p [  .@.{  .O.o.) v _ K _ n l b j k k 5 w j b v v T H b v v a U H v I J v G I P ) J v J K J _ ) J G [ U [ [ L P P a U o.O.O.( C { 9.9.j.@.| #.3.k.s.G.F.XX5X^.F. X.X3X4X3X4XrXgX7X6 . + + ; ; ; : . + ; ; + : 6 : ; ; : ; * # * ; * # ; : 6 3 3 # 6 ; # ; 3 : : ; : # # ; ; ; # * 3 : f l 0 : ; . ",
"# + * . . # . # + ; + + + * # * # * : 3 ; * ; . # # # # ; # # + . = K H 4 $ + & ; ; ; = ; ; = # # ; # # ; # % # 3 ; ; # # ; ; % ; ; ; % # % % % # ; ; * * ; * # ; # ; : ; # * ; ; ; ; ; % ; > > # 6 ; w w 2 k b l g 3 3 ; ; > 8 > ; = ; : : : ; 3 3 3 3 3 5 3 f 0 3 0 6 6 3 : : > 3 3 > ; = 4 k ; ; : 3 = i O.6.N G W R A 8.w.V...4 ; & 3 8 3 : w w w w k c 5 w j 5 x f + : 6 1 < v o @ N I.t.v y.v ' = ` r.` +.y.I o.I v u v j j w 6 @ 3 g = 0 : 3 0 f 3 : * * 0 0 0 0 6 : ; : 3 : : 0 6 ; : ; ; ; ; ; 3 6 3 3 * ; ; # : 3 : # # ; * # ; # # # ; ; ; ; ; * # # 3 ; ; # o ; 3 : : ; ; = : 3 3 ; 1 3 3 : ; : ; ; > : . k 4X_.I.L.t.y.u.+.G p i [ ]  .] { P v v v v v Y b j l j b b j c c y u z K K H K I J ) J G i J I I J J ) _ v K ) ) [ P G G J L I P B P X.[ J ) P [ [ P { #.@.9.@.1.5.p.k.G.Q.A.G.G.F.Q._._.1X1X4XrXsXcX1X. . # # # + # : * + ; ; + # ; ; ; ; ; : ; : ; ; ; # # ; ; 3 w ; : : * : 3 : : ; ; ; # # # ; # # * : : : ; : ; # ",
". . ; # # * . + + # . + # ; # # + * : : ; * ; + # # # # ; # + + . + q _ J 4 + % ; : ; # # ; > ; # ; # o ; # # + # o ; > ; % # ; : : ; % ; ; ; ; # ; ; ; ; ; ; ; * * ; : ; ; ; ; ; ; > ; . % ; ; ; : * 3 2 1 k b T i y k 2 ; : : ; = : : 3 : = = 5 3 3 3 3 3 f f 0 0 0 : ; 3 ; ; + ; 6 6 3 4 < - 3 3 > ; * y o.3.G U [  .,.w.b.Z.:.t : 6 3 8 f g w w w w j y 4 y w w j 3 3 : + 5 $ 4 # . i u.) _ l.i o.9 b +.o.$.2.i G X.I e w w H w k = * g : 3 3 3 ; ; : 3 3 3 ; 3 h h 6 ; * * 6 6 6 0 : ; : ; : ; # ; 1 ; : 3 ; ; ; # ; 3 * . * # * ; ; # # * 6 ; ; ; * ; ; # = : : ; # ; 3 : : ; ; # ; 3 : # ; ; 3 3 : 3 ; % ; : . +.tXL.I.k.G.t.$.+.I B U [ O.O.[ o.I z y u u e b b j w w g l g j j y u z K z z v K J I J J v J J G B J ) P I [ [ [ { [ P [ P [ [ [ P P O.O.) P C ( ( ( ( ( @.1.#.1.5.5.5.s.k.Q._.F.^.!.^.1X>X1X6XyXrXcX:X. + ; + + + # ; ; # ; ; # . # ; ; ; ; = ; : : ; : ; ; ; # ; 3 : * : ; ; : : : ; ; ; # # # ; ; ; : 3 : ; ; 3 3 : ",
"+ + # . . + # ; # # . # + ; + + . ; 3 3 3 ; * o + + + + + + # ; : @ + t o.v * o o ; % O O ; > = # ; % # # + o % % + = ; # O O ; # % ; % % # + O * # * ; # + # ; + # ; ; ; ; ; ; ; ; > ; # % ; ; ; * ; w 3 2 k H G u t y 5 3 3 ; : ; 3 : ; ; # : ; ; 1 3 : : 3 5 3 0 w 6 ; 6 ; * = = : 3 3 2 = @ 3 > ; ; ; 2 G J < p [ ..~ <.w.Z.d.B 2 6 3 1 3 w w w w w w w 4 y 2 j w 1 5 5 # ; y 2 # # i L G $.y.q r.v u u ` +.t.) a K ' c j w b w k * . w 0 = 3 3 : ; ; 3 6 * * 3 0 0 0 3 ; # : 3 3 3 : : 3 ; ; : # # # + # ; # # ; ; ; ; # . ; ; ; ; ; ; 1 1 ; : 3 ; # ; ; # = = ; 3 : ; = # = = ; ; # ; : : + * 3 3 : 3 : # ; # . l.tXL./.f.p.t.[ I I p U $.#.O.) I T b c j w : w j w j l l 2 2 w w c v v J y u v I i G G I o.) ) ) J J ( J J [ [ C ] O.[ [ P O.[ ) P J P P C ( [ O.#.O.#.#.( ( {  .5.p.5.s.Q.!.^.G./..X/.>X>X1X3X4XrXvXz.. * ; + + ; ; # # # # # # # ; ; ; ; # # = ; ; ; ; : : : ; : 3 ; # : # ; ; ; ; ; ; : 3 3 ; # * ; ; : : * ; : : ; ",
"# # # # + + + # + # # ; # # + + ; # : 3 3 : ;   # # + . . + # ; o @ - 9 o.K 6 . # # % ; # # # ; o # # # ; = % ; # # O o # # ; 3 # ; % + o O + ; ; + + ; # ; : 6 # # * ; * # # * ; ; % ; 3 3 ; 3 = : : 3 3 ; 5 z G F z x c w ; @ 3 : ; * ; ; ; 3 : : ; ; : : ; : 3 0 : ; * ; : ; : ; 3 : * # ; 3 ; % ; : : ; 4 y c 4 r ..8.8.V.Z.E. .< ; 5 3 : ; w w w w w w y w w j k 3 f f 6 + j = o # y t J $.o.a K e e e a $.h.t.) J ' b b l j w g : # : g ; 3 0 0 3 : : ; # 3 3 3 : 0 h 3 * : : 0 : ; : : ; ; : ; # # # # ; O + * ; ; ; ; # ; ; ; : * ; 6 1 # 3 ; * # ; # # ; * # ; ; # # ; # ; : : * + ; ; # : ; ; ; ; ; o 3 3 . l.>Xh.L.2.( [ ) [ G p [ y.[ _ J v z 4 w j g 3 g g w j l l e w w k z v v u v v v K u a J ) ) J P ) J G G I B ) [ ] [ ..[ P L I U P X.[ P P { [ #.$.#.#.O.#.( O.3.3.3.i.t.i.i.s.Q.Q./.)._._.4X8X6X3XsXMXl.  ; * ; # 6 ; . . ; # + # + # ; ; # ; * + # ; ; ; ; 6 6 ; ; ; : ; ; ; + # # # ; : 3 3 ; # ; : : # + ; ; # ; ; ; ",
". . # * * # + + + + + ; + # + # # + ; ; : = ; + * # + + # # # + . @ 9 _ y.v 1 : + # % % # # % ; % # # # % % # # # ; % ; ; ; # # # ; ; ; ; # ; > ; * * ; 3 3 3 3 # * * ; * # # # 3 > ; ; h 3 ; : 3 3 ; * 3 ; = 1 y y x H K H k w - - = ; ; ; ; : 0 3 : : : : 3 3 : 3 : : ; ; : ; : # # ; 6 3 3 > ; = > : : ; 1 5 b 4 7 R 8.<.8.w.Z.:.9 1 w 5 3 3 3 w w w w w y 4 w g j 5 ; f f + ; ; ; * 2 t J J I J q X n _ q $.a.a.y.[ W v x l l e w w ; # 3 ; 0 0 0 3 ; 6 3 3 : 3 3 3 3 0 0 : 6 : 0 3 ; : ; * : : ; # # ; # + . . + # ; ; ; ; # # ; ; # # ; * ; * # ; : ; # # ; ; # o # = ; ; # + ; : ; # ; ; + * # # ; * ; # # = + y./.h.G.g.#.{ J J i G G G o.o.+.X.K e w k 3 f l l w w w 2 j j w l v v H z K K a v a G J ( [ s B P I J J I I ) [ X.[ P P { [ I P [ 2.O.[ O.{ ( ( ( ( { { { i.t.t.3.3.i.s.i.i.S./._.k.P.Q.<X3X1X3X4XrXNXr.  ; * ; # ; ; + + # + + # * # # # # = ; * # ; : ; # # # # # # 3 : # * + # ; # + # # # # # * ; ; ; # ; # + ; ; : ",
"+ + # # # + # # # + + ; + # + # . o ; # ; o # ; * # + + # + o . # @ 4 ` ` u 2 ; O # # o . + # # % o # % + # # . o ; # % ; ; ; % + + # ; % # # % * ; ; * # + + # * = ; ; : # # ; ; ; ; ; > ; # ; > & # % ; 3 : * 5 3 w j 5 j H b 4 4 2 2 : ; = ; 3 ; = : ; ; : ; : 3 : ; ; ; : ; : ; = ; 3 3 ; % & = 6 ; ; ; & ; 2 a  .d.Z.;.<.w.7.<.B 2 2 3 3 3 3 2 w w w 5 y 2 3 w f w 1 f 8 6 + 3 g ; 5 H K I a J 9 = n y.q o.k.i.2.[ W x 5 3 l j g w 6 * ; ; : : 3 3 3 6 : : * 3 3 3 6 3 3 3 6 ; 3 3 : : ; * * # # # . + . . . . . . o # * * # + + * # * * # ; # # ; 6 1 ; # # ; ; # ; : ; # # + * : # ; ; * # # + # # # ; ; # $ @ i.).G.F.f.k.s.O.) i J a p B _ ) ` b e e 2 ; 3 3 3 2 2 2 e w w 2 w z v K K K I J J i a J J #._ ( ) I J J G K J K J U B J 2.{ L L [ O.I J [ ( J P P { 2.3.3.3.1.O.3.3.i.L.G.Q.Q./..X).).).>X>X1X3XtX6XgXr.. ; * ; * # ; # + . # ; # ; # + # ; # # # ; ; ; ; . + # ; ; ; ; + # # + # ; + o + ; * * * # # # + + # o . + ; ; ",
"# # * ; ; + . . # + + # + + . . ; # # . : . o ; # + + @ + + + . ; 6 4 4 4 4 2 . + ; : % # ; ; ; # O ; : . + # . # ; # + # o # % ; # # ; ; # + # + ; ; # # O # : = = ; ; 3 ; * 3 + # % % % ; ; ; # = 8 3 # ; 6 ; 3 # ; 3 # = j z ) P u w ; = 3 3 = = ; h ; ; 0 : 3 3 ; * * ; : ; + 3 3 ; # # % ; % ; 3 ; ; 6 ; # 2 K 1.g.V.7.b.V.w.D.1.t q w w 3 5 2 2 w 5 5 w 2 6 w w 5 f 5 5 g + # : # * y 7 J P i e k b z.q G Q.O.J G ' K g j w w k : ; 3 ; * : : : 3 3 : * # # 6 0 3 6 ; ; 3 : * 6 6 3 3 : * # # * ; # + # ; # # + + . . . o # + . + # * ; # * * : ; # ; ; . ; ; # + : : : : ; ; ; ; . # : * ; ; + # + . # # : . + k.>XL.S.1.p.i.[ p z J i K ) J a v K b n : ; : ; 3 w w e j j w 2 w w q u u v _ _ _ a J ) o.a a ( ) J J a i a v J J _ ) o.2.{ L [ O.X.P B O.$.O.#.O.#.2.{ ( O.#.3.k.i.3.Q.^.h.s.k._.).>X<X1X3X3X3X1X1XyXT   # # # # + : * + . 6 3 ; ; # + ; ; + . + # * # + 3 ; # # + # ; # * # o o # + + # 6 ; # # ; # + . # # + # ; ; : ",
"+ . . + ; + . # + # # + # # . . # # * ; # . . # . . # + + # 3 3 * ; + = = + @ * # + # + ; ; + # % # # # ; + . # * # # * * * # + 3 = o # : : ; * ; # # ; ; # % > 3 : # + ; ; ; # ; ; ; ; * * : 6 ; ; ; ; : ; ; : 3 ; + * 3 ; ; u ,.<...4 # : 3 ; : ; # 3 ; + : 3 : : : : : 3 ; # 3 3 3 * ; : ; ; : > 3 # % > 3 5 ; H G [ Z.E.'.|.}.}.J.5.s < 3 3 2 2 2 3 g 6 u 4 2 3 g f ; g f ; : o ; # ; 6 i O.y.p k b : j r.J L.3.$.G +.v x w g 2 0 w w 3 * 6 ; : 0 0 3 3 ; : * * : w 6 ; : 0 0 0 6 6 3 : 3 : # * ; ; # . . # + # . + # . . . . . . . . . o o : * # * # + # : # * ; ; ; # # + ; ; # * ; # * # ; # # # : ; ; ; 3 . $ (.(.^.G.k.f.2.O.I K u < k v b _ Y b n j w w ; : 3 2 w 0 = w w j l w e u K K s ) K i K I J i I ) G i G J r O.o.o.o.[ [ { #.L J O.[ o.3.o.O.O.O.O.2.O.3.p.{ C 3.s.k.h.h.L.S.P.G.S._.).).3X4X3X3XtXyXtXdXg o % # + + : : = + . . + ; + # # # # * # + # + # ; + # ; ; ; ; # # . ; : ; + . # ; ; + # ; + . + + + + . ; ; ; * ",
"+ . . . + # + # + + # + # # + # * # # * # # # * ; * ; # + + : 6 ; # * * & # # * # @ * # + # # # % # # > 6 ; % : ; # # # ; ; # # # # # ; = # ; # . # * # # ; > > 6 6 # # # # ; # ; 1 ; ; ; ; : ; # # * * ; ; ; : : : : : 3 : ; 4 } | [ G ; # ; 3 3 : # ; : ; 3 h 3 : # ; : 3 3 ; 1 ; : 3 : : # ; ; # ; ; : 3 > 3 5 3 - B d.D.|.OXXX#X|.E.D. .7 = q < k : 3 w 2 j 2 3 f g 3 3 l f 3 ; ; 3 6 4 o.[ { 9 u w * @ l.+.h.i.i.[ i K b b w w 2 3 w g 3 6 * 0 0 0 3 : 0 6 # = 6 3 : : 3 0 3 0 6 3 : = ; * ; ; ; ; # . . . . # . + ; + + . . . . . . . . . . . + # * # * : # # ; ; # # # # + # # # # # # # + # # # # + + # o . c 1X>X/.L.p.p.#.X.G K v y v u j b l w w 2 3 : 6 ; 6 w w 2 : 1 1 2 u k n K K v a ) ) I ) I ) I X.o.) I I O.O.[ C ( P B P  .[ O.[ 2.{ O.2.[ P { [ [ O.O.[ ( #.2.k.f.s.L.S.G./.L._.3X3X<X).(.>X8X7X7XrXgXyX*   # o + # # ; : # . . . + * # # ; # ; ; ; 3 ; # # # * ; # # ; ; ; * ; + + . + ; ; . . . . + + # ; + # # # # * * ",
"+ + + . + # + + # + # + # # + # # + + + * ; ; * ; # ; + + . * ; # . + + * * # * # # ; * # ; ; 6 # + # % * 6 3 @ # # ; * # # * ; . O + * . @ ; ; + # # # % % % # % : ; ; # + * ; ; : # ; : ; ; ; ; : ; + + # ; ; ; : ; ; : * # 2 P P I v ; # ; 3 * : * : f : ; 3 3 : * * ; : 3 : : # ; 3 : ; # ; 3 % # # % ; # ; : ; = < L C.|.Z.E.XXOX|.|.D. .P ] C r q j 3 g f 6 w w g 3 ; f 3 3 3 * 3 O # o.{ a G K w = . l.+.2.h.o.o.v ' b j j k w 0 w w 3 : * g 3 3 3 : f 6 * : : * * = ; : : 6 ; : 6 : 6 ; ; ; ; # # + + . . # . + * # # + . . . . . . .   . . . . . . . . . . + + # # # # . # # * * # ; : + + ; ; + . . o #   T tX>XQ.F.k.g.O.[ G y c x m w w k w 3 3 6 6 w w 6 ; 3 3 2 0 2 4 2 w e u n v ) [ [ [ [ P L [ t p B J ) J J C s C P P O.{ ..[ [ [ O.#.J P [ O.{  .{ { 3.t.t.s.O.5.k.L.Q.k.S.G..X_././.>X<X>X1X1X3X1X3XNX8X. . ; # ; ; o # ; # . + + . ; + + ; # ; ; ; * # # * + + + . + # ; # ; * . . . # * # . . . . # + . # . ; # # + # * ",
"+ # # + + + . . # # # # # # + * # + + + # # # # + + ; # * + ; : # . + + # * # # # # ; ; * ; * ; # % # # # j x * + # ; ; + . # ; # # # # * = # # ; * ; ; ; # + ; + ; ; 1 ; # # ; + # # : 6 ; ; # ; : ; # + ; 3 3 : ; # : 3 ; = 2 v G z 2 # : 3 ; ; : ; ; 3 ; ; 3 : 3 3 : ; ; ; : : ; ; : ; * # ; > ; : ; # % % : = ; 3 - < p.|.w.C.D.'.|.E.E.E.D.Z.D. .r 4 5 f ; 6 w 5 j 3 ; : 3 # 3 ; ; # # J $.L I e w X @ r.' ) P.s B K T l f b b j 0 w 3 * 6 * g 0 3 : 3 3 ; * 6 3 ; 6 * * ; * ; * ; : ; : : + ; ; + + ; ; + + # . . + + # # . . . . . . . . . . . . . . . . . . . . . . . . + # # ; # + ; 3 # # # ; # + + + . . l.3XQ.^.^.s.t.O.+.I k j w 3 w w w 3 3 3 3 3 g 3 3 6 # = e e l k j w e e k K J ) B B P P L ] B a P o.$.[ P C ] 3.O.P O.O.L P O.[ O.2.O.O.O.{ t.O...3.3.#.2.{ 2.a.h.!.>X~.h.S.f.L.S..XtXtX3X1X1X1X>X1XbX>X. # # : # + # o . * # ; ; # # . . ; ; * # # + # # ; . + + + + + + . # # + + + + # + . + # * ; + . + . # # + + # # ",
". . ; ; + + . # ; + # # + # # # ; ; ; * # # # + + + ; # ; + # 3 3 ; + ; 1 # + # # + # * + # + . ; % # # + 5 b ; # + + # # * # # : : ; 3 x k @ @ + * * # + # # * # # # ; 3 ; ; # # * * ; ; # ; ; # * : : ; ; ; ; ; # * : : : ; ; 1 w 5 # : 3 : # : ; # : ; ; 3 ; ; ; ; ; ; * ; : ; ; ; # # ; ; : % 3 3 8 ; ; > % : o # 3 - s V.E.8.8.V.E.V.H.}.|.'.|.}.C r u w 3 3 3 f w f 5 : 3 1 ; * + % 1 < o.J i < j * . 2 H a _.O.t J K b 6 x j w 2 g w : : * : h 0 : 3 : ; ; ; : h h 6 : 0 : ; ; * # # @ # + # * # + * : ; * +   + # . . + O . . . O . . o . . . . . . . + . . . . . . . . . . . + + . + + # + + # ; ; ; # . . z.3XQ.^.L.t.3.P G v z x l : ; : ; 3 3 3 3 : 3 ; 3 3 6 3 e e u l w w l l v ' ) P ) { O.#.O.[ O.o.) [ [ [ [ 2.3.O.2.L P U O.( [ O.[ ( [ O.[ [ ..( P  .[ [ t.2.{ #.5.a.L.L.a.#.s.S.h./.1X1X3X6X6X3X1X1XvXI.. * ; = o o ; ; # + ; ; ; ; ; # # ; # # ; ; # # + + + * * # + . . . . + # # + + # . + . + # + + + . + + . + + + # ",
"+ . * * + # # # * + # # + + + # # # * * + # # # + # # . # + : f g 3 # ; % + # # # + # + . # # # # + + # + $ j w # # # # + # # # ; ; * 2 T Y = 4 < - + + ; # . @ ; * # * ; ; : * : : ; ; # # ; : ; ; : : ; ; ; # ; ; ; ; = ; ; + # ; ; # : ; # # : ; * : * * ; * : ; = # ; = = ; ; ; : ; ; ; # ; ; > ; > ; ; : ; ; ; o # = - N D.q.;.;.w.H.H.E.].oXoX'.V...i 2 g 3 3 5 3 g l : & 3 $ 6 * % 3 < ` t - y y 5 . = c K h.S._ J b j ; w j n w 6 w 3 3 * # f h 6 3 ; 3 : = ; 3 w ; * 3 0 : : = # * # * * # # * # + # 3 # ; + # ; + + + o o . O . . O O . . . . . . . . . . . . . . . . . . . . . . . . . . . . + # # # * . P.3X).Q.g.3.2.( a k j g g 3 = : ; : 3 : 3 ; 6 3 6 3 w w 0 w w w w w b k k b H v I X.[ ) J p $.[ J J [ O.O.2.[ [ [ P X.I [ [ C [ [ P [ [ P { [ a.i.t.3.a.S.t.t.2.1.#.[ t..X_..X/././.1X4X1X3X1X1X3X8XvXz.. # # # ; : # + # # + # ; : ; * * 6 # * * # + + . . . + # . . . + + + # + + . . + . + . . + . . . . . . . . # # # ",
"# . # # + * # + # . # + + + + # . . + # # # * # # * * . # + 3 g f : ; ; ; # # + # + # . # ; # : . . + ; 1 1 x x # # # # # # # ; * @ # = x x 4 v ` a - # 3 : # # * * # * # * 6 : : : * ; * # ; ; ; # * ; # # : 3 3 : 3 3 ; * ; ; ; ; ; ; ; # # ; 3 : # # # * ; # : ; * # ; ; ; ; # * : : ; ; # ; ; > # # # # ; ; # 6 * o * = 7 R g.4.} 6.D.D.Z.J.|.'.E.}.E.2.i < w 3 3 3 5 5 : # 6 1 2 ; ; 3 < z J t H w 1 # @ + ' #./.2.p e g m 2 j b w * 0 3 ; 0 . : g 3 3 : 3 3 ; * ; ; * * ; 0 : : ; * ; ; : ; # + # # + + ; # : # # # + + . o o . .   . . . . . . . . . . . . . . . . . . . . . . . . . . . . . . . . . . o o # :X>XP.^.f.2.P J J T x 3 6 * * ; ; ; : ; : ; 3 w 6 : w w w w j j l b l u u k j 2 k v i u i J J a p G O.{ P U I I X.I 2.L B J P U [ O.t.a.y.2.2.1.2.p.p.O.P C s a.k.L.G.k..X.X^.Q._._.>X3X3X3X1X1X8X3XcXy.. # # * 3 3 + . o # + # # ; : ; # ; # ; * + + @ . . . . . . . + + . + # + . . . + . . . . . . . . + . + . . # # # ",
"# . + . + ; + . # . # + . + + + . + # # # # ; # . # ; . + . * : * # 6 3 3 3 + + . + # + # # + # . # @ * * 1 g * # ; ; # # + # ; # . @ * 3 1 @ z +.X.y . + * * * . # ; ; # # : 3 + # # ; ; ; ; + : # # ; + + ; 3 3 # h m f + o ; 3 ; # % = = = = ; ; # # ; ; : # # * = ; = : : : * # : 3 ; * # ; ; ; O # 3 ; ; : 5 * * * # * - < } ,.1.,.,.d.C.D.V.b.E.E.|.#X#.9 w 3 ; 5 f 3 f 1 $ 5 . # : 1 1 - v 2 < y 1 w # . ' o.S.t.a K j g j 2 0 2 6 g 0 * b # @ h h 3 0 ; w ; ; ; * : 3 3 ; * ; ; # * * ; * ; * + # ; # . + 6 # . . . + . O . . . . . . . . + . .   . . . . . . . . . . . . . . . . . . . . . . .           = 1X.Xk.G.a.#.#.K k w w # : : * ; = ; ; % ; # 6 6 w w : 3 k k w w k b e q u k e @ 1 2 < 7 i r.I a i I O.{ [ X.O.a L U X.[ t.2.a.O.{ ....[ P ( 3.( [ [ [ #.O.2.i.k.k.L.f.i.^.k.^./.P.Q.).1X3X>X6X8XrX1XgXr.. * * ; # # : = + * # ; + + 3 ; . . # ; # . + + . + + + + + + # .   + # + + . . + . . + + . + . . + . + + + . + # ",
"; ; ; # # # # + # ; * + + * ; * + # ; # # # + # # o ; o o # o o . # ; : : 3 ; o . # ; ; # * ; ; + . . = : 3 : ; : # + # # . + * + ; ; # ; ; = $ < I H @ + @ * * . # ; ; + + + # % ; > ; . # > ; : 3 ; 3 ; # ; # ; ; 3 g g # : 3 3 ; ; : = # # ; ; # ; ; : : 3 ; 6 * # # = * * * 6 5 3 # ; * # . ; + : 0 ; ; ; ; * ; # + : # # 1 4 r ] 5.8.w.w.V.8.<.8.D.OX0XD.r e g 3 5 j x w w = ; w * : + 2 2 b b - w k : : # e J #.G.2.J u b w g 3 * 3 ; : ; 0 0 * f 6 : w ; ; = ; ; 3 3 ; 3 3 ; : : # ; : + # : # . ; : + . # + . . # + . + . o + o . . o o . . . . . . . . . . . . . . . . . . . . . . . . . . . . . .   . . x >XL.G.t.1.O.a K K b 3 w g 0 = * ; * + + : 3 : ; 3 : * 3 g w g w w n u w v v v q < i K i i J X.X.O...( ..O.[ ( P  .1.3.1.3.5.1.5.5.p.2.] ] 1.2.O.{ 3.s.S.a.1.t.g.p.1.i.i.h.P._._.S.Q.).3X_.).tX4X1X7XcXb . + ; # # # : + . ; 6 6 ; # + + # ; # o . o o # o o . # + . . + + . . + + . + o . o + . . . + + + + + + + + o o o ",
"# # # + + # # # + # # . + * ; * . # ; # # # + # . . o o + # + # o o # ; 3 f 3 ; + + . . # # # @ ; ; + + # * # ; * + + # # + # * * ; * . + # # $ < H T < @ * ; o # ; 6 6 : ; * ; % # # = # o % ; * : ; 6 : ; : ; # o # : 3 ; 3 f : # # ; : ; ; : ; # = # # # ; ; ; # # * * * * = 3 : * * ; ; ; : ; + ; 3 = ; ; ; # : : ; 6 ; ; ; = < t C ..6.8.<.Z.V.8.V.|.0X}.,.t j 3 5 5 z y c w : : + . . w l c y 1 j 3 3 3 * b q [ G.{ ( b g b 0 3 0 h : : o ; 3 ; 3 : 0 3 : : ; : ; : : + ; ; * ; ; # ; ; ; ; 6 ; + = : ; ; . . # ; . . # + . o + o O . o o . . . . . . . . . . . . . . . . . . . . . . . . . . . . . .   . @ y /.k.S.t.] { _ K k w 3 3 6 *   @ o . ; ; ; 3 0 : : 3 * ; 0 0 w k w k b k u u ` J v I ` G G G L I [ P L [ O.P O. .#.{ { P C Z  .{ ] #.{ 2.a.1.( { #.s.p.3.#.2.P 5.p.g.s.k.Q.G.S.k.k.).<X<XQ.>X6X3X1X8X8X5 . * # * ; ; : * # ; 3 : ; # # # + . o o . . o o + o . + + . . + + . . . . . o . . o + . . . + . . . . . . . . . . ",
"+ + # + + # * # + # # # + # # + + # ; # + # + # .   . + + # + # + . . . + ; 3 0 * + . . + + # . + ; o . # o o ; * + + * # + * ; + # + . # ; ; = t X.` 1 = # # O ; # + + + + # * > = # = = # o ; ; ; : 3 : ; # + ; * # # ; ; : ; ; # # # ; ; * + : = ; + + # + ; * * * * # # # * : * * * # # # # : # # ; = = ; ; ; 3 3 : ; : : ; ; ; 1 < < P ,.,.8.Z.V.V.E.OX#XV.r t 5 j j b w w w ; * ; @ @ ; w k Y j 5 j f ; @ 2 v a ^.3.) e 0 k 0 3 ; : 6 3 . * : ; ; : w : 3 3 ; : : : 3 + * 3 3 3 3 * * # ; ; * ; # + o o + . . # ; + . # . O o o . O . o o . . . . . . . . . . . . . . . . . . . . . . . . . . . . . . . . . z _.s.h.5.{ $.o.K u 2 6 : # X * 3 = o * ; # ; ; * * 3 3 ; 3 w : w e g b b b b a v J ) X.[ [ I a J +.+.) [ [ ) [ ( [ J  .] [ [ [ #.#. .5.i.5. .Z C ( 1.{ P 1.f.2...O.f.k.k.k.k.k.G./.).).P.k.>X>X>X3XgX>X# * 3 + # # # + # # . + . + . + # # + . . . . o o + o . + . . . . . . . . O . . .   o . . + . . . . . . . . . . . . ",
". + # + . # # # + # # # # # # # # # ; + + # + + # o o o . . o # . # * # . + : 3 : # # # . # # * . # o + * # o # ; # # # + . # ; # # # + ; ; ; $ z +.b + * +   % : # + # + + # ; # ; ; ; > : ; > ; * ; ; ; ; ; ; o ; ; * # # ; # ; ; = # ; : 3 3 ; ; : ; : ; + : * * * # * * = * ; 3 3 : ; : ; + : # # # ; ; ; : : ; ; ; # : ; + % : : * + e B C | q.Z.Z.V.J.OXE.] t y 5 v K j w g ; @ ; @ @ # = w Y w j k w + @ 0 ` - ) i.#.J e 2 k w * ; 3 3 ; @ 3 : ; * 3 6 6 3 ; : : 3 3 # ; 3 3 3 ; ; : ; 3 # + ; 3 ; # o . # + . . # . . + . o o . O . . . . . . . . . . . . . . . . . . . . . . . . . . . . . . . . .   . . r._.i.h.a.3.#.o.K n j w 3 * ; * * : : # ; 3 ; # : ; 3 3 : 0 0 2 0 e j w w b v v K P I [ [ [ B G i i i t p U O.[ ( { o.2.O.O.O.O.i.a.t.t.[ B ( O.2.3.p.a.5.p.g.A.5.p.5.s./.Q.i.Q.k.L.P.>X).;X1X(.(.1XvX:X  # ; * ; * # . # ; # + # + . . # + . . + + o o o o o + + . . . . . . . o o . . .   o . + + . . . . . . . . . . . . ",
"# # ; # . . + . + + # # * # # # # + # + # + . + + * + + # o o   + # + + o # # # ; # # ; . . # ; ; ; ; ; ; ; # + * # * * # + # # 1 ; # + + # # # 1 T y + ; ; . % ; # * : ; # # ; O # % ; h h : ; ; * # # # * * ; o # ; ; ; # + ; # + + # ; ; 3 h ; # ; : : : . # 6 1 ; * ; ; 1 6 + ; ; # # # # # : : ; ; # ; * : ; # * : ; : ; * * * ; ; 3 g y 4 N R g.E.Z.V.}.OXV.D < j y K b w k * . 3 # # # # 2 w 1 v b w ; # 2 i a < P.k.y.q : k g e 0 : : 3 @ 3 : 6 # ; 0 : 3 : : ; : 3 : ; ; ; # + ; ; : : ; # ; f : : ; ; + # + . + + . . . o o . . . . . . . . . . . . . . . . . . . . . . . . . . . . . . . . . . . . . . l./.3.i.3.[ s ) v j l k w 6 ; # # ; # # ; 3 ; ; f : ; ; : w w e g n n e e z i v I X.[ [ [ ..s I I ' W z G X.2.#.) ) ) P C P L P B ( ( P ..t.k.3.g.#.{ 3.a.g.1.p.f.g.p.a.F.Q.G.3.O.t.u.,X3X3X4X1X6X3XMX(..   3 # # # # + # : ; ; ; # + . . . . o * + o + o . + + . . + . . . . o . . . . . . . . . . . . . . . . . . . o o . ",
"# + # # + # # + + + # # + + . . * + + + # + . + # # o o # + * + . + + . . o # + # + + + . . # + ; # # # + # # o * + # # + # ; ; + + + # + # ; # @ y 5 @ . 3 ; # + + # ; # + # ; : # o & 3 ; # # ; ; * ; # # # + ; ; ; : # # . + * # # * + # ; 3 3 ; ; ; ; ; o # * = ; = * = ; 6 ; : ; ; : ; ; 3 * # # + ; : ; 3 ; ; ; 6 * # ; 6 ; ; ; = : 3 : @ 1 N [ 5.Z.Z.E.}.E.:.7 y w k v y l 3 : 5 * # # # 1 T q q v l # # - v v - o.(.#.s e e w g ; ; : ; * 3 : 0 # * 3 ; : 3 3 ; + # ; : 5 3 * # ; ; * # 3 ; ; ; = = = = # + * ; . . + . . o + . . . . . . . . . . . . . . . . . . . . . . . . . . . . . . . . . . . . . . h.<XG.a.y.( X.v v u w 3 * * : ; 3 ; * ; : ; : o 3 : = ; 3 h g e g e g b k u v z J I I J P O.[ I W W G i I $.y.) o.O.[ { #.2.O.[ ( ..O.1.5.1.2.] t.O.Z [ 3.p...] 5.5.S.Q.s.k.S.p.t.k.h.).>X>X;X6X1X1XbXz.. + # + # # # # + # + + # # + + + # # . + . . + o . . + . . . . . . . o . . o . . . . . . . . . . . . . . . . . . . ",
"# . + # + # ; + . . + . # # # + * . + + # # @ # + # o + # o * * . + = ; # o + * # # + + + + # . + # + . o + + # ; # # + . # ; * # # * ; * * # + 1 2 ; # . * * o ; # # * # # # = 3 # o # % o # ; . # # ; ; # ; ; ; # # # + ; + * * ; ; * ; : : ; : = ; ; ; * # # # * = = # * * = ; ; ; # # # # ; * # # + : : ; : ; ; : : # # ; : ; ; ; ; @ ; ; # & j 7 r :.V.J.}.oXJ.V 4 3 3 k j l j 3 # # # ; 3 + T I < q Y 3 ; @ ` v u p ).9.) k g 3 0 ; ; : * * : : h ; * ; : : 3 3 ; + ; : ; 3 3 ; : 3 6 ; ; 3 : : ; = = = = # + * ; . . # . . o + . . . . . . . . . . . . . . . . . . . . . . . . . . . . . . . . . . .   . . u.Q.s.s.y.X.) G v k w 3 ; : 0 6 3 : : 3 3 3 3 # : 3 : 3 w 3 : w g 2 e j q q y G H U I B B  .[ U U W [ U L L s B #.1.{ 3.3.1. .p.9.3. .3.3. .O.{ 3.] Z C C 2.1.t.f.2.O.p.G.)./.!.s.a.t..X1X1X;XrX1X3XSXr.. 3 # # # ; # # # + + + # + . . + # + . o . . # + . . . . . . . . . . . . . o . . . . . . . . . . . . . . O O . . . ",
"# + + # . # ; . . # # + + # # . * + + . # # + # . o . # # o + # ; o . + # o o # # * # # # # # . o : ; # ; + o # : # # # + # # # ; * * ; + # # + 1 ; + ; # # . * # # # # ; ; = # O O & ; o O & > # ; # ; ; # ; # o + # + . : # * # * * # ; 3 3 # # + = ; = # # # * = ; = ; 1 ; * * : 3 : # ; : * : : ; ; : ; + ; # ; ; ; # ; ; # + # 1 3 ; 3 : # > # $ < s  .f.J.oXoX:.p 2 : q j w 5 3 + : : ; # + - ' u + Y k + @ e v K - 2. X{ v j 6 g g 6 ; f @ ; 6 0 3 * o 3 3 ; : : 3 f 3 . # ; ; 3 3 6 : ; o # : : : : ; ; + # . . . + + + . o o . . . .   . . . . . . . . . . . . . . . . . . . . . . . . . . . . . . . . - P.k.s.a.[ $.v v v j w 3 3 3 0 3 * : 3 # : 3 : ; ; : 3 w f : = m g g n e 4 w c z G I [ I [ O.[ [ B P 2.3.[ P P { p.3.] 1.{ (  .#.]  .#.{ #.2.1.3.5.#.p.a.B O.h.3.1.p.3.a._.!.^.^.Q.>X>X3X1X3XrX6X6X6XmX' . o ; + * # . . + # * # + + + + # + . . o . . # # . o . . . . . . . . .     . . . . . . . + . . . . . . . . . o o + ",
"; + + # + . + + # # + . + # + . + + o . * o + = # + + + + + + + . + . + # . . + # # * * ; + + # ; . . # # ; ; # # + + + # # # # * + ; : . # # ; # * # # . # : # # ; * + # # # . # o # ; O o % # # # * * . . ; # : ; # # * * # # . * ; # # ; ; . ; # ; ; * ; * * ; 1 * # * # ; 6 ; # * ; ; # # ; ; ; # ; 3 ; = ; 3 : ; ; ; # # ; 6 + # : ; ; : # # : # $ y < N p.|.|.J.Z q w = w k f 3 * : : ; # * $ w v 4 = l ; + 5 z G c < k.k.i c k j w 0 3 3 # ; @ 6 3 * * 6 : : : 3 : 3 ; . + ; : ; : ; ; * # : * ; 3 ; # # o + o . o o . . . + . . . . + . + + . . . . . . . . . . . . . . . . . . . . . . . . . . . .   . - Q.Q.k.3.1.[ J v j w 3 : ; : f 6 3 0 3 : * * : ; ; 0 3 3 6 : h g ; 3 w j w u v K y G ) I [ o.) ) U [ L [ t.2.O.p.#.{ 1.O.[ { #.( 2.#.a #.#.2.a.#. .3.P C 1.p.#.( #.3.f.f.g.k._.h.L._.(.>XtX3X3X6X3XrXdXg   o # # + + * # + # ; + . . + # . . . . + . . + + + + O . . . . . . . . . . . . . . . + . . . . . . . # # # # + + + ",
": # # # + . + # + . . . # # + . . . + . # + + + # # + + + + # # # # # # * # + # + + # # # + + + ; + + ; # ; ; # # + + + + + + + # . + * # ; ; # # # # # # # ; + + * * # # # # # # # + o . o # % # # # * + # 1 + # # # # * * # # * + + # * ; * # # # * * # ; # + ; 3 ; + + ; 1 3 ; * # # # + # ; * ; # = ; ; = ; * # * ; ; * # ; 3 # ; 3 ; ; : # # ; ; * @ @ < V J.}.|.q.i < 6 g j g f ; ; : ; + # = w z w = k 0 . * K G y $ o.P.[ < y w 3 3 ; 0 ; * # 6 3 # # ; : : : ; # : : * ; ; ; ; 6 1 ; ; * : # + 6 ; # . # o o . o . . . . . . . . . . . + . . . . . . . . . . . . . . . . . . . . . . . . . . . . . . . < _.L.i.5. .J v 0 3 0 0 3 : 3 3 = 3 0 ; * : 3 3 3 : 0 3 # o . + . ; 3 6 0 k v 9 v i H K a a J B o.I [ P P O.5.5.3.3.1.2.3.2.[ { 3.[ O.X.2.5.t.O.s.s.p.2.[ 3.i. .s.a.3.#.3.g.k.h.h.I.(.(.1X3X(.).3X>X7XyX: . . O # + . + + . . # # + + # + + . . . . . . + . . . . . . . . O . . . . . . . . + + . . + # . . # # . . + + . . . ",
"1 ; ; # + + + # . . . + # * # + . o # . # # + . + + + + + # # ; # * + + # # # + # # # ; # + + + * # # ; # ; * # # # + + # # # # : # . + # # + . # # # * # . + . + # * # # # # # # # + + % % # % + + # ; # * : # + + + # * * # # 1 ; * # # # # + # + # * # ; ; ; ; : * + ; : : ; * * # # # # * ; # ; # # * ; ; ; + + # ; ; ; * # * + ; : ; ; : # * : ; ; & 1 1 9 1.Z.|.J.( < 6 0 g k k : + ; ; + # 1 w b l = 2 1 . . v W H < t y.G.U z w h 0 3 l ; . @ * 3 # # ; : : ; ; o # ; * 3 * # ; 1 : : ; * 6 * # ; ; * * . . . . + o o o . + . . . . + . . . . . . . . . . . . . . . . . . . . . . . . . . . . . . . . . e Q.S.G.5.#.[ a n g 0 3 : ; : 3 * : ; * # : 3 : : * 6 6 # * * # ; 3 f 3 w w k e k k v K v a v a J i G ) P L ....C [ ( C [ O...O.[ L [ [ 2.O.O...3.2.#.3.2.3.i.3.5.5.3. .] 1.a.h.!._.).>X>X3X>X>X3X>XyX1X. . . o # + . . . + . . # # + . . . . . . . . . + . . . . . . . . O . . . . . . . . + + . . . . . + + . . + + + # # + ",
"3 1 : * + # # + . + + # * * # + o # # o + * + . . . . + # # ; ; * : # + * * # # * # # ; # # # # + + # * * * # * # # # + * * * * # # + + * + . + + # + ; * . # # # + # # * # # # + # # % ; ; % : + + + ; + # ; ; . . + + * * # # + ; 1 ; # * * # # # * * # ; ; ; # ; # * ; 6 ; * ; ; ; # # * ; : + ; # + # ; ; = + + # ; ; ; * # * # : 3 ; ; : # * : ; ; 6 3 ; $ B g.|.|.5.9 = = f l l : . ; ; o . = 2 j b w w 6 6 . 2 K U 4 4 4 t.3.q = h h 3 g 3 . # * 3 * = 6 3 3 : ; # ; ; # ; # # ; ; ; ; ; + : # + + + # # . o o . o o o o + # + . . . + . . . . . . . . . . . . . . . . . . . . . . . . . . . . . . . . . z (.S.L.g.$.$.` v k h 3 : : ; : 0 : ; 6 3 6 3 h 0 ; 6 6 : : 3 * 3 5 3 w g ; 1 e j e u b K v J G J t i [ [ L [ O.p.p.5.1.p.a.p.i.2.2.y.2.3.[ { #.] P O.i.3. .2.t.s P O.] ( 6.i.i.F.G._.<X>X3XtX3XtX4XcX(.    . # # # + . . + + . . . . . . . . . . + . + # + . . . . . . O O . . . . . . . . . . + . . . + # # . # # # # # # # ",
"l f ; # ; 3 ; + . + # + + ; # . . . . + * ; ; ; # # # # ; ; ; ; + ; ; # * * # . # . . + . + # + . + # * ; * # + ; * # # ; # + + # # + + ; + + # * ; # ; ; + # ; + . # * # . + : # o # % # + ; ; # . . + + # ; ; # # # # # # + + # # ; : ; # # 6 # * * # * # + . ; # # + ; ; # : ; ; ; ; * * * * # ; : * ; : # o ; ; ; ; 1 1 : ; ; # * 6 ; # + + ; : ; ; & % # $ 7 >.J.}.C.a = 6 f f j 3 ; # ; + . # * 2 Y g w k * . 1 H H 4 5 4 i t.J - w 3 3 h k @ * * 6 # 3 3 3 : 3 : ; ; 3 3 * # * ; ; ; ; * # + . . # # + . . # + . . + + . + + # . . . . . . + + + . . . + . . . . . . . . . . . . . . . . . . . . . . . . Y 3XP.f.s.o.I +.e g w : ; 6 3 3 0 ; ; 0 f 3 3 g 0 0 : : : ; * 6 . : 3 l b k w w w j k K K i a K K K I o.[ P O.1.[ ] ] ] O.#.O.[ $.X.[ O.O.[ 2.1.2.{ t.t.2.O.B ..P ( .. .#.s.A.p.h.F.Q./.>X1X1XtX3XtXnXl.  # O # + + + . . # + . . . . . . # + . # + . . + . . .       . o o . . . . . . . . . . . + + + . . + # + + + + . . . ",
"g 3 ; # ; 6 * + . . + . . # + . o . . + o # # = ; ; ; ; ; ; ; ; # # + . + # + + * + + # + # # + . + # * # # + . + + # # # # # # # # + + ; + + # + # + + # . + # # + # # # + # ; o O # % o . + # # + + + + + + ; # # # # # # * * : ; ; # # # # * # ; # + # ; * # ; # # # ; ; + ; + # # ; ; ; ; ; ; ; ; # o ; = * ; ; ; ; ; ; ; * ; # * 1 ; ; ; ; ; ; # % 3 > ; * @ U g.E.F...< : 5 5 8 g : # * * # # ; 1 5 2 f j # . = j z y ; z 7 o.y.p - ; ; 3 3 @ X @ ; @ ; 6 3 ; : ; * + : 3 * ; : ; ; ; * # # + # + # + . + . o + . . + # + . . + . . . . . . . . + . . . + . . . . . . . . . . . . . . . . . . . . . . . . r.3XQ.y.[ B J v e e 0 : ; : : ; 0 6 : : 3 6 : : 0 h 0 3 : * * : : g w l n g f 3 w w w b v y z J J J U [ O.2.3.[ 2.#.O.#. . .[ C P X.I X.O.{ 1.3.3.#.t.1.#.2.P P 3.3.3.p.5.3.p.s.G.G.^./..X>X4XtX;X8XbXr.. o   O . . . . . . . . # + . + + # + . . . . . . . . .     . . O . O . . . . . . . + + . . . . . . . # . . + # + . . ",
"5 3 # # ; : # # . . . + . + + o # o o + . * # # ; ; * # # # # # ; # + . + # # * ; # + + * # # # # # # # o + + . + + # # . + # # + + . + ; # # + . # + + + . . + * # # # # # * # O . + % % O . + . + ; * . + + ; # # # # * * * * ; 1 ; . # : : + + ; # + # ; 1 1 # + * ; ; ; + ; + + # ; ; * * ; : ; ; + . = = * + # ; * # * # # # # # * * # # % : % % # % ; ; + ; u 5.E.E.p.p < w 5 3 f 3 # # : ; # ; * 3 3 k g 6 @ $ 6 y c = k z a i.$.q e 0 0 6 ; . @ ; # 6 ; ; # : ; # O * : ; ; ; ; ; * # # . . # # . . . # o + + + o o . o . . # . . + . . . . . . . . . + . . . . . . . . . . . . . . . . . . . . . . . . u.<X_.s.P L K w w e w 0 0 : # . 0 0 3 : 3 0 3 : : 6 6 0 3 : 0 0 6 6 # w 3 3 g f f w 2 j v i K v ` ) J J O.#.#.] O.#.3.t.a.i.5.2.X.t.$.[ O.( [  . .O.2.{ #.3.{ O.p.s.p.s.1.( 2.p.1.3.f.^.P..X1X1X>X8XnX' . O . . . . . . . . . + # . . + + + . . . . . . . . . .   . . . . . . . . . . . . . + + + + . + * . . # + + # * # # + ",
"3 : # # : ; # # + . + # + # # # # # # # . ; ; + * # + . # # + + + . + + * # . . * # + + ; # + # # # # # . # * o * # # # + + + + * # + * + + + . + ; # # # . . + # # # # + # ; # ; ; O . % # o : # + ; * # # . ; # # # # ; * # # ; ; ; ; * # # + . ; * # * * # + # * ; + # * + ; : * # : * # # * # # ; ; + ; # + # ; : : * ; # # * ; : : ; # # # % # ; ; o ; ; = > $  .C.E.D.1.9 q 5 3 3 3 ; # ; # . * $ 3 5 g 3 * o + 3 w v 5 3 y - O.F.) 7 0 * w w @ ; 6 * : * ; # : : 3 ; : : * * + # ; # + + # . + # # # . # # . . # # . o * + + # + + # + + . . . . . . . + . . . . . . . . . . . . . . . . . . . . . .   . y.<X/.L.t.+.K b 2 3 3 3 3 3 3 ; : : : : 3 0 w 0 w ; * 0 3 6 3 # 2 w : w 6 3 3 ; g l j l c u K J I J B ( [ C P 1.2.2.O.P ( P C C [ [ [ [ [ #.a.O.1.t.s.i.#.[ ( 3.1.p.3.1.p.k._.a.f.!.Q.^./.>X<XtX3X3XyXk   o # . + . . . . . + # . . . . . . . . . . . . . . . . . . . . .   .   . . . . . . . + . . . # + . . ; # # # # + + + ",
"+ ; l f f ; . . % ; * # * * # . . ; ; + + + # # # # + # + . + # . ; ; . . . + # . # . + * @ # ; . + + # 3 ; = : # # # # # + + + . # ; . . + ; . o . . # * * + . # + # + + ; ; # . + # # ; * # # + # # ; # . + # + # # # # # ; # # ; ; # + + . . * # # # # * # + : # o + : : ; ; ; : ; ; # # # ; # + # ; ; + + ; ; # # # # ; ; * # ; ; # * * * * ; # + ; ; = ; ; % % 4 1.J.J.C.] < w k 6 f 3 ; . * + . + ; f : 6 # # ; # 6 g ; 1 j 7 L 3.2.i 2 ; 3 : # ; ; o * 3 3 * * ; : ; + # * ; ; # + + + # * . + * # . + + + o o . # * ; + # # + # . # ; + . . . + + . . . .       o . . . . . . . . . . . . . . . . .   . z..XL.G.t.[ I v w : ; ; 3 3 : 3 ; # 3 0 ; : : ; h ; ; : w g 6 * = : 0 g 3 3 h g j w c b z z i ' ` i J O.{ [ P U J [ [ [ P P O.t.i.2.[ { i.O.2.{ ] { s.f.O.t.#. .2...5.5.G.s.1.s.s.G.k.L.)./._.1X3X6X,X*   . . . .   . o . O .   . . . . . . . . . . . . . . . . . . . . . . . . . . . . + . . . * o . . . . . . . + + + # + + ",
"# : l 3 g 3 @ . # + # # @ # # # + ; # + + + # # + . . # * . . # # # # # # # # # + # # ; 5 ; ; 3 5 w : + # o o ; # # # # : ; # # + + + + + # ; + . + + . . o + # # # # + + ; * . . . + # # # + + # # + # ; # # + # * # + * # * # # ; ; ; # # # * # # # + + # ; ; ; # + # # # # # # # + # # # * ; # * # + # # # : : # # # + ; * ; # * ; ; ; # # ; = o + * = # # % 6 + < X.C.E.E.6.B 4 4 6 ; : 5 = # . . # ; 6 5 : f 3 @ @ : f w 3 j F N  .p.U q 2 6 ; + # ; o * 0 : : : ; ; ; * + : ; # . . + + + . # # + . # # + + + o . . + # # + + + + . + # + . . . . . . . . . . . . . . . . . . . . . . . . . . . . . .   . P.Q.5.2.[ P J i b g 0 3 3 3 ; 3 : ; f h 3 0 3 : 3 6 3 6 ; 6 3 3 g 3 3 0 3 : 3 2 w w y w z v v K K J ) ) { [ P i X.O.O.[ O.$.2.#.3.O.2.#.#.{ [ t.i.3.O.2.2.g.i.5.3.2.h.p.1.1.p.3.3.5.3.F.Q.L.Q.).4XhX>X@ .       . . . . . . . . . . . . . . . . . . . . . . . . . . . . . . . . . . . . . . . . o . O o o o o o + # # # # # # ",
"# : l 3 3 w q y 5 = + + . . o # # ; # # # + # * + . . # * # + + ; # + * # * * + # * ; 5 j 6 1 w w w : @ # o @ * # # # # # # # # ; . . # # # # + # ; ; # . . O o # # # # . # ; + + + + + # + + + # # + # ; ; * + ; * # # ; # # # # # ; ; # # ; ; # * ; # + # * * * # # # + # # + * ; * * + + # * ; 6 ; + * ; : 1 * # * ; # ; # # # # ; : ; # # ; ; ; * ; ; # # ; # # 1 G C.E.D.g...7 2 j 3 3 w = # + # ; ; ; f ; k g @ @ 3 w f 1 5 y N 7 t.h.a i 1 1 # + : = * : ; ; 3 3 # # + ; * # # + + # + . + # # # ; ; # + ; ; # + # + # o * # # # # # + # + . . . . . . . . . . . . . . . . . . . . . . . . . . . . . . + P./.a.1.[ G i v 2 : 3 3 3 : ; : 3 : 3 3 0 f h g ; 6 : 6 : 0 g g 3 0 g w 3 3 3 3 w w k w u v J _ I ) ) J ) [ P I O.O.[ B B [ O.O.) ) O.{ [ i.3.$.3.t.#.O. ...[ #.#.a.3.] 1.1.9.s.s.s.5.F.L.Q.>X,X).hXP.. O . . * . . .   . . . . . . . . . . . . . . . . . . . . . . . . . . . . . . . . . . . + # + o + # # * * ; # + . . . + ",
"  ; l 2 5 y G +.v 4 $ # $ . . + . + + . # + # ; # # * . + ; # + # # ; ; # + + . ; ; ; w k 3 5 z 2 2 6 6 * o . # # # # # + + # ; 3 + . # # + + + . + * * * + + # + + ; ; # * * + # # # # # # + + + ; # # # # * . * # # ; # + # ; # # # # # # # # # ; : * # # # . ; ; + o # ; ; # # ; ; * # # ; ; # : ; # # ; ; # + @ ; ; ; ; # # ; # # ; * * * * # ; = # ; # ; 3 # ; $ 4 f.E.Z.d.q.s < 5 5 3 w = * + # ; # * f ; 6 3 ; * ; ; g 6 4 4 H < G G.2.r 4 3 ; # 8 ; * ; : ; 3 3 ; # # 3 # + + + . + # # ; # . + ; # + # : ; # # : ; # . ; # # + # + . # # + . . . . . + . . o . . . . o . . . . . . . . . . . . . . . + h.A.2.O.O.) i e 1 : 0 0 3 3 ; ; f 3 3 ; 3 3 3 0 0 0 3 0 3 0 h : : 0 k 0 : 3 w j w j z y u v K _ ` ) P P { [ P O.[ O.3.2.{ #.O.[ [ 2.O.2.{ 3.i.$.{ 2.2.2.3.O.{ { { O. .1.1.p.s.5.p.j.i.k.L./.,X,XI.hXl.. # .   + o . .         . . . . . . . . . . . . . . . . . . . . . . . . . . . . . + + + + o + o o . o # * ; # + . . . + ",
". . 5 g k y i +.H y 4 w 3 ; + . # + + + * + . # + # ; . . * # + . ; 1 * # + . . # # ; f g w w b w $ 2 w * . . . . . . @ # . . # + . + # + # # # # . . + * + + # # ; : 3 3 * . . # # # + # # + + + # ; + . # # + # # + # # + # ; # + . + # # # + # # # # ; ; # + o # = ; ; ; # . # # # + # * # + # # + # # # # + # ; ; + + ; ; # ; # # # + ; ; + # * ; = # # + ; 3   # 2  .G.~.d.V.1.7 $ 5 5 = $ 6 # #   . : : 3 ; * 6 ; . 6 l w w w y x 4 O.^.( - = 1 + : ; # 3 * ; 3 ; + ; ; o ; # + # . . + # . # # . + + # ; . o # * ; ; ; ; : * # # # . . + + . . . . . . . . O O . . . . . . . . . . . . . . . . . . . . 1 S.p.1.{ P a e e w 0 : 6 ; = ; ; : 3 : : 0 3 ; 6 : 3 3 3 : 3 0 ; g 3 3 w g 0 0 k b w u k y v K v v v J ) [ { O.2.t.i.i.t.P [ [ 3.i.2.[ t.o.[ #.2.O.] { { 5.a.2.3.O.1.2.O.] 3.p.5.3.f.p.f.A._.).).I.rX' . + . + . . . . . . .     . . . . . . . . . . . . . . . . . . . . . . . . . . . . + # + + . o + + + o o + + # ; ; ; # + ",
"; . 3 w b l y G ' K z y 5 1 ; * + + + # ; # . + . . ; # + # + * + ; ; # * ; ; ; + # ; 5 g 3 1 w x 4 4 5 = . . o . . . . # . . # . . + # + # # # ; # o * : ; + o ; ; ; 5 l 3 + # # # # # * * # # + # * + # # + . + # + # * # # # # + # # + # # # * # + + # * ; # . + ; * * + . . # * # + # * # . ; ; # # # # # ; # ; * + # ; ; * # # ; ; # ; ; + * # + * : : ; ; ; # ; 2 a 5.D.q.Z.g.L - 1 f * * * # # . + : ; : 3 ; 3 ; . 1 l 3 2 x 3 H y t i.S.t 1 1 # 1 ; # : ; + ; * o ; ; + + # ; ; # . + ; # # * ; # + # ; + o o * ; ; : 3 : ; * * # # + # + . . . . . . . . . O O . . . . . . . . . . . . .   . . o . . 1 P.f.5.1.a p e 0 0 3 * : ; * ; : # : : : 0 0 0 h : 3 : : 6 h g 3 g 0 3 0 g w w k l j u z y y v i J I ) ( J ) O.[ [ [ O.3. .O.[ 3.h.o.O.2.2.t.$.O.t. .O.( [ #.O.#.P [ #.{ #.5.@.p.1.1.9.g.p.L.I.Q._.3Xk . . . O O . . . . . .     . . . . . . . . . . . . . . . . . . . . . . . . . . + + . . . + . + # + + # = ; . + # ; # + + ",
": + : ; g g w y I ) J t y y w 2 . . + + # * * : ; + * # # * + ; * ; ; # # ; : ; * * 5 f 5 2 = 2 H z y 4 + . . + ; * # + # + + # . . + # + # * ; # # * : : ; * # # # # 6 g 3 # * * * # # * * # # + # # + # * + + # * # # # # ; # # + + # # # # # * + + # # # # # * # + o o o + # # # * # # ; ; # * ; # # ; * * : # * # # ; * # ; + # ; ; ; ; * # ; ; ; : ; : : ; ; % # + a ( 4.^ V.J.5.9 $ 3 3 ; ; * # . # : ; * 3 6 : ; $ = j 6 3 l f 5 k 4 t h.r.y 5 + 3 3 ; ; 3 # ; : ; ; : : # ; ; # + # ; : 6 + # * # + # + : = # ; : ; * ; # # # # # # # + # + . . . . . . O O O . . . . . . . . . . . . . .   . . o . . 4 S.p.] [ J v l g g 3 ; 3 3 ; ; > : 3 3 3 3 3 0 w 0 h 3 ; f k w w g k 3 * = h k l w b k k y q v K v ) ) [ ) o.$.) 3.1.1.t.2.2.P { O.P O.P [ O.[ P t.#.O.[ 2.y.3.3. .s [ 3.] 3.p.s.#.6.f.s.f./._.).).>X< .   . . . . . . . . . . . . . . . . . . . . . . . . . . . . . . . . . . + . + + + . . + + . . . . . o + # . + + . . + + ",
"o # 3 . # ; ; 6 q i G G ) ` b 1 $ # # + # * ; : w : 3 # + : # # + # 6 3 * # # * 1 ; f k j j w k 4 c w = - = $ * . . . . +     o . . + ; # # ; : . # * o . + # + . + * 6 * # # * # # # # # # # # # # * # # # # # # ; * * + # ; * ; # + + * # + . + . + ; ; # + # # + o + * * * ; ; * # . * ; + . . + . + * * # # 3 1 + # ; # + # * * # # 6 ; * # o = : : o + ; ; ; % % > - r 1.:.<.J.W.{ < 2 0 o 6 ; # + . # w : @ : @ ; * @ k l * 3 5 8 3 5 e K y.c 5 . ; ; + . ; * : # . ; : # # 3 3 # * 3 ; + ; ; : # . : 3 # + * : 3 ; + o # # ; ; ; # ; * + ; # . . + + + @ . O O O . . . . . . . . . . . . . . . . . . . y L.k. .O.J e : 0 g ; o * ; + ; 3 ; 3 0 w w 3 0 0 ; w 0 3 0 f 6 g g g 2 ; w l 2 * e v y y z z H I K ) J ( ) o.y.y.2.O.O.O.{ O.B [ $.$.O.( [ ) i.2.X.2.O.O.2.O.[ L { { { 2. .3.1. .1.f.f. .5.!.S._.>X).X . . .   . . . . . . . . . . . . . . . . . . . . . . . . . + . . + . . . + + + + + + # + + . o o . . . . . . # # . . # # ",
"+ . . . . . + + : 2 i I [ +.H q ; # # * # + ; # 5 5 ; + + ; : + 6 3 3 1 f 6 * # 6 = 1 y 4 4 w 4 k k y 1 2 * @ @ . # # . . ; ;   o # * # . . . # # * # . + * + + + + . * ; + * # # + + . . # # ; # + ; + . # o o + . . + + + # * . + # + . + # . + # . . # ; + . + . # # + * ; + + o # % # . # 3 # + # ; # o o o # # + % + + ; # # # # # ; ; ; % : # # # . . ; ; * # % * @ = [ 5.~ V.E.5.t . = # * * . # @ . ; w * * ; # # . 6 x ; 3 3 : h f 5 1 ' H y + 3 6 # . h 3 ; ; 3 3 : + # # ; : ; * * ; 3 * ; * . ; h 0 + : ; # ; o + # ; * ; # ; ; . ; ; + . . . . . . . . . . . . . . . . . . . . . . . . . .   % . H S. .] #.v u 0 0 : h h : ; : 3 3 * ; 3 3 6 f f 6 3 3 3 w 0 3 0 k j 5 w j 1 1 w w q i v b z z J J v ) ) J { o.o.O.[ ..P O.] B  .O.2.t.3.O.O.O.[ I o.l.l.U ) J G $.O.[ #.{ #.#. .p.5.1.6.g.A.S.>X).3Xh.. . . . . . . . . . . . . . . . . . . . . . . . . . . . . . . + + . . . . . . .   . + o . . + + . + + . . . . . o + # . . ",
". . . . . . + + o * q z U X.U y . . # ; # # 3 w : : # . . ; 3 : f f f g g w w w 1 5 1 5 c w j j j l l y y w w y ; 6 ; # # ; ; o * # + . + . . . + # # # # + . + # # . # # . ; * # . + . # # + + # . o + + o   o + + + . + . + # # # * + . + ; # + + . . # * # # + + # * # # . . 3 ; # O o . # 3 # * ; # + o o + o # # : % # ; : * * * # + # # ; ; # # # + . # ; * * o o o - i O.,.V.E.F.[ < * ; ; ; # @ * @ @ 6 ; ; ; ; # . # f 3 f 8 3 8 h f 5 4 Y b . 6 : # . 3 : : : : ; # + # * ; : ; ; ; ; * # : : # ; : * # : : : = + * * # # ; ; * * # 3 . . + # . . . . . . . . . . . . . . . . . . . . . . .   O # . ' G.5.#.$.a e 3 3 ; 0 0 : : : : : ; 6 3 : ; 3 0 3 0 0 0 3 w g g g w 5 w k y w y c c v c c H v J v I K J a P ( ) ) 1.>.L  .t.L B O.O.O.O.$.[ [ O.$.O.I I G ) J I o.[ ) ) ( 2.5. .@. ...{ f.S.G.(.).3Xy.. . . . . . . . . . . . . . . . . . . . . . . . . . . . . . . . . . . . + . . . . . + o O . + + . . + . + + . o o + + o o ",
". . . . . . + o O o = q i v y $ . . + ; ; ; ; : + + + . . # ; 1 f k k l l z b b l x w e y 5 w y w u v H I K K K k k j w 2 : ; * ; * + + * # + . + # # # # + . # # # . # * + # # # . + . # # + + + o + o + # + + . + . . + + + # # # ; # + + # # ; # # + + + + . + . + + # # + ; : # + . . . . # . # # + # # ; ; + # # ; * + + # ; = # # o o % % + # # + # ; # : * * * # * @ < P p.4.d.D.5.B $ ; # ; * @ : * . ; 3 3 3 6 : # . w ; 3 5 3 ; 3 g j 4 T Y . ; 3 * . o # * * = # ; 3 * ; ; ; ; : : ; ; ; ; ; # ; ; ; ; : ; : ; ; ; ; 3 3 ; # * # + # # # # + . . . . . . . . . . . . . . . . . . . . . . .   O . . r.).k.t.o.e 0 : ; * : : * ; ; ; ; 6 3 3 : : 3 3 0 3 : : 3 0 0 0 3 l j w w j y c x v K c c H v v z v v v J J J P P >.O.[ O.$.[ X.I U J P o.o.o.O.$.p U X.I I G [ I ) y.y.O.#.1.#. .#.1. .p.h._./._.3X` . . . . . . . . . . . . . . . . . . . . . . . . . . + . . . . . . . . . . . . . . . o o . o # # . . + + # + o o . . . o o ",
"+ + + + . . . . O o # ; y z g ; ; # + # # ; + . . . . . . + + + 1 k l w b b k b k y w w w w j w k c c c z J K K H H b Y k w 3 6 : : : ; ; * # # + + + + + . + ; . + . ; ; + + . # + # # + # # ; . o o . o # # * . # + . # # + # # + * ; + . # + ; + # + . . + . ; + + + + + . * * # @ # ; * # @ @ # # # + # * # ; * @ # ; # . . ; # o o = & = # . # ; + * ; : 3 * * # # : $ < i O.} ] 6.g.5.7 1 + * * @ = ; . * : ; ; ; 3 . . : * w j k 3 3 3 1 5 z j $ 1 5 : # o # * # # ; : 3 ; ; ; ; ; 1 1 ; ; : ; * = ; : 3 : ; # ; : : ; * 3 : ; # * # + # ; # + .   . . . . . . . . . . . . . . . . . . .     .   O . . l.S.t.2.$.u g 0 : ; : * @ * = ; : : 3 3 3 0 3 3 0 3 = : w w : : 3 x k w 6 2 5 c b k v b b z u z i v K ` o.J J P ( B 2.[ L U X.o.O.U I I ) [ [ ) J G X.) B G i G L [ $.[ P [ #.1. .#.3.6.p.f./.^.Q.3Xv . O . . . . . . . . . . . . . . . . . . . . . . . + + + . . + . . + . . . . . O . o O . . o # * + . . + + . o . .     . o ",
". . . . . + o +   . O : f w 5 5 w 3 3 ; + . + . + . . + . . . . . 6 w 3 j l l l w j 2 w g j k j j j j j 5 w u z z c k b k w 2 w 3 3 3 6 * # + + + . . # + . . # # + @ + # . . . # # + # + + * # . . . # # . . o . ; # . # + . . + . + ; + + + + # . + + . + : : ; : 3 ; 3 3 ; ; w w w 3 g k g 5 2 2 3 3 3 2 1 ; * = $ + * = .   * + . . + # # o + + ; ; + * # + 3 + # # # = 5 x L P B N ,.d.[ 4 @ . @ @ # * @ * : ; + # 3 * . * 3 3 l m g 3 3 5 2 4 1 $ 3 3 0 ; # ; : * ; ; ; ; ; 3 3 ; ; ; ; * ; ; ; ; : 3 3 : ; ; + * f 3 ; ; # 6 : ; # # # 6 + . . + + + . . . . . . . . . . . . . . . . . .     .   O . . i.k.#.) ' u e : : 0 : * * : ; : 3 3 3 : ; 3 ; 3 g g w 0 g g 0 w j f 3 5 5 w j b j k j b b e q u v u a v a i J ) ) P X.X.[ I J I X.I ` o.o.J a a J +.+.X.) I i I X.O.X.p s { O.1. .{ {  .q.p.!.Q..X1X< . O . . . . . . . . . . . . . . . . . . + + . . . . . . . . . . . + . . . # . O + o . . . . # # + . + + + . . . . . o o o ",
". . . . . . . . . O # ; 3 ; : f f w f 3 * # + + + . . . . . + . . . 6 3 6 2 2 @ 2 j 3 2 g f 2 5 6 3 3 5 1 1 1 1 2 2 1 1 1 * * ; 6 6 1 ; # # + + + . . # # . . . + + + + @ . . + # # + + # . + . o o o * ; . .   + # # + # # . + . . . # + + ; ; * + * ; # # : : ; ; : : 3 g g k l l l l b b b w j j j l l j w 2 = 5 j w w w 2 1 ; ; # o + + # # # . ; * . # + + ; + # ; ; ; 1 5 i I G r s 2.2.i 1 * @ @ @ @ . # 6 : * ; w : @ * : 6 f l w 2 w k 5 j $ . 5 k g 6 # ; : ; # * ; : ; : : ; # ; ; ; ; = = # ; : : ; # ; # ; 3 ; * : # : : ; * # * ; . . . + # + . . . . . . . . . . . . . . . . . .     X   o . . i./.s.X.v 4 0 ; ; 3 : ; : 6 ; : 3 ; : : 6 6 : : 0 w w 0 0 e g g w f 5 g k w k b w k l k e u u q v K v i v J ) X.) o.U I X.i t i u I J I ) J a J o.X.) +.$.X.U o.+.o.o.J ) O. .1.5.[ ]  . .6.~._.,XQ.@ . O . . . . . . . . . . . . . . . . . . . + . . . . . . . . . + + . . . . # . O o . . . . . . + . . + . + . ; + . . . o + ",
". . . . . . . . . . + ; 3 6 3 g f 3 3 3 : 6 # . + . . . . . O . .   # 3 : = *   . ; + . : ; # # ; % # # # # # # # $ # @ @ o o @ * # # # # + + + + . . # + . . . . + # # + . . . + # + + + . + . . + o # # o + . # . . @ # + + + + + + # + + ; ; 3 ; : 6 # + # # ; + + # * 3 5 w w k k w k v l w e j n v u w 0 = 1 w x x g k j j u u w 2 2 1 = = @ . ; # + # . # # + * ; * ; % * z W v - = v ` W w 6 @ @ @ . . * ; : * ; ; ; @ @ * ; w b b 3 = = j H 2 + w Y b : o ; : ; # ; ; : * ; ; * # # * ; # ; ; ; ; : : ; ; ; # : 3 * # ; # ; * # ; # ; ; # # + + # + . . . . . . . . . . . . . + . . . . . . o . o . + s.G.t.+.H w k f 0 ; * * * : ; * * ; ; 6 0 0 3 : = 3 3 : : 3 w w 2 j j j g w k b w n j k w k n q z K v v K K J G a I o.) G ` K v ` K J J I ) K K X.X.G I G I X.+.U I U J X.3.1.1.2.{ ..5.1.6.~.~..Xh.. . O . . . . . . . . . . . . . . . . . . . . . . . . . . . . . + + . . . . + . . . O . . . . . . . + + . # # ; + . . o + + ",
". . . . . . . + . . . + 3 3 5 f 3 ; # . # 6 ; # . . + +     . . . o . ; g ; o ; O % . + % % ; # O O o + . o + # . + # + # + o . # # + # + # # + . . . + . . + # . + # # . @ . o . + + # . . # * + . . o o   + ; # . + # # # + # ; ; ; ; + + * * 5 ; # # . . * : ; . + # ; 3 3 w 3 e w 1 2 w j j = j b v k k k w w 2 j j w k k l K b b K K b e 1 * @ ; # # # . ; 3 ; * + + # # # H +.2 . = # - w w w @ @ * . . ; ; 3 : : * 6 ; * ; 3 w f l w 2 2 5 x w + @ b ' e X ; : : ; ; ; ; # # # # # + # : + = : ; ; : 3 3 3 : # : : ; # # # 3 : * # . + # + # # # # . . . . . . . . . . . . . . + . . . . . . @ .   . - k.h.t.X.v 2 h 3 ; * 6 : # ; 3 : * : 6 3 0 3 3 3 : 3 : 3 0 0 3 0 j 3 g g w w k l j l u v b n b u u v v K ' I v v ) ) [ ) G G v v I J T ` X.K I _ ) K I +.X.2.X.i U I U ) $.3.O...2. .{ f.p. .A.^.3Xl.+ # O . . . . . . . . . . . . . . . . . . . . . . . . . . . . . . . . # + . . O . . O . . . . . . . + . . # ; . . . . # # # ",
". . . . . . . . . . # # ; ; ; : + . . . . . . # . . . o . . . o # . . # 3 3 + . .   o + . # ; . % . . . # # # +     . . + o .   . ; : + + * * + + # * ; # # + + O   . . @ X . # # . . # # # # * . # O O . . # + # . + + # # . # * h = o ; #   . + ; ; @ # # * ; ; # O . + ; 3 3 3 # . . # * 3 k k g w 3 w n v k l w j j k l l K v k k v H b z y K b w = = 6 6 ; 3 # 3 # + * * + j b ; @ ; ; * # 3 1 1 3 # . = o *   3 : o : 3 . ; ; 3 l g g 4 y F c = @ . X b r.# # ; # o : # ; ; # # ; ; : : ; # ; # # # # : 3 # : 3 ; * ; : ; ; 3 3 * ; ; # . + o # ; + # + . . . . + # . . . + . . . . . . . . O o . O . - k.g.$.+.b 3 : # * 3 ; ; ; # ; ; ; 3 3 6 6 : 3 3 6 : 6 h 0 : ; = 0 l w w l k j w w b j k Y k k j e v v v z ` K i J [ I G I K +.r.J K ` +.I I +.` J J I o.$.` I I i G X.y.3.{ ( ( s P 5.5.} 6.~.Q.1Xr.. + #     . + . . . . . .     . . . . . + + . . . o o o . O . . . . . . . . . . . . .     o * # . . + . . . + + + + + # * # ",
". . + + . . . . . . + + . + . . . . . . . . . . . . . o . . . . + . . + 3 3 ; # O   . . . o # . # # ; % ; ; # . # + . . . . . . . # ; ; # . . + # # + + # # # % O = ; # @ # # # ; + + # # # ; ; # # o # * # ; # 5 3 3 3 3 f 3 : = > # o # ; : : : 3 0 3 : : ; ; ; # # # # ; ; + . * ; * + o ; g g 5 1 # = w v b j e w u k w w e y b H b e q w z K b w 6 6 6 : * 1 3 1 + ; 1 # 3 l f # % ; ; : 3 l f ; # . o * # ; # : 0 ; + * ; + + 1 k w x c y c x w 3 6 . j +.3 . 3 > ; # = * # ; ; # # * * # ; : ; : ; ; : : ; : : * = : : ; ; # + ; ; + + ; + o + # o + + o + . . . . . . . . . . . . . . .   . . .     - s.t.P v k 3 0 ; 6 * ; 6 ; ; * ; : 6 3 3 3 * ; 6 3 3 : 6 : 0 w 0 g g w w 5 2 w w w b w q k w k v k b v v i J ` I ) X.X.X.+.I K J i J K X.I G G i J a ) X.) I J K G [ [ [ [ C P 1.O.#. .,.5.A.L._.3XY . . . . . + . . . . . . . . O . + + . . + . . o . O .   . . . . . . . . . . . . . o @ . . . . + . . . . . . . . . . . o + o ",
". . . + . . . . . . . . . . . . . . . . . . . . . . . . . . . . . . . . ; 6 3 ; .   o ; ; ; 3 3 5 f l f * # # + o O .   . . . o . . + * ; + + # # + . . # # * ; & f k w w 3 3 : # # # # ; 3 5 3 # # * 3 g k l h 5 3 3 3 f g 3 3 h f 3 3 3 j b j l l l l k j j w 1 2 3 6 6 ; # . * # # # .   o : : 3 6 : 6 w k l k k k l n g w 2 2 w k l w 1 2 j j w 2 1 = * * # ; 5 6 + w f ; m g : + % ; ; 3 f m m l 5 * * = * + # # 3 0 3 : ; O O ; h w x z w w z g w f . 6 k r.@ 3 3 3 o ; * . ; : * o + # ; ; ; ; 1 3 3 3 6 ; ; ; # = ; ; # ; # . # * + + : # + o o . + + o + . . . . . . . . . . . . . . . .   . . O . q P.2.B i k w : * # # : : ; ; ; # ; ; : 3 0 3 ; : : 3 ; : 3 f h w j w w w 2 2 w w w u w 4 w 4 c z c z v K K I ' X.) I 2.$.X.a K K K K K I I G v v ) X.I G J K K ` ) y.O.B L [ { 2.3.]  . .p.p.s..X>X6 . . . O + + . . . . . . . o + . + + . . . . . . . . .       . . . . . + . . . . X @ # o .     + + + + + + . . . . . . . o . ",
". . . . . . . . . . . . . + . + . . . . . . . . . . . . . . o + . . . . . + : f # . # ; ; # ; 3 3 6 1 ; + . . # . . . . . . . . + . . # ; * # + + + + + # # # # : 8 l v k w 0 w * * : : ; 3 f w : : 2 0 g k b k * . . # ; ; # : 3 > 3 g g b K k z c w y z z z z e v w ; w 3 # : l ; o * : ; : 3 3 f w 3 6 3 f w k k j l l j g 3 2 3 3 g f 3 3 w 2 6 6 2 # # # # * 3 5 : 5 5 3 m h ; + # * : 3 : f x x w ; * o o . # ; ; 3 f 3 * ; O # 3 6 w w 5 1 j 5 6 f ; 5 ; r.2 3 3 ; # : * : # + ; : # + # ; : ; ; ; ; ; + * = ; # = ; * + * ; ; # # # # ; # + o . . o + + . . . . . . . . . . . . . . . . O . . . O   9 k.O.B K b : # = * # ; ; ; ; ; # # * = : 3 3 3 : ; 3 : 6 0 0 0 3 w w w w w w w w j q j z z w v b u H v K K J J J J o.[ P X.X.X.K I J i v i i K K ` ` K K J v J +.) I [ a J 3.O.P {  .3.1.5.6.f.<XP.. . # + + . + + . . . . . o + # . . . . . . . . . . O . . . .   . . . . + . . . . . o o o . . o . + # . # # + + o . o . . o . ",
". . . . . . . . + . + . . . . . + . + . . . . .     . . o . .   . . . .     # j 3 o   . ; o   . #   . . + # + . . . O O . .   . + + . . + ; * . # # # # + . . . # ; w c y w * . # 1 3 6 ; 6 3 w 0 k 3 @ X * 0 w ; . . + + . + ; . + % 6 w b v b c 1 - 1 w k x b v T j : w 5 : f 0 3 3 0 0 3 3 3 g l g : # ; ; ; w h g g g w 3 6 1 ; ; ; * # ; w 1 3 w 0 ; # ; : * : l g w w : 3 : o # # # : ; # 2 5 3 $ ; * X . ; + ; # ; 3 ; 3 : o o : # 1 w w 3 2 w ; k g x @ f w j b 6 ; ; ; 3 # + * : * ; ; : ; : ; ; : ; ; # = ; ; # * # + * ; : * # ; * + # * # . O + + . + # # + . . . . . . . . . . . . . . . .     9 i.#.[ J l : * 3 3 * * # * ; ; ; + : ; ; : 3 3 3 : 3 ; * 3 w h 0 3 3 3 w w e w w j w c z H u b z c H v ' ' K K J J [ [ o.2.o.` J J K J a J K K I J v K ` K i K ' i i P E [ O.[ P [ 2.1.] 5.p.G.3Xy.+ . # + % . . # + o o . . . . . . . . . . . . . . . . . . . . O . + . . . . . . . . o o . o # @ . + . . + # + . o o o o o . . ",
". . . . . . . . . . . . . . . . # . + . . . . . # # + o . . . . . . . . . . # 3 w * . . # o o @ . . . . + ; 3 6 # o .           . # # . . # # # # # # + . . + + . # w c c z 3 . + * ; ; ; : 3 w 0 l w *   . * ; 6 : # # + + # # o O + * ; 2 w b 2 $ + + 1 5 j l u j k k w w 3 ; o : 3 = o * ; * * 6 3 : # # + . 6 3 g w 3 3 ; ; 3 1 ; ; # . + * # ; f k 3 : ; #   # h 0 0 3 ; : = o # = # ; ; : = 1 1 $ * * # # ; # ; + + : : ; : = o # o ; 3 w 3 : w 6 g w H 5 $ w 4 b w w = : + ; ; # # ; ; : * # # + + # # * ; ; ; ; : ; * + ; # # ; ; ; # + . + + . o # # o + + + . . . . + . . . . . . . . . . . . O . i h.O.o.v k 0 : : o # # # # # : : # : : 6 : : : : : : ; * 6 3 h k g w g w 3 4 e l w w y w w e b v z y q K X.K K I I P o.#.o.J ) K K ` I K X.` J G a ' T J K K K v i ) [ X.X.( [ O.O. . . .6.6.s.3Xy.. . # . # . + + . . . o o o o o + . . + + . . + . . . . . . o + . + . . . . . . . . o o . o o . + + . . . + + . . O . . . . . ",
". . + . . . . . . . . . . . . . + . # + + + . . # # + + . . . . + + + . . . . * l 0 *     . . . . @ . . . # f m f : + . . . .   . . . . . + # ; ; * # + . . + + . * 5 c H T b 6 # # # # # ; ; ; 0 g f 3 # o o . ; 3 ; * # ; ; o * o ; ; + # ; f 3 = # o . @ ; 3 2 = w k w f 0 # o + o . . + * # . @ # . . # # # ; ; g 3 ; 3 % 3 w w 3 3 ; # . + . . ; 3 : : ; o . # 0 * ; 3 * ; ; # = % * : : 3 3 2 ; * # # o # + : ; o + : 0 o ; : o # # ; = 3 ; ; : # 2 < I I 4 y @ k b e = 6 ; ; ; # * ; ; # * # ; ; 6 5 3 3 : : ; # ; ; ; * # + + ; : ; # # . + # . . o # # + + . . . . + + . . . . . . . . . . . .     v a.[ X.i q 3 ; : o # * * # # ; ; # = : 3 3 3 : ; ; : : ; 3 3 3 k l w g w 3 w j l w c c w w u H b b ' K +.' v K ` o.O.( J ) o.o.J _ I I J I K a a i v b b K K v K $.[ U I P [ O.O.#...1.5.p.5.g.>X` . # #   + . + . . . . o o o o o # + . + + . . + O . . . . . . o . + . . + . . . . o o . . . . . # + + + . . # + . . . . o . . ",
". . . . . . . . + . + . . . . . . . # # * * + . . . . .       . ; 2 1 + . . . + Y l ; o . o .   . @ . . # + : l m k 1 @ o o O . + . . + + . . ; 3 ; # + . . . . # @ = w u x l f * + .   # * * ; ; ; ; 3 8 : ; ; # # + ; : 6 : # # X : 3 ; ; ; 0 h w 0 3 . o * 3 3 ; * ; ; f g 3 ; .   . . . o + X o o O . # % % ; = h ; + ; ; h ; 1 1 ; . . . + # . . . o 3 w : # # : @ . ; ; ; 3 ; ; # ; 3 3 w m g 1 $ # # . .   ;   = * o h h : ; o = : 6 # : ; 3 3 . * @ I o.H 4 @ u T 1 = 3 # ; ; : ; ; = ; : # * ; 6 3 ; # ; ; * # + + # ; + # ; ; # # ; : + ; * . . . o # . . . . . . . . . . . . . . . . . . . .   . J i.o.$.v w : * 3 3 # 3 3 # ; # # + : ; * = 6 : : ; 3 3 : 3 3 6 w 0 3 2 w 3 2 w w 2 w y w c y b k u H K +.T i a G J [ 2.#.B J o.I +.K I G i J K ` T b K T v i v ` v I X.[ [ $.O.C { 5. .6.f.!.F._.- . * ;   + + # . + o o . . . . . # + . . . . . .   . . O . . . . . + . . + . . . . o . . . . o o . . + + . . + + o . . o + + o ",
". . + + . . + . : 3 3 . . .   . . . . # ; + . ; * + . . . . . . @ K [ 7 + + O o 3 : 6 ; + . . . + . . . . # ; 3 k Y G q @   o . . . . . + . . . ; * ; + . . . . + + @ $ 5 3 3 5 ; : 3 h 3 ; : o . . # : # : * . # ; # . + # * # + * # g h 5 6 : ; 3 g 6 . . ; 3 : 3 # o   ; 3 6 3 o o @ o . . . @ . * : # ; 3 3 : w 3 : ; # 3 3 + # ; * . + # . O # O . # = K K 3 ; + . * : 3 ; o ; 3 w 3 ; 6 f g z l # + . ; # . * # + + # 3 3 3 ; o : 3 * # * # ; : + ; $ y X.z w = : r.y w 3 : : ; = : : ; : : # + ; : ; ; : ; ; : ; ; 3 : : ; 3 * . # # # + 1 + . # * + . . # # . o . . . . . . . . . . . . . . .       K i.o.` Y g ; ; : * ; ; 6 : # ; : + 3 3 3 : : 3 : # : : ; * * 3 w ; 3 3 6 6 3 3 w k g w w 5 j j j l w H H u u I X.O.) ( 2.P [ $.o.i u K v H T K K H k u H ' ` v v K X.K p U $.$.t.t.2. .] F.f.A.l.. . + # #   . . . . . + + . . + # . + # . o + o . . + # + . . . . . . . + . . + # . . . # ; . . + . . . . + + . . . . . . o o o ",
". . + + . . + . . 3 f : ; .   . . . . . + + . + # . . . . . . . . J f.5.4 + # o . + ; ; + . . . . . . . . . + ; ; j U U w #     . . . . . . . . . . + + . . . # . . . + * * # * ; o : 3 3 3 ; + # # . + . # # . . . . . . . + . + . # k 3 + # # + # # # . + # # . o 3 ; . * . ; 3 ; # # * * . @ @ @ # * # * 3 w : # ; ; ; 3 # . * + . + . # # + . # O . + @ n b 2 g 3 o ; ; 3 : + + ; f 3 # + 3 3 x l ; ; 1 ; ; + * # + + # ; # ; # . + ; # ; 6 ; 6 1 # * @ 1 c x w 0 + T K + 2 3 3 * # * ; ; * ; : : ; ; ; : : = ; : ; o ; ; = : # ; ; # * # + ; + + + # + . . o o . . . . o . . . . . . . . . . . .       I p.#.K g f 0 : ; ; ; # ; ; + * ; + ; 3 3 : ; ; : 3 # 3 ; 6 l 3 * : j g 6 6 6 ; 3 w w g k j w w w n w j b H I +.) B [ [ X.X.O.) J ` v K T T K H I K k K T K v v K ` i K +.I X.y.y.a.O. .p.p. .!.u.  . . # ; % O . . + . + . . + + + . + # o . o .   . . . . . . . + + . . + . . . . + . . # # + . + # + + + + . + . . . . . . . . ",
". . . . . . + . . ; ; ; 3 : + + . + . . . + . . + . . . . + .   o - 6.}.t.- . + . . ; : + . . . . . + # . . . # # 1 H X.b ;   . . + +   . + . . . . + + . .   + . . . . . + + . #   # # o * + . # * + + . + . . . . . . . . . . . . + 3 ; . + . + + . + # # # # . o   f 3 . o # 3 3 3 : 0 0 ; : # o @ # # # * ; # # 6 ; # # . + # . . . + # # + . + O . # . 2 j * f 3 # = o * # . # ; ; ; ; ; * w b x 5 ; 3 ; ; # * * + # : 1 ; ; ; # # ; ; : 3 z k 3 ; . # ; f Y 5 : . c $.< 4 * ; * * ; : ; o * : 6 ; * : : : : ; : ; # ; ; # ; # ; 1 ; * # # # # # + + + . . . . . . . o . o . . . . . . . . . . .     . I p.2.G 3 3 w : : : * # * # # # # # # # ; : 3 3 : ; : # : k 0 3 0 = 3 w 3 3 w 3 3 w 3 w g k w w g l w w b J J I X.O.$.O.B P G p J +.r.K K v v K H u K v 4 2 c K b u ` ` $.J U o.) ] 1.1.s.p.6./.T   .   . . # # # * + . .   + # + + . + o o . O . . . . . . + + + # # . + + . . . . # + + + + + + + ; # # + . . . + . . . . . . . ",
". . . . . . . . . +   . = ; ; : # + . . . . . . . . . . . + +     X a !./.J + . . . + + + . . . . . . . . . . . @ 1 z z w ; O # . ; ; . . . + + + + + . . . . . . . . . . + + . + + . +     = + + ; ; : . . . . . . . + . . . + . + . . + . . . # # . . # # . # : ; : f : # . 3 * * 3 0 0 h w 3 : : ; 6 3 ; # # ; 6 # # + . # . . . . + + + + # . + . . % . # ; + * 3 3 ; . o o # . . ; ; # # 1 3 5 2 3 . ; 1 # * * ; + # ; * + . ; ; * ; * # @ = 1 * # . % ; 3 w 5 : 5 + v o.u 3 0 0 0 ; : 6 * ; * * # ; ; ; ; : # # # ; : ; + + : ; # ; ; # + + * # . . + + . o . o . . o . . . . . . . . . . . . .     . I p.o.v 3 : ; ; ; # ; # * # * # * ; ; ; ; : ; # ; 3 ; 3 ; * 3 3 0 w 3 3 3 w g 3 3 6 3 6 6 w e l l g 2 w Y ' I ) [ O.B ) B O.J U o.K K v v v J K i u 4 w y b T k y K I _ i J U a P ..5.d.3.6.5._.w .   . o     o + . # + + . . . . . . . o o o . . o + . . . . . + + + . + # + + + + # + # + + # + + + + + . . . + + . . . . . . . ",
". . . + . . . . . .   . * ; ; 3 * + . . . . . . . . . . . . . . , . $ 1.5.< . % . . . + . . . . . . . . . . . . # 1 G G w ; O # * 3 3 ; # # * ; + . + . . . . . . . . . . # + . . . . + .   : ; + * ; ; . . . . . . . + . . . . . . . . # . . . + + . . # + . # . # : : # : : 0 0 : w f 3 0 : * f w w f g w 6 : ; : # # + . # . . . . + # . . + . . O O & O # ; # # : 3 ; . # . # . . ; : # # 1 3 2 3 3 . ; : + ; * * + + : # + . # # + # # + . . @ . # . # o # . @ % 3 . t o.v 2 0 h 3 ; : 3 ; ; * # * ; ; ; : : # # # ; : ; + + 1 ; # ; ; # # # # # + . + + + . . o . . o . . . . . . . . . . . . .     . I i.$.K g 3 3 3 3 : ; ; * # # # * ; ; ; : : * # ; 3 ; 3 * ; 3 3 0 0 h f 6 6 0 3 0 w 3 ; : w w k l e w l ' ` J a G ) B [ L O.I U o.K i y u u i v y y H b c k b y k ' K K i K [ P o.1.9.@.@.F.F.G..     . .     o + . # + + . . . . . . . o o o . . o + . . . . . + + # . + # + # + + # + # . + # + + + + + . . . . + . . . . . . . "
};
